filter/Red and Blue/lut/Hope 05.cube
# LUT by SparkleStock. Enhanced with VOXCOLOR algorithms.
LUT_3D_SIZE 5
DOMAIN_MIN 0.000000 0.000000 0.000000
DOMAIN_MAX 0.903226 0.903226 0.903226
0.027350 0.019536 0.015629
0.173713 0.025216 0.017921
0.386419 0.047068 0.027862
0.594415 0.083745 0.047414
0.722691 0.127205 0.077467
0.035409 0.063555 0.065068
0.216852 0.109177 0.034703
0.412980 0.148459 0.057531
0.619180 0.174781 0.091738
0.763098 0.202521 0.136729
0.052251 0.112190 0.114774
0.288914 0.177442 0.073725
0.465136 0.263264 0.114425
0.626222 0.313366 0.169972
0.783997 0.334067 0.235033
0.085021 0.165804 0.171752
0.376984 0.251595 0.129194
0.561026 0.354033 0.183250
0.679421 0.460170 0.281792
0.802588 0.504037 0.359636
0.133743 0.223790 0.238221
0.472974 0.338025 0.208011
0.655378 0.446342 0.271800
0.763248 0.551019 0.373990
0.841611 0.633963 0.465911
0.028792 0.068077 0.085659
0.200593 0.050469 0.053361
0.448568 0.073544 0.062310
0.646830 0.122188 0.100115
0.765118 0.177512 0.148826
0.047127 0.115600 0.139705
0.159810 0.171858 0.166011
0.425338 0.218057 0.161555
0.673763 0.254249 0.188340
0.814070 0.291422 0.241473
0.076721 0.172553 0.202892
0.215226 0.254419 0.243061
0.480222 0.349983 0.243158
0.693239 0.406650 0.278106
0.839840 0.431039 0.344572
0.124805 0.238228 0.275173
0.297054 0.340102 0.329630
0.573558 0.450374 0.331990
0.741019 0.543030 0.375963
0.854655 0.585654 0.449465
0.199585 0.316473 0.356902
0.400059 0.437794 0.427156
0.674178 0.550850 0.431803
0.820757 0.636348 0.471540
0.887643 0.702095 0.539703
0.035724 0.121186 0.158588
0.152180 0.129698 0.156978
0.477296 0.124254 0.121468
0.700669 0.176026 0.165159
0.810061 0.245367 0.238093
0.064979 0.175061 0.226024
0.166101 0.246528 0.279239
0.408758 0.303643 0.304688
0.705456 0.339268 0.311462
0.851766 0.378928 0.361809
0.112523 0.245464 0.306820
0.235280 0.338540 0.375205
0.431497 0.444317 0.433532
0.716532 0.495977 0.422656
0.877306 0.514980 0.464694
0.179071 0.323860 0.389409
0.330495 0.432120 0.468419
0.518733 0.544453 0.528390
0.759779 0.628726 0.506873
0.887866 0.653348 0.542192
0.276970 0.415451 0.480790
0.444592 0.534661 0.566438
0.621462 0.641398 0.619925
0.832022 0.713397 0.590363
0.911289 0.758981 0.614206
0.054732 0.175682 0.233101
0.139467 0.224137 0.282516
0.392460 0.258621 0.293272
0.755365 0.261980 0.260902
0.859312 0.335878 0.342065
0.097992 0.240635 0.310595
0.201842 0.328173 0.389205
0.411557 0.414547 0.448931
0.732216 0.454268 0.458440
0.886792 0.481316 0.482762
0.168787 0.324363 0.402396
0.295331 0.426165 0.487048
0.463127 0.534647 0.563234
0.708992 0.608375 0.603352
0.896217 0.608686 0.590252
0.271384 0.424449 0.502439
0.407082 0.527682 0.583339
0.561914 0.633807 0.652576
0.711926 0.714010 0.693113
0.898432 0.716125 0.664707
0.385992 0.526410 0.596957
0.521061 0.627569 0.673063
0.655599 0.719011 0.729360
0.776648 0.790131 0.760825
0.915809 0.814006 0.712535
0.090260 0.237008 0.313246
0.181779 0.315818 0.392244
0.400950 0.399833 0.459254
0.712846 0.452702 0.484146
0.894221 0.463536 0.478401
0.155024 0.317431 0.397076
0.273159 0.419140 0.494067
0.459190 0.520523 0.573176
0.728645 0.591249 0.610827
0.909183 0.594671 0.598462
0.258205 0.416603 0.496348
0.385510 0.523408 0.591729
0.525560 0.621781 0.666782
0.733249 0.700565 0.707839
0.907098 0.706621 0.693893
0.385043 0.528299 0.600296
0.502870 0.625662 0.683464
0.619378 0.710986 0.745550
0.745520 0.782330 0.782340
0.899953 0.796425 0.767453
0.506103 0.634297 0.693235
0.601497 0.711179 0.758000
0.700908 0.780874 0.804735
0.805218 0.840365 0.829032
0.903424 0.866559 0.822969
