filter/Red and Blue/lut/Hope 03_S.cube
# LUT by SparkleStock. Enhanced with VOXCOLOR algorithms.
LUT_3D_SIZE 32
0.035165 0.023443 0.023443
0.053882 0.022782 0.022403
0.072598 0.022120 0.021364
0.091315 0.021458 0.020324
0.110032 0.020796 0.019284
0.128749 0.020135 0.018244
0.153413 0.020418 0.018189
0.179267 0.020891 0.018331
0.205120 0.021364 0.018473
0.230974 0.021836 0.018614
0.256828 0.022309 0.018756
0.285265 0.023821 0.019182
0.314995 0.025854 0.019749
0.344724 0.027886 0.020316
0.374454 0.029918 0.020883
0.404183 0.031951 0.021450
0.433085 0.034692 0.022254
0.461160 0.038143 0.023294
0.489235 0.041593 0.024333
0.517311 0.045043 0.025373
0.545386 0.048493 0.026413
0.571003 0.052322 0.027642
0.591705 0.056907 0.029249
0.612407 0.061491 0.030856
0.633109 0.066076 0.032463
0.653811 0.070661 0.034070
0.673252 0.075734 0.036031
0.686392 0.083249 0.039765
0.699531 0.090764 0.043499
0.712671 0.098279 0.047233
0.725810 0.105794 0.050967
0.738950 0.113309 0.054701
0.036063 0.030202 0.029682
0.056408 0.030967 0.027490
0.076753 0.031733 0.025297
0.097098 0.032498 0.023105
0.117443 0.033264 0.020912
0.137788 0.034029 0.018720
0.162541 0.035244 0.018488
0.188175 0.036549 0.018648
0.213809 0.037854 0.018808
0.239444 0.039159 0.018968
0.265078 0.040465 0.019128
0.293595 0.042352 0.019578
0.323553 0.044531 0.020173
0.353511 0.046710 0.020767
0.383469 0.048888 0.021362
0.413427 0.051067 0.021956
0.442448 0.053598 0.022842
0.470532 0.056481 0.024019
0.498617 0.059364 0.025196
0.526701 0.062247 0.026373
0.554785 0.065131 0.027550
0.580357 0.068319 0.028987
0.600903 0.072117 0.030941
0.621450 0.075915 0.032896
0.641996 0.079712 0.034851
0.662542 0.083510 0.036805
0.681775 0.087820 0.039104
0.694439 0.094685 0.043121
0.707103 0.101551 0.047139
0.719767 0.108416 0.051156
0.732430 0.115282 0.055174
0.745094 0.122147 0.059191
0.036961 0.036961 0.035921
0.058934 0.039153 0.032576
0.080908 0.041346 0.029231
0.102881 0.043538 0.025886
0.124855 0.045731 0.022541
0.146828 0.047923 0.019196
0.171669 0.050070 0.018787
0.197084 0.052208 0.018965
0.222498 0.054345 0.019143
0.247913 0.056483 0.019322
0.273328 0.058620 0.019500
0.301924 0.060883 0.019974
0.332111 0.063208 0.020596
0.362297 0.065533 0.021218
0.392484 0.067858 0.021841
0.422671 0.070183 0.022463
0.451811 0.072504 0.023431
0.479905 0.074820 0.024745
0.507998 0.077136 0.026059
0.536091 0.079452 0.027374
0.564185 0.081768 0.028688
0.589711 0.084315 0.030331
0.610102 0.087327 0.032634
0.630493 0.090338 0.034936
0.650883 0.093349 0.037238
0.671274 0.096360 0.039540
0.690298 0.099906 0.042176
0.702486 0.106122 0.046477
0.714674 0.112338 0.050778
0.726862 0.118554 0.055079
0.739051 0.124770 0.059380
0.751239 0.130986 0.063681
0.037859 0.043720 0.042160
0.061461 0.047339 0.037662
0.085062 0.050959 0.033164
0.108664 0.054578 0.028667
0.132266 0.058198 0.024169
0.155868 0.061817 0.019671
0.180797 0.064896 0.019085
0.205992 0.067866 0.019282
0.231187 0.070836 0.019479
0.256383 0.073806 0.019676
0.281578 0.076776 0.019872
0.310253 0.079414 0.020371
0.340668 0.081885 0.021020
0.371084 0.084357 0.021670
0.401500 0.086828 0.022319
0.431915 0.089300 0.022969
0.461174 0.091410 0.024019
0.489277 0.093158 0.025471
0.517379 0.094907 0.026922
0.545482 0.096656 0.028374
0.573584 0.098405 0.029825
0.599065 0.100312 0.031676
0.619300 0.102537 0.034326
0.639535 0.104761 0.036976
0.659771 0.106986 0.039626
0.680006 0.109210 0.042276
0.698821 0.111992 0.045248
0.710533 0.117558 0.049833
0.722246 0.123125 0.054417
0.733958 0.128691 0.059002
0.745671 0.134258 0.063587
0.757383 0.139824 0.068171
0.038757 0.050479 0.048399
0.063987 0.055525 0.042749
0.089217 0.060572 0.037098
0.114447 0.065618 0.031448
0.139677 0.070665 0.025797
0.164908 0.075712 0.020147
0.189926 0.079722 0.019384
0.214901 0.083524 0.019599
0.239877 0.087327 0.019814
0.264852 0.091129 0.020029
0.289828 0.094932 0.020244
0.318582 0.097944 0.020767
0.349226 0.100562 0.021444
0.379871 0.103180 0.022121
0.410515 0.105798 0.022798
0.441159 0.108416 0.023475
0.470537 0.110315 0.024608
0.498649 0.111497 0.026197
0.526761 0.112679 0.027785
0.554872 0.113860 0.029374
0.582984 0.115042 0.030963
0.608418 0.116309 0.033021
0.628498 0.117747 0.036018
0.648578 0.119184 0.039016
0.668658 0.120622 0.042013
0.688738 0.122060 0.045011
0.707344 0.124078 0.048320
0.718580 0.128995 0.053188
0.729817 0.133912 0.058057
0.741054 0.138829 0.062925
0.752291 0.143746 0.067793
0.763528 0.148663 0.072661
0.039655 0.057237 0.054638
0.066513 0.063711 0.047835
0.093372 0.070185 0.041032
0.120230 0.076659 0.034229
0.147089 0.083132 0.027426
0.173947 0.089606 0.020623
0.199054 0.094547 0.019683
0.223810 0.099182 0.019916
0.248566 0.103817 0.020150
0.273322 0.108452 0.020383
0.298078 0.113087 0.020616
0.326911 0.116475 0.021164
0.357784 0.119239 0.021868
0.388657 0.122004 0.022572
0.419530 0.124768 0.023277
0.450403 0.127532 0.023981
0.479900 0.129221 0.025196
0.508021 0.129836 0.026922
0.536142 0.130450 0.028648
0.564263 0.131065 0.030374
0.592384 0.131679 0.032100
0.617772 0.132306 0.034366
0.637697 0.132957 0.037711
0.657621 0.133608 0.041056
0.677545 0.134259 0.044401
0.697469 0.134910 0.047746
0.715867 0.136164 0.051392
0.726628 0.140431 0.056544
0.737389 0.144699 0.061696
0.748150 0.148966 0.066848
0.758911 0.153234 0.072000
0.769672 0.157501 0.077152
0.041420 0.064193 0.061349
0.069876 0.071263 0.053843
0.098332 0.078333 0.046338
0.126788 0.085403 0.038832
0.155245 0.092473 0.031326
0.183701 0.099542 0.023820
0.209081 0.106204 0.022645
0.233847 0.112785 0.022737
0.258612 0.119365 0.022828
0.283377 0.125946 0.022920
0.308142 0.132526 0.023011
0.336435 0.136980 0.023621
0.366492 0.140371 0.024490
0.396549 0.143762 0.025359
0.426607 0.147153 0.026228
0.456664 0.150544 0.027097
0.485597 0.152472 0.028543
0.513407 0.152939 0.030566
0.541217 0.153406 0.032590
0.569027 0.153872 0.034613
0.596837 0.154339 0.036636
0.622048 0.154610 0.039254
0.642060 0.154489 0.043061
0.662073 0.154369 0.046868
0.682086 0.154248 0.050675
0.702099 0.154128 0.054482
0.720597 0.154586 0.058586
0.731523 0.157937 0.064174
0.742448 0.161288 0.069762
0.753374 0.164639 0.075350
0.764300 0.167991 0.080938
0.775225 0.171342 0.086526
0.043357 0.071188 0.068156
0.073405 0.078688 0.060037
0.103453 0.086188 0.051918
0.133502 0.093688 0.043799
0.163550 0.101188 0.035680
0.193598 0.108687 0.027561
0.219289 0.117228 0.026140
0.244109 0.125976 0.026057
0.268929 0.134725 0.025975
0.293749 0.143473 0.025893
0.318569 0.152222 0.025810
0.346197 0.157880 0.026490
0.375230 0.161994 0.027551
0.404263 0.166107 0.028613
0.433295 0.170221 0.029674
0.462328 0.174335 0.030735
0.490562 0.176593 0.032442
0.517996 0.176995 0.034794
0.545431 0.177398 0.037147
0.572866 0.177800 0.039499
0.600301 0.178203 0.041852
0.625307 0.178175 0.044851
0.645457 0.177286 0.049143
0.665607 0.176397 0.053435
0.685757 0.175508 0.057727
0.705907 0.174619 0.062019
0.724569 0.174275 0.066604
0.735787 0.176657 0.072659
0.747005 0.179038 0.078713
0.758224 0.181420 0.084768
0.769442 0.183801 0.090822
0.780661 0.186183 0.096877
0.045295 0.078183 0.074962
0.076935 0.086113 0.066230
0.108575 0.094043 0.057498
0.140215 0.101973 0.048766
0.171854 0.109903 0.040035
0.203494 0.117832 0.031303
0.229497 0.128251 0.029634
0.254372 0.139168 0.029378
0.279246 0.150084 0.029122
0.304121 0.161001 0.028866
0.328996 0.171917 0.028610
0.355960 0.178780 0.029360
0.383968 0.183617 0.030613
0.411976 0.188453 0.031866
0.439984 0.193289 0.033119
0.467992 0.198125 0.034373
0.495526 0.200713 0.036340
0.522586 0.201051 0.039022
0.549645 0.201390 0.041704
0.576705 0.201728 0.044386
0.603765 0.202067 0.047068
0.628567 0.201740 0.050448
0.648854 0.200083 0.055225
0.669141 0.198425 0.060002
0.689429 0.196768 0.064778
0.709716 0.195111 0.069555
0.728540 0.193965 0.074623
0.740052 0.195377 0.081144
0.751563 0.196789 0.087665
0.763074 0.198200 0.094186
0.774585 0.199612 0.100707
0.786096 0.201024 0.107228
0.047233 0.085179 0.081768
0.080465 0.093538 0.072423
0.113696 0.101898 0.063078
0.146928 0.110258 0.053734
0.180159 0.118618 0.044389
0.213391 0.126977 0.035044
0.239704 0.139274 0.033129
0.264634 0.152359 0.032699
0.289564 0.165444 0.032269
0.314494 0.178528 0.031839
0.339423 0.191613 0.031409
0.365722 0.199681 0.032229
0.392706 0.205240 0.033674
0.419689 0.210798 0.035120
0.446673 0.216357 0.036565
0.473656 0.221916 0.038011
0.500490 0.224833 0.040239
0.527175 0.225107 0.043250
0.553860 0.225382 0.046261
0.580544 0.225656 0.049273
0.607229 0.225931 0.052284
0.631827 0.225305 0.056045
0.652251 0.222879 0.061307
0.672676 0.220454 0.066568
0.693100 0.218028 0.071830
0.713524 0.215602 0.077092
0.732512 0.213654 0.082641
0.744316 0.214097 0.089628
0.756120 0.214539 0.096616
0.767924 0.214981 0.103603
0.779728 0.215423 0.110591
0.791532 0.215865 0.117578
0.049171 0.092174 0.088574
0.083994 0.100963 0.078616
0.118818 0.109753 0.068659
0.153641 0.118543 0.058701
0.188464 0.127333 0.048743
0.223287 0.136122 0.038786
0.249912 0.150298 0.036623
0.274897 0.165550 0.036019
0.299881 0.180803 0.035416
0.324866 0.196056 0.034812
0.349851 0.211309 0.034208
0.375485 0.220581 0.035099
0.401444 0.226862 0.036736
0.427403 0.233144 0.038373
0.453361 0.239426 0.040011
0.479320 0.245707 0.041648
0.505455 0.248953 0.044137
0.531764 0.249164 0.047478
0.558074 0.249374 0.050819
0.584383 0.249584 0.054159
0.610693 0.249795 0.057500
0.635087 0.248870 0.061642
0.655648 0.245676 0.067389
0.676210 0.242482 0.073135
0.696771 0.239288 0.078882
0.717333 0.236094 0.084628
0.736484 0.233344 0.090659
0.748580 0.232816 0.098113
0.760677 0.232289 0.105567
0.772774 0.231761 0.113021
0.784871 0.231234 0.120475
0.796967 0.230706 0.127929
0.052779 0.100272 0.096042
0.089224 0.109321 0.085550
0.125670 0.118370 0.075059
0.162115 0.127418 0.064568
0.198561 0.136467 0.054077
0.235007 0.145516 0.043586
0.262079 0.160388 0.041306
0.287277 0.176424 0.040669
0.312475 0.192461 0.040031
0.337674 0.208497 0.039394
0.362872 0.224534 0.038757
0.387711 0.235093 0.040061
0.412371 0.242915 0.042336
0.437031 0.250736 0.044610
0.461691 0.258558 0.046885
0.486351 0.266380 0.049160
0.511443 0.270656 0.052205
0.536969 0.271388 0.056022
0.562495 0.272120 0.059838
0.588021 0.272852 0.063654
0.613547 0.273584 0.067470
0.637401 0.272970 0.072140
0.657911 0.269666 0.078518
0.678421 0.266362 0.084896
0.698930 0.263058 0.091273
0.719440 0.259754 0.097651
0.738624 0.256800 0.104284
0.751178 0.255596 0.112192
0.763732 0.254391 0.120101
0.776286 0.253187 0.128009
0.788840 0.251982 0.135918
0.801394 0.250778 0.143826
0.057222 0.108921 0.103840
0.095305 0.118144 0.092855
0.133388 0.127367 0.081870
0.171471 0.136589 0.070885
0.209554 0.145812 0.059899
0.247637 0.155035 0.048914
0.275226 0.170012 0.046583
0.300717 0.186140 0.045982
0.326208 0.202267 0.045381
0.351699 0.218395 0.044781
0.377190 0.234523 0.044180
0.401169 0.246413 0.046069
0.424393 0.256183 0.049204
0.447617 0.265953 0.052339
0.470840 0.275723 0.055474
0.494064 0.285493 0.058608
0.517945 0.291151 0.062358
0.542483 0.292697 0.066723
0.567021 0.294243 0.071088
0.591558 0.295789 0.075454
0.616096 0.297335 0.079819
0.639243 0.297337 0.085089
0.659606 0.294253 0.092171
0.679970 0.291169 0.099254
0.700333 0.288084 0.106336
0.720696 0.285000 0.113418
0.739848 0.282140 0.120712
0.752942 0.280405 0.129069
0.766036 0.278670 0.137426
0.779130 0.276935 0.145782
0.792223 0.275200 0.154139
0.805317 0.273465 0.162496
0.061665 0.117571 0.111639
0.101385 0.126967 0.100160
0.141106 0.136364 0.088681
0.180826 0.145760 0.077201
0.220547 0.155157 0.065722
0.260267 0.164553 0.054243
0.288374 0.179635 0.051860
0.314157 0.195855 0.051296
0.339941 0.212074 0.050731
0.365724 0.228293 0.050167
0.391508 0.244513 0.049603
0.414627 0.257732 0.052078
0.436415 0.269450 0.056073
0.458202 0.281169 0.060067
0.479990 0.292887 0.064062
0.501777 0.304606 0.068057
0.524446 0.311645 0.072511
0.547996 0.314005 0.077425
0.571546 0.316366 0.082339
0.595096 0.318726 0.087253
0.618646 0.321086 0.092167
0.641085 0.321704 0.098038
0.661302 0.318840 0.105825
0.681519 0.315975 0.113611
0.701736 0.313110 0.121398
0.721953 0.310245 0.129184
0.741073 0.307480 0.137140
0.754706 0.305214 0.145945
0.768340 0.302949 0.154750
0.781973 0.300683 0.163555
0.795607 0.298418 0.172360
0.809240 0.296152 0.181165
0.066107 0.126220 0.119438
0.107465 0.135790 0.107464
0.148823 0.145361 0.095491
0.190181 0.154931 0.083518
0.231539 0.164501 0.071545
0.272897 0.174072 0.059572
0.301521 0.189259 0.057137
0.327597 0.205570 0.056609
0.353673 0.221881 0.056081
0.379750 0.238192 0.055554
0.405826 0.254502 0.055026
0.428086 0.269051 0.058087
0.448437 0.282718 0.062941
0.468788 0.296385 0.067796
0.489139 0.310052 0.072650
0.509490 0.323719 0.077505
0.530947 0.332140 0.082664
0.553509 0.335314 0.088127
0.576071 0.338488 0.093589
0.598633 0.341663 0.099052
0.621195 0.344837 0.104515
0.642926 0.346072 0.110987
0.662997 0.343426 0.119478
0.683068 0.340781 0.127969
0.703138 0.338136 0.136460
0.723209 0.335490 0.144951
0.742297 0.332820 0.153569
0.756470 0.330024 0.162822
0.770643 0.327228 0.172075
0.784817 0.324431 0.181328
0.798990 0.321635 0.190581
0.813163 0.318839 0.199835
0.070550 0.134869 0.127236
0.113546 0.144614 0.114769
0.156541 0.154358 0.102302
0.199537 0.164102 0.089835
0.242532 0.173846 0.077368
0.285528 0.183590 0.064900
0.314668 0.198883 0.062413
0.341037 0.215285 0.061922
0.367406 0.231687 0.061431
0.393775 0.248090 0.060941
0.420144 0.264492 0.060450
0.441544 0.280370 0.064096
0.460459 0.295985 0.069810
0.479374 0.311601 0.075524
0.498289 0.327217 0.081239
0.517204 0.342832 0.086953
0.537448 0.352634 0.092816
0.559022 0.356623 0.098828
0.580596 0.360611 0.104840
0.602170 0.364600 0.110852
0.623744 0.368588 0.116863
0.644768 0.370439 0.123936
0.664692 0.368013 0.133132
0.684617 0.365587 0.142327
0.704541 0.363162 0.151522
0.724465 0.360736 0.160717
0.743521 0.358160 0.169997
0.758234 0.354833 0.179698
0.772947 0.351506 0.189400
0.787660 0.348179 0.199101
0.802373 0.344853 0.208803
0.817086 0.341526 0.218504
0.075986 0.144086 0.135460
0.120491 0.154068 0.122581
0.164996 0.164050 0.109703
0.209500 0.174032 0.096824
0.254005 0.184014 0.083945
0.298510 0.193996 0.071066
0.328146 0.209176 0.068652
0.354808 0.225395 0.068330
0.381469 0.241614 0.068008
0.408131 0.257834 0.067686
0.434793 0.274053 0.067365
0.455711 0.290471 0.071576
0.473757 0.306987 0.078055
0.491803 0.323504 0.084533
0.509849 0.340021 0.091011
0.527895 0.356537 0.097490
0.547089 0.367494 0.104233
0.567433 0.372892 0.111242
0.587777 0.378289 0.118251
0.608120 0.383686 0.125260
0.628464 0.389084 0.132269
0.648512 0.392108 0.140172
0.667970 0.390387 0.149866
0.687427 0.388665 0.159560
0.706885 0.386944 0.169254
0.726343 0.385223 0.178948
0.745071 0.383225 0.188693
0.760150 0.379848 0.198696
0.775229 0.376471 0.208700
0.790308 0.373094 0.218703
0.805387 0.369717 0.228706
0.820466 0.366340 0.238710
0.082414 0.153870 0.144110
0.128300 0.164154 0.130901
0.174186 0.174437 0.117693
0.220072 0.184721 0.104485
0.265959 0.195005 0.091277
0.311845 0.205289 0.078069
0.341955 0.220138 0.075851
0.368909 0.235900 0.075831
0.395864 0.251662 0.075811
0.422818 0.267424 0.075792
0.449773 0.283186 0.075772
0.470587 0.299353 0.080529
0.488331 0.315724 0.087675
0.506075 0.332094 0.094821
0.523819 0.348464 0.101967
0.541563 0.364835 0.109114
0.559871 0.376720 0.116914
0.578741 0.384121 0.125368
0.597612 0.391522 0.133822
0.616483 0.398922 0.142277
0.635354 0.406323 0.150731
0.654158 0.411079 0.159696
0.672829 0.410547 0.169682
0.691500 0.410015 0.179669
0.710171 0.409483 0.189655
0.728842 0.408951 0.199642
0.746946 0.408016 0.209657
0.762217 0.405069 0.219816
0.777488 0.402122 0.229975
0.792759 0.399175 0.240134
0.808030 0.396228 0.250293
0.823301 0.393281 0.260451
0.088842 0.163654 0.152759
0.136109 0.174239 0.139222
0.183377 0.184825 0.125684
0.230644 0.195411 0.112147
0.277912 0.205997 0.098609
0.325180 0.216582 0.085072
0.355764 0.231100 0.083050
0.383011 0.246405 0.083333
0.410258 0.261709 0.083615
0.437505 0.277014 0.083897
0.464753 0.292319 0.084179
0.485463 0.308236 0.089482
0.502905 0.324460 0.097296
0.520348 0.340684 0.105110
0.537790 0.356908 0.112924
0.555232 0.373132 0.120738
0.572652 0.385946 0.129594
0.590050 0.395350 0.139494
0.607448 0.404754 0.149394
0.624846 0.414158 0.159293
0.642244 0.423562 0.169193
0.659804 0.430051 0.179219
0.677688 0.430708 0.189498
0.695572 0.431365 0.199778
0.713457 0.432022 0.210057
0.731341 0.432679 0.220336
0.748822 0.432807 0.230621
0.764285 0.430290 0.240936
0.779748 0.427773 0.251250
0.795211 0.425256 0.261564
0.810674 0.422739 0.271879
0.826137 0.420221 0.282193
0.095270 0.173437 0.161408
0.143919 0.184325 0.147542
0.192568 0.195213 0.133675
0.241216 0.206100 0.119808
0.289865 0.216988 0.105941
0.338514 0.227875 0.092074
0.369573 0.242063 0.090250
0.397113 0.256910 0.090834
0.424653 0.271757 0.091418
0.452193 0.286604 0.092002
0.479733 0.301451 0.092586
0.500339 0.317119 0.098435
0.517480 0.333196 0.106917
0.534620 0.349274 0.115398
0.551760 0.365352 0.123880
0.568900 0.381429 0.132362
0.585433 0.395172 0.142275
0.601358 0.406579 0.153620
0.617283 0.417987 0.164965
0.633208 0.429394 0.176310
0.649134 0.440802 0.187655
0.665449 0.449022 0.198742
0.682547 0.450869 0.209314
0.699645 0.452715 0.219886
0.716742 0.454561 0.230458
0.733840 0.456408 0.241030
0.750697 0.457598 0.251585
0.766352 0.455511 0.262055
0.782007 0.453424 0.272525
0.797663 0.451337 0.282995
0.813318 0.449249 0.293465
0.828973 0.447162 0.303935
0.101698 0.183221 0.170058
0.151728 0.194411 0.155862
0.201758 0.205600 0.141666
0.251788 0.216790 0.127469
0.301819 0.227979 0.113273
0.351849 0.239169 0.099077
0.383381 0.253025 0.097449
0.411214 0.267415 0.098335
0.439047 0.281805 0.099221
0.466880 0.296194 0.100107
0.494712 0.310584 0.100993
0.515216 0.326001 0.107388
0.532054 0.341933 0.116537
0.548892 0.357864 0.125687
0.565731 0.373795 0.134836
0.582569 0.389726 0.143986
0.598214 0.404397 0.154956
0.612667 0.417808 0.167746
0.627119 0.431219 0.180536
0.641571 0.444630 0.193327
0.656024 0.458041 0.206117
0.671095 0.467994 0.218266
0.687406 0.471029 0.229130
0.703717 0.474065 0.239995
0.720028 0.477100 0.250860
0.736339 0.480136 0.261725
0.752572 0.482390 0.272550
0.768420 0.480732 0.283175
0.784267 0.479075 0.293800
0.800114 0.477418 0.304426
0.815962 0.475760 0.315051
0.831809 0.474103 0.325676
0.108850 0.193383 0.179070
0.160064 0.204883 0.164645
0.211277 0.216384 0.150220
0.262491 0.227885 0.135795
0.313704 0.239385 0.121370
0.364917 0.250886 0.106945
0.396807 0.264507 0.105551
0.424832 0.278552 0.106764
0.452857 0.292597 0.107976
0.480882 0.306642 0.109188
0.508906 0.320688 0.110400
0.529317 0.335846 0.117310
0.545921 0.351560 0.127070
0.562524 0.367275 0.136829
0.579128 0.382990 0.146588
0.595731 0.398705 0.156348
0.610724 0.413903 0.168149
0.624106 0.428586 0.181991
0.637488 0.443268 0.195833
0.650870 0.457951 0.209676
0.664252 0.472633 0.223518
0.678327 0.483878 0.236491
0.693787 0.488246 0.247725
0.709247 0.492614 0.258958
0.724707 0.496982 0.270192
0.740167 0.501350 0.281426
0.755680 0.504822 0.292564
0.771454 0.503815 0.303223
0.787228 0.502807 0.313882
0.803002 0.501799 0.324541
0.818776 0.500791 0.335200
0.834550 0.499783 0.345858
0.117452 0.204301 0.188806
0.169453 0.216131 0.174354
0.221453 0.227961 0.159902
0.273453 0.239791 0.145449
0.325453 0.251621 0.130997
0.377453 0.263450 0.116545
0.409466 0.277027 0.115459
0.437482 0.290954 0.117046
0.465498 0.304880 0.118633
0.493513 0.318806 0.120220
0.521529 0.332732 0.121807
0.541870 0.347613 0.129172
0.558373 0.362971 0.139425
0.574876 0.378329 0.149679
0.591379 0.393687 0.159932
0.607881 0.409045 0.170185
0.622691 0.423969 0.182366
0.635808 0.438459 0.196474
0.648925 0.452950 0.210581
0.662041 0.467440 0.224689
0.675158 0.481931 0.238797
0.688730 0.493587 0.252120
0.703211 0.499574 0.263876
0.717692 0.505561 0.275631
0.732173 0.511549 0.287386
0.746655 0.517536 0.299141
0.761251 0.522539 0.310678
0.776421 0.522620 0.321127
0.791591 0.522701 0.331575
0.806762 0.522781 0.342024
0.821932 0.522862 0.352472
0.837103 0.522943 0.362921
0.126055 0.215219 0.198543
0.178841 0.227378 0.184063
0.231628 0.239538 0.169583
0.284415 0.251697 0.155103
0.337202 0.263856 0.140624
0.389989 0.276015 0.126144
0.422126 0.289548 0.125366
0.450132 0.303355 0.127328
0.478139 0.317162 0.129290
0.506145 0.330970 0.131253
0.534152 0.344777 0.133215
0.554422 0.359380 0.141034
0.570825 0.374382 0.151781
0.587227 0.389383 0.162529
0.603629 0.404384 0.173276
0.620032 0.419385 0.184023
0.634658 0.434035 0.196583
0.647510 0.448333 0.210956
0.660361 0.462631 0.225329
0.673213 0.476930 0.239702
0.686064 0.491228 0.254075
0.699132 0.503296 0.267750
0.712635 0.510902 0.280026
0.726137 0.518509 0.292303
0.739640 0.526115 0.304579
0.753142 0.533722 0.316856
0.766822 0.540256 0.328793
0.781388 0.541425 0.339031
0.795955 0.542594 0.349269
0.810522 0.543764 0.359507
0.825088 0.544933 0.369745
0.839655 0.546103 0.379983
0.134657 0.226137 0.208279
0.188230 0.238626 0.193772
0.241804 0.251114 0.179265
0.295378 0.263603 0.164758
0.348951 0.276091 0.150250
0.402525 0.288580 0.135743
0.434785 0.302068 0.135273
0.462782 0.315757 0.137611
0.490780 0.329445 0.139948
0.518777 0.343134 0.142285
0.546775 0.356822 0.144622
0.566975 0.371148 0.152896
0.583276 0.385792 0.164137
0.599578 0.400437 0.175378
0.615880 0.415081 0.186620
0.632182 0.429725 0.197861
0.646625 0.444101 0.210801
0.659212 0.458207 0.225439
0.671798 0.472313 0.240078
0.684384 0.486419 0.254716
0.696970 0.500525 0.269354
0.709535 0.513005 0.283379
0.722059 0.522230 0.296177
0.734582 0.531456 0.308975
0.747106 0.540682 0.321773
0.759629 0.549908 0.334571
0.772393 0.557972 0.346907
0.786356 0.560230 0.356935
0.800319 0.562488 0.366963
0.814282 0.564746 0.376991
0.828244 0.567004 0.387018
0.842207 0.569262 0.397046
0.143259 0.237055 0.218016
0.197619 0.249873 0.203481
0.251980 0.262691 0.188946
0.306340 0.275509 0.174412
0.360700 0.288327 0.159877
0.415061 0.301145 0.145343
0.447444 0.314589 0.145180
0.475432 0.328158 0.147893
0.503421 0.341728 0.150605
0.531409 0.355297 0.153318
0.559397 0.368867 0.156030
0.579527 0.382915 0.164758
0.595728 0.397203 0.176493
0.611929 0.411490 0.188228
0.628131 0.425778 0.199964
0.644332 0.440066 0.211699
0.658593 0.454166 0.225018
0.670913 0.468081 0.239922
0.683234 0.481995 0.254826
0.695555 0.495909 0.269729
0.707876 0.509823 0.284633
0.719938 0.522714 0.299008
0.731483 0.533559 0.312328
0.743027 0.544404 0.325647
0.754572 0.555249 0.338967
0.766117 0.566094 0.352286
0.777964 0.575689 0.365022
0.791323 0.579035 0.374839
0.804682 0.582382 0.384657
0.818041 0.585729 0.394474
0.831400 0.589075 0.404291
0.844760 0.592422 0.414108
0.152389 0.247926 0.228044
0.207438 0.261051 0.213549
0.262488 0.274175 0.199054
0.317537 0.287299 0.184559
0.372587 0.300423 0.170064
0.427636 0.313548 0.155569
0.460085 0.326949 0.155703
0.488014 0.340406 0.158763
0.515943 0.353862 0.161823
0.543872 0.367319 0.164883
0.571800 0.380776 0.167943
0.591837 0.394574 0.177070
0.607929 0.408543 0.189231
0.624020 0.422512 0.201392
0.640111 0.436481 0.213552
0.656203 0.450450 0.225713
0.670287 0.464296 0.239341
0.682364 0.478020 0.254437
0.694440 0.491743 0.269533
0.706517 0.505467 0.284628
0.718594 0.519190 0.299724
0.730209 0.532389 0.314353
0.740900 0.544539 0.328047
0.751591 0.556689 0.341742
0.762282 0.568839 0.355436
0.772973 0.580989 0.369131
0.783993 0.591850 0.382147
0.796658 0.596267 0.391772
0.809324 0.600684 0.401397
0.821989 0.605101 0.411023
0.834654 0.609518 0.420648
0.847320 0.613935 0.430273
0.164158 0.258561 0.239529
0.219408 0.271877 0.225409
0.274659 0.285194 0.211289
0.329910 0.298510 0.197169
0.385161 0.311826 0.183049
0.440411 0.325143 0.168929
0.472635 0.338508 0.169301
0.500252 0.351882 0.172572
0.527870 0.365256 0.175842
0.555488 0.378631 0.179113
0.583106 0.392005 0.182383
0.602935 0.405690 0.191635
0.618871 0.419531 0.203878
0.634807 0.433372 0.216121
0.650743 0.447213 0.228364
0.666679 0.461054 0.240607
0.680616 0.474745 0.254190
0.692556 0.488285 0.269112
0.704496 0.501826 0.284034
0.716435 0.515366 0.298955
0.728375 0.528907 0.313877
0.739822 0.541895 0.328271
