filter/Red and Blue/lut/Hope 05.cube
# LUT by SparkleStock. Enhanced with VOXCOLOR algorithms.
LUT_3D_SIZE 32
0.027350 0.019536 0.015629
0.045784 0.019914 0.015771
0.064217 0.020292 0.015912
0.082650 0.020670 0.016054
0.101083 0.021048 0.016196
0.119516 0.021427 0.016338
0.145827 0.023183 0.017070
0.173713 0.025216 0.017921
0.201599 0.027248 0.018772
0.229485 0.029280 0.019623
0.257371 0.031313 0.020473
0.288440 0.034732 0.022049
0.321100 0.038844 0.023987
0.353760 0.042956 0.025925
0.386419 0.047068 0.027862
0.419079 0.051180 0.029800
0.450132 0.056001 0.032258
0.479578 0.061531 0.035236
0.509024 0.067061 0.038213
0.538469 0.072590 0.041191
0.567915 0.078120 0.044169
0.594415 0.083745 0.047414
0.615022 0.089558 0.051195
0.635630 0.095372 0.054977
0.656237 0.101186 0.058758
0.676844 0.106999 0.062539
0.696223 0.113025 0.066596
0.709457 0.120115 0.072031
0.722691 0.127205 0.077467
0.735925 0.134294 0.082902
0.749159 0.141384 0.088337
0.762393 0.148474 0.093773
0.028390 0.025775 0.022766
0.047784 0.027251 0.021700
0.067178 0.028727 0.020634
0.086571 0.030203 0.019569
0.105965 0.031678 0.018503
0.125359 0.033154 0.017437
0.151471 0.035422 0.018220
0.178927 0.037847 0.019373
0.206384 0.040273 0.020525
0.233840 0.042699 0.021678
0.261296 0.045125 0.022831
0.292203 0.048614 0.024690
0.324835 0.052634 0.026902
0.357467 0.056655 0.029114
0.390100 0.060675 0.031326
0.422732 0.064696 0.033539
0.453872 0.069283 0.036276
0.483519 0.074438 0.039537
0.513166 0.079593 0.042798
0.542813 0.084748 0.046059
0.572460 0.089903 0.049321
0.599189 0.095162 0.052841
0.620080 0.100628 0.056878
0.640970 0.106093 0.060915
0.661861 0.111559 0.064952
0.682752 0.117025 0.068990
0.702390 0.122721 0.073315
0.715761 0.129563 0.079080
0.729133 0.136406 0.084844
0.742504 0.143249 0.090609
0.755875 0.150091 0.096374
0.769247 0.156934 0.102139
0.029430 0.032014 0.029903
0.049784 0.034587 0.027629
0.070139 0.037161 0.025356
0.090493 0.039735 0.023083
0.110847 0.042308 0.020810
0.131201 0.044882 0.018536
0.157116 0.047660 0.019370
0.184142 0.050479 0.020824
0.211168 0.053298 0.022279
0.238194 0.056118 0.023733
0.265220 0.058937 0.025188
0.295966 0.062496 0.027330
0.328571 0.066425 0.029817
0.361175 0.070354 0.032304
0.393780 0.074283 0.034791
0.426385 0.078212 0.037277
0.457612 0.082566 0.040293
0.487460 0.087346 0.043838
0.517309 0.092126 0.047383
0.547157 0.096906 0.050928
0.577005 0.101686 0.054472
0.603962 0.106578 0.058267
0.625137 0.111697 0.062560
0.646311 0.116815 0.066854
0.667486 0.121933 0.071147
0.688660 0.127051 0.075441
0.708557 0.132416 0.080034
0.722066 0.139012 0.086128
0.735574 0.145607 0.092222
0.749083 0.152203 0.098316
0.762591 0.158799 0.104410
0.776100 0.165394 0.110505
0.030470 0.038253 0.037040
0.051785 0.041924 0.033559
0.073099 0.045596 0.030078
0.094414 0.049267 0.026597
0.115729 0.052938 0.023116
0.137044 0.056610 0.019636
0.162760 0.059899 0.020519
0.189356 0.063111 0.022276
0.215952 0.066324 0.024032
0.242549 0.069536 0.025788
0.269145 0.072749 0.027545
0.299728 0.076378 0.029971
0.332306 0.080215 0.032732
0.364883 0.084053 0.035493
0.397461 0.087890 0.038255
0.430038 0.091728 0.041016
0.461352 0.095849 0.044311
0.491402 0.100254 0.048139
0.521451 0.104659 0.051967
0.551501 0.109063 0.055796
0.581550 0.113468 0.059624
0.608736 0.117995 0.063693
0.630194 0.122766 0.068243
0.651652 0.127536 0.072792
0.673110 0.132307 0.077342
0.694569 0.137078 0.081891
0.714725 0.142111 0.086753
0.728370 0.148460 0.093177
0.742016 0.154809 0.099600
0.755662 0.161157 0.106024
0.769308 0.167506 0.112447
0.782953 0.173855 0.118870
0.031510 0.044492 0.044177
0.053785 0.049261 0.039488
0.076060 0.054030 0.034800
0.098336 0.058799 0.030112
0.120611 0.063568 0.025423
0.142886 0.068337 0.020735
0.168404 0.072137 0.021669
0.194570 0.075743 0.023727
0.220737 0.079349 0.025785
0.246903 0.082955 0.027844
0.273069 0.086560 0.029902
0.303491 0.090260 0.032612
0.336041 0.094006 0.035647
0.368591 0.097752 0.038683
0.401141 0.101498 0.041719
0.433692 0.105244 0.044754
0.465092 0.109132 0.048328
0.495343 0.113162 0.052440
0.525594 0.117191 0.056552
0.555844 0.121221 0.060664
0.586095 0.125251 0.064776
0.613510 0.129412 0.069119
0.635251 0.133835 0.073925
0.656993 0.138258 0.078731
0.678735 0.142681 0.083537
0.700477 0.147104 0.088342
0.720892 0.151807 0.093473
0.734675 0.157908 0.100225
0.748458 0.164010 0.106978
0.762241 0.170112 0.113731
0.776024 0.176213 0.120483
0.789807 0.182315 0.127236
0.032550 0.050731 0.051314
0.055785 0.056598 0.045418
0.079021 0.062464 0.039522
0.102257 0.068331 0.033626
0.125493 0.074198 0.027730
0.148729 0.080065 0.021834
0.174048 0.084376 0.022818
0.199785 0.088375 0.025179
0.225521 0.092374 0.027539
0.251257 0.096373 0.029899
0.276994 0.100372 0.032259
0.307254 0.104142 0.035253
0.339777 0.107796 0.038563
0.372299 0.111451 0.041873
0.404822 0.115106 0.045183
0.437345 0.118760 0.048493
0.468832 0.122415 0.052346
0.499284 0.126070 0.056741
0.529736 0.129724 0.061137
0.560188 0.133379 0.065532
0.590640 0.137033 0.069928
0.618284 0.140828 0.074546
0.640309 0.144904 0.079608
0.662334 0.148979 0.084669
0.684359 0.153055 0.089731
0.706385 0.157130 0.094793
0.727059 0.161502 0.100192
0.740979 0.167357 0.107274
0.754899 0.173211 0.114356
0.768820 0.179066 0.121438
0.782740 0.184921 0.128520
0.796660 0.190776 0.135602
0.033944 0.057127 0.058214
0.058537 0.063352 0.051812
0.083129 0.069578 0.045410
0.107722 0.075803 0.039008
0.132315 0.082028 0.032606
0.156908 0.088253 0.026204
0.182375 0.093694 0.027184
0.208017 0.098979 0.029640
0.233658 0.104263 0.032096
0.259300 0.109548 0.034552
0.284942 0.114832 0.037009
0.314467 0.119305 0.040242
0.345933 0.123371 0.043865
0.377399 0.127437 0.047488
0.408865 0.131503 0.051110
0.440331 0.135570 0.054733
0.471120 0.139388 0.058914
0.501232 0.142957 0.063654
0.531344 0.146526 0.068395
0.561456 0.150095 0.073135
0.591568 0.153664 0.077875
0.619125 0.157299 0.082854
0.641571 0.161065 0.088309
0.664017 0.164831 0.093764
0.686463 0.168597 0.099219
0.708909 0.172363 0.104674
0.730045 0.176414 0.110449
0.744628 0.181892 0.117823
0.759212 0.187370 0.125196
0.773795 0.192849 0.132569
0.788379 0.198327 0.139942
0.802962 0.203805 0.147316
0.035409 0.063555 0.065068
0.061438 0.069991 0.058300
0.087467 0.076426 0.051532
0.113496 0.082862 0.044764
0.139525 0.089297 0.037996
0.165554 0.095733 0.031228
0.191238 0.102429 0.032192
0.216852 0.109177 0.034703
0.242466 0.115925 0.037214
0.268081 0.122674 0.039726
0.293695 0.129422 0.042237
0.322369 0.134724 0.045702
0.352573 0.139302 0.049645
0.382776 0.143881 0.053588
0.412980 0.148459 0.057531
0.443183 0.153038 0.061473
0.473117 0.157098 0.065993
0.502781 0.160640 0.071090
0.532445 0.164182 0.076187
0.562109 0.167723 0.081284
0.591772 0.171265 0.086381
0.619180 0.174781 0.091738
0.642074 0.178245 0.097614
0.664968 0.181709 0.103490
0.687863 0.185173 0.109366
0.710757 0.188637 0.115242
0.732394 0.192370 0.121415
0.747746 0.197445 0.129072
0.763098 0.202521 0.136729
0.778450 0.207597 0.144385
0.793802 0.212672 0.152042
0.809154 0.217748 0.159699
0.036874 0.069983 0.071921
0.064340 0.076629 0.064787
0.091805 0.083275 0.057653
0.119270 0.089921 0.050519
0.146735 0.096567 0.043385
0.174201 0.103213 0.036251
0.200101 0.111164 0.037201
0.225688 0.119376 0.039767
0.251274 0.127588 0.042333
0.276861 0.135799 0.044899
0.302448 0.144011 0.047465
0.330271 0.150142 0.051162
0.359212 0.155233 0.055425
0.388154 0.160324 0.059688
0.417095 0.165415 0.063951
0.446036 0.170506 0.068214
0.475114 0.174808 0.073072
0.504330 0.178323 0.078526
0.533546 0.181837 0.083980
0.562761 0.185352 0.089433
0.591977 0.188866 0.094887
0.619235 0.192263 0.100622
0.642577 0.195425 0.106919
0.665920 0.198587 0.113216
0.689262 0.201749 0.119513
0.712605 0.204911 0.125809
0.734744 0.208325 0.132380
0.750864 0.212999 0.140321
0.766984 0.217672 0.148261
0.783105 0.222345 0.156202
0.799225 0.227018 0.164142
0.815345 0.231691 0.172082
0.038339 0.076411 0.078774
0.067241 0.083267 0.071274
0.096142 0.090124 0.063775
0.125044 0.096980 0.056275
0.153946 0.103837 0.048775
0.182847 0.110693 0.041275
0.208963 0.119899 0.042209
0.234523 0.129574 0.044830
0.260082 0.139250 0.047451
0.285642 0.148925 0.050072
0.311201 0.158601 0.052693
0.338174 0.165561 0.056622
0.365852 0.171165 0.061205
0.393531 0.176768 0.065788
0.421210 0.182371 0.070371
0.448889 0.187974 0.074954
0.477112 0.192519 0.080151
0.505879 0.196006 0.085962
0.534646 0.199493 0.091772
0.563414 0.202980 0.097583
0.592181 0.206467 0.103393
0.619290 0.209745 0.109506
0.643080 0.212605 0.116224
0.666871 0.215465 0.122941
0.690662 0.218325 0.129659
0.714453 0.221186 0.136377
0.737093 0.224281 0.143346
0.753982 0.228552 0.151570
0.770871 0.232822 0.159794
0.787759 0.237093 0.168018
0.804648 0.241363 0.176242
0.821537 0.245634 0.184466
0.039805 0.082839 0.085628
0.070142 0.089906 0.077762
0.100480 0.096973 0.069896
0.130818 0.104039 0.062030
0.161156 0.111106 0.054165
0.191493 0.118173 0.046299
0.217826 0.128634 0.047218
0.243358 0.139773 0.049894
0.268890 0.150912 0.052569
0.294422 0.162051 0.055245
0.319954 0.173190 0.057921
0.346076 0.180980 0.062082
0.372492 0.187096 0.066985
0.398909 0.193211 0.071888
0.425325 0.199327 0.076792
0.451741 0.205442 0.081695
0.479109 0.210229 0.087230
0.507428 0.213689 0.093398
0.535747 0.217148 0.099565
0.564066 0.220608 0.105732
0.592385 0.224067 0.111899
0.619344 0.227226 0.118390
0.643584 0.229785 0.125529
0.667823 0.232343 0.132667
0.692062 0.234902 0.139806
0.716301 0.237460 0.146944
0.739443 0.240237 0.154311
0.757100 0.244105 0.162819
0.774757 0.247973 0.171326
0.792414 0.251841 0.179834
0.810071 0.255709 0.188341
0.827729 0.259577 0.196849
0.042467 0.089929 0.092796
0.074174 0.097273 0.084632
0.105881 0.104617 0.076467
0.137588 0.111962 0.068302
0.169295 0.119306 0.060138
0.201002 0.126650 0.051973
0.227997 0.137660 0.052883
0.254051 0.149403 0.055608
0.280104 0.161146 0.058332
0.306158 0.172889 0.061057
0.332211 0.184632 0.063781
0.357767 0.193461 0.068452
0.383073 0.200832 0.074097
0.408379 0.208204 0.079741
0.433686 0.215576 0.085385
0.458992 0.222948 0.091030
0.485279 0.228584 0.097123
0.512546 0.232486 0.103665
0.539813 0.236388 0.110207
0.567080 0.240289 0.116750
0.594347 0.244191 0.123292
0.620610 0.247656 0.130192
0.644864 0.250248 0.137806
0.669119 0.252840 0.145420
0.693373 0.255432 0.153034
0.717627 0.258024 0.160648
0.740890 0.260766 0.168460
0.759193 0.264262 0.177257
0.777497 0.267758 0.186054
0.795801 0.271254 0.194852
0.814104 0.274750 0.203649
0.832408 0.278246 0.212446
0.045728 0.097349 0.100122
0.078771 0.105005 0.091692
0.111813 0.112660 0.083262
0.144856 0.120315 0.074833
0.177898 0.127971 0.066403
0.210941 0.135626 0.057973
0.238823 0.146832 0.058876
0.265672 0.158749 0.061647
0.292521 0.170666 0.064417
0.319370 0.182583 0.067187
0.346220 0.194500 0.069958
0.371351 0.204472 0.075278
0.395624 0.213472 0.081874
0.419897 0.222472 0.088470
0.444169 0.231472 0.095065
0.468442 0.240472 0.101661
0.493535 0.247262 0.108422
0.519448 0.251840 0.115349
0.545361 0.256419 0.122275
0.571274 0.260997 0.129202
0.597188 0.265576 0.136128
0.622481 0.269559 0.143452
0.646534 0.272352 0.151569
0.670587 0.275146 0.159686
0.694640 0.277939 0.167804
0.718693 0.280732 0.175921
0.741885 0.283583 0.184200
0.760774 0.286722 0.193290
0.779664 0.289861 0.202381
0.798553 0.293001 0.211471
0.817442 0.296140 0.220561
0.836331 0.299279 0.229651
0.048990 0.104770 0.107448
0.083368 0.112736 0.098753
0.117746 0.120703 0.090058
0.152124 0.128669 0.081363
0.186502 0.136635 0.072667
0.220880 0.144602 0.063972
0.249648 0.156005 0.064870
0.277293 0.168095 0.067686
0.304938 0.180186 0.070502
0.332583 0.192277 0.073318
0.360228 0.204367 0.076134
0.384936 0.215483 0.082104
0.408175 0.226111 0.089651
0.431414 0.236740 0.097198
0.454653 0.247368 0.104745
0.477892 0.257997 0.112292
0.501791 0.265939 0.119721
0.526350 0.271194 0.127032
0.550909 0.276450 0.134343
0.575469 0.281705 0.141654
0.600028 0.286961 0.148964
0.624351 0.291463 0.156712
0.648203 0.294457 0.165332
0.672055 0.297451 0.173953
0.695907 0.300446 0.182573
0.719759 0.303440 0.191194
0.742881 0.306399 0.199941
0.762356 0.309182 0.209324
0.781830 0.311964 0.218707
0.801305 0.314747 0.228089
0.820779 0.317529 0.237472
0.840254 0.320312 0.246855
0.052251 0.112190 0.114774
0.087965 0.120468 0.105814
0.123678 0.128745 0.096853
0.159392 0.137023 0.087893
0.195106 0.145300 0.078932
0.230820 0.153577 0.069972
0.260473 0.165177 0.070863
0.288914 0.177442 0.073725
0.317355 0.189706 0.076587
0.345796 0.201970 0.079449
0.374237 0.214235 0.082310
0.398521 0.226494 0.088930
0.420726 0.238751 0.097429
0.442931 0.251008 0.105927
0.465136 0.263264 0.114425
0.487342 0.275521 0.122924
0.510047 0.284616 0.131021
0.533252 0.290548 0.138716
0.556458 0.296481 0.146411
0.579663 0.302413 0.154106
0.602868 0.308346 0.161801
0.626222 0.313366 0.169972
0.649873 0.316562 0.179095
0.673523 0.319757 0.188219
0.697174 0.322953 0.197343
0.720824 0.326149 0.206466
0.743877 0.329216 0.215682
0.763937 0.331642 0.225357
0.783997 0.334067 0.235033
0.804057 0.336493 0.244708
0.824117 0.338919 0.254384
0.844177 0.341345 0.264059
0.055512 0.119611 0.122100
0.092562 0.128199 0.112874
0.129611 0.136788 0.103649
0.166660 0.145376 0.094423
0.203710 0.153965 0.085197
0.240759 0.162553 0.075971
0.271298 0.174350 0.076857
0.300535 0.186788 0.079764
0.329772 0.199226 0.082672
0.359009 0.211664 0.085579
0.388246 0.224102 0.088487
0.412106 0.237505 0.095756
0.433277 0.251390 0.105206
0.454449 0.265275 0.114656
0.475620 0.279161 0.124106
0.496791 0.293046 0.133555
0.518303 0.303293 0.142320
0.540154 0.309902 0.150399
0.562006 0.316512 0.158478
0.583857 0.323121 0.166558
0.605709 0.329731 0.174637
0.628093 0.335269 0.183232
0.651542 0.338666 0.192858
0.674992 0.342063 0.202485
0.698441 0.345460 0.212112
0.721890 0.348857 0.221739
0.744872 0.352033 0.231422
0.765518 0.354102 0.241391
0.786163 0.356171 0.251359
0.806809 0.358239 0.261327
0.827454 0.360308 0.271295
0.848100 0.362377 0.281264
0.059624 0.127173 0.129922
0.098014 0.136164 0.120532
0.136403 0.145155 0.111142
0.174793 0.154146 0.101751
0.213182 0.163137 0.092361
0.251572 0.172128 0.082970
0.282868 0.184201 0.083916
0.312745 0.196891 0.086929
0.342622 0.209581 0.089941
0.372500 0.222271 0.092954
0.402377 0.234960 0.095967
0.426124 0.249002 0.103667
0.446806 0.263719 0.113712
0.467488 0.278437 0.123756
0.488170 0.293155 0.133801
0.508852 0.307872 0.143845
0.529522 0.319130 0.153333
0.550180 0.326929 0.162263
0.570838 0.334728 0.171193
0.591495 0.342526 0.180122
0.612153 0.350325 0.189052
0.633503 0.356820 0.198334
0.656239 0.360706 0.208317
0.678975 0.364592 0.218301
0.701711 0.368479 0.228284
0.724446 0.372365 0.238268
0.746868 0.375925 0.248286
0.767719 0.377852 0.258478
0.788571 0.379779 0.268671
0.809422 0.381706 0.278863
0.830273 0.383634 0.289055
0.851125 0.385561 0.299248
0.064587 0.134877 0.138241
0.104321 0.144362 0.128787
0.144056 0.153847 0.119332
0.183790 0.163332 0.109878
0.223524 0.172817 0.100423
0.263258 0.182302 0.090969
0.295182 0.194732 0.092041
0.325545 0.207751 0.095218
0.355907 0.220770 0.098396
0.386269 0.233789 0.101573
0.416631 0.246808 0.104750
0.440576 0.260984 0.112664
0.461313 0.275738 0.122947
0.482050 0.290493 0.133229
0.502787 0.305247 0.143511
0.523524 0.320001 0.153794
0.543705 0.332128 0.164059
0.563329 0.341628 0.174306
0.582952 0.351128 0.184553
0.602576 0.360629 0.194800
0.622200 0.370129 0.205048
0.642453 0.378017 0.215277
0.663963 0.382681 0.225471
0.685473 0.387345 0.235665
0.706983 0.392009 0.245859
0.728493 0.396673 0.256053
0.749864 0.400893 0.266272
0.770541 0.402893 0.276620
0.791219 0.404893 0.286968
0.811896 0.406894 0.297316
0.832574 0.408894 0.307664
0.853251 0.410894 0.318012
0.069550 0.142581 0.146560
0.110629 0.152560 0.137041
0.151708 0.162539 0.127523
0.192787 0.172518 0.118004
0.233866 0.182497 0.108486
0.274945 0.192476 0.098967
0.307497 0.205263 0.100166
0.338344 0.218611 0.103508
0.369191 0.231960 0.106850
0.400038 0.245308 0.110192
0.430885 0.258657 0.113534
0.455029 0.272967 0.121662
0.475820 0.287757 0.132182
0.496612 0.302548 0.142702
0.517404 0.317339 0.153222
0.538196 0.332130 0.163742
0.557887 0.345126 0.174785
0.576477 0.356328 0.186349
0.595067 0.367529 0.197914
0.613658 0.378731 0.209478
0.632248 0.389933 0.221043
0.651403 0.399214 0.232221
0.671687 0.404656 0.242625
0.691971 0.410097 0.253029
0.712255 0.415539 0.263434
0.732539 0.420980 0.273838
0.752860 0.425861 0.284259
0.773364 0.427934 0.294762
0.793867 0.430008 0.305266
0.814371 0.432081 0.315769
0.834875 0.434155 0.326272
0.855378 0.436228 0.336776
0.074513 0.150286 0.154878
0.116936 0.160758 0.145296
0.159360 0.171231 0.135713
0.201784 0.181704 0.126131
0.244208 0.192177 0.116548
0.286631 0.202650 0.106966
0.319812 0.215794 0.108291
0.351144 0.229471 0.111797
0.382476 0.243149 0.115304
0.413807 0.256827 0.118811
0.445139 0.270505 0.122318
0.469481 0.284949 0.130659
0.490328 0.299776 0.141417
0.511174 0.314604 0.152175
0.532021 0.329431 0.162933
0.552868 0.344258 0.173691
0.572069 0.358124 0.185511
0.589626 0.371027 0.198392
0.607182 0.383930 0.211274
0.624739 0.396833 0.224156
0.642295 0.409737 0.237038
0.660353 0.420412 0.249164
0.679411 0.426631 0.259779
0.698469 0.432850 0.270394
0.717527 0.439069 0.281008
0.736586 0.445288 0.291623
0.755856 0.450828 0.302245
0.776186 0.452975 0.312904
0.796516 0.455122 0.323563
0.816845 0.457269 0.334222
0.837175 0.459415 0.344881
0.857505 0.461562 0.355540
0.079475 0.157990 0.163197
0.123244 0.168957 0.153550
0.167012 0.179923 0.143904
0.210781 0.190890 0.134257
0.254549 0.201857 0.124610
0.298318 0.212824 0.114964
0.332127 0.226325 0.116416
0.363943 0.240332 0.120087
0.395760 0.254339 0.123758
0.427577 0.268346 0.127430
0.459393 0.282353 0.131101
0.483933 0.296931 0.139656
0.504835 0.311795 0.150651
0.525736 0.326659 0.161647
0.546638 0.341523 0.172643
0.567540 0.356387 0.183639
0.586252 0.371121 0.196237
0.602775 0.385726 0.210436
0.619297 0.400331 0.224635
0.635820 0.414936 0.238834
0.652343 0.429540 0.253033
0.669302 0.441609 0.266108
0.687135 0.448606 0.276933
0.704967 0.455602 0.287758
0.722800 0.462599 0.298583
0.740632 0.469596 0.309408
0.758852 0.475796 0.320232
0.779008 0.478016 0.331046
0.799164 0.480236 0.341861
0.819320 0.482456 0.352675
0.839476 0.484676 0.363489
0.859632 0.486896 0.374304
0.085021 0.165804 0.171752
0.130104 0.177326 0.162142
0.175187 0.188848 0.152532
0.220269 0.200370 0.142922
0.265352 0.211892 0.133312
0.310435 0.223413 0.123702
0.344783 0.237271 0.125325
0.376984 0.251595 0.129194
0.409185 0.265919 0.133064
0.441385 0.280243 0.136934
0.473586 0.294567 0.140803
0.498267 0.309286 0.149576
0.519186 0.324202 0.160801
0.540106 0.339118 0.172025
0.561026 0.354033 0.183250
0.581946 0.368949 0.194474
0.600289 0.384257 0.207631
0.616056 0.399956 0.222721
0.631823 0.415656 0.237811
0.647589 0.431355 0.252900
0.663356 0.447055 0.267990
0.679421 0.460170 0.281792
0.696086 0.468118 0.293020
0.712751 0.476066 0.304247
0.729415 0.484015 0.315475
0.746080 0.491963 0.326703
0.763245 0.499005 0.337873
0.782917 0.501521 0.348754
0.802588 0.504037 0.359636
0.822259 0.506552 0.370517
0.841930 0.509068 0.381399
0.861601 0.511584 0.392280
0.091733 0.173839 0.180779
0.138069 0.186038 0.171407
0.184405 0.198237 0.162035
0.230741 0.210436 0.152663
0.277077 0.222634 0.143291
0.323413 0.234833 0.133919
0.358122 0.249047 0.135802
0.390506 0.263664 0.139937
0.422890 0.278281 0.144072
0.455274 0.292898 0.148207
0.487657 0.307515 0.152342
0.512362 0.322386 0.161343
0.533227 0.337384 0.172778
0.554092 0.352382 0.184213
0.574957 0.367380 0.195648
0.595822 0.382378 0.207083
0.614037 0.397668 0.220364
0.629603 0.413248 0.235490
0.645168 0.428829 0.250616
0.660733 0.444409 0.265742
0.676298 0.459990 0.280869
0.691880 0.473459 0.294958
0.707492 0.482706 0.306972
0.723105 0.491953 0.318986
0.738717 0.501201 0.331001
0.754330 0.510448 0.343015
0.770434 0.518696 0.354822
0.788999 0.521953 0.365594
0.807563 0.525210 0.376366
0.826127 0.528466 0.387137
0.844691 0.531723 0.397909
0.863256 0.534980 0.408681
0.098444 0.181874 0.189807
0.146034 0.194750 0.180672
0.193623 0.207626 0.171538
0.241212 0.220501 0.162404
0.288801 0.233377 0.153270
0.336391 0.246253 0.144135
0.371461 0.260824 0.146280
0.404028 0.275733 0.150680
0.436595 0.290643 0.155080
0.469162 0.305553 0.159480
0.501729 0.320462 0.163880
0.526458 0.335486 0.173111
0.547268 0.350566 0.184756
0.568078 0.365647 0.196402
0.588888 0.380727 0.208047
0.609698 0.395808 0.219692
0.627785 0.411079 0.233096
0.643149 0.426540 0.248259
0.658513 0.442002 0.263422
0.673877 0.457464 0.278585
0.689241 0.472925 0.293747
0.704338 0.486748 0.308123
0.718898 0.497294 0.320924
0.733459 0.507840 0.333725
0.748019 0.518387 0.346526
0.762580 0.528933 0.359327
0.777623 0.538387 0.371772
0.795080 0.542385 0.382434
0.812538 0.546383 0.393096
0.829995 0.550380 0.403758
0.847453 0.554378 0.414420
0.864910 0.558376 0.425082
0.105156 0.189909 0.198834
0.153998 0.203462 0.189938
0.202841 0.217014 0.181041
0.251684 0.230567 0.172145
0.300526 0.244120 0.163248
0.349369 0.257673 0.154352
0.384801 0.272600 0.156757
0.417550 0.287803 0.161423
0.450300 0.303005 0.166088
0.483050 0.318207 0.170754
0.515800 0.333410 0.175419
0.540553 0.348586 0.184878
0.561308 0.363749 0.196734
0.582064 0.378911 0.208590
0.602819 0.394074 0.220445
0.623574 0.409237 0.232301
0.641533 0.424490 0.245829
0.656696 0.439832 0.261028
0.671859 0.455175 0.276228
0.687021 0.470518 0.291427
0.702184 0.485860 0.306626
0.716796 0.500037 0.321288
0.730304 0.511882 0.334876
0.743813 0.523727 0.348464
0.757321 0.535573 0.362052
0.770830 0.547418 0.375640
0.784812 0.558078 0.388722
0.801162 0.562817 0.399274
0.817513 0.567556 0.409826
0.833863 0.572294 0.420378
0.850214 0.577033 0.430930
0.866564 0.581772 0.441483
0.111867 0.197944 0.207862
0.161963 0.212174 0.199203
0.212059 0.226403 0.190545
0.262155 0.240633 0.181886
0.312251 0.254863 0.173227
0.362347 0.269092 0.164569
0.398140 0.284377 0.167235
0.431073 0.299872 0.172165
0.464005 0.315367 0.177096
0.496938 0.330862 0.182027
0.529871 0.346357 0.186958
0.554649 0.361686 0.196645
0.575349 0.376931 0.208712
0.596049 0.392176 0.220778
0.616750 0.407421 0.232844
0.637450 0.422666 0.244910
0.655281 0.437901 0.258561
0.670243 0.453124 0.273797
0.685204 0.468348 0.289033
0.700166 0.483572 0.304269
0.715127 0.498796 0.319505
0.729254 0.513326 0.334454
0.741710 0.526470 0.348828
0.754167 0.539614 0.363203
0.766623 0.552759 0.377578
0.779080 0.565903 0.391952
0.792001 0.577769 0.405671
0.807244 0.583249 0.416114
0.822488 0.588729 0.426556
0.837731 0.594208 0.436998
0.852975 0.599688 0.447441
0.868219 0.605168 0.457883
0.118713 0.206113 0.217141
0.170080 0.221039 0.208734
0.221448 0.235966 0.200327
0.272815 0.250892 0.191920
0.324183 0.265819 0.183513
0.375550 0.280745 0.175106
0.411650 0.296350 0.178015
0.444698 0.312091 0.183187
0.477745 0.327831 0.188358
0.510792 0.343572 0.193530
0.543839 0.359313 0.198701
0.568597 0.374764 0.208599
0.589210 0.390070 0.220858
0.609824 0.405376 0.233118
0.630437 0.420682 0.245378
0.651051 0.435988 0.257638
0.668736 0.451197 0.271399
0.683493 0.466310 0.286663
0.698250 0.481422 0.301926
0.713008 0.496535 0.317190
0.727765 0.511647 0.332453
0.741452 0.526448 0.347622
0.752998 0.540626 0.362604
0.764544 0.554804 0.377585
0.776090 0.568981 0.392567
0.787637 0.583159 0.407548
0.799607 0.596014 0.421757
0.813696 0.602255 0.432105
0.827786 0.608495 0.442453
0.841875 0.614736 0.452801
0.855965 0.620976 0.463149
0.870054 0.627217 0.473496
0.126228 0.214951 0.227681
0.178958 0.230674 0.219594
0.231689 0.246396 0.211508
0.284419 0.262118 0.203421
0.337150 0.277841 0.195334
0.389880 0.293563 0.187247
0.426017 0.309308 0.190308
0.458836 0.325058 0.195599
0.491654 0.340808 0.200889
0.524472 0.356558 0.206180
0.557291 0.372307 0.211471
0.581808 0.387731 0.221480
0.602174 0.402991 0.233850
0.622541 0.418251 0.246220
0.642907 0.433512 0.258589
0.663274 0.448772 0.270959
0.680726 0.463922 0.284766
0.695264 0.478961 0.300011
0.709801 0.494001 0.315256
0.724339 0.509040 0.330502
0.738877 0.524079 0.345747
0.752350 0.538734 0.360806
