filter/Red and Blue/lut/Hope 03_S.cube
# LUT by SparkleStock. Enhanced with VOXCOLOR algorithms.
LUT_3D_SIZE 5
DOMAIN_MIN 0.000000 0.000000 0.000000
DOMAIN_MAX 0.903226 0.903226 0.903226
0.035165 0.023443 0.023443
0.179267 0.020891 0.018331
0.374454 0.029918 0.020883
0.571003 0.052322 0.027642
0.699531 0.090764 0.043499
0.043357 0.071188 0.068156
0.244109 0.125976 0.026057
0.433295 0.170221 0.029674
0.625307 0.178175 0.044851
0.747005 0.179038 0.078713
0.066107 0.126220 0.119438
0.327597 0.205570 0.056609
0.489139 0.310052 0.072650
0.642926 0.346072 0.110987
0.770643 0.327228 0.172075
0.108850 0.193383 0.179070
0.424832 0.278552 0.106764
0.579128 0.382990 0.146588
0.678327 0.483878 0.236491
0.787228 0.502807 0.313882
0.175927 0.269195 0.251014
0.512491 0.363358 0.186381
0.661374 0.457945 0.243176
0.749435 0.551402 0.342190
0.821384 0.621374 0.425350
0.036205 0.073370 0.090291
0.208444 0.045527 0.061921
0.441002 0.043656 0.072644
0.630044 0.077678 0.087859
0.740046 0.138361 0.099003
0.058383 0.130516 0.149132
0.195630 0.194595 0.181861
0.445070 0.224218 0.183936
0.665896 0.235934 0.188850
0.798215 0.258798 0.196024
0.098873 0.200061 0.216087
0.250888 0.301579 0.246692
0.484655 0.395712 0.231287
0.683410 0.425490 0.245708
0.833477 0.422961 0.279309
0.165393 0.283464 0.291452
0.337217 0.387174 0.328479
0.569878 0.492981 0.300555
0.713911 0.578530 0.323374
0.849754 0.599118 0.367982
0.261401 0.376565 0.374244
0.438718 0.474937 0.419654
0.669893 0.559082 0.399865
0.796183 0.639316 0.425535
0.873068 0.705926 0.472173
0.045027 0.134893 0.170105
0.171124 0.141567 0.169188
0.472766 0.102339 0.128366
0.674587 0.133116 0.149327
0.775731 0.208810 0.182374
0.081770 0.205782 0.241386
0.207840 0.274775 0.304416
0.441801 0.292651 0.339728
0.687378 0.298007 0.335279
0.829049 0.334051 0.332100
0.147990 0.291031 0.323751
0.279773 0.383830 0.385871
0.459950 0.460010 0.431111
0.696107 0.474665 0.424311
0.868896 0.479158 0.431564
0.233770 0.382890 0.404195
0.371890 0.479878 0.465167
0.525882 0.574072 0.497996
0.722768 0.643693 0.466813
0.885655 0.656246 0.480888
0.338145 0.476470 0.486500
0.470229 0.566650 0.548085
0.614959 0.646292 0.581490
0.803707 0.716590 0.540482
0.903138 0.776456 0.546441
0.067801 0.204380 0.250384
0.173023 0.264930 0.300065
0.419945 0.279227 0.290697
0.728520 0.235924 0.221080
0.819968 0.308125 0.283944
0.128261 0.287683 0.330284
0.249034 0.376138 0.405007
0.447489 0.429388 0.456264
0.715520 0.420181 0.447899
0.856123 0.439091 0.446702
0.218518 0.384796 0.419908
0.339479 0.472703 0.491925
0.485245 0.547040 0.555791
0.700768 0.565231 0.589384
0.882733 0.549282 0.578448
0.325874 0.482124 0.506471
0.432763 0.563234 0.570239
0.557544 0.641405 0.623902
0.698518 0.698510 0.662798
0.895380 0.688642 0.647761
0.420851 0.569295 0.583903
0.515883 0.644023 0.644144
0.629220 0.715559 0.691617
0.751615 0.781640 0.724904
0.908191 0.818792 0.678612
0.117768 0.289172 0.334704
0.236993 0.375973 0.409515
0.445092 0.441638 0.453889
0.703580 0.454370 0.442336
0.859573 0.441359 0.415772
0.208644 0.378328 0.416273
0.327597 0.473106 0.498609
0.487934 0.547606 0.558098
0.717999 0.578752 0.570719
0.880399 0.562684 0.543354
0.318871 0.475714 0.505474
0.416259 0.560590 0.581429
0.526520 0.634970 0.642859
0.716844 0.680771 0.676835
0.892542 0.665543 0.663303
0.417719 0.569695 0.589888
0.493878 0.641804 0.657309
0.584479 0.709702 0.713627
0.711953 0.768204 0.755393
0.892951 0.766603 0.754669
0.494101 0.647668 0.663888
0.552484 0.708831 0.722954
0.638291 0.770940 0.772410
0.762858 0.828978 0.804732
0.892162 0.856941 0.809669
