filter/Red and Blue/lut/Hope 05.cube
# LUT by SparkleStock. Enhanced with VOXCOLOR algorithms.
LUT_3D_SIZE 8
DOMAIN_MIN 0.000000 0.000000 0.000000
DOMAIN_MAX 0.903226 0.903226 0.903226
0.027350 0.019536 0.015629
0.101083 0.021048 0.016196
0.201599 0.027248 0.018772
0.321100 0.038844 0.023987
0.450132 0.056001 0.032258
0.567915 0.078120 0.044169
0.656237 0.101186 0.058758
0.722691 0.127205 0.077467
0.031510 0.044492 0.044177
0.120611 0.063568 0.025423
0.220737 0.079349 0.025785
0.336041 0.094006 0.035647
0.465092 0.109132 0.048328
0.586095 0.125251 0.064776
0.678735 0.142681 0.083537
0.748458 0.164010 0.106978
0.036874 0.069983 0.071921
0.146735 0.096567 0.043385
0.251274 0.127588 0.042333
0.359212 0.155233 0.055425
0.475114 0.174808 0.073072
0.591977 0.188866 0.094887
0.689262 0.201749 0.119513
0.766984 0.217672 0.148261
0.045728 0.097349 0.100122
0.177898 0.127971 0.066403
0.292521 0.170666 0.064417
0.395624 0.213472 0.081874
0.493535 0.247262 0.108422
0.597188 0.265576 0.136128
0.694640 0.277939 0.167804
0.779664 0.289861 0.202381
0.059624 0.127173 0.129922
0.213182 0.163137 0.092361
0.342622 0.209581 0.089941
0.446806 0.263719 0.113712
0.529522 0.319130 0.153333
0.612153 0.350325 0.189052
0.701711 0.368479 0.228284
0.788571 0.379779 0.268671
0.079475 0.157990 0.163197
0.254549 0.201857 0.124610
0.395760 0.254339 0.123758
0.504835 0.311795 0.150651
0.586252 0.371121 0.196237
0.652343 0.429540 0.253033
0.722800 0.462599 0.298583
0.799164 0.480236 0.341861
0.105156 0.189909 0.198834
0.300526 0.244120 0.163248
0.450300 0.303005 0.166088
0.561308 0.363749 0.196734
0.641533 0.424490 0.245829
0.702184 0.485860 0.306626
0.757321 0.535573 0.362052
0.817513 0.567556 0.409826
0.133743 0.223790 0.238221
0.350117 0.289863 0.207155
0.505564 0.353784 0.213421
0.615139 0.415913 0.246842
0.692716 0.476647 0.298133
0.749988 0.536511 0.359040
0.796680 0.591797 0.417178
0.841611 0.633963 0.465911
0.027729 0.046382 0.054953
0.118586 0.031355 0.032979
0.230836 0.035426 0.031573
0.356435 0.051071 0.041118
0.486071 0.072473 0.054658
0.599464 0.097813 0.071838
0.683882 0.124708 0.091941
0.746927 0.153886 0.115736
0.034815 0.071631 0.082769
0.092429 0.089466 0.084989
0.202872 0.105733 0.081217
0.342623 0.122778 0.081056
0.490025 0.141979 0.090620
0.616950 0.162338 0.108711
0.709765 0.183484 0.131153
0.777439 0.208124 0.157532
0.044559 0.099385 0.112788
0.099201 0.130072 0.123857
0.219330 0.164419 0.117402
0.363708 0.195299 0.113850
0.502326 0.218458 0.125925
0.627234 0.236330 0.148245
0.724468 0.252509 0.176004
0.798664 0.271508 0.207456
0.057779 0.129398 0.145173
0.122804 0.165274 0.159160
0.257117 0.213332 0.150932
0.403806 0.260200 0.147669
0.526277 0.296348 0.165633
0.637532 0.318260 0.193873
0.733379 0.333033 0.228018
0.812841 0.347431 0.265277
0.075371 0.161527 0.180133
0.152294 0.203624 0.197771
0.300261 0.256147 0.189498
0.451743 0.313802 0.187954
0.564096 0.369597 0.212292
0.654782 0.404163 0.247313
0.742101 0.423414 0.287440
0.822450 0.436374 0.329718
0.100199 0.196442 0.218822
0.190932 0.246329 0.241442
0.351151 0.305178 0.235044
0.509063 0.366274 0.234630
0.618489 0.424667 0.261816
0.691501 0.478298 0.306469
0.761137 0.511472 0.351289
0.831688 0.530486 0.395877
0.132319 0.234533 0.260120
0.237815 0.293517 0.289479
0.407178 0.358594 0.286953
0.568043 0.422674 0.288543
0.674376 0.481306 0.316820
0.739966 0.536152 0.362905
0.793588 0.581031 0.411240
0.848096 0.611440 0.456682
0.171207 0.276427 0.305056
0.289538 0.343407 0.339643
0.464800 0.413465 0.341035
0.625527 0.479270 0.344647
0.727165 0.536594 0.372839
0.787346 0.588682 0.417381
0.831071 0.636738 0.464965
0.871000 0.674895 0.509008
0.029312 0.075639 0.096152
0.099556 0.065015 0.078075
0.237942 0.057644 0.059688
0.390522 0.064898 0.057199
0.520659 0.091244 0.077694
0.629556 0.121048 0.102009
0.709968 0.152585 0.129663
0.771185 0.186154 0.160787
0.039222 0.101595 0.126657
0.084117 0.123720 0.138643
0.191812 0.138435 0.136950
0.340197 0.153847 0.134160
0.505035 0.174813 0.139664
0.639703 0.197926 0.158777
0.734183 0.222679 0.185320
0.801305 0.250428 0.215652
0.052727 0.131806 0.161344
0.096043 0.167348 0.185339
0.194479 0.204136 0.195868
0.337837 0.236501 0.196606
0.508244 0.261264 0.194241
0.650177 0.281182 0.211796
0.752448 0.300220 0.240182
0.825220 0.321661 0.272617
0.070046 0.164872 0.198414
0.122146 0.206087 0.227356
0.224537 0.257813 0.244988
0.366800 0.307457 0.249206
0.531269 0.345881 0.244531
0.663366 0.368605 0.263432
0.765057 0.384813 0.294984
0.841723 0.400594 0.330918
0.091878 0.200084 0.237069
0.153870 0.247435 0.271536
0.266252 0.304142 0.291670
0.413336 0.365164 0.297027
0.572820 0.423215 0.293600
0.682384 0.455948 0.315662
0.774227 0.474166 0.350328
0.851081 0.486643 0.389747
0.122408 0.239512 0.280345
0.196445 0.294138 0.320742
0.318062 0.355978 0.343288
0.469476 0.419372 0.349288
0.625849 0.479166 0.346295
0.716927 0.527622 0.370477
0.790750 0.557777 0.406861
0.858035 0.575118 0.447645
0.161781 0.282980 0.326213
0.248378 0.345657 0.373437
0.377212 0.412289 0.399209
0.529986 0.477382 0.406038
0.681925 0.536500 0.402585
0.763851 0.584834 0.426219
0.820320 0.623519 0.461750
0.871468 0.650111 0.500876
0.209103 0.329942 0.374548
0.305089 0.399025 0.426989
0.438115 0.469325 0.455455
0.589593 0.534977 0.462821
0.735383 0.591729 0.458189
0.809981 0.636659 0.479590
0.855340 0.677330 0.512766
0.892045 0.710420 0.549589
0.032888 0.105967 0.137886
0.077286 0.108309 0.135508
0.214804 0.098603 0.112506
0.390009 0.096560 0.095911
0.555655 0.114607 0.103715
0.660808 0.149571 0.136300
0.737150 0.185912 0.172254
0.796577 0.224067 0.211149
0.046006 0.133472 0.172490
0.087482 0.162245 0.192006
0.183238 0.180361 0.198513
0.331450 0.195701 0.198043
0.516021 0.214123 0.197858
0.660070 0.238335 0.215552
0.756902 0.265523 0.244633
0.823775 0.295681 0.278312
0.063401 0.166329 0.212183
0.111486 0.206791 0.240723
0.187951 0.247738 0.269297
0.317216 0.283615 0.283593
0.501091 0.310964 0.279441
0.664328 0.330262 0.286229
0.774167 0.349901 0.311009
0.847255 0.372094 0.342113
0.085939 0.203332 0.254728
0.144261 0.249096 0.287066
0.218088 0.304294 0.328287
0.338055 0.357753 0.352084
0.511991 0.400247 0.347116
0.674110 0.421104 0.347409
0.787076 0.436182 0.370130
0.864175 0.451425 0.400989
0.114324 0.243502 0.298647
0.182800 0.294377 0.335045
0.264100 0.354465 0.379837
0.383835 0.418200 0.406216
0.547200 0.477432 0.402218
0.691072 0.506575 0.399894
0.796088 0.521693 0.422036
0.873444 0.532388 0.454157
0.150489 0.286821 0.344766
0.231453 0.344575 0.386337
0.318500 0.407974 0.433448
0.439369 0.472539 0.460091
0.599141 0.533195 0.454922
0.724321 0.577835 0.450005
0.810495 0.602405 0.470295
0.878451 0.615533 0.502070
0.197337 0.335054 0.394370
0.289518 0.399707 0.441101
0.381016 0.465874 0.489957
0.500960 0.530415 0.516128
0.655352 0.589563 0.509294
0.769323 0.632980 0.502329
0.836751 0.664748 0.518775
0.888768 0.685804 0.547240
0.252066 0.385952 0.445299
0.351569 0.455948 0.496204
0.444733 0.523668 0.545693
0.561489 0.587012 0.570538
0.708847 0.643128 0.561615
0.813640 0.682347 0.552120
0.868820 0.715884 0.565720
0.906395 0.743089 0.591542
0.039340 0.136500 0.179456
0.073492 0.151484 0.193763
0.167989 0.157622 0.190921
0.342885 0.154970 0.170598
0.578281 0.150758 0.144252
0.692784 0.186051 0.177843
0.767147 0.225984 0.220369
0.823756 0.268038 0.265858
0.056245 0.166621 0.218011
0.096866 0.202116 0.248320
0.176842 0.231560 0.267950
0.319863 0.252587 0.273857
0.522257 0.266475 0.268980
0.681236 0.288453 0.280016
0.781256 0.315819 0.308195
0.847320 0.347097 0.343165
0.078296 0.202471 0.261721
0.128415 0.247476 0.298452
0.203990 0.295182 0.333689
0.322854 0.338484 0.361654
0.489999 0.371698 0.377161
0.673606 0.388345 0.370713
0.791369 0.405366 0.387079
0.865920 0.425902 0.413904
0.107837 0.244313 0.310139
0.167974 0.293563 0.348773
0.246836 0.352500 0.392080
0.349263 0.411450 0.433824
0.482127 0.460526 0.463743
0.672643 0.479441 0.445056
0.799149 0.490313 0.453275
0.879685 0.502493 0.475243
0.145593 0.291250 0.361669
0.215060 0.344091 0.401806
0.301552 0.406969 0.446531
0.395017 0.472128 0.492184
0.499536 0.530383 0.527685
0.681795 0.558467 0.501554
0.806627 0.568828 0.505233
0.888798 0.576516 0.525456
0.188217 0.338246 0.409635
0.269322 0.397301 0.454125
0.359366 0.461640 0.499856
0.451660 0.526224 0.544598
0.550839 0.585782 0.578044
0.712224 0.629078 0.547097
0.818712 0.646236 0.545779
0.892695 0.653243 0.563408
0.242377 0.390828 0.462246
0.332328 0.455112 0.509752
0.424317 0.520143 0.555144
0.513929 0.582976 0.597698
0.606853 0.640030 0.628280
0.754482 0.681195 0.594347
0.841501 0.705869 0.586933
0.900551 0.720174 0.600083
0.303826 0.445663 0.515611
0.398168 0.513497 0.565167
0.489330 0.577685 0.609075
0.574229 0.637606 0.648455
0.659581 0.691162 0.675637
0.796648 0.727249 0.639024
0.870324 0.754178 0.628558
0.915138 0.774820 0.638477
0.051251 0.167695 0.222183
0.083354 0.193657 0.251127
0.162531 0.216059 0.268209
0.303530 0.232277 0.271085
0.504860 0.240689 0.259705
0.712598 0.240707 0.239872
0.799817 0.277445 0.277763
0.852414 0.321608 0.326314
0.071815 0.201329 0.263666
0.114126 0.243268 0.304305
0.188783 0.282759 0.336584
0.313979 0.318292 0.358608
0.494629 0.346604 0.368172
0.698685 0.353251 0.357287
0.807029 0.376024 0.377488
0.871431 0.405464 0.409381
0.100117 0.241520 0.310821
0.152536 0.290846 0.355744
0.227046 0.343082 0.397896
0.338304 0.394288 0.433938
0.493500 0.438708 0.459461
0.685261 0.457479 0.460024
0.809156 0.469700 0.465711
0.884611 0.485726 0.483345
0.137098 0.287497 0.362166
0.199375 0.340879 0.408501
0.277271 0.400533 0.455182
0.376850 0.461308 0.498696
0.504039 0.516630 0.534060
0.675041 0.548104 0.544783
0.807773 0.554444 0.539485
0.892272 0.560276 0.546439
0.183490 0.338624 0.416441
0.254643 0.395922 0.464151
0.337740 0.457676 0.510717
0.428778 0.521041 0.555009
0.529841 0.581330 0.593632
0.671467 0.622284 0.610254
0.805154 0.627953 0.597471
0.895354 0.628141 0.597933
0.241922 0.395574 0.473043
0.317121 0.453759 0.520120
0.401154 0.515099 0.564953
0.491020 0.577295 0.606616
0.584860 0.636720 0.642248
0.684988 0.681102 0.657681
0.807754 0.690564 0.640127
0.896904 0.690665 0.638033
0.303351 0.452375 0.527337
0.382825 0.512354 0.574427
0.466266 0.572661 0.617431
0.551610 0.631628 0.655855
0.637193 0.686665 0.687571
0.721827 0.728652 0.700716
0.826959 0.746593 0.674523
0.904125 0.753463 0.666272
0.369252 0.510364 0.581233
0.449703 0.571016 0.627889
0.530219 0.628882 0.668203
0.609238 0.683245 0.702460
0.685975 0.732842 0.729638
0.761657 0.772158 0.741015
0.852865 0.793046 0.710135
0.916565 0.806175 0.696665
0.068203 0.200780 0.267273
0.102648 0.236134 0.305975
0.176598 0.272352 0.338621
0.301936 0.306514 0.362227
0.480283 0.334640 0.373619
0.685509 0.344148 0.363666
0.809572 0.356181 0.367018
0.878408 0.383946 0.393143
0.093890 0.239268 0.311196
0.141527 0.287484 0.359270
0.214918 0.334985 0.401485
0.329949 0.381660 0.436581
0.492904 0.424308 0.461631
0.687176 0.443957 0.462476
0.818750 0.452055 0.461021
0.893512 0.469042 0.476301
0.129734 0.284280 0.360531
0.187734 0.338504 0.412198
0.261536 0.394022 0.459950
0.365723 0.449941 0.502352
0.508358 0.502541 0.536291
0.686141 0.533199 0.547600
0.821191 0.540046 0.543329
0.901864 0.548451 0.549384
0.175934 0.335022 0.414082
0.242419 0.392602 0.466796
0.317962 0.452348 0.516369
0.411198 0.512708 0.561454
0.529364 0.570158 0.599375
0.685176 0.609970 0.618446
0.818818 0.617916 0.612576
0.904109 0.620329 0.611535
0.232380 0.390812 0.470766
0.305423 0.451371 0.523807
0.383418 0.511584 0.572084
0.466813 0.571261 0.615530
0.559839 0.628619 0.652851
0.687358 0.673583 0.675407
0.814023 0.684449 0.668518
0.901593 0.683724 0.662816
0.300033 0.452103 0.529905
0.373118 0.511340 0.579876
0.449477 0.569639 0.625161
0.529654 0.626640 0.665142
0.613631 0.680871 0.698643
0.699993 0.724654 0.719858
0.812252 0.739003 0.712124
0.898349 0.738585 0.704495
0.369972 0.513715 0.586289
0.440133 0.569938 0.632908
0.512374 0.624489 0.674109
0.587275 0.677039 0.709404
0.664161 0.726468 0.737993
0.737258 0.766899 0.755652
0.824897 0.787020 0.746769
0.898763 0.790673 0.737685
0.438506 0.573778 0.640044
0.504814 0.626557 0.683160
0.571875 0.676539 0.720082
0.640250 0.723829 0.750588
0.709405 0.767952 0.774418
0.774191 0.804985 0.789410
0.844930 0.827879 0.781038
0.906866 0.837445 0.768076
0.090260 0.237008 0.313246
0.129828 0.280961 0.359065
0.203821 0.327839 0.403053
0.321479 0.375862 0.442355
0.483896 0.421186 0.473215
0.670630 0.448184 0.483503
0.812682 0.452857 0.474495
0.894221 0.463536 0.478401
0.122631 0.280857 0.359114
0.177549 0.334962 0.413729
0.252972 0.388914 0.463383
0.361985 0.443532 0.507534
0.509946 0.496379 0.543794
0.684117 0.529695 0.558714
0.822638 0.534960 0.550501
0.905121 0.540366 0.549723
0.167543 0.330405 0.410485
0.232898 0.389848 0.468382
0.307063 0.447838 0.520202
0.404790 0.506158 0.566463
0.534453 0.563184 0.605529
0.692317 0.602061 0.624205
0.825723 0.609959 0.618052
0.909665 0.612070 0.613701
0.224686 0.386097 0.466580
0.296216 0.447986 0.524472
0.368748 0.507128 0.575670
0.453736 0.565359 0.621089
0.560165 0.621962 0.659722
0.698650 0.665008 0.680492
0.824393 0.676718 0.676627
0.909111 0.677191 0.669546
0.292609 0.447575 0.526131
0.366302 0.510010 0.582190
0.437728 0.567671 0.630671
0.510464 0.622118 0.672581
0.591232 0.673848 0.707643
0.706258 0.718787 0.728579
0.821059 0.734657 0.726410
0.905066 0.734903 0.717219
0.366738 0.512325 0.585794
0.436451 0.570931 0.637164
0.503288 0.624722 0.681475
0.570745 0.674996 0.719085
0.641734 0.722294 0.749888
0.719766 0.763800 0.770234
0.819242 0.782918 0.768477
0.900889 0.784586 0.757742
0.438591 0.574940 0.641310
0.500908 0.627037 0.686811
0.561728 0.675347 0.725973
0.623802 0.720723 0.758628
0.688752 0.763407 0.784420
0.755507 0.800721 0.800336
0.828251 0.823818 0.803078
0.897797 0.828457 0.794067
0.506103 0.634297 0.693235
0.560679 0.679239 0.732191
0.615079 0.721451 0.765880
0.671379 0.761535 0.793571
0.730566 0.799551 0.814617
0.790654 0.832934 0.826687
0.846160 0.857174 0.832034
0.903424 0.866559 0.822969
