filter/Red and Blue/lut/Hope 03_S.cube
# LUT by SparkleStock. Enhanced with VOXCOLOR algorithms.
LUT_3D_SIZE 8
DOMAIN_MIN 0.000000 0.000000 0.000000
DOMAIN_MAX 0.903226 0.903226 0.903226
0.035165 0.023443 0.023443
0.110032 0.020796 0.019284
0.205120 0.021364 0.018473
0.314995 0.025854 0.019749
0.433085 0.034692 0.022254
0.545386 0.048493 0.026413
0.633109 0.066076 0.032463
0.699531 0.090764 0.043499
0.038757 0.050479 0.048399
0.139677 0.070665 0.025797
0.239877 0.087327 0.019814
0.349226 0.100562 0.021444
0.470537 0.110315 0.024608
0.582984 0.115042 0.030963
0.668658 0.120622 0.042013
0.729817 0.133912 0.058057
0.045295 0.078183 0.074962
0.171854 0.109903 0.040035
0.279246 0.150084 0.029122
0.383968 0.183617 0.030613
0.495526 0.200713 0.036340
0.603765 0.202067 0.047068
0.689429 0.196768 0.064778
0.751563 0.196789 0.087665
0.057222 0.108921 0.103840
0.209554 0.145812 0.059899
0.326208 0.202267 0.045381
0.424393 0.256183 0.049204
0.517945 0.291151 0.062358
0.616096 0.297335 0.079819
0.700333 0.288084 0.106336
0.766036 0.278670 0.137426
0.075986 0.144086 0.135460
0.254005 0.184014 0.083945
0.381469 0.241614 0.068008
0.473757 0.306987 0.078055
0.547089 0.367494 0.104233
0.628464 0.389084 0.132269
0.706885 0.386944 0.169254
0.775229 0.376471 0.208700
0.101698 0.183221 0.170058
0.301819 0.227979 0.113273
0.439047 0.281805 0.099221
0.532054 0.341933 0.116537
0.598214 0.404397 0.154956
0.656024 0.458041 0.206117
0.720028 0.477100 0.250860
0.784267 0.479075 0.293800
0.134657 0.226137 0.208279
0.348951 0.276091 0.150250
0.490780 0.329445 0.139948
0.583276 0.385792 0.164137
0.646625 0.444101 0.210801
0.696970 0.500525 0.269354
0.747106 0.540682 0.321773
0.800319 0.562488 0.366963
0.175927 0.269195 0.251014
0.397735 0.323229 0.196035
0.539798 0.376650 0.189861
0.629814 0.430519 0.218526
0.690946 0.485193 0.269039
0.738156 0.538623 0.328031
0.780136 0.586260 0.381133
0.821384 0.621374 0.425350
0.035165 0.050289 0.059364
0.127889 0.031542 0.037641
0.235443 0.026584 0.037720
0.353245 0.030696 0.046571
0.474995 0.040724 0.054656
0.583783 0.058916 0.059401
0.665066 0.084061 0.063109
0.724145 0.115677 0.071218
0.043002 0.078935 0.088565
0.114866 0.100245 0.091573
0.228616 0.114077 0.091046
0.361598 0.123979 0.091751
0.494940 0.132641 0.096189
0.611353 0.140965 0.100410
0.699009 0.153504 0.103944
0.758737 0.173707 0.111026
0.054925 0.110634 0.120098
0.127026 0.151712 0.129714
0.249246 0.192038 0.122151
0.386019 0.221668 0.115751
0.512742 0.235373 0.121165
0.628734 0.239371 0.128564
0.720442 0.240934 0.137984
0.784822 0.247714 0.152156
0.072523 0.146166 0.154124
0.154136 0.195531 0.163725
0.285618 0.255675 0.147851
0.420917 0.307076 0.135785
0.532358 0.336786 0.144411
0.640623 0.343839 0.157741
0.732911 0.340296 0.176022
0.803210 0.337032 0.199842
0.097087 0.186051 0.190903
0.189175 0.239119 0.201995
0.329819 0.303963 0.180383
0.463524 0.369472 0.164487
0.559193 0.424096 0.176768
0.652550 0.443537 0.198292
0.740539 0.444124 0.225654
0.815200 0.438475 0.257177
0.131288 0.231187 0.231941
0.234826 0.286479 0.246829
0.385338 0.346708 0.224047
0.522265 0.408936 0.207233
0.610153 0.469243 0.223028
0.677452 0.516432 0.256574
0.751647 0.534856 0.289843
0.823511 0.539219 0.323141
0.174810 0.281202 0.275871
0.286968 0.338989 0.294331
0.442134 0.394601 0.274749
0.580337 0.449795 0.261280
0.665866 0.505138 0.280928
0.722453 0.556846 0.318975
0.776903 0.595665 0.355819
0.835031 0.617872 0.389089
0.227216 0.331816 0.322661
0.342785 0.389736 0.342920
0.497222 0.442685 0.327855
0.633273 0.492982 0.318694
0.716661 0.542293 0.340535
0.768431 0.590639 0.379003
0.810495 0.636165 0.417348
0.853312 0.670119 0.451860
0.036772 0.081689 0.101446
0.111377 0.068717 0.084760
0.243889 0.049706 0.070216
0.386736 0.041854 0.070209
0.508231 0.054471 0.087931
0.612676 0.076639 0.095956
0.689454 0.108672 0.100018
0.744803 0.146771 0.109749
0.048231 0.113914 0.134891
0.107637 0.138479 0.151676
0.224049 0.145031 0.159363
0.366862 0.147277 0.164189
0.510427 0.154381 0.169784
0.630538 0.165006 0.172078
0.719933 0.183815 0.171045
0.780460 0.211169 0.173560
0.065872 0.150477 0.172128
0.125454 0.194099 0.199010
0.234540 0.229654 0.212947
0.372261 0.252607 0.217607
0.518506 0.261966 0.217196
0.643569 0.267109 0.219951
0.741673 0.274758 0.222504
0.810366 0.288928 0.228392
0.089652 0.190871 0.211518
0.155842 0.243376 0.239558
0.263593 0.300558 0.251262
0.395268 0.345892 0.251311
0.533869 0.369496 0.246140
0.654201 0.375966 0.252733
0.755678 0.377397 0.262582
0.832778 0.380680 0.276518
0.120132 0.234958 0.252264
0.193133 0.292203 0.282684
0.303032 0.357109 0.290034
0.430855 0.418650 0.282657
0.559362 0.466531 0.271198
0.665894 0.482703 0.282392
0.764083 0.485495 0.299196
0.847059 0.484152 0.320741
0.162304 0.284851 0.296736
0.242524 0.342998 0.331348
0.355682 0.404472 0.338141
0.483933 0.465384 0.327031
0.608134 0.521600 0.311043
0.689003 0.563863 0.324117
0.773835 0.580971 0.344134
0.854650 0.586437 0.367141
0.213452 0.338215 0.343367
0.298613 0.397173 0.381377
0.413318 0.453441 0.390732
0.542321 0.507364 0.380746
0.666501 0.559101 0.364481
0.736032 0.607661 0.378190
0.797573 0.644981 0.398131
0.862826 0.666730 0.419641
0.271888 0.391012 0.390982
0.357493 0.448988 0.430285
0.470235 0.501407 0.442142
0.597452 0.549510 0.434649
0.720891 0.594781 0.419990
0.785537 0.640084 0.434041
0.831834 0.684370 0.455490
0.878764 0.717703 0.479035
0.041246 0.116460 0.146851
0.092310 0.119369 0.145485
0.227210 0.099098 0.124818
0.391221 0.079695 0.109394
0.540436 0.078774 0.114058
0.639100 0.105175 0.130073
0.711682 0.142416 0.139807
0.764915 0.185674 0.156437
0.056621 0.152893 0.184053
0.111911 0.183631 0.209680
0.220328 0.190627 0.226651
0.364571 0.187677 0.235204
0.523287 0.186368 0.236972
0.646598 0.198193 0.238804
0.736748 0.221422 0.236762
0.798431 0.254041 0.239615
0.080190 0.194536 0.226335
0.142793 0.239247 0.259453
0.234985 0.272635 0.293128
0.362229 0.291143 0.313484
0.518421 0.295309 0.314327
0.653147 0.299225 0.311359
0.756333 0.310287 0.308688
0.829223 0.329554 0.309636
0.111688 0.240055 0.270881
0.181761 0.291560 0.303519
0.265686 0.343982 0.340443
0.379384 0.383623 0.361950
0.525209 0.402562 0.359343
0.660053 0.405548 0.356324
0.769989 0.408905 0.358186
0.853634 0.416470 0.363704
0.150831 0.288573 0.315767
0.226787 0.344319 0.348287
0.307797 0.404651 0.382097
0.411949 0.460073 0.397206
0.544522 0.501571 0.386502
0.669658 0.512217 0.383572
0.778566 0.514773 0.390145
0.869468 0.515936 0.401848
0.198870 0.341125 0.361337
0.280506 0.397688 0.395726
0.359464 0.456643 0.429245
0.459389 0.513745 0.440347
0.586856 0.564848 0.421725
0.690844 0.601774 0.411212
0.787596 0.615616 0.418123
0.876813 0.620334 0.431797
0.254696 0.395929 0.408740
0.338568 0.452352 0.444677
0.415902 0.506900 0.479227
0.514211 0.558752 0.490090
0.641143 0.607330 0.469405
0.736503 0.651843 0.454402
0.809554 0.685983 0.457451
0.882977 0.705636 0.468637
0.315351 0.448242 0.455702
0.397560 0.503563 0.492428
0.471738 0.554111 0.527136
0.567619 0.600641 0.538585
0.693762 0.644058 0.519126
0.786650 0.685782 0.503095
0.843763 0.727826 0.505983
0.897093 0.759398 0.518407
0.049588 0.153728 0.193241
0.091706 0.173762 0.208396
0.193269 0.175113 0.203110
0.359091 0.155140 0.176914
0.565588 0.123987 0.141163
0.666960 0.148156 0.160947
0.736090 0.187236 0.181051
0.787108 0.233543 0.209244
0.070031 0.194132 0.233498
0.123839 0.233892 0.267658
0.216728 0.254899 0.293506
0.356782 0.255108 0.303354
0.533672 0.240363 0.296565
0.663911 0.249078 0.296556
0.754040 0.273220 0.296608
0.815720 0.307378 0.304346
0.100055 0.240548 0.279341
0.163253 0.288407 0.318622
0.249361 0.326494 0.358348
0.367695 0.346774 0.388855
0.517251 0.347570 0.402960
0.661984 0.347036 0.394409
0.768003 0.357224 0.388332
0.843175 0.376923 0.389024
0.140896 0.291301 0.328282
0.209946 0.341693 0.366140
0.291558 0.391143 0.407634
0.391394 0.428519 0.445289
0.513341 0.446563 0.470283
0.662178 0.443811 0.458942
0.778184 0.444549 0.454110
0.866107 0.451902 0.455044
0.191561 0.344636 0.377779
0.262981 0.396439 0.413438
0.342252 0.450164 0.450047
0.426858 0.499243 0.484691
0.521589 0.536042 0.510348
0.666572 0.540160 0.496198
0.785480 0.538796 0.494225
0.882167 0.539233 0.497827
0.243662 0.397810 0.423348
0.318439 0.450799 0.459503
0.395682 0.504799 0.493695
0.472751 0.556552 0.524491
0.554881 0.602415 0.544762
0.684098 0.633140 0.516697
0.793564 0.640943 0.512802
0.889759 0.642474 0.518749
0.301308 0.453159 0.470447
0.375822 0.505444 0.506846
0.450135 0.555775 0.539595
0.522526 0.604366 0.569195
0.599214 0.650587 0.588410
0.723994 0.689353 0.551070
0.812817 0.717641 0.539010
0.895135 0.732954 0.541423
0.361245 0.504200 0.516408
0.432596 0.555031 0.552730
0.502944 0.601840 0.584347
0.571136 0.646675 0.613443
0.644420 0.690143 0.633100
0.770427 0.727162 0.592412
0.845296 0.764548 0.576362
0.907815 0.791951 0.577484
0.063390 0.193808 0.238804
0.106678 0.228918 0.269328
0.196452 0.252291 0.284076
0.335696 0.257810 0.277578
0.516470 0.243252 0.248670
0.690732 0.215753 0.207419
0.766400 0.246832 0.229548
0.813222 0.292603 0.268571
0.091590 0.238310 0.281989
0.147588 0.287028 0.323131
0.232679 0.323376 0.355651
0.355853 0.343676 0.373990
0.516495 0.345638 0.373887
0.683590 0.326596 0.348878
0.776895 0.342472 0.349783
0.835956 0.371546 0.363914
0.131030 0.288722 0.330448
0.194790 0.340943 0.373383
0.274496 0.386429 0.413864
0.381342 0.418924 0.446768
0.519611 0.433551 0.466532
0.676241 0.423229 0.458661
0.783654 0.425569 0.451544
0.857158 0.438080 0.453743
0.179592 0.343183 0.381328
0.247240 0.394584 0.422774
0.322433 0.444356 0.464155
0.413475 0.485472 0.502202
0.526635 0.511458 0.532321
0.669759 0.509768 0.539347
0.786844 0.502971 0.531725
0.874577 0.502481 0.530012
0.235343 0.399700 0.432233
0.303534 0.449908 0.472487
0.375642 0.499261 0.510570
0.453052 0.544928 0.546270
0.540946 0.581826 0.577774
0.666065 0.590010 0.594498
0.787411 0.580761 0.588798
0.886789 0.573395 0.586871
0.297397 0.454777 0.480876
0.360673 0.502771 0.518566
0.428340 0.550846 0.553580
0.501140 0.597167 0.585395
0.580427 0.639092 0.612617
0.672557 0.667763 0.628231
0.789522 0.666473 0.621044
0.893446 0.660711 0.618500
0.353896 0.508004 0.526902
0.413830 0.554350 0.563665
0.478205 0.599791 0.596533
0.547177 0.644163 0.625870
0.620933 0.686670 0.650722
0.701033 0.722930 0.663067
0.803392 0.742489 0.642924
0.898335 0.750342 0.633988
0.409278 0.556673 0.570881
0.464991 0.601295 0.607142
0.525778 0.644213 0.638491
0.590919 0.685983 0.666255
0.660218 0.726729 0.690186
0.736432 0.764684 0.702601
0.829883 0.793817 0.672683
0.908959 0.813558 0.657633
0.086801 0.239403 0.286258
0.135286 0.284222 0.326052
0.221444 0.323041 0.355685
0.346531 0.349316 0.369161
0.505940 0.357847 0.362220
0.676129 0.340887 0.329702
0.781693 0.337841 0.316694
0.841512 0.359240 0.333306
0.123979 0.287515 0.330784
0.185249 0.341428 0.377060
0.265956 0.387009 0.415019
0.376337 0.421562 0.441374
0.519532 0.441687 0.452306
0.680042 0.435279 0.435426
0.792011 0.429499 0.418785
0.858450 0.440038 0.421532
0.173451 0.340051 0.379669
0.238771 0.394746 0.426050
0.312440 0.444060 0.467549
0.407625 0.484806 0.501853
0.531695 0.513065 0.525335
0.680806 0.516150 0.523865
0.797654 0.507966 0.510082
0.873178 0.507926 0.507050
0.230455 0.395374 0.430557
0.294954 0.447566 0.475005
0.362131 0.497271 0.516369
0.442371 0.541337 0.553400
0.544165 0.575626 0.583551
0.679636 0.586712 0.595543
0.798852 0.577339 0.588265
0.884363 0.568968 0.584757
0.290835 0.451858 0.481515
0.352184 0.501513 0.524572
0.414512 0.548657 0.563414
0.481745 0.592976 0.598600
0.560771 0.631847 0.629746
0.678240 0.650131 0.651419
0.796485 0.641988 0.651459
0.891234 0.629313 0.650055
0.350645 0.507008 0.530914
0.405039 0.552560 0.570614
0.462265 0.596979 0.606932
0.525595 0.639853 0.639542
0.597555 0.679820 0.668123
0.681524 0.710017 0.691199
0.793871 0.709474 0.694687
0.893718 0.699759 0.694097
0.403253 0.558418 0.576801
0.451479 0.600527 0.614309
0.504499 0.641762 0.648231
0.565092 0.682373 0.678184
0.634503 0.721826 0.703832
0.710764 0.755759 0.723758
0.803819 0.772992 0.724571
0.894365 0.774829 0.722189
0.452960 0.604190 0.619393
0.495271 0.643548 0.655305
0.544376 0.682259 0.687229
0.602054 0.720763 0.715211
0.668709 0.758872 0.739229
0.741605 0.793638 0.758047
0.823005 0.820426 0.755739
0.899557 0.833495 0.747200
0.117768 0.289172 0.334704
0.175583 0.339852 0.379852
0.261291 0.387612 0.418512
0.375763 0.426983 0.446044
0.516157 0.452936 0.458307
0.668703 0.455387 0.446573
0.788657 0.441535 0.421799
0.859573 0.441359 0.415772
0.165990 0.338657 0.379858
0.232488 0.395158 0.429308
0.309993 0.445308 0.471212
0.409206 0.487527 0.503814
0.535201 0.519085 0.524284
0.680357 0.528105 0.520562
0.799374 0.517090 0.499224
0.872233 0.513154 0.488671
0.224238 0.392094 0.428953
0.289931 0.447735 0.477991
0.356914 0.497417 0.520541
0.440328 0.541265 0.556318
0.549836 0.577428 0.583231
0.686172 0.592901 0.588278
0.804950 0.585388 0.573209
0.882839 0.578278 0.561584
0.287100 0.447624 0.479872
0.347070 0.499564 0.526479
0.404669 0.547002 0.567784
0.472829 0.590755 0.604283
0.562287 0.629471 0.634695
0.687761 0.650867 0.648210
0.805790 0.647131 0.641003
0.890355 0.637791 0.631021
0.349600 0.503461 0.530640
0.402362 0.551443 0.574596
0.453580 0.595749 0.613554
0.508814 0.637618 0.648426
0.576635 0.676468 0.679020
0.686970 0.703217 0.699549
0.802630 0.703634 0.700382
0.894100 0.693652 0.693721
0.404805 0.556891 0.578350
0.449881 0.599982 0.618916
0.495224 0.640804 0.655831
0.546324 0.680264 0.689049
0.607889 0.718373 0.718345
0.687373 0.751222 0.741711
0.797136 0.758415 0.747645
0.893438 0.752005 0.743378
0.451137 0.604787 0.622171
0.489273 0.643577 0.659926
0.530145 0.681140 0.694703
0.578962 0.718364 0.725820
0.639388 0.755328 0.752601
0.714258 0.788844 0.772896
0.802462 0.808394 0.783459
0.889557 0.810449 0.781807
0.494101 0.647668 0.663888
0.525463 0.682727 0.698491
0.562232 0.717492 0.730793
0.609212 0.752809 0.759686
0.669439 0.788646 0.784072
0.744146 0.821511 0.801034
0.819200 0.846885 0.812572
0.892162 0.856941 0.809669
