filter/Red and Blue/lut/Impulse 04.cube
# LUT by SparkleStock. Enhanced with VOXCOLOR algorithms.
LUT_3D_SIZE 32
0.027350 0.019536 0.019536
0.042018 0.019095 0.021356
0.056686 0.018654 0.023175
0.071354 0.018213 0.024995
0.086022 0.017771 0.026815
0.107149 0.017519 0.027878
0.133121 0.017409 0.028374
0.159093 0.017299 0.028871
0.185064 0.017189 0.029367
0.211895 0.017070 0.029903
0.243877 0.016905 0.030675
0.275860 0.016740 0.031447
0.307842 0.016574 0.032219
0.339824 0.016409 0.032991
0.370822 0.016992 0.034669
0.401426 0.017874 0.036709
0.432030 0.018756 0.038749
0.462633 0.019638 0.040789
0.491488 0.020836 0.043050
0.515971 0.022821 0.045862
0.540455 0.024806 0.048675
0.564938 0.026791 0.051487
0.589421 0.028776 0.054299
0.607617 0.031139 0.056780
0.624767 0.033566 0.059207
0.641916 0.035992 0.061633
0.659065 0.038418 0.064059
0.673378 0.041624 0.066296
0.683910 0.045870 0.068282
0.694442 0.050116 0.070267
0.704975 0.054362 0.072252
0.715507 0.058608 0.074237
0.028067 0.021190 0.023396
0.043071 0.020562 0.024493
0.058075 0.019934 0.025591
0.073079 0.019307 0.026688
0.088083 0.018679 0.027786
0.109611 0.018368 0.028575
0.136031 0.018295 0.029134
0.162451 0.018222 0.029693
0.188871 0.018149 0.030251
0.216152 0.018090 0.030874
0.248595 0.018111 0.031882
0.281038 0.018132 0.032891
0.313481 0.018154 0.033900
0.345924 0.018175 0.034908
0.377427 0.019043 0.036778
0.408553 0.020249 0.038993
0.439680 0.021455 0.041207
0.470807 0.022661 0.043422
0.500114 0.024239 0.045829
0.524871 0.026747 0.048716
0.549628 0.029255 0.051602
0.574385 0.031763 0.054489
0.599142 0.034271 0.057376
0.617185 0.037328 0.059932
0.634111 0.040476 0.062433
0.651036 0.043625 0.064934
0.667961 0.046773 0.067435
0.681890 0.050659 0.069747
0.691824 0.055527 0.071807
0.701759 0.060396 0.073867
0.711693 0.065264 0.075927
0.721627 0.070133 0.077987
0.028784 0.022845 0.027256
0.044124 0.022030 0.027631
0.059464 0.021215 0.028007
0.074805 0.020401 0.028382
0.090145 0.019586 0.028757
0.112072 0.019216 0.029273
0.138941 0.019181 0.029894
0.165809 0.019145 0.030514
0.192678 0.019110 0.031135
0.220408 0.019109 0.031845
0.253312 0.019317 0.033090
0.286216 0.019525 0.034335
0.319119 0.019733 0.035581
0.352023 0.019941 0.036826
0.384031 0.021093 0.038888
0.415681 0.022623 0.041277
0.447331 0.024153 0.043666
0.478980 0.025683 0.046054
0.508739 0.027641 0.048607
0.533770 0.030672 0.051569
0.558801 0.033703 0.054530
0.583832 0.036734 0.057492
0.608863 0.039766 0.060454
0.626754 0.043516 0.063084
0.643454 0.047387 0.065660
0.660155 0.051257 0.068236
0.676856 0.055128 0.070811
0.690401 0.059693 0.073198
0.699738 0.065184 0.075333
0.709075 0.070675 0.077467
0.718411 0.076166 0.079602
0.727748 0.081657 0.081736
0.029501 0.024499 0.031116
0.045177 0.023497 0.030769
0.060854 0.022496 0.030422
0.076530 0.021494 0.030075
0.092206 0.020493 0.029728
0.114534 0.020065 0.029970
0.141851 0.020067 0.030653
0.169167 0.020068 0.031336
0.196484 0.020070 0.032019
0.224665 0.020128 0.032816
0.258029 0.020523 0.034298
0.291394 0.020918 0.035780
0.324758 0.021313 0.037262
0.358123 0.021708 0.038743
0.390636 0.023144 0.040997
0.422808 0.024998 0.043561
0.454981 0.026851 0.046124
0.487154 0.028705 0.048687
0.517364 0.031044 0.051385
0.542669 0.034598 0.054422
0.567974 0.038152 0.057458
0.593279 0.041706 0.060495
0.618584 0.045260 0.063531
0.636322 0.049705 0.066236
0.652798 0.054297 0.068887
0.669275 0.058890 0.071537
0.685752 0.063483 0.074188
0.698913 0.068728 0.076649
0.707652 0.074841 0.078858
0.716391 0.080955 0.081067
0.725130 0.087068 0.083277
0.733869 0.093182 0.085486
0.030218 0.026153 0.034976
0.046230 0.024965 0.033907
0.062243 0.023777 0.032838
0.078255 0.022588 0.031769
0.094268 0.021400 0.030700
0.116996 0.020913 0.030667
0.144761 0.020952 0.031413
0.172526 0.020992 0.032158
0.200291 0.021031 0.032903
0.228921 0.021147 0.033788
0.262747 0.021729 0.035506
0.296572 0.022311 0.037224
0.330397 0.022892 0.038942
0.364222 0.023474 0.040661
0.397240 0.025195 0.043107
0.429936 0.027373 0.045845
0.462632 0.029550 0.048582
0.495327 0.031727 0.051320
0.525990 0.034447 0.054164
0.551568 0.038524 0.057275
0.577147 0.042601 0.060386
0.602726 0.046678 0.063497
0.628305 0.050755 0.066608
0.645890 0.055893 0.069388
0.662142 0.061208 0.072114
0.678395 0.066523 0.074839
0.694648 0.071838 0.077564
0.707424 0.077762 0.080100
0.715565 0.084498 0.082384
0.723707 0.091234 0.084668
0.731848 0.097971 0.086952
0.739990 0.104707 0.089235
0.030494 0.027650 0.038962
0.046038 0.026801 0.038224
0.061583 0.025953 0.037485
0.077128 0.025104 0.036747
0.092672 0.024256 0.036009
0.116086 0.023696 0.035577
0.145402 0.023353 0.035374
0.174718 0.023009 0.035171
0.204034 0.022666 0.034968
0.234065 0.022490 0.035063
0.268387 0.023315 0.036939
0.302708 0.024141 0.038816
0.337030 0.024966 0.040693
0.371351 0.025791 0.042569
0.404687 0.027879 0.045155
0.437628 0.030473 0.048024
0.470569 0.033066 0.050893
0.503510 0.035660 0.053762
0.534375 0.038851 0.056738
0.560050 0.043536 0.059981
0.585725 0.048222 0.063223
0.611399 0.052907 0.066466
0.637074 0.057592 0.069709
0.654566 0.063473 0.072663
0.670694 0.069553 0.075570
0.686822 0.075632 0.078476
0.702951 0.081712 0.081383
0.715549 0.088349 0.084107
0.723442 0.095730 0.086586
0.731334 0.103110 0.089066
0.739226 0.110490 0.091545
0.747119 0.117870 0.094025
0.030438 0.029028 0.043042
0.044912 0.028914 0.043425
0.059386 0.028801 0.043807
0.073860 0.028687 0.044190
0.088334 0.028573 0.044572
0.112648 0.027930 0.043645
0.144342 0.026889 0.041737
0.176036 0.025848 0.039828
0.207731 0.024808 0.037919
0.239875 0.024075 0.036566
0.274719 0.025186 0.038542
0.309564 0.026298 0.040518
0.344408 0.027410 0.042494
0.379252 0.028522 0.044471
0.412764 0.031039 0.047156
0.445742 0.034118 0.050125
0.478721 0.037197 0.053093
0.511699 0.040276 0.056062
0.542580 0.044006 0.059159
0.568218 0.049364 0.062576
0.593855 0.054721 0.065993
0.619493 0.060079 0.069410
0.645130 0.065437 0.072827
0.662574 0.072096 0.076031
0.678653 0.078973 0.079199
0.694731 0.085850 0.082367
0.710809 0.092726 0.085535
0.723385 0.100102 0.088530
0.731290 0.108142 0.091296
0.739194 0.116182 0.094062
0.747099 0.124222 0.096828
0.755004 0.132262 0.099594
0.030383 0.030407 0.047123
0.043786 0.031028 0.048626
0.057189 0.031648 0.050129
0.070592 0.032269 0.051632
0.083995 0.032890 0.053135
0.109210 0.032163 0.051714
0.143282 0.030425 0.048099
0.177354 0.028687 0.044485
0.211427 0.026949 0.040870
0.245684 0.025660 0.038069
0.281052 0.027058 0.040145
0.316419 0.028456 0.042220
0.351786 0.029854 0.044296
0.387154 0.031252 0.046372
0.420841 0.034198 0.049157
0.453857 0.037762 0.052225
0.486873 0.041327 0.055294
0.519889 0.044892 0.058362
0.550786 0.049161 0.061580
0.576386 0.055191 0.065171
0.601986 0.061221 0.068763
0.627586 0.067251 0.072354
0.653186 0.073281 0.075945
0.670582 0.080720 0.079398
0.686611 0.088393 0.082827
0.702639 0.096067 0.086257
0.718668 0.103741 0.089686
0.731220 0.111854 0.092954
0.739137 0.120554 0.096007
0.747055 0.129254 0.099059
0.754972 0.137954 0.102111
0.762889 0.146654 0.105164
0.030328 0.031785 0.051203
0.042660 0.033141 0.053827
0.054993 0.034496 0.056451
0.067325 0.035852 0.059074
0.079657 0.037207 0.061698
0.105771 0.036397 0.059782
0.142222 0.033961 0.054462
0.178673 0.031526 0.049142
0.215123 0.029091 0.043821
0.251494 0.027244 0.039572
0.287384 0.028929 0.041747
0.323274 0.030613 0.043923
0.359165 0.032298 0.046098
0.395055 0.033982 0.048274
0.428919 0.037357 0.051158
0.461972 0.041407 0.054326
0.495025 0.045457 0.057494
0.528078 0.049508 0.060662
0.558991 0.054316 0.064001
0.584554 0.061018 0.067766
0.610117 0.067720 0.071532
0.635680 0.074423 0.075298
0.661242 0.081125 0.079063
0.678590 0.089343 0.082765
0.694569 0.097814 0.086456
0.710548 0.106284 0.090147
0.726526 0.114755 0.093838
0.739056 0.123606 0.097378
0.746985 0.132966 0.100717
0.754915 0.142326 0.104055
0.762845 0.151686 0.107394
0.770775 0.161046 0.110733
0.030375 0.033408 0.055670
0.041706 0.035532 0.059418
0.053037 0.037656 0.063166
0.064368 0.039780 0.066913
0.075699 0.041904 0.070661
0.102236 0.041145 0.068496
0.140179 0.038224 0.061894
0.178122 0.035303 0.055293
0.216065 0.032383 0.048692
0.253903 0.030133 0.043292
0.291112 0.031910 0.045092
0.328320 0.033687 0.046892
0.365529 0.035464 0.048692
0.402737 0.037241 0.050492
0.437029 0.040995 0.053342
0.470156 0.045540 0.056611
0.503282 0.050084 0.059880
0.536408 0.054629 0.063150
0.567357 0.059982 0.066613
0.592865 0.067355 0.070560
0.618372 0.074728 0.074507
0.643880 0.082101 0.078454
0.669388 0.089474 0.082401
0.686676 0.098451 0.086370
0.702594 0.107695 0.090342
0.718512 0.116940 0.094314
0.734431 0.126184 0.098286
0.746931 0.135742 0.102120
0.754875 0.145719 0.105770
0.762819 0.155697 0.109420
0.770763 0.165674 0.113070
0.778707 0.175651 0.116720
0.031037 0.036496 0.062452
0.041783 0.039591 0.067346
0.052528 0.042686 0.072239
0.063274 0.045781 0.077132
0.074019 0.048876 0.082026
0.098122 0.048982 0.081077
0.132242 0.046846 0.075746
0.166363 0.044709 0.070415
0.200483 0.042573 0.065084
0.235915 0.040843 0.060311
0.279212 0.041549 0.058886
0.322509 0.042255 0.057461
0.365806 0.042961 0.056036
0.409103 0.043668 0.054612
0.445340 0.047507 0.056620
0.478752 0.052600 0.060001
0.512165 0.057692 0.063383
0.545577 0.062785 0.066764
0.576685 0.068718 0.070371
0.602031 0.076751 0.074543
0.627377 0.084783 0.078714
0.652722 0.092816 0.082885
0.678068 0.100849 0.087056
0.695226 0.110465 0.091398
0.711020 0.120344 0.095769
0.726814 0.130224 0.100139
0.742608 0.140103 0.104510
0.755048 0.150179 0.108769
0.763017 0.160517 0.112879
0.770986 0.170855 0.116990
0.778955 0.181194 0.121101
0.786923 0.191532 0.125212
0.031699 0.039584 0.069235
0.041859 0.043650 0.075274
0.052019 0.047717 0.081313
0.062180 0.051783 0.087352
0.072340 0.055849 0.093390
0.094008 0.056819 0.093658
0.124306 0.055468 0.089597
0.154603 0.054116 0.085536
0.184901 0.052764 0.081475
0.217926 0.051553 0.077330
0.267312 0.051188 0.072680
0.316698 0.050824 0.068031
0.366084 0.050459 0.063381
0.415469 0.050094 0.058731
0.453650 0.054019 0.059898
0.487349 0.059660 0.063392
0.521048 0.065300 0.066885
0.554747 0.070941 0.070379
0.586013 0.077453 0.074130
0.611197 0.086146 0.078525
0.636381 0.094839 0.082921
0.661565 0.103532 0.087316
0.686749 0.112225 0.091711
0.703777 0.122479 0.096427
0.719446 0.132993 0.101196
0.735115 0.143507 0.105965
0.750785 0.154022 0.110734
0.763164 0.164615 0.115418
0.771158 0.175315 0.119989
0.779152 0.186014 0.124561
0.787146 0.196713 0.129132
0.795140 0.207413 0.133704
0.032360 0.042672 0.076017
0.041936 0.047710 0.083202
0.051511 0.052747 0.090386
0.061086 0.057784 0.097571
0.070661 0.062822 0.104755
0.089893 0.064657 0.106239
0.116369 0.064089 0.103448
0.142844 0.063522 0.100658
0.169319 0.062954 0.097867
0.199937 0.062263 0.094349
0.255412 0.060827 0.086475
0.310886 0.059392 0.078600
0.366361 0.057957 0.070726
0.421836 0.056521 0.062851
0.461961 0.060531 0.063176
0.495946 0.066720 0.066782
0.529931 0.072908 0.070388
0.563917 0.079096 0.073993
0.595341 0.086189 0.077888
0.620363 0.095542 0.082508
0.645385 0.104894 0.087127
0.670407 0.114247 0.091747
0.695429 0.123600 0.096366
0.712328 0.134493 0.101455
0.727872 0.145642 0.106623
0.743417 0.156791 0.111790
0.758962 0.167941 0.116957
0.771281 0.179052 0.122067
0.779300 0.190112 0.127099
0.787318 0.201173 0.132131
0.795337 0.212233 0.137163
0.803356 0.223294 0.142195
0.033022 0.045760 0.082800
0.042012 0.051769 0.091130
0.051002 0.057777 0.099460
0.059992 0.063786 0.107790
0.068982 0.069795 0.116120
0.085779 0.072494 0.118821
0.108432 0.072711 0.117300
0.131084 0.072928 0.115779
0.153737 0.073145 0.114258
0.181948 0.072973 0.111369
0.243512 0.070467 0.100269
0.305075 0.067960 0.089170
0.366639 0.065454 0.078070
0.428202 0.062948 0.066971
0.470271 0.067043 0.066455
0.504543 0.073779 0.070172
0.538814 0.080516 0.073890
0.573086 0.087252 0.077608
0.604669 0.094924 0.081647
0.629529 0.104937 0.086491
0.654389 0.114950 0.091334
0.679249 0.124962 0.096178
0.704109 0.134975 0.101021
0.720878 0.146506 0.106484
0.736298 0.158291 0.112050
0.751718 0.170075 0.117616
0.767139 0.181860 0.123181
0.779397 0.193488 0.128716
0.787441 0.204910 0.134209
0.795485 0.216331 0.139702
0.803528 0.227753 0.145194
0.811572 0.239174 0.150687
0.034826 0.051054 0.092182
0.043275 0.058363 0.102040
0.051724 0.065672 0.111898
0.060174 0.072981 0.121756
0.068623 0.080290 0.131614
0.083690 0.084340 0.136076
0.103721 0.085946 0.136492
0.123752 0.087552 0.136909
0.143782 0.089159 0.137325
0.169568 0.090144 0.136001
0.229883 0.087403 0.124238
0.290197 0.084662 0.112475
0.350512 0.081920 0.100712
0.410827 0.079179 0.088949
0.456975 0.082583 0.085814
0.497456 0.088444 0.086131
0.537937 0.094305 0.086448
0.578419 0.100166 0.086764
0.614426 0.107394 0.088479
0.639249 0.118040 0.093689
0.664072 0.128686 0.098899
0.688894 0.139332 0.104109
0.713717 0.149978 0.109319
0.730404 0.162152 0.115397
0.745736 0.174580 0.121619
0.761067 0.187008 0.127841
0.776398 0.199436 0.134063
0.788617 0.211573 0.140319
0.796685 0.223320 0.146619
0.804754 0.235067 0.152920
0.812822 0.246814 0.159220
0.820891 0.258561 0.165521
0.037087 0.057230 0.102603
0.045013 0.065970 0.114142
0.052939 0.074711 0.125681
0.060866 0.083452 0.137220
0.068792 0.092193 0.148759
0.082411 0.097789 0.155202
0.100300 0.101026 0.157822
0.118189 0.104264 0.160442
0.136078 0.107501 0.163062
0.159431 0.109899 0.163679
0.215562 0.107257 0.152277
0.271693 0.104616 0.140875
0.327824 0.101974 0.129473
0.383955 0.099333 0.118071
0.435035 0.101733 0.111607
0.484096 0.106150 0.107117
0.533156 0.110566 0.102627
0.582216 0.114983 0.098138
0.624355 0.121357 0.096540
0.649190 0.132626 0.102174
0.674026 0.143894 0.107807
0.698861 0.155163 0.113441
0.723696 0.166431 0.119074
0.740321 0.179249 0.125863
0.755578 0.192325 0.132845
0.770834 0.205401 0.139826
0.786091 0.218476 0.146808
0.798277 0.231116 0.153903
0.806371 0.243174 0.161150
0.814464 0.255233 0.168397
0.822558 0.267291 0.175644
0.830651 0.279349 0.182890
0.039348 0.063405 0.113025
0.046751 0.073578 0.126245
0.054154 0.083751 0.139465
0.061558 0.093924 0.152685
0.068961 0.104097 0.165905
0.081132 0.111238 0.174327
0.096880 0.116107 0.179151
0.112627 0.120975 0.183975
0.128375 0.125844 0.188799
0.149294 0.129654 0.191357
0.201241 0.127112 0.180316
0.253188 0.124570 0.169275
0.305135 0.122028 0.158234
0.357083 0.119486 0.147193
0.413096 0.120883 0.137399
0.470735 0.123856 0.128103
0.528375 0.126828 0.118807
0.586014 0.129800 0.109511
0.634284 0.135321 0.104602
0.659132 0.147212 0.110659
0.683980 0.159103 0.116715
0.708827 0.170994 0.122772
0.733675 0.182885 0.128829
0.750238 0.196347 0.136329
0.765420 0.210070 0.144071
0.780601 0.223793 0.151812
0.795783 0.237516 0.159553
0.807938 0.250659 0.167488
0.816056 0.263029 0.175681
0.824175 0.275399 0.183874
0.832293 0.287768 0.192067
0.840411 0.300138 0.200260
0.041609 0.069581 0.123447
0.048489 0.081186 0.138348
0.055369 0.092791 0.153249
0.062249 0.104395 0.168150
0.069130 0.116000 0.183050
0.079853 0.124688 0.193452
0.093459 0.131187 0.200480
0.107065 0.137687 0.207508
0.120671 0.144187 0.214536
0.139156 0.149409 0.219034
0.186920 0.146967 0.208355
0.234684 0.144524 0.197675
0.282447 0.142082 0.186995
0.330211 0.139640 0.176315
0.391156 0.140033 0.163191
0.457375 0.141561 0.149089
0.523593 0.143089 0.134987
0.589812 0.144617 0.120885
0.644213 0.149284 0.112663
0.669074 0.161798 0.119143
0.693934 0.174311 0.125623
0.718794 0.186825 0.132103
0.743654 0.199339 0.138584
0.760154 0.213444 0.146796
0.775262 0.227815 0.155296
0.790369 0.242186 0.163797
0.805476 0.256556 0.172298
0.817598 0.270203 0.181072
0.825742 0.282884 0.190212
0.833885 0.295565 0.199351
0.842028 0.308246 0.208490
0.850171 0.320926 0.217630
0.044263 0.077002 0.135208
0.050596 0.090127 0.151946
0.056928 0.103253 0.168685
0.063261 0.116379 0.185423
0.069593 0.129504 0.202161
0.079069 0.139776 0.214543
0.090903 0.147906 0.223657
0.102738 0.156037 0.232772
0.114572 0.164168 0.241886
0.131039 0.170871 0.248303
0.175302 0.169009 0.238536
0.219565 0.167146 0.228769
0.263828 0.165284 0.219002
0.308091 0.163422 0.209234
0.371915 0.163226 0.194023
0.443564 0.163698 0.176634
0.515213 0.164169 0.159244
0.586862 0.164640 0.141855
0.645749 0.168517 0.130942
0.672732 0.180906 0.136220
0.699714 0.193295 0.141497
0.726696 0.205684 0.146775
0.753678 0.218073 0.152052
0.770390 0.232649 0.160738
0.785391 0.247589 0.169991
0.800391 0.262529 0.179244
0.815391 0.277469 0.188497
0.827473 0.291589 0.198147
0.835662 0.304617 0.208325
0.843852 0.317645 0.218503
0.852041 0.330672 0.228681
0.860231 0.343700 0.238859
0.047903 0.087534 0.150317
0.053625 0.102403 0.169284
0.059347 0.117272 0.188251
0.065070 0.132140 0.207218
0.070792 0.147009 0.226185
0.079523 0.158960 0.240547
0.090510 0.168722 0.251454
0.101498 0.178483 0.262362
0.112485 0.188245 0.273269
0.127970 0.196601 0.281550
0.170440 0.196519 0.274074
0.212910 0.196437 0.266598
0.255380 0.196356 0.259122
0.297850 0.196274 0.251646
0.359419 0.196525 0.237453
0.428628 0.196909 0.220575
0.497836 0.197293 0.203696
0.567045 0.197677 0.186817
0.626302 0.200922 0.174764
0.660680 0.211319 0.174774
0.695059 0.221716 0.174785
0.729437 0.232113 0.174796
0.763815 0.242510 0.174806
0.781424 0.257121 0.183369
0.796238 0.272435 0.193357
0.811051 0.287748 0.203345
0.825865 0.303062 0.213332
0.837882 0.317582 0.223946
0.846171 0.331046 0.235394
0.854460 0.344509 0.246842
0.862750 0.357973 0.258291
0.871039 0.371436 0.269739
0.051542 0.098066 0.165426
0.056654 0.114678 0.186622
0.061766 0.131290 0.207818
0.066879 0.147902 0.229014
0.071991 0.164514 0.250209
0.079976 0.178144 0.266551
0.090117 0.189537 0.279251
0.100258 0.200930 0.291952
0.110399 0.212323 0.304652
0.124902 0.222331 0.314797
0.165579 0.224030 0.309612
0.206256 0.225728 0.304427
0.246933 0.227427 0.299242
0.287610 0.229126 0.294057
0.346923 0.229823 0.280884
0.413691 0.230120 0.264516
0.480460 0.230418 0.248147
0.547228 0.230715 0.231779
0.606855 0.233328 0.218586
0.648629 0.241733 0.213329
0.690404 0.250138 0.208073
0.732178 0.258542 0.202817
0.773953 0.266947 0.197561
0.792458 0.281594 0.206000
0.807085 0.297281 0.216723
0.821711 0.312968 0.227445
0.836338 0.328655 0.238168
0.848292 0.343576 0.249745
0.856680 0.357475 0.262464
0.865069 0.371374 0.275182
0.873458 0.385274 0.287900
0.881846 0.399173 0.300618
0.055181 0.108598 0.180535
0.059683 0.126953 0.203960
0.064186 0.145309 0.227384
0.068688 0.163664 0.250809
0.073190 0.182019 0.274234
0.080430 0.197328 0.292555
0.089724 0.210352 0.307048
0.099018 0.223376 0.321542
0.108312 0.236400 0.336035
0.121834 0.248061 0.348045
0.160718 0.251540 0.345150
0.199602 0.255020 0.342256
0.238486 0.258499 0.339362
0.277370 0.261978 0.336468
0.334428 0.263122 0.324314
0.398755 0.263332 0.308457
0.463083 0.263542 0.292599
0.527410 0.263752 0.276741
0.587407 0.265734 0.262408
0.636578 0.272146 0.251884
0.685749 0.278559 0.241361
0.734919 0.284971 0.230838
0.784090 0.291384 0.220315
0.803491 0.306066 0.228632
0.817932 0.322127 0.240089
0.832372 0.338187 0.251546
0.846812 0.354248 0.263003
0.858701 0.369569 0.275545
0.867189 0.383904 0.289533
0.875678 0.398239 0.303521
0.884166 0.412574 0.317510
0.892654 0.426909 0.331498
0.058821 0.119130 0.195644
0.062713 0.139229 0.221297
0.066605 0.159327 0.246951
0.070497 0.179425 0.272604
0.074389 0.199524 0.298258
0.080884 0.216512 0.318559
0.089331 0.231167 0.334845
0.097778 0.245822 0.351131
0.106226 0.260478 0.367418
0.118765 0.273791 0.381292
0.155856 0.279051 0.380689
0.192947 0.284311 0.380086
0.230038 0.289570 0.379483
0.267129 0.294830 0.378880
0.321932 0.296421 0.367745
0.383819 0.296543 0.352398
0.445706 0.296666 0.337050
0.507593 0.296789 0.321703
0.567960 0.298140 0.306229
0.624527 0.302560 0.290439
0.681094 0.306980 0.274649
0.737660 0.311400 0.258859
0.794227 0.315821 0.243069
0.814525 0.330538 0.251263
0.828779 0.346972 0.263455
0.843032 0.363407 0.275646
0.857285 0.379841 0.287838
0.869110 0.395562 0.301344
0.877698 0.410333 0.316602
0.886286 0.425104 0.331861
0.894874 0.439875 0.347119
0.903462 0.454646 0.362377
0.062129 0.134672 0.216613
0.065657 0.156087 0.243973
0.069184 0.177502 0.271332
0.072711 0.198916 0.298691
0.076239 0.220331 0.326051
0.082545 0.238517 0.347565
0.090935 0.254280 0.364694
0.099326 0.270044 0.381824
0.107716 0.285807 0.398953
0.120167 0.300321 0.413804
0.156981 0.307340 0.414980
0.193794 0.314359 0.416155
0.230608 0.321378 0.417331
0.267421 0.328397 0.418507
0.321529 0.331625 0.409549
0.382556 0.333336 0.396537
0.443582 0.335048 0.383525
0.504608 0.336759 0.370514
0.564586 0.339233 0.356877
0.621942 0.343614 0.341679
0.679299 0.347995 0.326481
0.736655 0.352376 0.311284
0.794012 0.356757 0.296086
0.816467 0.369585 0.301326
0.833106 0.383821 0.309973
0.849745 0.398056 0.318619
0.866383 0.412292 0.327266
0.879441 0.426687 0.338847
0.887723 0.441296 0.354340
0.896004 0.455905 0.369833
0.904286 0.470514 0.385326
0.912568 0.485123 0.400819
0.065383 0.151050 0.238560
0.068586 0.173709 0.267538
0.071790 0.196369 0.296516
0.074993 0.219029 0.325494
0.078197 0.241689 0.354472
0.084407 0.260991 0.377071
0.092872 0.277776 0.394885
0.101338 0.294560 0.412700
0.109803 0.311345 0.430514
0.122314 0.326985 0.446193
0.159103 0.335760 0.449063
0.195891 0.344535 0.451932
0.232680 0.353309 0.454801
0.269468 0.362084 0.457670
0.323143 0.367147 0.451081
0.383571 0.370726 0.440709
0.444000 0.374305 0.430337
0.504428 0.377884 0.419965
0.563890 0.381774 0.408663
0.620935 0.386441 0.395034
0.677981 0.391109 0.381405
0.735026 0.395776 0.367776
0.792071 0.400444 0.354147
0.816894 0.411061 0.355961
0.836347 0.422669 0.360349
0.855800 0.434277 0.364738
0.875252 0.445886 0.369126
0.889757 0.458668 0.378300
0.897666 0.473015 0.393855
0.905574 0.487363 0.409411
0.913483 0.501711 0.424966
0.921391 0.516058 0.440521
0.068636 0.167427 0.260507
0.071516 0.191332 0.291103
0.074396 0.215237 0.321700
0.077276 0.239142 0.352297
0.080155 0.263047 0.382893
0.086270 0.283466 0.406577
0.094809 0.301272 0.425076
0.103349 0.319077 0.443576
0.111889 0.336883 0.462075
0.124461 0.353649 0.478583
0.161225 0.364179 0.483146
0.197988 0.374710 0.487708
0.234752 0.385240 0.492271
0.271516 0.395770 0.496833
0.324756 0.402669 0.492614
0.384587 0.408116 0.484882
0.444418 0.413563 0.477149
0.504249 0.419009 0.469417
0.563195 0.424315 0.460448
0.619929 0.429269 0.448388
0.676663 0.434223 0.436328
0.733397 0.439177 0.424268
0.790131 0.444131 0.412208
0.817321 0.452536 0.410596
0.839588 0.461517 0.410726
0.861855 0.470498 0.410856
0.884121 0.479479 0.410986
0.900074 0.490648 0.417753
0.907609 0.504734 0.433371
0.915144 0.518821 0.448988
0.922679 0.532907 0.464606
0.930214 0.546993 0.480224
0.071889 0.183804 0.282453
0.074445 0.208954 0.314668
0.077002 0.234104 0.346884
0.079558 0.259254 0.379099
0.082114 0.284404 0.411315
0.088132 0.305941 0.436083
0.096746 0.324768 0.455268
0.105361 0.343594 0.474452
0.113976 0.362421 0.493636
0.126608 0.380313 0.510973
0.163347 0.392599 0.517229
0.200086 0.404885 0.523485
0.236824 0.417171 0.529741
0.273563 0.429457 0.535997
0.326369 0.438192 0.534146
0.385603 0.445506 0.529054
0.444836 0.452820 0.523961
0.504069 0.460135 0.518869
0.562499 0.466856 0.512234
0.618922 0.472097 0.501742
0.675345 0.477337 0.491251
0.731767 0.482577 0.480760
0.788190 0.487817 0.470269
0.817748 0.494012 0.465231
0.842829 0.500366 0.461103
0.867910 0.506720 0.456974
0.892990 0.513073 0.452846
0.910391 0.522629 0.457206
0.917553 0.536454 0.472886
0.924714 0.550278 0.488566
0.931875 0.564103 0.504246
0.939037 0.577927 0.519926
0.073418 0.203230 0.308819
0.076194 0.228675 0.341057
0.078971 0.254120 0.373296
0.081748 0.279566 0.405534
0.084524 0.305011 0.437773
0.090881 0.326938 0.462461
0.099922 0.346225 0.481487
0.108964 0.365512 0.500513
0.118005 0.384799 0.519538
0.131057 0.403280 0.536896
0.168165 0.416921 0.544248
0.205274 0.430563 0.551600
0.242383 0.444204 0.558951
0.279492 0.457846 0.566303
0.332209 0.468184 0.566373
0.391170 0.477200 0.563531
0.450131 0.486217 0.560688
0.509092 0.495234 0.557846
0.567158 0.503373 0.553353
0.622987 0.509322 0.544735
0.678815 0.515270 0.536117
0.734644 0.521218 0.527499
