filter/Red and Blue/lut/Impulse 04_S.cube
# LUT by SparkleStock. Enhanced with VOXCOLOR algorithms.
LUT_3D_SIZE 32
0.027350 0.019536 0.019536
0.043609 0.019158 0.021143
0.059868 0.018780 0.022750
0.076127 0.018402 0.024357
0.092386 0.018024 0.025964
0.108645 0.017645 0.027571
0.134436 0.017464 0.028351
0.162133 0.017322 0.028965
0.189830 0.017181 0.029580
0.217527 0.017039 0.030194
0.245224 0.016897 0.030809
0.275631 0.017039 0.031864
0.307393 0.017322 0.033140
0.339155 0.017606 0.034416
0.370917 0.017890 0.035693
0.402678 0.018173 0.036969
0.432242 0.019071 0.038836
0.459608 0.020584 0.041293
0.486975 0.022096 0.043751
0.514341 0.023609 0.046209
0.541707 0.025121 0.048667
0.566222 0.026901 0.051172
0.585033 0.029217 0.053771
0.603844 0.031533 0.056371
0.622655 0.033849 0.058970
0.641467 0.036165 0.061570
0.659026 0.038757 0.064075
0.670322 0.042727 0.066107
0.681618 0.046697 0.068140
0.692914 0.050668 0.070172
0.704210 0.054638 0.072204
0.715507 0.058608 0.074237
0.027965 0.021143 0.023412
0.044736 0.021158 0.024351
0.061507 0.021174 0.025290
0.078279 0.021189 0.026229
0.095050 0.021204 0.027168
0.111821 0.021219 0.028108
0.138170 0.021782 0.028708
0.166434 0.022454 0.029240
0.194698 0.023127 0.029772
0.222963 0.023799 0.030304
0.251227 0.024472 0.030836
0.282140 0.025275 0.031840
0.314377 0.026144 0.033079
0.346615 0.027013 0.034319
0.378852 0.027882 0.035558
0.411090 0.028751 0.036798
0.441088 0.030006 0.038679
0.468848 0.031647 0.041200
0.496607 0.033287 0.043722
0.524367 0.034928 0.046244
0.552127 0.036568 0.048766
0.576897 0.038422 0.051414
0.595690 0.040701 0.054316
0.614483 0.042981 0.057217
0.633276 0.045260 0.060118
0.652069 0.047539 0.063020
0.669482 0.050123 0.065847
0.679991 0.054231 0.068300
0.690501 0.058338 0.070753
0.701010 0.062446 0.073206
0.711520 0.066553 0.075659
0.722029 0.070661 0.078113
0.028579 0.022750 0.027287
0.045863 0.023159 0.027559
0.063146 0.023567 0.027830
0.080430 0.023976 0.028102
0.097714 0.024384 0.028373
0.114997 0.024793 0.028644
0.141904 0.026100 0.029064
0.170735 0.027586 0.029514
0.199567 0.029073 0.029964
0.228398 0.030560 0.030414
0.257230 0.032046 0.030864
0.288649 0.033511 0.031815
0.321362 0.034966 0.033018
0.354075 0.036420 0.034221
0.386788 0.037875 0.035424
0.419501 0.039329 0.036627
0.449935 0.040941 0.038522
0.478087 0.042710 0.041107
0.506240 0.044478 0.043693
0.534393 0.046247 0.046279
0.562546 0.048015 0.048865
0.587573 0.049942 0.051657
0.606348 0.052185 0.054860
0.625122 0.054428 0.058063
0.643897 0.056670 0.061267
0.662672 0.058913 0.064470
0.679938 0.061490 0.067618
0.689661 0.065734 0.070492
0.699383 0.069979 0.073366
0.709106 0.074224 0.076240
0.718829 0.078468 0.079114
0.728552 0.082713 0.081988
0.029194 0.024357 0.031163
0.046990 0.025159 0.030767
0.064785 0.025961 0.030370
0.082581 0.026763 0.029974
0.100377 0.027565 0.029577
0.118173 0.028367 0.029181
0.145638 0.030418 0.029421
0.175036 0.032719 0.029789
0.204435 0.035019 0.030156
0.233834 0.037320 0.030524
0.263232 0.039621 0.030891
0.295158 0.041748 0.031791
0.328346 0.043788 0.032957
0.361535 0.045828 0.034124
0.394724 0.047868 0.035290
0.427913 0.049908 0.036456
0.458781 0.051876 0.038365
0.487327 0.053773 0.041014
0.515873 0.055669 0.043664
0.544419 0.057566 0.046314
0.572966 0.059463 0.048964
0.598249 0.061462 0.051899
0.617005 0.063669 0.055404
0.635761 0.065875 0.058909
0.654518 0.068081 0.062415
0.673274 0.070287 0.065920
0.690394 0.072856 0.069390
0.699330 0.077238 0.072685
0.708266 0.081620 0.075980
0.717202 0.086002 0.079274
0.726138 0.090384 0.082569
0.735074 0.094765 0.085864
0.029808 0.025964 0.035039
0.048116 0.027159 0.033975
0.066424 0.028355 0.032910
0.084733 0.029550 0.031846
0.103041 0.030745 0.030782
0.121349 0.031941 0.029718
0.149372 0.034736 0.029778
0.179338 0.037851 0.030063
0.209303 0.040965 0.030348
0.239269 0.044080 0.030633
0.269235 0.047195 0.030918
0.301666 0.049984 0.031767
0.335331 0.052609 0.032896
0.368995 0.055235 0.034026
0.402660 0.057860 0.035156
0.436325 0.060486 0.036286
0.467627 0.062811 0.038208
0.496566 0.064836 0.040921
0.525506 0.066860 0.043635
0.554446 0.068885 0.046349
0.583385 0.070910 0.049063
0.608924 0.072983 0.052141
0.627662 0.075152 0.055949
0.646401 0.077322 0.059756
0.665139 0.079492 0.063563
0.683877 0.081661 0.067370
0.700850 0.084222 0.071162
0.708999 0.088742 0.074877
0.717149 0.093261 0.078593
0.725298 0.097780 0.082308
0.733447 0.102299 0.086024
0.741597 0.106818 0.089740
0.030423 0.027571 0.038914
0.049243 0.029160 0.037182
0.068064 0.030748 0.035450
0.086884 0.032337 0.033718
0.105704 0.033926 0.031986
0.124525 0.035514 0.030254
0.153106 0.039053 0.030135
0.183639 0.042983 0.030337
0.214171 0.046912 0.030540
0.244704 0.050841 0.030743
0.275237 0.054770 0.030946
0.308175 0.058220 0.031742
0.342315 0.061431 0.032835
0.376456 0.064642 0.033929
0.410596 0.067853 0.035022
0.444736 0.071064 0.036115
0.476473 0.073746 0.038051
0.505806 0.075899 0.040828
0.535139 0.078051 0.043606
0.564472 0.080204 0.046384
0.593805 0.082357 0.049162
0.619600 0.084503 0.052384
0.638320 0.086636 0.056493
0.657040 0.088769 0.060602
0.675760 0.090902 0.064711
0.694479 0.093035 0.068820
0.711306 0.095589 0.072933
0.718669 0.100245 0.077070
0.726031 0.104901 0.081206
0.733394 0.109558 0.085343
0.740757 0.114214 0.089479
0.748119 0.118870 0.093615
0.030643 0.029454 0.043617
0.048611 0.031764 0.042635
0.066580 0.034073 0.041654
0.084548 0.036383 0.040672
0.102516 0.038693 0.039690
0.120484 0.041003 0.038708
0.150558 0.045296 0.037514
0.183053 0.049986 0.036277
0.215548 0.054676 0.035041
0.248043 0.059366 0.033804
0.280539 0.064056 0.032568
0.314265 0.068302 0.032885
0.348606 0.072327 0.033980
0.382948 0.076353 0.035075
0.417289 0.080378 0.036170
0.451631 0.084403 0.037264
0.483527 0.087617 0.039244
0.512979 0.090020 0.042109
0.542431 0.092423 0.044974
0.571883 0.094825 0.047839
0.601335 0.097228 0.050703
0.627267 0.099521 0.054089
0.646159 0.101595 0.058515
0.665051 0.103668 0.062941
0.683943 0.105742 0.067367
0.702835 0.107816 0.071793
0.719789 0.110318 0.076250
0.727051 0.114967 0.080861
0.734313 0.119616 0.085471
0.741575 0.124264 0.090082
0.748837 0.128913 0.094692
0.756099 0.133562 0.099303
0.030785 0.031392 0.048486
0.047628 0.034488 0.048537
0.064471 0.037585 0.048589
0.081314 0.040681 0.048641
0.098157 0.043778 0.048693
0.115000 0.046875 0.048745
0.146754 0.051924 0.046297
0.181490 0.057364 0.043350
0.216227 0.062804 0.040403
0.250963 0.068244 0.037456
0.285700 0.073684 0.034509
0.320270 0.078754 0.034262
0.354758 0.083639 0.035366
0.389246 0.088524 0.036470
0.423734 0.093409 0.037574
0.458222 0.098294 0.038678
0.490224 0.102075 0.040708
0.519740 0.104753 0.043664
0.549256 0.107430 0.046620
0.578772 0.110107 0.049577
0.608288 0.112784 0.052533
0.634332 0.115239 0.056086
0.653435 0.117249 0.060832
0.672537 0.119258 0.065579
0.691640 0.121268 0.070325
0.710742 0.123277 0.075071
0.727878 0.125720 0.079876
0.735176 0.130333 0.084971
0.742475 0.134945 0.090066
0.749773 0.139557 0.095162
0.757072 0.144169 0.100257
0.764370 0.148781 0.105353
0.030927 0.033329 0.053354
0.046645 0.037213 0.054439
0.062362 0.041096 0.055525
0.078080 0.044979 0.056610
0.093798 0.048863 0.057696
0.109516 0.052746 0.058782
0.142950 0.058552 0.055081
0.179928 0.064742 0.050423
0.216905 0.070932 0.045765
0.253883 0.077122 0.041107
0.290861 0.083312 0.036450
0.326276 0.089206 0.035639
0.360910 0.094950 0.036752
0.395544 0.100695 0.037865
0.430179 0.106440 0.038978
0.464813 0.112185 0.040091
0.496920 0.116534 0.042171
0.526500 0.119485 0.045219
0.556080 0.122437 0.048267
0.585660 0.125389 0.051315
0.615240 0.128341 0.054363
0.641398 0.130957 0.058083
0.660711 0.132902 0.063150
0.680023 0.134848 0.068216
0.699336 0.136793 0.073283
0.718649 0.138739 0.078349
0.735966 0.141123 0.083501
0.743301 0.145698 0.089082
0.750636 0.150274 0.094662
0.757971 0.154849 0.100242
0.765307 0.159425 0.105822
0.772642 0.164000 0.111403
0.031069 0.035267 0.058222
0.045661 0.039937 0.060341
0.060254 0.044607 0.062461
0.074846 0.049277 0.064580
0.089439 0.053947 0.066699
0.104031 0.058617 0.068818
0.139146 0.065179 0.063865
0.178365 0.072120 0.057496
0.217584 0.079060 0.051128
0.256803 0.086000 0.044759
0.296022 0.092940 0.038391
0.332282 0.099657 0.037016
0.367062 0.106262 0.038138
0.401843 0.112867 0.039260
0.436623 0.119472 0.040382
0.471404 0.126076 0.041504
0.503616 0.130992 0.043635
0.533260 0.134218 0.046774
0.562904 0.137444 0.049914
0.592548 0.140671 0.053053
0.622192 0.143897 0.056192
0.648463 0.146675 0.060081
0.667986 0.148556 0.065467
0.687510 0.150438 0.070854
0.707033 0.152319 0.076241
0.726556 0.154200 0.081627
0.744054 0.156525 0.087127
0.751426 0.161064 0.093192
0.758798 0.165603 0.099257
0.766169 0.170142 0.105322
0.773541 0.174680 0.111387
0.780913 0.179219 0.117452
0.031210 0.037205 0.063090
0.044678 0.042662 0.066243
0.058145 0.048119 0.069396
0.071612 0.053575 0.072549
0.085080 0.059032 0.075702
0.098547 0.064489 0.078855
0.135342 0.071807 0.072648
0.176802 0.079497 0.064569
0.218262 0.087188 0.056490
0.259722 0.094878 0.048411
0.301183 0.102569 0.040331
0.338287 0.110109 0.038393
0.373214 0.117573 0.039524
0.408141 0.125038 0.040655
0.443068 0.132503 0.041786
0.477995 0.139968 0.042918
0.510313 0.145450 0.045099
0.540021 0.148951 0.048330
0.569729 0.152452 0.051560
0.599437 0.155952 0.054791
0.629145 0.159453 0.058022
0.655528 0.162392 0.062078
0.675262 0.164210 0.067785
0.694996 0.166027 0.073492
0.714729 0.167845 0.079198
0.734463 0.169662 0.084905
0.752143 0.171927 0.090753
0.759551 0.176429 0.097302
0.766959 0.180932 0.103852
0.774368 0.185434 0.110402
0.781776 0.189936 0.116952
0.789184 0.194439 0.123502
0.032140 0.040970 0.070259
0.044689 0.047293 0.074757
0.057239 0.053616 0.079254
0.069788 0.059939 0.083752
0.082338 0.066262 0.088250
0.094887 0.072584 0.092748
0.130556 0.080387 0.086869
0.170848 0.088486 0.078915
0.211140 0.096585 0.070960
0.251433 0.104684 0.063006
0.291725 0.112783 0.055052
0.330673 0.120626 0.051819
0.368948 0.128341 0.050947
0.407223 0.136056 0.050075
0.445498 0.143771 0.049203
0.483773 0.151485 0.048331
0.517748 0.157404 0.049599
0.547422 0.161527 0.053006
0.577097 0.165650 0.056414
0.606772 0.169772 0.059821
0.636446 0.173895 0.063229
0.662838 0.177344 0.067540
0.682667 0.179445 0.073659
0.702495 0.181546 0.079777
0.722323 0.183647 0.085896
0.742151 0.185748 0.092014
0.759940 0.188278 0.098293
0.767532 0.192958 0.105370
0.775123 0.197637 0.112447
0.782714 0.202316 0.119525
0.790305 0.206995 0.126602
0.797897 0.211674 0.133680
0.033463 0.045650 0.078577
0.045199 0.052878 0.084575
0.056934 0.060107 0.090573
0.068669 0.067335 0.096571
0.080405 0.074563 0.102569
0.092140 0.081792 0.108567
0.125279 0.089944 0.103808
0.162699 0.098281 0.096896
0.200119 0.106618 0.089985
0.237538 0.114955 0.083074
0.274958 0.123291 0.076163
0.316248 0.131177 0.071271
0.359472 0.138837 0.067389
0.402696 0.146497 0.063507
0.445920 0.154157 0.059626
0.489145 0.161817 0.055744
0.525553 0.168106 0.055616
0.555145 0.173024 0.059244
0.584737 0.177943 0.062871
0.614329 0.182862 0.066498
0.643921 0.187780 0.070125
0.670271 0.191912 0.074735
0.690136 0.194470 0.081311
0.710001 0.197029 0.087887
0.729866 0.199587 0.094463
0.749731 0.202145 0.101039
0.767593 0.205105 0.107790
0.775440 0.210067 0.115416
0.783287 0.215030 0.123042
0.791135 0.219993 0.130669
0.798982 0.224956 0.138295
0.806830 0.229918 0.145921
0.034787 0.050329 0.086896
0.045708 0.058463 0.094394
0.056629 0.066597 0.101892
0.067550 0.074731 0.109391
0.078471 0.082865 0.116889
0.089393 0.090999 0.124387
0.120002 0.099501 0.120747
0.154550 0.108075 0.114878
0.189097 0.116650 0.109010
0.223644 0.125225 0.103141
0.258192 0.133799 0.097273
0.301823 0.141728 0.090723
0.349996 0.149333 0.083831
0.398169 0.156938 0.076940
0.446343 0.164543 0.070048
0.494516 0.172148 0.063157
0.533357 0.178807 0.061634
0.562867 0.184522 0.065481
0.592377 0.190236 0.069328
0.621887 0.195951 0.073174
0.651397 0.201665 0.077021
0.677704 0.206480 0.081930
0.697605 0.209496 0.088963
0.717507 0.212512 0.095997
0.737408 0.215527 0.103030
0.757310 0.218543 0.110063
0.775245 0.221931 0.117287
0.783348 0.227177 0.125462
0.791452 0.232423 0.133637
0.799556 0.237670 0.141812
0.807659 0.242916 0.149988
0.815763 0.248163 0.158163
0.036110 0.055008 0.095214
0.046217 0.064048 0.104213
0.056324 0.073088 0.113212
0.066431 0.082127 0.122210
0.076538 0.091167 0.131209
0.086645 0.100207 0.140207
0.114725 0.109057 0.137686
0.146400 0.117870 0.132860
0.178075 0.126682 0.128035
0.209750 0.135495 0.123209
0.241425 0.144307 0.118384
0.287398 0.152278 0.110174
0.340520 0.159828 0.100273
0.393643 0.167379 0.090372
0.446765 0.174929 0.080471
0.499887 0.182479 0.070570
0.541162 0.189509 0.067652
0.570590 0.196019 0.071718
0.600017 0.202530 0.075785
0.629445 0.209040 0.079851
0.658872 0.215550 0.083917
0.685137 0.221048 0.089125
0.705075 0.224521 0.096616
0.725013 0.227995 0.104106
0.744951 0.231468 0.111597
0.764889 0.234941 0.119088
0.782897 0.238757 0.126784
0.791257 0.244287 0.135508
0.799617 0.249817 0.144232
0.807976 0.255347 0.152956
0.816336 0.260877 0.161680
0.824696 0.266407 0.170405
0.037434 0.059687 0.103533
0.046726 0.069633 0.114032
0.056019 0.079578 0.124531
0.065312 0.089523 0.135030
0.074605 0.099469 0.145528
0.083898 0.109414 0.156027
0.109448 0.118614 0.154625
0.138251 0.127664 0.150842
0.167053 0.136715 0.147059
0.195856 0.145765 0.143277
0.224658 0.154815 0.139494
0.272973 0.162829 0.129626
0.331045 0.170324 0.116715
0.389116 0.177819 0.103804
0.447187 0.185315 0.090893
0.505259 0.192810 0.077982
0.548967 0.200211 0.073670
0.578312 0.207517 0.077956
0.607657 0.214823 0.082242
0.637003 0.222129 0.086527
0.666348 0.229435 0.090813
0.692569 0.235616 0.096320
0.712544 0.239547 0.104268
0.732519 0.243478 0.112216
0.752493 0.247408 0.120164
0.772468 0.251339 0.128112
0.790549 0.255583 0.136281
0.799165 0.261397 0.145554
0.807781 0.267210 0.154827
0.816397 0.273024 0.164100
0.825013 0.278837 0.173373
0.833629 0.284651 0.182646
0.039631 0.066801 0.114097
0.048179 0.077862 0.126338
0.056726 0.088923 0.138580
0.065273 0.099985 0.150821
0.073820 0.111046 0.163063
0.082368 0.122108 0.175304
0.105877 0.131836 0.175576
0.132379 0.141298 0.173454
0.158880 0.150760 0.171331
0.185382 0.160223 0.169209
0.211884 0.169685 0.167087
0.260402 0.177643 0.157010
0.319927 0.184850 0.142955
0.379453 0.192058 0.128901
0.438979 0.199265 0.114847
0.498505 0.206472 0.100792
0.544386 0.213795 0.094973
0.576622 0.221233 0.097388
0.608858 0.228672 0.099803
0.641094 0.236111 0.102218
0.673330 0.243550 0.104633
0.701441 0.250100 0.109049
0.721301 0.254872 0.117468
0.741161 0.259644 0.125888
0.761021 0.264417 0.134307
0.780882 0.269189 0.142726
0.798908 0.274228 0.151408
0.807767 0.280604 0.161404
0.816625 0.286981 0.171399
0.825483 0.293357 0.181395
0.834342 0.299733 0.191391
0.843200 0.306109 0.201386
0.042704 0.076348 0.126905
0.050574 0.088736 0.141132
0.058444 0.101124 0.155359
0.066314 0.113512 0.169585
0.074185 0.125900 0.183812
0.082055 0.138287 0.198039
0.104011 0.148725 0.200539
0.128783 0.158773 0.200695
0.153556 0.168820 0.200850
0.178329 0.178868 0.201006
0.203102 0.188915 0.201161
0.249683 0.196721 0.192325
0.307169 0.203407 0.178994
0.364655 0.210093 0.165662
0.422141 0.216778 0.152330
0.479627 0.223464 0.138999
0.527420 0.230261 0.131560
0.565519 0.237169 0.130014
0.603619 0.244078 0.128468
0.641719 0.250986 0.126922
0.679819 0.257894 0.125376
0.711750 0.264499 0.127313
0.731345 0.270497 0.136217
0.750940 0.276495 0.145121
0.770535 0.282493 0.154025
0.790130 0.288491 0.162929
0.807974 0.294692 0.172165
0.817061 0.301910 0.183057
0.826148 0.309128 0.193949
0.835235 0.316346 0.204841
0.844322 0.323563 0.215734
0.853409 0.330781 0.226626
0.045776 0.085895 0.139714
0.052969 0.099610 0.155926
0.060162 0.113324 0.172138
0.067356 0.127039 0.188349
0.074549 0.140753 0.204561
0.081743 0.154467 0.220773
0.102145 0.165614 0.225503
0.125188 0.176247 0.227936
0.148232 0.186880 0.230369
0.171276 0.197513 0.232803
0.194320 0.208146 0.235236
0.238965 0.215800 0.227641
0.294411 0.221964 0.215032
0.349857 0.228128 0.202423
0.405303 0.234292 0.189814
0.460748 0.240456 0.177205
0.510453 0.246727 0.168147
0.554417 0.253105 0.162640
0.598381 0.259483 0.157133
0.642344 0.265860 0.151626
0.686308 0.272238 0.146119
0.722060 0.278898 0.145577
0.741390 0.286122 0.154966
0.760720 0.293345 0.164355
0.780049 0.300569 0.173744
0.799379 0.307793 0.183133
0.817040 0.315156 0.192921
0.826355 0.323216 0.204710
0.835671 0.331275 0.216499
0.844987 0.339334 0.228288
0.854302 0.347394 0.240076
0.863618 0.355453 0.251865
0.048848 0.095443 0.152523
0.055364 0.110484 0.170720
0.061881 0.125525 0.188916
0.068397 0.140565 0.207113
0.074914 0.155606 0.225310
0.081430 0.170647 0.243507
0.100278 0.182502 0.250466
0.121593 0.193721 0.255177
0.142908 0.204939 0.259888
0.164223 0.216158 0.264599
0.185538 0.227376 0.269311
0.228246 0.234878 0.262957
0.281652 0.240520 0.251071
0.335058 0.246163 0.239184
0.388464 0.251806 0.227298
0.441870 0.257449 0.215412
0.493487 0.263194 0.204735
0.543314 0.269041 0.195266
0.593142 0.274888 0.185798
0.642969 0.280735 0.176330
0.692797 0.286582 0.166862
0.732370 0.293297 0.163841
0.751434 0.301746 0.173715
0.770499 0.310196 0.183589
0.789563 0.318646 0.193462
0.808628 0.327095 0.203336
0.826105 0.335620 0.213678
0.835650 0.344521 0.226363
0.845194 0.353422 0.239049
0.854738 0.362323 0.251734
0.864283 0.371224 0.264419
0.873827 0.380125 0.277104
0.051920 0.104990 0.165331
0.057760 0.121358 0.185513
0.063599 0.137725 0.205695
0.069439 0.154092 0.225877
0.075278 0.170459 0.246059
0.081117 0.186827 0.266241
0.098412 0.199391 0.275429
0.117998 0.211195 0.282418
0.137584 0.222999 0.289407
0.157170 0.234803 0.296396
0.176755 0.246607 0.303385
0.217528 0.253956 0.298273
0.268894 0.259077 0.287109
0.320260 0.264198 0.275946
0.371626 0.269320 0.264782
0.422992 0.274441 0.253618
0.476520 0.279660 0.241322
0.532212 0.284977 0.227893
0.587903 0.290293 0.214463
0.643594 0.295610 0.201034
0.699286 0.300926 0.187605
0.742680 0.307696 0.182105
0.761479 0.317371 0.192464
0.780278 0.327047 0.202822
0.799077 0.336722 0.213181
0.817876 0.346398 0.223539
0.835171 0.356084 0.234435
0.844944 0.365827 0.248017
0.854717 0.375570 0.261598
0.864490 0.385312 0.275180
0.874263 0.395055 0.288762
0.884036 0.404797 0.302344
0.055087 0.116444 0.180393
0.060362 0.134117 0.202435
0.065638 0.151789 0.224477
0.070913 0.169461 0.246519
0.076188 0.187134 0.268561
0.081464 0.204806 0.290603
0.097615 0.218165 0.301733
0.115941 0.230661 0.310679
0.134268 0.243157 0.319626
0.152594 0.255653 0.328573
0.170921 0.268149 0.337520
0.210204 0.275733 0.333897
0.259966 0.280861 0.323990
0.309728 0.285988 0.314082
0.359490 0.291115 0.304175
0.409252 0.296243 0.294268
0.463866 0.301318 0.281519
0.523333 0.306342 0.265927
0.582799 0.311366 0.250336
0.642265 0.316390 0.234745
0.701732 0.321414 0.219154
0.747936 0.328137 0.211916
0.767617 0.338261 0.221384
0.787297 0.348385 0.230852
0.806977 0.358509 0.240320
0.826658 0.368632 0.249788
0.844701 0.378818 0.260059
0.854556 0.389310 0.274342
0.864411 0.399803 0.288625
0.874267 0.410296 0.302908
0.884122 0.420789 0.317191
0.893978 0.431281 0.331474
0.058443 0.131711 0.199961
0.063379 0.150645 0.223613
0.068316 0.169580 0.247265
0.073253 0.188515 0.270917
0.078190 0.207450 0.294569
0.083127 0.226385 0.318221
0.098955 0.240709 0.330717
0.116961 0.254110 0.340981
0.134968 0.267512 0.351245
0.152974 0.280914 0.361509
0.170980 0.294316 0.371773
0.209669 0.302909 0.370138
0.258699 0.309097 0.362555
0.307729 0.315286 0.354971
0.356759 0.321475 0.347387
0.405789 0.327663 0.339803
0.459836 0.333361 0.328934
0.518900 0.338568 0.314779
0.577964 0.343774 0.300624
0.637028 0.348981 0.286469
0.696092 0.354188 0.272314
0.743086 0.360664 0.264820
0.765941 0.369681 0.270647
0.788796 0.378698 0.276475
0.811650 0.387715 0.282302
0.834505 0.396732 0.288129
0.855158 0.406089 0.295417
0.864803 0.417149 0.310012
0.874448 0.428209 0.324606
0.884093 0.439269 0.339200
0.893738 0.450329 0.353794
0.903383 0.461389 0.368388
0.061798 0.146977 0.219528
0.066397 0.167174 0.244790
0.070995 0.187371 0.270052
0.075594 0.207569 0.295315
0.080192 0.227766 0.320577
0.084790 0.247963 0.345839
0.100295 0.263252 0.359700
0.117981 0.277560 0.371282
0.135667 0.291867 0.382863
0.153353 0.306175 0.394444
0.171040 0.320482 0.406026
0.209134 0.330084 0.406379
0.257432 0.337334 0.401119
0.305730 0.344584 0.395859
0.354029 0.351834 0.390599
0.402327 0.359083 0.385339
0.455807 0.365403 0.376350
0.514468 0.370793 0.363631
0.573130 0.376182 0.350912
0.631791 0.381572 0.338193
0.690452 0.386962 0.325475
0.738236 0.393192 0.317724
0.764265 0.401102 0.319911
0.790295 0.409012 0.322097
0.816324 0.416921 0.324283
0.842353 0.424831 0.326470
0.865616 0.433361 0.330776
0.875051 0.444988 0.345681
0.884485 0.456615 0.360586
0.893920 0.468242 0.375491
0.903354 0.479869 0.390396
0.912789 0.491496 0.405302
0.065154 0.162243 0.239096
0.069414 0.183703 0.265968
0.073674 0.205163 0.292840
0.077934 0.226622 0.319712
0.082194 0.248082 0.346584
0.086454 0.269542 0.373457
0.101635 0.285796 0.388684
0.119001 0.301009 0.401583
0.136367 0.316222 0.414482
0.153733 0.331435 0.427380
0.171099 0.346648 0.440279
0.208599 0.357260 0.442621
0.256165 0.365571 0.439684
0.303731 0.373882 0.436748
0.351298 0.382193 0.433811
0.398864 0.390504 0.430875
0.451777 0.397445 0.423765
0.510036 0.403018 0.412483
0.568295 0.408591 0.401200
0.626554 0.414163 0.389918
0.684813 0.419736 0.378635
0.733386 0.425719 0.370629
0.762590 0.432522 0.369174
0.791793 0.439325 0.367720
0.820997 0.446128 0.366265
0.850200 0.452931 0.364811
0.876074 0.460633 0.366134
0.885298 0.472827 0.381351
0.894522 0.485021 0.396567
0.903746 0.497215 0.411783
0.912970 0.509410 0.426999
0.922195 0.521604 0.442215
0.068510 0.177510 0.258663
0.072431 0.200232 0.287145
0.076353 0.222954 0.315628
0.080274 0.245676 0.344110
0.084196 0.268398 0.372592
0.088117 0.291120 0.401074
0.102976 0.308340 0.417668
0.120021 0.324458 0.431884
0.137067 0.340577 0.446100
0.154113 0.356696 0.460316
0.171158 0.372814 0.474532
0.208063 0.384435 0.478862
0.254898 0.393808 0.478249
0.301733 0.403180 0.477636
0.348567 0.412552 0.477023
0.395402 0.421924 0.476410
0.447747 0.429488 0.471181
0.505604 0.435243 0.461334
0.563460 0.440999 0.451488
0.621317 0.446755 0.441642
0.679173 0.452510 0.431796
0.728536 0.458246 0.423533
0.760914 0.463942 0.418437
0.793292 0.469638 0.413342
0.825670 0.475334 0.408247
0.858047 0.481031 0.403151
0.886531 0.487904 0.401493
0.895545 0.500666 0.417020
0.904559 0.513427 0.432547
0.913573 0.526189 0.448074
0.922586 0.538950 0.463602
0.931600 0.551711 0.479129
0.071275 0.193682 0.280224
0.075036 0.217368 0.309808
0.078798 0.241054 0.339393
0.082559 0.264739 0.368977
0.086320 0.288425 0.398562
0.090082 0.312111 0.428147
0.104793 0.330145 0.445759
0.121694 0.347049 0.460976
0.138594 0.363953 0.476194
0.155495 0.380857 0.491412
0.172396 0.397761 0.506629
0.208904 0.410359 0.512699
0.255216 0.420804 0.514195
0.301528 0.431250 0.515690
0.347839 0.441695 0.517186
0.394151 0.452141 0.518682
0.446031 0.460427 0.515277
0.503481 0.466555 0.506972
0.560930 0.472682 0.498668
0.618379 0.478810 0.490363
0.675829 0.484938 0.482058
0.725760 0.490639 0.473890
0.760655 0.495487 0.465997
0.795550 0.500336 0.458104
0.830445 0.505184 0.450211
0.865340 0.510033 0.442318
0.895894 0.516221 0.438281
0.904748 0.529105 0.453526
0.913602 0.541990 0.468771
0.922456 0.554875 0.484016
0.931309 0.567760 0.499261
0.940163 0.580645 0.514506
0.071086 0.214384 0.311749
0.075579 0.237539 0.339898
0.080072 0.260694 0.368046
0.084565 0.283849 0.396194
0.089059 0.307004 0.424343
0.093552 0.330159 0.452491
0.108995 0.348258 0.469383
0.126627 0.365345 0.484025
0.144260 0.382432 0.498666
0.161893 0.399518 0.513307
0.179526 0.416605 0.527949
0.216625 0.430021 0.534515
0.263458 0.441601 0.537045
0.310291 0.453181 0.539574
0.357124 0.464760 0.542104
0.403958 0.476340 0.544633
0.455884 0.485853 0.542779
0.512903 0.493297 0.536542
0.569922 0.500742 0.530304
0.626942 0.508187 0.524067
0.683961 0.515632 0.517830
0.733350 0.522361 0.511513
