filter/Red and Blue/lut/Impulse 04_S.cube
# LUT by SparkleStock. Enhanced with VOXCOLOR algorithms.
LUT_3D_SIZE 8
DOMAIN_MIN 0.000000 0.000000 0.000000
DOMAIN_MAX 0.903226 0.903226 0.903226
0.027350 0.019536 0.019536
0.092386 0.018024 0.025964
0.189830 0.017181 0.029580
0.307393 0.017322 0.033140
0.432242 0.019071 0.038836
0.541707 0.025121 0.048667
0.622655 0.033849 0.058970
0.681618 0.046697 0.068140
0.029808 0.025964 0.035039
0.103041 0.030745 0.030782
0.209303 0.040965 0.030348
0.335331 0.052609 0.032896
0.467627 0.062811 0.038208
0.583385 0.070910 0.049063
0.665139 0.079492 0.063563
0.717149 0.093261 0.078593
0.030927 0.033329 0.053354
0.093798 0.048863 0.057696
0.216905 0.070932 0.045765
0.360910 0.094950 0.036752
0.496920 0.116534 0.042171
0.615240 0.128341 0.054363
0.699336 0.136793 0.073283
0.750636 0.150274 0.094662
0.033463 0.045650 0.078577
0.080405 0.074563 0.102569
0.200119 0.106618 0.089985
0.359472 0.138837 0.067389
0.525553 0.168106 0.055616
0.643921 0.187780 0.070125
0.729866 0.199587 0.094463
0.783287 0.215030 0.123042
0.039631 0.066801 0.114097
0.073820 0.111046 0.163063
0.158880 0.150760 0.171331
0.319927 0.184850 0.142955
0.544386 0.213795 0.094973
0.673330 0.243550 0.104633
0.761021 0.264417 0.134307
0.816625 0.286981 0.171399
0.051920 0.104990 0.165331
0.075278 0.170459 0.246059
0.137584 0.222999 0.289407
0.268894 0.259077 0.287109
0.476520 0.279660 0.241322
0.699286 0.300926 0.187605
0.799077 0.336722 0.213181
0.854717 0.375570 0.261598
0.065154 0.162243 0.239096
0.082194 0.248082 0.346584
0.136367 0.316222 0.414482
0.256165 0.365571 0.439684
0.451777 0.397445 0.423765
0.684813 0.419736 0.378635
0.820997 0.446128 0.366265
0.894522 0.485021 0.396567
0.070897 0.235086 0.343275
0.091797 0.325584 0.450123
0.149926 0.400910 0.521138
0.271701 0.462397 0.559895
0.465736 0.511278 0.570281
0.692094 0.546327 0.553601
0.841014 0.571318 0.533964
0.921750 0.600690 0.543650
0.023947 0.030501 0.064721
0.075810 0.033965 0.061050
0.183719 0.030323 0.058920
0.321542 0.026903 0.060664
0.465108 0.029219 0.066963
0.581891 0.040831 0.073427
0.661620 0.060488 0.078901
0.714722 0.086052 0.085564
0.030211 0.047468 0.091348
0.079618 0.076376 0.109060
0.181360 0.089302 0.113037
0.317392 0.095713 0.111596
0.468688 0.102601 0.110811
0.601964 0.112182 0.112295
0.694868 0.127141 0.115486
0.752656 0.150146 0.121315
0.036897 0.067031 0.122445
0.081425 0.113561 0.152010
0.182511 0.149641 0.155851
0.321222 0.173410 0.148054
0.478000 0.185561 0.139754
0.620744 0.194851 0.138173
0.723064 0.205410 0.143253
0.786603 0.222925 0.154193
0.044264 0.092475 0.160586
0.082343 0.150186 0.199489
0.176914 0.206933 0.207982
0.318823 0.248516 0.195134
0.491043 0.268330 0.172498
0.639483 0.280483 0.167795
0.748007 0.289557 0.175923
0.817695 0.303429 0.193811
0.052573 0.127165 0.208729
0.083721 0.191326 0.259376
0.160938 0.260327 0.283821
0.302009 0.315038 0.272525
0.500305 0.345169 0.230387
0.659307 0.362799 0.216869
0.772031 0.375231 0.225918
0.847054 0.390925 0.249311
0.062520 0.179406 0.275918
0.088956 0.248473 0.341330
0.152588 0.321767 0.388672
0.277510 0.382726 0.399582
0.469669 0.421011 0.366877
0.681924 0.438537 0.312986
0.801120 0.460875 0.313555
0.876189 0.486682 0.338354
0.073168 0.249857 0.363319
0.101766 0.320520 0.432545
0.163845 0.393746 0.491121
0.283463 0.458565 0.522379
0.468848 0.507070 0.516677
0.685840 0.534101 0.477000
0.822596 0.556585 0.451941
0.904063 0.583915 0.458610
0.084601 0.324389 0.458551
0.119505 0.390575 0.518713
0.190574 0.461410 0.575797
0.316286 0.528755 0.616431
0.500823 0.585879 0.631603
0.707577 0.624407 0.617312
0.844782 0.648912 0.592304
0.923823 0.671501 0.587059
0.021348 0.045886 0.117941
0.058897 0.059199 0.122728
0.153365 0.057264 0.114465
0.298168 0.051613 0.105164
0.474616 0.051722 0.102386
0.608982 0.067030 0.102788
0.693435 0.095750 0.102464
0.746037 0.131938 0.106392
0.027581 0.069970 0.154862
0.068237 0.112708 0.187577
0.156344 0.132742 0.201436
0.292405 0.137939 0.200076
0.465198 0.137094 0.188621
0.616622 0.147736 0.179562
0.719865 0.170056 0.171601
0.783394 0.202336 0.168303
0.036513 0.103082 0.202760
0.077952 0.163328 0.242283
0.163817 0.208506 0.263147
0.295481 0.232310 0.263606
0.464416 0.235467 0.246825
0.624689 0.242753 0.234043
0.741143 0.257697 0.226933
0.816009 0.282116 0.227260
0.046809 0.143672 0.257887
0.086498 0.213501 0.298644
0.168425 0.279454 0.322166
0.297630 0.324081 0.321715
0.468023 0.339638 0.298373
0.633846 0.345068 0.280180
0.759075 0.354271 0.274975
0.844133 0.371043 0.281880
0.057505 0.191642 0.318745
0.093766 0.265772 0.364839
0.167202 0.342676 0.394143
0.293306 0.405018 0.394278
0.471162 0.441160 0.363317
0.645144 0.447786 0.332805
0.775750 0.455168 0.324819
0.868173 0.467855 0.334934
0.068531 0.254409 0.393179
0.105076 0.325475 0.442739
0.171381 0.400178 0.481295
0.288410 0.468083 0.494513
0.462885 0.519805 0.474153
0.662477 0.539529 0.422659
0.795613 0.552595 0.403015
0.888485 0.568093 0.407609
0.081916 0.327793 0.475918
0.125771 0.393242 0.520605
0.194597 0.461291 0.562898
0.310004 0.527444 0.589618
0.480312 0.585980 0.590451
0.679187 0.620276 0.553047
0.815277 0.641077 0.516592
0.906428 0.659998 0.504552
0.100529 0.398019 0.553443
0.154103 0.456837 0.589530
0.232298 0.518996 0.629910
0.354589 0.582655 0.663496
0.526566 0.643885 0.680459
0.713545 0.686883 0.664979
0.841200 0.713046 0.633359
0.921963 0.732083 0.615194
0.018922 0.067817 0.183843
0.044432 0.092132 0.204548
0.112701 0.103315 0.203373
0.252145 0.100219 0.180356
0.460370 0.088839 0.143284
0.625082 0.106403 0.133587
0.720316 0.140764 0.128357
0.776488 0.183469 0.131358
0.023300 0.097609 0.231328
0.060520 0.149838 0.274814
0.130409 0.182182 0.301570
0.257009 0.192897 0.302352
0.443263 0.186634 0.276382
0.623146 0.193244 0.250207
0.740254 0.219889 0.230349
0.811013 0.258478 0.220221
0.031787 0.141155 0.293408
0.074433 0.207924 0.337540
0.148994 0.260928 0.371901
0.270000 0.289463 0.382790
0.439646 0.291438 0.364924
0.623425 0.291739 0.336391
0.754785 0.308723 0.316163
0.840365 0.338155 0.307058
0.043275 0.193887 0.362491
0.087835 0.268033 0.401164
0.165102 0.336213 0.432673
0.283325 0.383036 0.444195
0.443318 0.400514 0.429652
0.626300 0.397816 0.399631
0.765879 0.406211 0.382227
0.863854 0.425364 0.378712
0.056702 0.252918 0.433395
0.102451 0.330839 0.470603
0.177925 0.405283 0.497069
0.292835 0.467113 0.504972
0.449552 0.507445 0.489775
0.632373 0.506898 0.451439
0.775560 0.510390 0.431633
0.881446 0.521297 0.430361
0.070888 0.321528 0.507342
0.121783 0.394212 0.541518
0.195591 0.464264 0.568049
0.305156 0.529747 0.580172
0.456726 0.585772 0.571235
0.644344 0.609729 0.525241
0.787221 0.615763 0.492692
0.894338 0.623315 0.482604
0.089515 0.393233 0.576582
0.151829 0.459025 0.604937
0.231273 0.521502 0.631819
0.341253 0.582957 0.651444
0.488868 0.642166 0.656138
0.669814 0.682275 0.621489
0.804686 0.701721 0.578248
0.904894 0.714412 0.554138
0.115902 0.457295 0.634703
0.191538 0.517331 0.658510
0.280079 0.573995 0.684757
0.395818 0.631264 0.709317
0.545023 0.689577 0.725425
0.714020 0.735643 0.708742
0.834234 0.763588 0.672646
0.918173 0.780593 0.645983
0.015920 0.098751 0.267147
0.033930 0.132160 0.302251
0.074247 0.167884 0.325117
0.194799 0.176083 0.295706
0.414324 0.149787 0.207234
0.630375 0.161112 0.168245
0.744075 0.195988 0.157249
0.807045 0.240351 0.162222
0.018470 0.133996 0.325280
0.051234 0.194709 0.376068
0.102697 0.242948 0.414983
0.210425 0.267451 0.419782
0.392365 0.265508 0.381297
0.617849 0.260723 0.326270
0.756116 0.285419 0.292349
0.836937 0.324790 0.278600
0.024946 0.182204 0.394173
0.066020 0.254600 0.442784
0.131047 0.315911 0.483352
0.236669 0.355937 0.502833
0.394123 0.369143 0.491852
0.613222 0.358452 0.441819
0.764346 0.371672 0.405945
0.860950 0.400148 0.389081
0.036276 0.240598 0.468640
0.083949 0.317151 0.506700
0.160247 0.386723 0.539065
0.267296 0.438568 0.559216
0.409788 0.464573 0.559799
0.614514 0.455263 0.520135
0.769639 0.458978 0.490322
0.878109 0.475666 0.477144
0.052400 0.306209 0.543545
0.108372 0.384618 0.570376
0.191054 0.455011 0.590490
0.298043 0.513367 0.603788
0.431532 0.553624 0.606122
0.620073 0.552805 0.571404
0.773309 0.551420 0.544814
0.888632 0.558909 0.534303
0.070354 0.374819 0.610301
0.137295 0.449706 0.631154
0.224372 0.518212 0.649171
0.329517 0.579094 0.661518
0.455257 0.629649 0.662366
0.629358 0.656876 0.626831
0.779032 0.656675 0.589678
0.896142 0.658020 0.571051
0.094291 0.444069 0.664849
0.177267 0.512562 0.681350
0.273101 0.575185 0.698724
0.379936 0.632295 0.713907
0.500556 0.683651 0.720630
0.661734 0.725095 0.693132
0.794965 0.742154 0.649668
0.902008 0.749908 0.620498
0.128108 0.503243 0.707254
0.227747 0.567025 0.722870
0.333847 0.625291 0.740727
0.444506 0.678533 0.758821
0.562448 0.727448 0.772027
0.712765 0.773037 0.757728
0.826964 0.801238 0.721515
0.914013 0.816360 0.691856
0.010438 0.146394 0.380393
0.025812 0.183901 0.421059
0.054475 0.230462 0.455500
0.128738 0.269594 0.459900
0.284209 0.284189 0.408349
0.614866 0.236382 0.234410
0.765475 0.261890 0.198970
0.839588 0.305729 0.207547
0.013719 0.185297 0.443795
0.043622 0.248409 0.490967
0.083364 0.304422 0.529389
0.159110 0.350848 0.547563
0.301103 0.380873 0.529782
0.593714 0.361376 0.423431
0.766359 0.373909 0.368240
0.862327 0.404630 0.351131
0.020201 0.233743 0.509767
0.059712 0.306276 0.552806
0.116638 0.371905 0.588151
0.202136 0.425863 0.610466
0.334501 0.462403 0.610812
0.585206 0.463521 0.553994
0.766024 0.464553 0.500531
0.878149 0.480416 0.475336
0.031299 0.290052 0.575745
0.080044 0.364768 0.609394
0.153417 0.435795 0.637276
0.250209 0.495261 0.657507
0.377362 0.536454 0.665344
0.586923 0.548140 0.638130
0.765352 0.540812 0.594934
0.887781 0.544210 0.570700
0.047478 0.351565 0.638848
0.108857 0.427769 0.662190
0.194312 0.498214 0.681140
0.299518 0.559767 0.696280
0.425093 0.607413 0.705087
0.596853 0.621614 0.689165
0.765529 0.610703 0.654427
0.892514 0.606876 0.632873
0.066896 0.410953 0.692138
0.148535 0.489415 0.707350
0.247358 0.559418 0.721567
0.359085 0.619899 0.732734
0.480777 0.668891 0.737973
0.615095 0.696633 0.727580
0.770048 0.690722 0.691647
0.895709 0.685897 0.667161
0.093516 0.476105 0.736392
0.196139 0.549513 0.747364
0.306137 0.614788 0.759902
0.421485 0.672069 0.771497
0.540036 0.720984 0.778805
0.658352 0.756842 0.771652
0.787425 0.770023 0.733928
0.898939 0.773308 0.703564
0.132560 0.533316 0.770167
0.255373 0.602773 0.781865
0.374499 0.664266 0.795168
0.491391 0.717998 0.808064
0.606356 0.764279 0.817904
0.714840 0.802318 0.816802
0.821083 0.827515 0.784999
0.910310 0.839939 0.755669
0.006215 0.200496 0.498996
0.021517 0.240272 0.538637
0.046789 0.288670 0.572451
0.101841 0.338191 0.588422
0.214542 0.378172 0.569600
0.479163 0.375154 0.458549
0.733542 0.362367 0.326133
0.871073 0.379782 0.279823
0.011814 0.241351 0.557909
0.041795 0.302765 0.597899
0.077455 0.358762 0.629725
0.138640 0.412362 0.649116
0.250204 0.461457 0.647065
0.487184 0.480648 0.583830
0.738138 0.478059 0.484726
0.883968 0.491047 0.438541
0.020579 0.288327 0.614485
0.060105 0.357243 0.649671
0.114819 0.422131 0.677763
0.190825 0.481158 0.697244
0.301560 0.531555 0.703400
0.508031 0.562746 0.672037
0.742786 0.565289 0.601378
0.890450 0.571448 0.560458
0.033092 0.340487 0.667715
0.082409 0.410990 0.695868
0.156118 0.480893 0.718964
0.248558 0.543724 0.736497
0.362175 0.594583 0.745888
0.538881 0.628533 0.732376
0.748454 0.631771 0.683654
0.892461 0.630746 0.649810
0.049463 0.396209 0.716502
0.113187 0.468268 0.737582
0.201128 0.537086 0.755178
0.306684 0.600293 0.769827
0.427091 0.654202 0.779995
0.576559 0.684914 0.773628
0.755947 0.686085 0.739251
0.891984 0.679550 0.711363
0.068881 0.450767 0.757545
0.156208 0.525103 0.772308
0.260605 0.593310 0.786236
0.375274 0.654225 0.797991
0.494709 0.706039 0.805896
0.615743 0.740887 0.804793
0.766430 0.743696 0.775755
0.892040 0.737150 0.748963
0.090724 0.501982 0.790082
0.207791 0.577940 0.801852
0.327821 0.645254 0.814263
0.447751 0.703741 0.825186
0.564713 0.752933 0.832432
0.673812 0.788679 0.831108
0.787305 0.804265 0.808211
0.893402 0.805281 0.781668
0.129439 0.552471 0.816315
0.272148 0.627730 0.829197
0.401363 0.692743 0.841964
0.520850 0.747788 0.852741
0.632870 0.793198 0.859718
0.733497 0.827516 0.859151
0.822686 0.851604 0.842853
0.905402 0.861922 0.819827
0.004191 0.247595 0.593785
0.020804 0.290701 0.632987
0.045659 0.339664 0.664344
0.091164 0.392388 0.684083
0.175936 0.444952 0.685773
0.366458 0.483166 0.643326
0.654853 0.478268 0.514162
0.851590 0.480636 0.430542
0.013138 0.290140 0.646337
0.043613 0.351140 0.683405
0.078865 0.405854 0.710615
0.133796 0.460291 0.728800
0.225967 0.516681 0.735748
0.405247 0.564093 0.712693
0.671462 0.574558 0.625162
0.861032 0.580843 0.558494
0.024961 0.337630 0.694884
0.064995 0.404695 0.727410
0.120699 0.466853 0.751954
0.193580 0.525185 0.769053
0.290870 0.580176 0.777529
0.453921 0.629484 0.766407
0.690177 0.648287 0.707236
0.866925 0.654935 0.653071
0.039840 0.388842 0.738670
0.090036 0.456584 0.765712
0.166131 0.523059 0.787507
0.258482 0.584532 0.803770
0.364274 0.638580 0.813265
0.509336 0.684563 0.808416
0.711059 0.705454 0.767850
0.871163 0.709965 0.723028
0.057590 0.442052 0.777107
0.122762 0.509842 0.798762
0.213624 0.575294 0.816982
0.321584 0.637201 0.832363
0.440034 0.693262 0.843841
0.568012 0.733698 0.841970
0.733952 0.752059 0.813265
0.875353 0.753411 0.775583
0.077112 0.492738 0.808606
0.167672 0.561241 0.825077
0.275099 0.625770 0.840742
0.391136 0.685350 0.854323
0.509001 0.738552 0.864486
0.623343 0.779588 0.867888
0.758197 0.796007 0.845846
0.881094 0.797197 0.812916
0.097706 0.533478 0.831136
0.221838 0.606314 0.845739
0.345898 0.672072 0.860217
0.466363 0.730022 0.872439
0.580609 0.779435 0.880605
0.686260 0.817037 0.881986
0.787260 0.838790 0.869634
0.887983 0.845229 0.842994
0.131352 0.572404 0.848812
0.285362 0.648386 0.864413
0.419549 0.714182 0.878784
0.538986 0.769691 0.889849
0.647718 0.814993 0.895947
0.746073 0.848563 0.894710
0.826221 0.873217 0.887695
0.903222 0.886365 0.868757
