filter/Red and Blue/lut/Impulse 04_S.cube
# LUT by SparkleStock. Enhanced with VOXCOLOR algorithms.
LUT_3D_SIZE 5
DOMAIN_MIN 0.000000 0.000000 0.000000
DOMAIN_MAX 0.903226 0.903226 0.903226
0.027350 0.019536 0.019536
0.162133 0.017322 0.028965
0.370917 0.017890 0.035693
0.566222 0.026901 0.051172
0.681618 0.046697 0.068140
0.030785 0.031392 0.048486
0.181490 0.057364 0.043350
0.423734 0.093409 0.037574
0.634332 0.115239 0.056086
0.742475 0.134945 0.090066
0.036110 0.055008 0.095214
0.146400 0.117870 0.132860
0.446765 0.174929 0.080471
0.685137 0.221048 0.089125
0.799617 0.249817 0.144232
0.055087 0.116444 0.180393
0.115941 0.230661 0.310679
0.359490 0.291115 0.304175
0.747936 0.328137 0.211916
0.864411 0.399803 0.288625
0.070897 0.235086 0.343275
0.131561 0.383641 0.507073
0.366410 0.487825 0.567021
0.740939 0.554083 0.549135
0.921750 0.600690 0.543650
0.021915 0.041585 0.103809
0.132299 0.051171 0.100321
0.393963 0.043378 0.092413
0.631160 0.064252 0.095426
0.738392 0.119794 0.100834
0.034871 0.085717 0.169794
0.137797 0.170259 0.222721
0.383549 0.197428 0.215641
0.655490 0.210792 0.197372
0.801531 0.248049 0.195121
0.052036 0.151631 0.259691
0.142661 0.276613 0.324973
0.387812 0.362621 0.308888
0.678938 0.383628 0.270836
0.851312 0.403536 0.283717
0.070277 0.252044 0.382784
0.149233 0.378121 0.471149
0.372868 0.494563 0.491760
0.716082 0.544461 0.414752
0.891753 0.574960 0.413183
0.096318 0.381225 0.531818
0.199560 0.488108 0.604706
0.432197 0.602123 0.663376
0.754806 0.681690 0.649508
0.922833 0.717990 0.609732
0.017598 0.082091 0.223357
0.075592 0.130126 0.262423
0.336108 0.122547 0.196267
0.667409 0.138555 0.145468
0.791625 0.211304 0.145757
0.025965 0.147987 0.324849
0.114342 0.257700 0.404507
0.329641 0.301857 0.419832
0.663902 0.298354 0.357613
0.844744 0.348776 0.323262
0.047022 0.248147 0.452745
0.151180 0.379568 0.508720
0.356147 0.469633 0.526943
0.667351 0.475399 0.477130
0.878566 0.493456 0.456273
0.075412 0.366849 0.577108
0.196007 0.490566 0.619635
0.389042 0.599366 0.639306
0.682786 0.661923 0.583832
0.897725 0.665611 0.538799
0.122559 0.481403 0.671667
0.282465 0.586641 0.707163
0.483942 0.682507 0.743644
0.749086 0.764700 0.726427
0.916061 0.799347 0.667638
0.009193 0.158951 0.409240
0.042902 0.232545 0.478268
0.172671 0.307504 0.486380
0.666808 0.255747 0.233684
0.847618 0.322941 0.221573
0.017531 0.233955 0.521341
0.091233 0.354313 0.592163
0.237138 0.447914 0.627679
0.631946 0.467012 0.540454
0.879267 0.485157 0.467660
0.038590 0.332873 0.631662
0.150728 0.460900 0.676423
0.330589 0.565758 0.706057
0.629999 0.605669 0.684656
0.891451 0.591123 0.626120
0.072176 0.435298 0.722615
0.239087 0.567060 0.744796
0.441478 0.669199 0.761956
0.653818 0.727400 0.755408
0.895877 0.714764 0.698303
0.132916 0.539742 0.784219
0.353398 0.658258 0.804734
0.559396 0.750458 0.825022
0.742565 0.817174 0.827079
0.909264 0.845674 0.771657
0.004191 0.247595 0.593785
0.038596 0.326820 0.657312
0.125997 0.419695 0.688081
0.423876 0.488408 0.624043
0.851590 0.480636 0.430542
0.021709 0.325248 0.683160
0.095783 0.437791 0.736774
0.219893 0.537660 0.765247
0.490333 0.623918 0.746100
0.865817 0.639100 0.632862
0.048588 0.415627 0.758384
0.165323 0.532995 0.798122
0.344448 0.639793 0.824919
0.577704 0.717736 0.821783
0.873147 0.731664 0.750393
0.082100 0.504415 0.815584
0.262080 0.622310 0.842498
0.468227 0.724066 0.864724
0.667329 0.798000 0.871777
0.882644 0.808569 0.821523
0.131352 0.572404 0.848812
0.388043 0.698782 0.875318
0.594093 0.793180 0.893422
0.768841 0.856064 0.893823
0.903222 0.886365 0.868757
