filter/Red and Blue/lut/Impulse 04.cube
# LUT by SparkleStock. Enhanced with VOXCOLOR algorithms.
LUT_3D_SIZE 5
DOMAIN_MIN 0.000000 0.000000 0.000000
DOMAIN_MAX 0.903226 0.903226 0.903226
0.027350 0.019536 0.019536
0.159093 0.017299 0.028871
0.370822 0.016992 0.034669
0.564938 0.026791 0.051487
0.683910 0.045870 0.068282
0.030383 0.030407 0.047123
0.177354 0.028687 0.044485
0.420841 0.034198 0.049157
0.627586 0.067251 0.072354
0.739137 0.120554 0.096007
0.034826 0.051054 0.092182
0.123752 0.087552 0.136909
0.456975 0.082583 0.085814
0.688894 0.139332 0.104109
0.796685 0.223320 0.146619
0.055181 0.108598 0.180535
0.099018 0.223376 0.321542
0.334428 0.263122 0.324314
0.734919 0.284971 0.230838
0.867189 0.383904 0.289533
0.072646 0.226720 0.341077
0.114688 0.383965 0.520154
0.343684 0.490803 0.586192
0.743529 0.553514 0.561233
0.928878 0.598375 0.547188
0.021742 0.040837 0.102304
0.118193 0.050945 0.090800
0.390840 0.045144 0.065457
0.629016 0.068991 0.073470
0.739328 0.120765 0.095099
0.035240 0.081721 0.163779
0.087741 0.157870 0.231142
0.316180 0.160698 0.203504
0.644337 0.183904 0.164868
0.796116 0.247813 0.178534
0.052459 0.146796 0.254211
0.096868 0.258797 0.360029
0.301776 0.314598 0.383135
0.673700 0.321643 0.302392
0.850903 0.387493 0.308117
0.070500 0.250455 0.385196
0.125844 0.371671 0.492970
0.327330 0.470681 0.559069
0.715762 0.498745 0.494708
0.898209 0.547499 0.487329
0.095631 0.382153 0.538136
0.185354 0.488901 0.614667
0.419736 0.603305 0.683118
0.764687 0.674799 0.682968
0.932687 0.702373 0.660609
0.018299 0.078569 0.216598
0.062574 0.132296 0.259744
0.300625 0.126507 0.175731
0.665249 0.143712 0.115540
0.793045 0.212057 0.135262
0.025216 0.142564 0.318534
0.077745 0.266913 0.415864
0.216985 0.341042 0.437367
0.645557 0.321663 0.313806
0.847631 0.375689 0.295330
0.046255 0.248400 0.456747
0.118732 0.378594 0.526672
0.262414 0.488085 0.590457
0.648526 0.495774 0.512186
0.881191 0.533908 0.477833
0.075457 0.369298 0.585037
0.182036 0.491016 0.635713
0.350280 0.596268 0.691119
0.682756 0.653242 0.676272
0.903432 0.665906 0.626385
0.123395 0.484049 0.678078
0.278874 0.588537 0.712271
0.477921 0.682165 0.755311
0.763701 0.756006 0.765494
0.924266 0.777066 0.739619
0.008972 0.158730 0.409445
0.039644 0.232352 0.481834
0.151220 0.311275 0.494719
0.640847 0.272145 0.252990
0.851823 0.322513 0.214556
0.016210 0.232910 0.523802
0.077688 0.358312 0.598665
0.193738 0.468885 0.638010
0.602269 0.501614 0.538202
0.888308 0.514486 0.452823
0.036757 0.331139 0.637220
0.135081 0.464282 0.684700
0.298016 0.586097 0.724111
0.607884 0.653891 0.698316
0.898221 0.656342 0.620716
0.071682 0.436712 0.728740
0.231486 0.568761 0.751514
0.425729 0.675667 0.777872
0.658307 0.749004 0.785861
0.900159 0.752287 0.722849
0.132374 0.539125 0.787725
0.352965 0.659224 0.807252
0.562297 0.752984 0.830494
0.758638 0.818088 0.841021
0.913972 0.838904 0.807070
0.003907 0.249533 0.599126
0.036013 0.327485 0.663592
0.110935 0.421262 0.697410
0.420370 0.493090 0.633195
0.872992 0.477033 0.413516
0.020633 0.326566 0.688114
0.087609 0.439311 0.741263
0.204955 0.541263 0.769518
0.485362 0.634872 0.751279
0.884625 0.651152 0.629821
0.047633 0.415545 0.762034
0.155819 0.534479 0.801020
0.340065 0.647361 0.828251
0.576104 0.733897 0.824434
0.885340 0.761087 0.744487
0.081735 0.503114 0.817704
0.259785 0.623061 0.844361
0.468281 0.728381 0.867469
0.672118 0.806926 0.874324
0.888382 0.833612 0.816733
0.128722 0.570288 0.851382
0.391473 0.700879 0.877831
0.599850 0.797418 0.896902
0.773990 0.859422 0.896871
0.903186 0.892212 0.873965
