filter/Red and Blue/lut/Impulse 01.cube
# LUT by SparkleStock. Enhanced with VOXCOLOR algorithms.
LUT_3D_SIZE 32
0.042979 0.039072 0.039072
0.058057 0.039356 0.041057
0.073134 0.039639 0.043042
0.088211 0.039923 0.045027
0.103289 0.040206 0.047012
0.118366 0.040490 0.048998
0.140730 0.041404 0.050746
0.164552 0.042444 0.052448
0.188373 0.043483 0.054149
0.212194 0.044523 0.055851
0.236016 0.045563 0.057552
0.265855 0.047076 0.059317
0.298704 0.048824 0.061113
0.331553 0.050573 0.062909
0.364402 0.052322 0.064705
0.397251 0.054071 0.066501
0.430005 0.055938 0.068557
0.462665 0.057923 0.070873
0.495325 0.059908 0.073189
0.527985 0.061893 0.075505
0.560644 0.063878 0.077821
0.589555 0.065942 0.080232
0.610965 0.068163 0.082831
0.632376 0.070385 0.085431
0.653787 0.072606 0.088030
0.675198 0.074828 0.090630
0.694899 0.077230 0.093206
0.706054 0.080539 0.095663
0.717208 0.083847 0.098121
0.728363 0.087156 0.100579
0.739517 0.090464 0.103037
0.750672 0.093773 0.105495
0.042932 0.040585 0.043515
0.058558 0.040795 0.044851
0.074185 0.041005 0.046186
0.089811 0.041216 0.047522
0.105437 0.041426 0.048857
0.121063 0.041637 0.050193
0.143984 0.042591 0.051894
0.168363 0.043695 0.053669
0.192743 0.044799 0.055444
0.217122 0.045903 0.057219
0.241501 0.047007 0.058993
0.271923 0.048669 0.060904
0.305367 0.050610 0.062883
0.338810 0.052551 0.064862
0.372254 0.054491 0.066841
0.405697 0.056432 0.068820
0.438809 0.058551 0.071064
0.471587 0.060847 0.073572
0.504366 0.063143 0.076080
0.537145 0.065439 0.078588
0.569923 0.067735 0.081096
0.598837 0.070126 0.083702
0.620019 0.072704 0.086503
0.641201 0.075282 0.089303
0.662383 0.077860 0.092104
0.683565 0.080438 0.094905
0.703015 0.083169 0.097682
0.713804 0.086660 0.100341
0.724592 0.090152 0.103000
0.735381 0.093643 0.105659
0.746169 0.097135 0.108318
0.756958 0.100626 0.110977
0.042885 0.042097 0.047958
0.059060 0.042234 0.048644
0.075235 0.042371 0.049330
0.091410 0.042509 0.050016
0.107585 0.042646 0.050702
0.123760 0.042783 0.051388
0.147238 0.043779 0.053043
0.172175 0.044947 0.054890
0.197112 0.046115 0.056738
0.222050 0.047283 0.058586
0.246987 0.048451 0.060434
0.277992 0.050262 0.062491
0.312030 0.052395 0.064653
0.346068 0.054528 0.066815
0.380106 0.056661 0.068977
0.414144 0.058794 0.071139
0.447612 0.061164 0.073570
0.480510 0.063771 0.076271
0.513407 0.066379 0.078971
0.546305 0.068986 0.081671
0.579203 0.071593 0.084371
0.608119 0.074309 0.087172
0.629072 0.077244 0.090174
0.650026 0.080179 0.093176
0.670979 0.083114 0.096178
0.691933 0.086049 0.099180
0.711131 0.089107 0.102159
0.721554 0.092782 0.105019
0.731976 0.096456 0.107879
0.742399 0.100131 0.110739
0.752821 0.103805 0.113600
0.763244 0.107480 0.116460
0.042837 0.043609 0.052401
0.059561 0.043673 0.052437
0.076286 0.043738 0.052474
0.093010 0.043802 0.052510
0.109734 0.043866 0.052547
0.126458 0.043930 0.052584
0.150491 0.044967 0.054191
0.175987 0.046199 0.056112
0.201482 0.047431 0.058033
0.226977 0.048663 0.059954
0.252473 0.049895 0.061875
0.284060 0.051855 0.064079
0.318692 0.054180 0.066423
0.353325 0.056506 0.068768
0.387958 0.058831 0.071113
0.422591 0.061156 0.073458
0.456415 0.063777 0.076077
0.489432 0.066696 0.078969
0.522449 0.069614 0.081861
0.555465 0.072532 0.084754
0.588482 0.075450 0.087646
0.617401 0.078493 0.090642
0.638126 0.081785 0.093845
0.658850 0.085076 0.097049
0.679575 0.088368 0.100252
0.700300 0.091660 0.103455
0.719247 0.095046 0.106635
0.729303 0.098903 0.109696
0.739360 0.102761 0.112758
0.749417 0.106618 0.115820
0.759473 0.110476 0.118881
0.769530 0.114333 0.121943
0.042790 0.045122 0.056844
0.060063 0.045113 0.056231
0.077336 0.045104 0.055618
0.094609 0.045094 0.055005
0.111882 0.045085 0.054392
0.129155 0.045076 0.053779
0.153745 0.046155 0.055339
0.179798 0.047451 0.057333
0.205852 0.048747 0.059327
0.231905 0.050042 0.061321
0.257959 0.051338 0.063316
0.290128 0.053449 0.065666
0.325355 0.055966 0.068194
0.360583 0.058483 0.070722
0.395810 0.061000 0.073249
0.431037 0.063517 0.075777
0.465219 0.066391 0.078583
0.498354 0.069620 0.081668
0.531490 0.072849 0.084752
0.564625 0.076078 0.087837
0.597761 0.079308 0.090921
0.626683 0.082677 0.094112
0.647179 0.086325 0.097517
0.667675 0.089974 0.100921
0.688171 0.093622 0.104326
0.708667 0.097271 0.107730
0.727362 0.100985 0.111111
0.737053 0.105025 0.114374
0.746744 0.109065 0.117637
0.756435 0.113106 0.120900
0.766126 0.117146 0.124162
0.775816 0.121186 0.127425
0.042743 0.046634 0.061286
0.060565 0.046552 0.060024
0.078386 0.046470 0.058762
0.096208 0.046387 0.057499
0.114030 0.046305 0.056237
0.131852 0.046223 0.054974
0.156998 0.047342 0.056487
0.183610 0.048702 0.058554
0.210221 0.050062 0.060622
0.236833 0.051422 0.062689
0.263444 0.052782 0.064757
0.296196 0.055042 0.067253
0.332018 0.057751 0.069964
0.367840 0.060461 0.072675
0.403662 0.063170 0.075385
0.439484 0.065879 0.078096
0.474022 0.069004 0.081090
0.507277 0.072544 0.084366
0.540531 0.076085 0.087643
0.573785 0.079625 0.090919
0.607040 0.083165 0.094196
0.635965 0.086860 0.097582
0.656233 0.090866 0.101188
0.676500 0.094871 0.104794
0.696767 0.098876 0.108400
0.717035 0.102881 0.112006
0.735478 0.106923 0.115588
0.744803 0.111146 0.119052
0.754128 0.115370 0.122516
0.763453 0.119593 0.125980
0.772778 0.123816 0.129444
0.782102 0.128040 0.132908
0.043011 0.048226 0.065769
0.060047 0.048527 0.065214
0.077084 0.048829 0.064659
0.094121 0.049131 0.064104
0.111157 0.049433 0.063549
0.128194 0.049735 0.062994
0.155174 0.050737 0.063694
0.184142 0.051879 0.064645
0.213111 0.053021 0.065597
0.242079 0.054163 0.066548
0.271048 0.055305 0.067500
0.304779 0.057610 0.069741
0.340890 0.060496 0.072627
0.377002 0.063382 0.075513
0.413114 0.066268 0.078399
0.449225 0.069154 0.081286
0.483796 0.072519 0.084494
0.516827 0.076363 0.088023
0.549857 0.080207 0.091553
0.582887 0.084050 0.095082
0.615917 0.087894 0.098612
0.644615 0.091931 0.102300
0.664646 0.096354 0.106305
0.684677 0.100777 0.110311
0.704708 0.105200 0.114316
0.724739 0.109623 0.118321
0.742958 0.114064 0.122327
0.752115 0.118592 0.126335
0.761272 0.123120 0.130344
0.770429 0.127648 0.134352
0.779586 0.132177 0.138360
0.788743 0.136705 0.142369
0.043342 0.049833 0.070259
0.059326 0.050610 0.070683
0.075311 0.051388 0.071106
0.091295 0.052165 0.071530
0.107280 0.052943 0.071954
0.123264 0.053720 0.072378
0.152333 0.054573 0.072113
0.184019 0.055441 0.071711
0.215704 0.056308 0.071308
0.247390 0.057176 0.070906
0.279075 0.058043 0.070503
0.313864 0.060372 0.072409
0.350204 0.063432 0.075469
0.386545 0.066492 0.078529
0.422885 0.069552 0.081589
0.459226 0.072612 0.084649
0.493765 0.076215 0.088076
0.526502 0.080361 0.091871
0.559240 0.084506 0.095666
0.591977 0.088652 0.099461
0.624715 0.092797 0.103256
0.653138 0.097179 0.107267
0.672931 0.102032 0.111712
0.692724 0.106885 0.116156
0.712517 0.111738 0.120601
0.732310 0.116591 0.125045
0.750309 0.121445 0.129519
0.759338 0.126302 0.134140
0.768368 0.131160 0.138761
0.777397 0.136017 0.143383
0.786426 0.140875 0.148004
0.795455 0.145732 0.152625
0.043672 0.051440 0.074749
0.058605 0.052693 0.076152
0.073538 0.053946 0.077554
0.088470 0.055199 0.078957
0.103403 0.056453 0.080360
0.118335 0.057706 0.081762
0.149493 0.058409 0.080532
0.183895 0.059002 0.078776
0.218298 0.059595 0.077020
0.252700 0.060188 0.075263
0.287103 0.060781 0.073507
0.322950 0.063135 0.075077
0.359519 0.066369 0.078311
0.396088 0.069603 0.081545
0.432657 0.072836 0.084779
0.469226 0.076070 0.088012
0.503733 0.079911 0.091659
0.536178 0.084358 0.095720
0.568622 0.088806 0.099780
0.601067 0.093253 0.103840
0.633512 0.097701 0.107900
0.661660 0.102427 0.112235
0.681216 0.107710 0.117118
0.700771 0.112993 0.122002
0.720326 0.118276 0.126885
0.739882 0.123558 0.131769
0.757661 0.128825 0.136711
0.766562 0.134012 0.141945
0.775463 0.139199 0.147179
0.784364 0.144386 0.152413
0.793265 0.149573 0.157647
0.802166 0.154760 0.162882
0.044003 0.053047 0.079239
0.057884 0.054776 0.081621
0.071764 0.056505 0.084002
0.085645 0.058233 0.086384
0.099525 0.059962 0.088765
0.113406 0.061691 0.091147
0.146652 0.062245 0.088952
0.183772 0.062564 0.085841
0.220891 0.062882 0.082731
0.258011 0.063201 0.079621
0.295130 0.063520 0.076510
0.332035 0.065898 0.077745
0.368833 0.069305 0.081153
0.405631 0.072713 0.084561
0.442428 0.076121 0.087968
0.479226 0.079528 0.091376
0.513701 0.083607 0.095242
0.545853 0.088356 0.099568
0.578005 0.093105 0.103893
0.610157 0.097855 0.108219
0.642309 0.102604 0.112544
0.670183 0.107675 0.117202
0.689501 0.113387 0.122525
0.708818 0.119100 0.127847
0.728136 0.124813 0.133170
0.747453 0.130526 0.138493
0.765013 0.136206 0.143903
0.773786 0.141723 0.149750
0.782559 0.147239 0.155597
0.791332 0.152755 0.161444
0.800105 0.158271 0.167291
0.808878 0.163787 0.173138
0.044334 0.054654 0.083729
0.057163 0.056858 0.087090
0.069991 0.059063 0.090450
0.082820 0.061268 0.093810
0.095648 0.063472 0.097171
0.108477 0.065677 0.100531
0.143812 0.066081 0.097371
0.183648 0.066125 0.092907
0.223485 0.066170 0.088442
0.263321 0.066214 0.083978
0.303157 0.066258 0.079514
0.341121 0.068660 0.080414
0.378147 0.072242 0.083995
0.415173 0.075823 0.087576
0.452200 0.079405 0.091158
0.489226 0.082986 0.094739
0.523669 0.087302 0.098825
0.555529 0.092354 0.103416
0.587388 0.097405 0.108007
0.619247 0.102456 0.112598
0.651107 0.107507 0.117188
0.678706 0.112922 0.122169
0.697786 0.119065 0.127931
0.716865 0.125208 0.133693
0.735945 0.131351 0.139455
0.755025 0.137494 0.145216
0.772365 0.143587 0.151094
0.781010 0.149433 0.157554
0.789655 0.155278 0.164014
0.798300 0.161124 0.170474
0.806945 0.166969 0.176934
0.815589 0.172815 0.183394
0.045453 0.057395 0.091055
0.057424 0.060197 0.095669
0.069396 0.063000 0.100282
0.081368 0.065802 0.104896
0.093339 0.068604 0.109510
0.105311 0.071407 0.114123
0.139865 0.072215 0.111319
0.178937 0.072626 0.107032
0.218008 0.073036 0.102745
0.257079 0.073446 0.098457
0.296150 0.073856 0.094170
0.336189 0.076163 0.093988
0.376713 0.079418 0.095859
0.417237 0.082673 0.097730
0.457761 0.085928 0.099600
0.498285 0.089183 0.101471
0.534300 0.093488 0.104902
0.565806 0.098841 0.109892
0.597312 0.104194 0.114882
0.628817 0.109547 0.119872
0.660323 0.114900 0.124863
0.687587 0.120672 0.130289
0.706368 0.127281 0.136587
0.725148 0.133891 0.142886
0.743929 0.140500 0.149184
0.762710 0.147109 0.155482
0.779777 0.153664 0.161910
0.788276 0.159942 0.168983
0.796774 0.166221 0.176056
0.805273 0.172499 0.183129
0.813771 0.178778 0.190201
0.822269 0.185057 0.197274
0.046965 0.060703 0.099799
0.058178 0.064164 0.105803
0.069390 0.067625 0.111807
0.080602 0.071086 0.117811
0.091815 0.074547 0.123816
0.103027 0.078008 0.129820
0.135366 0.079499 0.128033
0.171931 0.080595 0.124688
0.208495 0.081691 0.121343
0.245060 0.082787 0.117998
0.281624 0.083884 0.114652
0.324250 0.086035 0.113016
0.369906 0.088714 0.112234
0.415562 0.091393 0.111452
0.461218 0.094071 0.110669
0.506874 0.096750 0.109887
0.545263 0.100917 0.112225
0.576384 0.106572 0.117681
0.607505 0.112227 0.123138
0.638627 0.117882 0.128595
0.669748 0.123537 0.134052
0.696646 0.129672 0.139984
0.715098 0.136766 0.146868
0.733549 0.143860 0.153752
0.752001 0.150955 0.160636
0.770452 0.158049 0.167520
0.787219 0.165088 0.174537
0.795562 0.171851 0.182223
0.803905 0.178615 0.189909
0.812248 0.185378 0.197595
0.820591 0.192142 0.205280
0.828934 0.198905 0.212966
0.048478 0.064012 0.108543
0.058931 0.068132 0.115938
0.069384 0.072251 0.123332
0.079837 0.076371 0.130727
0.090290 0.080491 0.138122
0.100743 0.084610 0.145516
0.130867 0.086782 0.144746
0.164925 0.088564 0.142343
0.198983 0.090347 0.139940
0.233041 0.092129 0.137538
0.267099 0.093911 0.135135
0.312310 0.095907 0.132044
0.363098 0.098010 0.128609
0.413886 0.100112 0.125174
0.464674 0.102215 0.121739
0.515462 0.104317 0.118303
0.556225 0.108347 0.119548
0.586962 0.114304 0.125471
0.617699 0.120261 0.131394
0.648437 0.126217 0.137318
0.679174 0.132174 0.143241
0.705706 0.138672 0.149680
0.723828 0.146251 0.157149
0.741950 0.153830 0.164618
0.760072 0.161409 0.172087
0.778195 0.168988 0.179557
0.794661 0.176512 0.187164
0.802848 0.183761 0.195463
0.811036 0.191009 0.203762
0.819223 0.198257 0.212061
0.827411 0.205505 0.220359
0.835598 0.212754 0.228658
0.049990 0.067320 0.117287
0.059684 0.072099 0.126072
0.069378 0.076877 0.134857
0.079072 0.081655 0.143642
0.088765 0.086434 0.152427
0.098459 0.091212 0.161213
0.126368 0.094065 0.161460
0.157919 0.096534 0.159999
0.189470 0.099002 0.158538
0.221022 0.101471 0.157078
0.252573 0.103939 0.155617
0.300370 0.105779 0.151072
0.356290 0.107306 0.144984
0.412211 0.108832 0.138896
0.468131 0.110358 0.132808
0.524051 0.111884 0.126720
0.567187 0.115777 0.126871
0.597540 0.122035 0.133260
0.627893 0.128294 0.139650
0.658246 0.134553 0.146040
0.688599 0.140812 0.152430
0.714765 0.147672 0.159375
0.732558 0.155736 0.167430
0.750351 0.163800 0.175484
0.768144 0.171864 0.183539
0.785937 0.179928 0.191594
0.802103 0.187937 0.199792
0.810135 0.195670 0.208703
0.818167 0.203403 0.217615
0.826199 0.211136 0.226527
0.834230 0.218869 0.235438
0.842262 0.226602 0.244350
0.051503 0.070629 0.126031
0.060437 0.076066 0.136207
0.069372 0.081503 0.146382
0.078306 0.086940 0.156558
0.087241 0.092377 0.166733
0.096175 0.097814 0.176909
0.121868 0.101349 0.178173
0.150913 0.104503 0.177655
0.179958 0.107658 0.177136
0.209003 0.110812 0.176618
0.238048 0.113967 0.176099
0.288431 0.115652 0.170099
0.349483 0.116601 0.161358
0.410535 0.117551 0.152618
0.471587 0.118501 0.143877
0.532639 0.119451 0.135136
0.578150 0.123206 0.134193
0.608118 0.129767 0.141050
0.638087 0.136328 0.147906
0.668056 0.142888 0.154763
0.698025 0.149449 0.161619
0.723825 0.156672 0.169070
0.741289 0.165221 0.177710
0.758752 0.173770 0.186351
0.776216 0.182318 0.194991
0.793679 0.190867 0.203631
0.809545 0.199361 0.212419
0.817421 0.207579 0.221943
0.825297 0.215797 0.231468
0.833174 0.224015 0.240993
0.841050 0.232233 0.250517
0.848927 0.240451 0.260042
0.053535 0.075285 0.137989
0.061838 0.081440 0.149244
0.070142 0.087595 0.160499
0.078445 0.093750 0.171754
0.086748 0.099905 0.183009
0.095052 0.106060 0.194264
0.119000 0.110401 0.196650
0.146079 0.114378 0.197261
0.173157 0.118356 0.197872
0.200235 0.122334 0.198484
0.227313 0.126312 0.199095
0.278049 0.128512 0.193087
0.340615 0.129823 0.183770
0.403181 0.131135 0.174453
0.465748 0.132446 0.165136
0.528314 0.133757 0.155819
0.575839 0.137503 0.153865
0.608323 0.143684 0.159276
0.640808 0.149865 0.164688
0.673292 0.156046 0.170099
0.705777 0.162227 0.175510
0.733137 0.169348 0.182171
0.750248 0.178350 0.191333
0.767359 0.187351 0.200494
0.784471 0.196353 0.209656
0.801582 0.205355 0.218818
0.817138 0.214320 0.228113
0.824919 0.223105 0.238077
0.832699 0.231890 0.248040
0.840479 0.240675 0.258004
0.848260 0.249461 0.267968
0.856040 0.258246 0.277931
0.056087 0.081287 0.153161
0.063887 0.088220 0.165184
0.071688 0.095152 0.177208
0.079488 0.102085 0.189231
0.087288 0.109018 0.201255
0.095088 0.115950 0.213278
0.117764 0.121221 0.216889
0.143415 0.126160 0.218818
0.169066 0.131098 0.220747
0.194717 0.136036 0.222676
0.220368 0.140975 0.224604
0.269226 0.144361 0.220036
0.329688 0.146971 0.212219
0.390150 0.149581 0.204402
0.450612 0.152192 0.196585
0.511074 0.154802 0.188768
0.560255 0.158667 0.185886
0.598155 0.163787 0.187940
0.636055 0.168907 0.189994
0.673956 0.174026 0.192048
0.711856 0.179146 0.194101
0.742701 0.185700 0.198677
0.759437 0.195123 0.208296
0.776174 0.204545 0.217915
0.792910 0.213967 0.227534
0.809646 0.223390 0.237153
0.824884 0.232814 0.246874
0.832627 0.242249 0.257103
0.840371 0.251684 0.267332
0.848115 0.261118 0.277561
0.855859 0.270553 0.287790
0.863602 0.279987 0.298019
0.058640 0.087290 0.168333
0.065937 0.095000 0.181125
0.073234 0.102710 0.193917
0.080531 0.110420 0.206709
0.087828 0.118131 0.219500
0.095125 0.125841 0.232292
0.116527 0.132042 0.237129
0.140751 0.137941 0.240375
0.164975 0.143840 0.243621
0.189199 0.149738 0.246867
0.213423 0.155637 0.250113
0.260403 0.160210 0.246984
0.318761 0.164119 0.240668
0.377119 0.168028 0.234351
0.435477 0.171938 0.228034
0.493835 0.175847 0.221718
0.544672 0.179831 0.217907
0.587987 0.183889 0.216604
0.631303 0.187948 0.215300
0.674619 0.192007 0.213997
0.717934 0.196065 0.212693
0.752265 0.202052 0.215183
0.768626 0.211895 0.225259
0.784988 0.221739 0.235336
0.801349 0.231582 0.245412
0.817710 0.241425 0.255489
0.832629 0.251308 0.265635
0.840336 0.261393 0.276129
0.848043 0.271477 0.286623
0.855750 0.281561 0.297118
0.863458 0.291645 0.307612
0.871165 0.301729 0.318106
0.061192 0.093292 0.183505
0.067986 0.101780 0.197065
0.074780 0.110268 0.210625
0.081574 0.118756 0.224186
0.088367 0.127244 0.237746
0.095161 0.135731 0.251306
0.115291 0.142862 0.257369
0.138088 0.149722 0.261933
0.160885 0.156581 0.266496
0.183681 0.163441 0.271059
0.206478 0.170300 0.275623
0.251580 0.176059 0.273933
0.307834 0.181267 0.269116
0.364088 0.186475 0.264300
0.420342 0.191683 0.259483
0.476596 0.196892 0.254667
0.529088 0.200995 0.249928
0.577819 0.203992 0.245268
0.626551 0.206990 0.240607
0.675282 0.209987 0.235946
0.724013 0.212985 0.231285
0.761830 0.218404 0.231689
0.777816 0.228668 0.242223
0.793802 0.238932 0.252757
0.809788 0.249196 0.263291
0.825774 0.259460 0.273824
0.840374 0.269803 0.284396
0.848045 0.280536 0.295156
0.855715 0.291270 0.305915
0.863386 0.302004 0.316675
0.871056 0.312737 0.327434
0.878727 0.323471 0.338194
0.063744 0.099295 0.198677
0.070035 0.108560 0.213005
0.076326 0.117826 0.227334
0.082616 0.127091 0.241663
0.088907 0.136356 0.255992
0.095198 0.145622 0.270321
0.114054 0.153683 0.277609
0.135424 0.161503 0.283490
0.156794 0.169323 0.289370
0.178164 0.177143 0.295251
0.199533 0.184963 0.301132
0.242756 0.191908 0.300881
0.296906 0.198415 0.297565
0.351056 0.204922 0.294249
0.405206 0.211429 0.290933
0.459356 0.217937 0.287617
0.513505 0.222158 0.281949
0.567651 0.224095 0.273931
0.621798 0.226031 0.265913
0.675945 0.227967 0.257895
0.730092 0.229904 0.249877
0.771394 0.234756 0.248195
0.787005 0.245441 0.259186
0.802616 0.256126 0.270177
0.818227 0.266811 0.281169
0.833838 0.277496 0.292160
0.848119 0.288297 0.303157
0.855753 0.299680 0.314182
0.863387 0.311063 0.325207
0.871021 0.322446 0.336231
0.878655 0.333829 0.347256
0.886289 0.345212 0.358281
0.066485 0.106211 0.214936
0.072389 0.116212 0.229755
0.078292 0.126212 0.244575
0.084196 0.136212 0.259395
0.090099 0.146212 0.274215
0.096003 0.156213 0.289034
0.113852 0.165227 0.297360
0.134091 0.174044 0.304387
0.154329 0.182861 0.311415
0.174567 0.191678 0.318442
0.194806 0.200496 0.325469
0.236542 0.208716 0.326613
0.289027 0.216638 0.324815
0.341512 0.224560 0.323018
0.393997 0.232482 0.321220
0.446482 0.240405 0.319423
0.501573 0.245293 0.313704
0.559269 0.247147 0.304063
0.616965 0.249001 0.294423
0.674661 0.250855 0.284782
0.732358 0.252709 0.275142
0.776244 0.257406 0.272128
0.792511 0.267789 0.282366
0.808777 0.278172 0.292604
0.825044 0.288554 0.302842
0.841311 0.298937 0.313080
0.856128 0.309577 0.323481
0.863701 0.321496 0.334695
0.871274 0.333416 0.345909
0.878847 0.345336 0.357122
0.886420 0.357256 0.368336
0.893993 0.369176 0.379550
0.069605 0.114955 0.233369
0.075353 0.125605 0.248124
0.081101 0.136255 0.262880
0.086849 0.146905 0.277636
0.092597 0.157554 0.292392
0.098345 0.168204 0.307147
0.115718 0.178219 0.316133
0.135417 0.188106 0.323966
0.155116 0.197994 0.331798
0.174814 0.207881 0.339630
0.194513 0.217768 0.347462
0.235545 0.227443 0.349911
0.287243 0.237012 0.349669
0.338941 0.246581 0.349426
0.390640 0.256150 0.349184
0.442338 0.265719 0.348942
0.496944 0.272368 0.344924
0.554457 0.276097 0.337132
0.611970 0.279826 0.329339
0.669484 0.283556 0.321546
0.726997 0.287285 0.313754
0.771667 0.292650 0.310913
0.790651 0.301285 0.317977
0.809634 0.309921 0.325041
0.828618 0.318557 0.332105
0.847602 0.327192 0.339168
0.864665 0.336427 0.346930
0.872128 0.348658 0.358181
0.879591 0.360889 0.369431
0.887055 0.373120 0.380681
0.894518 0.385351 0.391932
0.901981 0.397582 0.403182
0.072724 0.123699 0.251802
0.078317 0.134999 0.266494
0.083909 0.146298 0.281185
0.089502 0.157597 0.295877
0.095094 0.168896 0.310569
0.100687 0.180196 0.325260
0.117585 0.191210 0.334907
0.136743 0.202168 0.343544
0.155902 0.213126 0.352181
0.175061 0.224084 0.360818
0.194220 0.235041 0.369455
0.234548 0.246171 0.373210
0.285459 0.257386 0.374522
0.336371 0.268602 0.375835
0.387282 0.279817 0.377148
0.438194 0.291033 0.378461
0.492315 0.299443 0.376145
0.549645 0.305047 0.370200
0.606976 0.310652 0.364255
0.664306 0.316257 0.358311
0.721636 0.321861 0.352366
0.767090 0.327894 0.349699
0.788791 0.334782 0.353589
0.810491 0.341671 0.357478
0.832192 0.348559 0.361368
0.853892 0.355448 0.365257
0.873202 0.363278 0.370379
0.880555 0.375820 0.381666
0.887909 0.388362 0.392954
0.895262 0.400904 0.404241
0.902615 0.413446 0.415528
0.909969 0.425988 0.426815
0.075844 0.132443 0.270235
0.081281 0.144392 0.284863
0.086718 0.156341 0.299490
0.092155 0.168290 0.314118
0.097592 0.180238 0.328746
0.103029 0.192187 0.343373
0.119451 0.204202 0.353680
0.138070 0.216230 0.363122
0.156689 0.228258 0.372564
0.175308 0.240286 0.382006
0.193928 0.252314 0.391449
0.233550 0.264898 0.396508
0.283675 0.277760 0.399376
0.333800 0.290622 0.402244
0.383925 0.303484 0.405112
0.434050 0.316347 0.407980
0.487686 0.326518 0.407365
0.544833 0.333998 0.403268
0.601981 0.341478 0.399172
0.659128 0.348958 0.395075
0.716276 0.356438 0.390978
0.762513 0.363138 0.388485
0.786931 0.368279 0.389200
0.811348 0.373420 0.389915
0.835766 0.378561 0.390630
0.860183 0.383703 0.391346
0.881738 0.390129 0.393829
0.888982 0.402982 0.405152
0.896226 0.415835 0.416476
0.903469 0.428688 0.427800
0.910713 0.441541 0.439123
0.917957 0.454394 0.450447
0.078963 0.141187 0.288668
0.084245 0.153785 0.303232
0.089526 0.166384 0.317795
0.094808 0.178982 0.332359
0.100089 0.191580 0.346923
0.105370 0.204179 0.361486
0.121317 0.217194 0.372453
0.139396 0.230292 0.382700
0.157476 0.243390 0.392947
0.175555 0.256489 0.403195
0.193635 0.269587 0.413442
0.232553 0.283626 0.419806
0.281891 0.298134 0.424229
0.331230 0.312643 0.428652
0.380568 0.327152 0.433076
0.429906 0.341661 0.437499
0.483057 0.353593 0.438586
0.540022 0.362948 0.436337
0.596986 0.372303 0.434088
0.653950 0.381659 0.431839
0.710915 0.391014 0.429590
0.757936 0.398382 0.427271
0.785070 0.401776 0.424812
0.812205 0.405170 0.422353
0.839339 0.408564 0.419893
0.866474 0.411958 0.417434
0.890275 0.416980 0.417278
0.897409 0.430144 0.428638
0.904543 0.443308 0.439999
0.911677 0.456472 0.451359
0.918810 0.469636 0.462719
0.925944 0.482800 0.474079
0.082083 0.150120 0.306203
0.087248 0.163328 0.320741
0.092414 0.176536 0.335279
0.097579 0.189745 0.349816
0.102745 0.202953 0.364354
0.107911 0.216161 0.378892
0.123491 0.230142 0.390440
0.141154 0.244277 0.401390
0.158817 0.258412 0.412340
0.176481 0.272547 0.423290
0.194144 0.286682 0.434240
0.232527 0.302135 0.441800
0.281271 0.318246 0.447664
0.330014 0.334357 0.453527
0.378758 0.350468 0.459391
0.427501 0.366579 0.465255
0.480276 0.380213 0.467939
0.537082 0.391369 0.467444
0.593888 0.402525 0.466948
0.650694 0.413681 0.466453
0.707499 0.424837 0.465957
0.755157 0.432985 0.463988
0.784519 0.435120 0.459071
0.813881 0.437254 0.454154
0.843243 0.439389 0.449237
0.872605 0.441523 0.444320
0.898250 0.445476 0.442054
0.905309 0.458520 0.453047
0.912368 0.471563 0.464040
0.919428 0.484607 0.475033
0.926487 0.497650 0.486026
0.933546 0.510694 0.497018
0.085202 0.159998 0.319248
0.090450 0.173618 0.333951
0.095698 0.187238 0.348653
0.100946 0.200858 0.363355
0.106194 0.214478 0.378058
0.111442 0.228098 0.392760
0.127203 0.242871 0.404496
0.145068 0.257875 0.415638
0.162932 0.272879 0.426780
0.180797 0.287884 0.437922
0.198661 0.302888 0.449065
0.237356 0.319551 0.457267
0.286465 0.337043 0.464000
0.335575 0.354536 0.470733
0.384684 0.372028 0.477466
0.433793 0.389521 0.484199
0.486733 0.404558 0.487958
0.543502 0.417142 0.488743
0.600271 0.429725 0.489528
0.657041 0.442308 0.490314
0.713810 0.454891 0.491099
0.761370 0.464384 0.490358
