filter/Red and Blue/lut/Impulse 02Impulse 02.cube
# LUT by SparkleStock. Enhanced with VOXCOLOR algorithms.
LUT_3D_SIZE 8
DOMAIN_MIN 0.000000 0.000000 0.000000
DOMAIN_MAX 0.903226 0.903226 0.903226
0.027350 0.023443 0.023443
0.098814 0.026279 0.028737
0.186616 0.034070 0.031084
0.289023 0.046107 0.033085
0.401914 0.061538 0.036890
0.511001 0.079121 0.044830
0.595195 0.096703 0.054504
0.655260 0.114900 0.065446
0.026972 0.032329 0.047454
0.106194 0.032969 0.038696
0.201027 0.041675 0.038500
0.310777 0.056883 0.043246
0.431645 0.077072 0.050472
0.547172 0.100948 0.061193
0.633659 0.124336 0.073648
0.693602 0.146497 0.086181
0.027130 0.042688 0.069321
0.095551 0.049427 0.068388
0.209114 0.057280 0.058738
0.339520 0.071867 0.054892
0.466150 0.095996 0.064775
0.583451 0.125440 0.078692
0.670849 0.155464 0.095379
0.730955 0.183460 0.112118
0.029083 0.056568 0.095821
0.081013 0.073614 0.112147
0.197310 0.084223 0.101984
0.348442 0.098150 0.086938
0.505504 0.122042 0.083443
0.622415 0.157182 0.101764
0.708792 0.194254 0.124521
0.768221 0.228954 0.148317
0.033928 0.076112 0.132049
0.072722 0.104647 0.165958
0.163622 0.124776 0.172560
0.323455 0.141795 0.153194
0.537298 0.162009 0.120329
0.663925 0.201156 0.137296
0.749009 0.244933 0.166978
0.806281 0.286521 0.200624
0.043570 0.106739 0.182339
0.073582 0.147277 0.231909
0.146161 0.181793 0.260704
0.283564 0.213204 0.265000
0.487911 0.243316 0.244870
0.697382 0.270461 0.210022
0.792614 0.317849 0.240461
0.846764 0.366645 0.286090
0.056836 0.146347 0.239560
0.082700 0.198887 0.302840
0.146260 0.249517 0.352395
0.271284 0.300454 0.384115
0.464657 0.351671 0.394923
0.686227 0.394136 0.378762
0.816917 0.428240 0.377085
0.887161 0.470666 0.408439
0.069495 0.191130 0.298988
0.095627 0.252659 0.371306
0.158941 0.317411 0.435817
0.282616 0.387368 0.489786
0.473163 0.461197 0.529902
0.690305 0.524129 0.544862
0.835418 0.558433 0.538970
0.915456 0.589908 0.552903
0.018087 0.043483 0.085643
0.079158 0.046612 0.067372
0.180932 0.050963 0.056003
0.304904 0.061012 0.051454
0.434463 0.078877 0.053338
0.549843 0.100558 0.061279
0.634964 0.123580 0.073269
0.695200 0.146772 0.087230
0.023124 0.059688 0.108190
0.067930 0.077165 0.115075
0.160659 0.086373 0.110592
0.288470 0.097308 0.102980
0.436105 0.116304 0.098497
0.572090 0.141446 0.100720
0.667437 0.168196 0.110393
0.730922 0.195329 0.124779
0.028386 0.077365 0.137096
0.065498 0.103920 0.158665
0.152135 0.121814 0.163257
0.283447 0.137340 0.156209
0.446892 0.155898 0.144094
0.597292 0.183935 0.142057
0.700491 0.214803 0.151773
0.766758 0.245880 0.168994
0.034950 0.098502 0.171389
0.068008 0.131341 0.202296
0.147078 0.159239 0.218759
0.281479 0.182722 0.216807
0.463796 0.204091 0.199103
0.624967 0.233990 0.193310
0.733538 0.268528 0.203754
0.801642 0.303314 0.224974
0.043692 0.124907 0.211057
0.073189 0.163273 0.249687
0.141545 0.201038 0.280714
0.276791 0.235604 0.289643
0.479325 0.266072 0.272809
0.654163 0.296791 0.261484
0.766468 0.333832 0.271948
0.835101 0.371754 0.297284
0.055822 0.160218 0.261200
0.084129 0.204920 0.306427
0.146091 0.254136 0.352266
0.269171 0.303642 0.382800
0.462196 0.349050 0.386915
0.681690 0.381139 0.358564
0.800989 0.418447 0.366894
0.868388 0.457813 0.395508
0.070356 0.204632 0.319861
0.100598 0.255670 0.370582
0.163621 0.315923 0.427574
0.283627 0.380789 0.476477
0.468980 0.444518 0.505617
0.685616 0.492267 0.500995
0.823621 0.523447 0.494230
0.899444 0.556468 0.511543
0.086101 0.254562 0.380807
0.119628 0.309354 0.434607
0.190747 0.378565 0.498373
0.316645 0.456319 0.559446
0.500428 0.535320 0.606990
0.704289 0.597525 0.626444
0.843505 0.630221 0.621683
0.921278 0.655804 0.628231
0.011903 0.064595 0.148647
0.055325 0.072785 0.135114
0.154046 0.076189 0.108885
0.294088 0.084077 0.086027
0.455399 0.101952 0.077100
0.583813 0.126487 0.081411
0.671502 0.153792 0.093992
0.731520 0.182129 0.110747
0.016757 0.084385 0.175536
0.048947 0.113837 0.192896
0.124483 0.131134 0.189764
0.255429 0.143662 0.173066
0.435806 0.158069 0.151205
0.594093 0.183312 0.143467
0.698856 0.212214 0.149794
0.765478 0.242736 0.165641
0.025050 0.109687 0.210676
0.055329 0.148159 0.239080
0.117227 0.180388 0.256857
0.239581 0.203610 0.254072
0.427064 0.219405 0.230032
0.605575 0.246259 0.215817
0.724296 0.276971 0.218346
0.797199 0.309043 0.233591
0.035603 0.139404 0.252133
0.067247 0.181990 0.283884
0.123206 0.226282 0.317242
0.238657 0.263182 0.331647
0.424587 0.288847 0.317650
0.618978 0.315187 0.297052
0.748740 0.346574 0.295795
0.826979 0.379474 0.310553
0.047711 0.173227 0.298506
0.080141 0.220072 0.334173
0.135843 0.271578 0.376424
0.246839 0.322252 0.407497
0.426093 0.366313 0.414263
0.635193 0.391039 0.387014
0.773020 0.421288 0.380845
0.854952 0.453906 0.394750
0.062433 0.214777 0.350680
0.097092 0.265584 0.389576
0.155404 0.322640 0.437285
0.264564 0.382963 0.480558
0.437847 0.441579 0.506768
0.657107 0.481447 0.492546
0.798186 0.509824 0.483374
0.880284 0.538921 0.493959
0.079030 0.262701 0.408206
0.119270 0.317669 0.449812
0.186119 0.380339 0.500992
0.300028 0.449461 0.552552
0.469809 0.520696 0.594312
0.676886 0.574557 0.602386
0.820489 0.603314 0.592632
0.903352 0.627870 0.597209
0.097839 0.314452 0.466078
0.145295 0.372034 0.509357
0.224204 0.439150 0.562209
0.348289 0.515135 0.618230
0.520117 0.595469 0.669250
0.710352 0.657810 0.692838
0.844171 0.689634 0.689903
0.921827 0.710483 0.690588
0.007617 0.087250 0.215684
0.035098 0.102223 0.217020
0.113981 0.110948 0.191732
0.258346 0.119150 0.152503
0.458133 0.132210 0.114017
0.611563 0.159209 0.109912
0.705556 0.189526 0.121009
0.766002 0.222096 0.140382
0.010899 0.109334 0.249123
0.040461 0.147097 0.273259
0.095922 0.175821 0.278086
0.216825 0.195924 0.260522
0.413852 0.210342 0.224441
0.606909 0.232969 0.200251
0.726213 0.261708 0.199395
0.797900 0.293698 0.214439
0.019908 0.139867 0.290027
0.052633 0.186568 0.319435
0.099742 0.232583 0.346847
0.205374 0.268629 0.353678
0.389115 0.291126 0.331635
0.604152 0.313728 0.301118
0.742544 0.341942 0.293027
0.824346 0.373042 0.303604
0.032770 0.176318 0.337376
0.068766 0.226860 0.366066
0.117191 0.284051 0.405823
0.213860 0.335417 0.433892
0.379556 0.372793 0.434649
0.605797 0.396159 0.403413
0.757384 0.423510 0.390345
0.847170 0.453099 0.396774
0.047986 0.217034 0.389734
0.086958 0.272123 0.419570
0.141877 0.333206 0.461344
0.235129 0.395665 0.503151
0.384307 0.452197 0.530243
0.613659 0.477951 0.502170
0.772710 0.503248 0.484830
0.867665 0.530084 0.487192
0.065038 0.263695 0.444103
0.108222 0.322339 0.476102
0.171961 0.385342 0.517597
0.271828 0.451693 0.562586
0.419374 0.517818 0.601798
0.629546 0.567127 0.604656
0.788589 0.589602 0.584897
0.885357 0.609832 0.580052
0.084178 0.314046 0.498803
0.135005 0.376178 0.532996
0.211759 0.441471 0.574193
0.322051 0.510891 0.620086
0.470710 0.582519 0.664871
0.663872 0.641936 0.684150
0.811351 0.669889 0.673938
0.902069 0.688002 0.668297
0.105990 0.366009 0.551002
0.167045 0.430847 0.587280
0.257937 0.498052 0.628400
0.380692 0.569794 0.674266
0.534120 0.644756 0.721108
0.710408 0.707350 0.747794
0.839722 0.739567 0.747074
0.919136 0.757247 0.743215
0.004498 0.112253 0.289204
0.023398 0.133245 0.302469
0.071085 0.154120 0.299866
0.201823 0.167702 0.258547
0.428582 0.174045 0.179586
0.629765 0.200715 0.152520
0.737282 0.232456 0.158204
0.800015 0.267733 0.179767
0.007614 0.136935 0.328626
0.035962 0.180094 0.356872
0.077014 0.219591 0.374689
0.177051 0.252213 0.367059
0.360983 0.276468 0.328325
0.605377 0.294756 0.279148
0.747748 0.320604 0.265011
0.828440 0.351783 0.275410
0.015396 0.169029 0.374657
0.049285 0.222490 0.405644
0.094270 0.277971 0.437503
0.179115 0.329141 0.456238
0.329134 0.369871 0.449869
0.589499 0.387909 0.399895
0.754498 0.410959 0.376178
0.849283 0.438807 0.378560
0.028393 0.208292 0.425920
0.066563 0.266836 0.454047
0.120415 0.331771 0.490838
0.201704 0.395854 0.525548
0.330342 0.450724 0.544464
0.584831 0.475261 0.508171
0.760451 0.497779 0.482692
0.864242 0.522519 0.479395
0.046145 0.253751 0.480681
0.089328 0.316895 0.505731
0.153235 0.383835 0.538896
0.239353 0.452704 0.578463
0.360368 0.518044 0.615163
0.591611 0.555104 0.601796
0.767555 0.578105 0.579190
0.875326 0.599184 0.571277
0.064917 0.302242 0.535325
0.114818 0.369862 0.561277
0.191367 0.439994 0.594457
0.289574 0.510034 0.633325
0.412421 0.577242 0.672955
0.603026 0.635663 0.691354
0.775537 0.656550 0.668770
0.886334 0.670984 0.653451
0.086661 0.353919 0.586229
0.145355 0.424531 0.613810
0.236480 0.496776 0.647215
0.348331 0.567091 0.684440
0.476826 0.633233 0.722060
0.649581 0.695646 0.748520
0.799162 0.725058 0.740336
0.898261 0.739505 0.727693
0.111254 0.405741 0.631984
0.181239 0.478556 0.661939
0.288142 0.552531 0.696342
0.413373 0.622868 0.732445
0.546715 0.687043 0.767324
0.706221 0.748421 0.794906
0.831898 0.782387 0.796357
0.914824 0.798696 0.788983
0.003364 0.142881 0.371822
0.019190 0.166946 0.391381
0.051984 0.196390 0.404196
0.136372 0.225865 0.394309
0.304585 0.249681 0.346305
0.622422 0.255273 0.226734
0.764018 0.285088 0.212854
0.834168 0.321950 0.234435
0.007212 0.169904 0.415050
0.034299 0.214324 0.444150
0.067970 0.257928 0.468173
0.140298 0.302732 0.478709
0.284734 0.346796 0.464443
0.581646 0.370637 0.388259
0.758833 0.392291 0.353481
0.855557 0.419158 0.352945
0.014482 0.202577 0.463124
0.048361 0.256770 0.493620
0.091209 0.314147 0.524122
0.163113 0.373594 0.548464
0.290189 0.431826 0.557728
0.554908 0.474099 0.521844
0.753305 0.492242 0.480235
0.869395 0.511723 0.466199
0.026331 0.240596 0.514363
0.065370 0.300628 0.542244
0.119683 0.367867 0.574110
0.198804 0.437728 0.605859
0.319015 0.505406 0.630790
0.545381 0.561186 0.625234
0.750231 0.579484 0.586701
0.877311 0.594596 0.566534
0.042986 0.283147 0.566709
0.088057 0.349888 0.591344
0.152933 0.421734 0.620407
0.243785 0.495958 0.653883
0.368315 0.568912 0.687842
0.553944 0.630259 0.699800
0.751728 0.651269 0.670166
0.881400 0.664867 0.649340
0.062197 0.327832 0.615352
0.117386 0.403242 0.638735
0.197581 0.479663 0.666865
0.303845 0.554577 0.698339
0.434032 0.625320 0.730708
0.577096 0.685704 0.755736
0.759794 0.710134 0.735473
0.886261 0.723159 0.714833
0.085478 0.378508 0.661840
0.149932 0.457044 0.685644
0.244720 0.535442 0.713994
0.365678 0.610622 0.744489
0.504641 0.679570 0.774604
0.635578 0.735884 0.799382
0.784811 0.768720 0.794290
0.893823 0.782956 0.777738
0.111827 0.430050 0.702704
0.187643 0.510599 0.728844
0.297619 0.590258 0.758619
0.430960 0.664685 0.788657
0.574606 0.730375 0.816147
0.699238 0.782589 0.837903
0.820650 0.818375 0.840212
0.909643 0.835265 0.829766
0.002860 0.175714 0.453338
0.018173 0.203341 0.477605
0.044338 0.236657 0.499154
0.103153 0.274331 0.508310
0.222210 0.313881 0.493198
0.486794 0.346820 0.418709
0.732340 0.359908 0.327794
0.864107 0.383399 0.302200
0.008415 0.205567 0.498419
0.034820 0.250508 0.529622
0.064983 0.294101 0.555666
0.121297 0.342314 0.574218
0.231486 0.397462 0.579300
0.477675 0.450444 0.542683
0.731313 0.472416 0.471705
0.876990 0.492606 0.441884
0.016580 0.238530 0.546585
0.049782 0.291755 0.577660
0.091090 0.347945 0.606136
0.153547 0.407998 0.630966
0.257850 0.472030 0.648458
0.480516 0.538029 0.639816
0.730151 0.568798 0.588754
0.882995 0.587337 0.558526
0.028615 0.274746 0.595238
0.067067 0.333439 0.623472
0.120446 0.399621 0.652088
0.194403 0.469173 0.680183
0.301245 0.539332 0.705032
0.496862 0.610938 0.713794
0.731405 0.648271 0.680031
0.884293 0.666067 0.651788
0.044995 0.314036 0.642120
0.089532 0.379709 0.667893
0.152755 0.450916 0.694766
0.240878 0.525500 0.723437
0.359942 0.600883 0.752261
0.526978 0.671102 0.768972
0.737086 0.711496 0.748311
0.883153 0.728847 0.723089
0.064401 0.355526 0.684274
0.118678 0.429905 0.708343
0.195919 0.506260 0.734431
0.299269 0.582799 0.761787
0.427802 0.657015 0.789024
0.569422 0.721134 0.811156
0.749518 0.761621 0.799803
0.883314 0.778380 0.776784
0.084300 0.396562 0.721081
0.152327 0.480117 0.745905
0.246431 0.561444 0.772480
0.365666 0.639042 0.799165
0.504488 0.710676 0.824183
0.639343 0.768121 0.843531
0.775023 0.808313 0.844191
0.886044 0.824575 0.825616
0.109656 0.443874 0.755789
0.191465 0.531866 0.782529
0.301128 0.615410 0.810329
0.432485 0.692172 0.836693
0.576095 0.759711 0.859367
0.705294 0.811215 0.874580
0.813144 0.849320 0.879766
0.902034 0.867468 0.867627
0.001560 0.206018 0.522652
0.017825 0.237701 0.553925
0.041425 0.273224 0.580884
0.085368 0.314683 0.600571
0.169011 0.363615 0.608413
0.360790 0.422168 0.587178
0.645201 0.450996 0.497734
0.840266 0.468047 0.433302
0.010287 0.239036 0.570069
0.036401 0.284071 0.606300
0.065262 0.326950 0.633383
0.111630 0.375187 0.654725
0.195352 0.433975 0.670749
0.380057 0.505409 0.668896
0.654567 0.548376 0.610500
0.850581 0.571108 0.559690
0.021291 0.273143 0.617684
0.053585 0.325541 0.652509
0.093706 0.379650 0.680711
0.148978 0.437253 0.704562
0.233747 0.500588 0.724577
0.408078 0.576724 0.733658
0.664636 0.629424 0.698681
0.856126 0.655733 0.657956
0.035534 0.308831 0.663252
0.072665 0.366609 0.694567
0.124199 0.430425 0.723254
0.192591 0.496799 0.749350
0.285853 0.564318 0.772073
0.446129 0.639133 0.786000
0.677841 0.696171 0.766710
0.859208 0.723857 0.733016
0.053311 0.346318 0.704952
0.095994 0.410371 0.733625
0.156271 0.479488 0.761383
0.239723 0.551848 0.788602
0.350319 0.625313 0.814149
0.494815 0.695170 0.829587
0.696194 0.751006 0.819043
0.861967 0.778009 0.789950
0.073260 0.385289 0.740440
0.124857 0.457132 0.767479
0.197884 0.531294 0.794614
0.294826 0.606396 0.821159
0.415563 0.680278 0.846011
0.554994 0.745772 0.865174
0.722697 0.796714 0.859803
0.867360 0.821701 0.833930
0.091699 0.420600 0.768945
0.158088 0.503050 0.796440
0.248605 0.583383 0.823739
0.361451 0.660355 0.849548
0.492556 0.732085 0.872385
0.629997 0.791502 0.888215
0.758833 0.837119 0.891221
0.876952 0.860110 0.871391
0.113424 0.459203 0.795023
0.195950 0.549016 0.823969
0.303547 0.633595 0.851974
0.430030 0.711038 0.877016
0.567887 0.779335 0.897179
0.701432 0.832425 0.908415
0.806293 0.872472 0.913525
0.898329 0.895282 0.901538
