filter/Red and Blue/lut/Impulse 02Impulse 02.cube
# LUT by SparkleStock. Enhanced with VOXCOLOR algorithms.
LUT_3D_SIZE 32
0.027350 0.023443 0.023443
0.045216 0.024152 0.024767
0.063082 0.024861 0.026090
0.080948 0.025570 0.027413
0.098814 0.026279 0.028737
0.116680 0.026988 0.030060
0.139352 0.029154 0.030517
0.162984 0.031612 0.030801
0.186616 0.034070 0.031084
0.210249 0.036528 0.031368
0.233881 0.038985 0.031652
0.260664 0.042325 0.032282
0.289023 0.046107 0.033085
0.317382 0.049888 0.033889
0.345740 0.053669 0.034692
0.374099 0.057450 0.035496
0.401914 0.061538 0.036890
0.429186 0.065934 0.038875
0.456458 0.070330 0.040860
0.483729 0.074725 0.042845
0.511001 0.079121 0.044830
0.535783 0.083516 0.046989
0.555587 0.087912 0.049494
0.575391 0.092308 0.051999
0.595195 0.096703 0.054504
0.614999 0.101099 0.057009
0.633329 0.105542 0.059585
0.644295 0.110221 0.062515
0.655260 0.114900 0.065446
0.666226 0.119579 0.068376
0.677191 0.124259 0.071306
0.688156 0.128938 0.074237
0.027256 0.025665 0.029446
0.045607 0.026236 0.029891
0.063958 0.026808 0.030336
0.082308 0.027380 0.030781
0.100659 0.027952 0.031227
0.119010 0.028523 0.031672
0.142113 0.030781 0.032097
0.166166 0.033376 0.032518
0.190219 0.035971 0.032938
0.214272 0.038566 0.033359
0.238325 0.041161 0.033780
0.265590 0.044736 0.034602
0.294461 0.048801 0.035625
0.323332 0.052865 0.036648
0.352203 0.056930 0.037671
0.381074 0.060995 0.038694
0.409347 0.065422 0.040285
0.437021 0.070211 0.042444
0.464695 0.075000 0.044603
0.492369 0.079789 0.046762
0.520044 0.084578 0.048921
0.545125 0.089354 0.051253
0.565020 0.094107 0.053932
0.584915 0.098859 0.056611
0.604811 0.103612 0.059290
0.624706 0.108364 0.061969
0.643098 0.113130 0.064696
0.653972 0.117965 0.067663
0.664846 0.122799 0.070630
0.675720 0.127634 0.073597
0.686594 0.132469 0.076564
0.697467 0.137304 0.079531
0.027161 0.027886 0.035448
0.045997 0.028321 0.035015
0.064833 0.028755 0.034582
0.083668 0.029190 0.034149
0.102504 0.029624 0.033716
0.121340 0.030059 0.033283
0.144874 0.032408 0.033676
0.169348 0.035140 0.034234
0.193822 0.037872 0.034792
0.218296 0.040605 0.035350
0.242770 0.043337 0.035908
0.270516 0.047146 0.036923
0.299900 0.051495 0.038165
0.329283 0.055843 0.039408
0.358666 0.060191 0.040651
0.388050 0.064540 0.041893
0.416780 0.069305 0.043681
0.444856 0.074487 0.046014
0.472933 0.079670 0.048346
0.501010 0.084852 0.050679
0.529086 0.090034 0.053012
0.554466 0.095192 0.055518
0.574453 0.100302 0.058370
0.594440 0.105411 0.061223
0.614427 0.110520 0.064076
0.634414 0.115629 0.066928
0.652866 0.120718 0.069806
0.663649 0.125708 0.072810
0.674431 0.130699 0.075813
0.685214 0.135689 0.078817
0.695996 0.140679 0.081821
0.706779 0.145669 0.084824
0.027067 0.030108 0.041451
0.046387 0.030405 0.040140
0.065708 0.030702 0.038829
0.085028 0.030999 0.037517
0.104349 0.031297 0.036206
0.123670 0.031594 0.034895
0.147635 0.034035 0.035256
0.172530 0.036904 0.035951
0.197425 0.039774 0.036646
0.222319 0.042643 0.037342
0.247214 0.045512 0.038037
0.275443 0.049557 0.039243
0.305338 0.054189 0.040705
0.335234 0.058821 0.042168
0.365129 0.063453 0.043630
0.395025 0.068085 0.045092
0.424212 0.073188 0.047076
0.452692 0.078764 0.049583
0.481171 0.084340 0.052089
0.509650 0.089915 0.054596
0.538129 0.095491 0.057102
0.563808 0.101030 0.059782
0.583886 0.106496 0.062809
0.603965 0.111962 0.065835
0.624043 0.117428 0.068862
0.644121 0.122894 0.071888
0.662635 0.128307 0.074917
0.673326 0.133452 0.077957
0.684017 0.138598 0.080997
0.694708 0.143744 0.084037
0.705399 0.148889 0.087078
0.716090 0.154035 0.090118
0.026972 0.032329 0.047454
0.046778 0.032489 0.045264
0.066583 0.032649 0.043075
0.086388 0.032809 0.040885
0.106194 0.032969 0.038696
0.125999 0.033129 0.036507
0.150396 0.035662 0.036835
0.175712 0.038668 0.037668
0.201027 0.041675 0.038500
0.226343 0.044682 0.039333
0.251658 0.047688 0.040165
0.280369 0.051967 0.041564
0.310777 0.056883 0.043246
0.341185 0.061798 0.044927
0.371592 0.066714 0.046609
0.402000 0.071629 0.048291
0.431645 0.077072 0.050472
0.460527 0.083041 0.053152
0.489409 0.089010 0.055832
0.518290 0.094979 0.058513
0.547172 0.100948 0.061193
0.573150 0.106868 0.064047
0.593319 0.112691 0.067247
0.613489 0.118514 0.070447
0.633659 0.124336 0.073648
0.653829 0.130159 0.076848
0.672403 0.135895 0.080028
0.683003 0.141196 0.083104
0.693602 0.146497 0.086181
0.704202 0.151799 0.089258
0.714801 0.157100 0.092335
0.725401 0.162401 0.095411
0.026878 0.034550 0.053456
0.047168 0.034573 0.050389
0.067458 0.034596 0.047321
0.087748 0.034619 0.044253
0.108039 0.034642 0.041186
0.128329 0.034665 0.038118
0.153158 0.037288 0.038415
0.178894 0.040432 0.039385
0.204630 0.043576 0.040354
0.230366 0.046720 0.041324
0.256103 0.049864 0.042294
0.285295 0.054378 0.043884
0.316215 0.059577 0.045786
0.347135 0.064776 0.047687
0.378056 0.069975 0.049588
0.408976 0.075174 0.051489
0.439078 0.080955 0.053867
0.468362 0.087317 0.056721
0.497646 0.093680 0.059575
0.526931 0.100042 0.062430
0.556215 0.106405 0.065284
0.582491 0.112706 0.068311
0.602753 0.118886 0.071685
0.623014 0.125065 0.075059
0.643275 0.131245 0.078434
0.663536 0.137424 0.081808
0.682172 0.143483 0.085138
0.692680 0.148940 0.088252
0.703188 0.154397 0.091365
0.713696 0.159853 0.094478
0.724204 0.165310 0.097592
0.734712 0.170767 0.100705
0.026941 0.037205 0.058829
0.046351 0.037701 0.056491
0.065762 0.038196 0.054154
0.085172 0.038692 0.051817
0.104583 0.039187 0.049479
0.123993 0.039683 0.047142
0.150506 0.042137 0.046525
0.178439 0.044984 0.046252
0.206373 0.047830 0.045979
0.234306 0.050677 0.045706
0.262240 0.053524 0.045433
0.292414 0.058087 0.046711
0.323709 0.063509 0.048763
0.355005 0.068930 0.050815
0.386300 0.074352 0.052867
0.417595 0.079774 0.054919
0.447915 0.085836 0.057475
0.477258 0.092538 0.060533
0.506602 0.099241 0.063592
0.535946 0.105943 0.066650
0.565289 0.112645 0.069709
0.591618 0.119320 0.072971
0.611918 0.125940 0.076641
0.632217 0.132561 0.080311
0.652516 0.139181 0.083980
0.672816 0.145801 0.087650
0.691482 0.152283 0.091275
0.701982 0.158079 0.094677
0.712483 0.163874 0.098079
0.722983 0.169669 0.101480
0.733483 0.175464 0.104882
0.743984 0.181260 0.108283
0.027035 0.039946 0.064075
0.045293 0.041037 0.062790
0.063551 0.042127 0.061504
0.081809 0.043217 0.060219
0.100067 0.044307 0.058934
0.118325 0.045397 0.057649
0.146772 0.047631 0.055941
0.177258 0.050093 0.054150
0.207744 0.052555 0.052358
0.238229 0.055018 0.050567
0.268715 0.057480 0.048776
0.299972 0.062056 0.049638
0.331615 0.067688 0.051827
0.363258 0.073320 0.054017
0.394901 0.078952 0.056206
0.426543 0.084584 0.058396
0.457032 0.090916 0.061125
0.486367 0.097948 0.064394
0.515701 0.104979 0.067663
0.545036 0.112011 0.070931
0.574370 0.119043 0.074200
0.600702 0.126090 0.077710
0.621029 0.133167 0.081700
0.641356 0.140245 0.085690
0.661683 0.147322 0.089680
0.682009 0.154400 0.093670
0.700700 0.161326 0.097618
0.711209 0.167496 0.101358
0.721719 0.173667 0.105098
0.732228 0.179837 0.108838
0.742738 0.186007 0.112578
0.753247 0.192178 0.116318
0.027130 0.042688 0.069321
0.044235 0.044373 0.069088
0.061340 0.046057 0.068855
0.078445 0.047742 0.068622
0.095551 0.049427 0.068388
0.112656 0.051112 0.068155
0.143038 0.053124 0.065358
0.176076 0.055202 0.062048
0.209114 0.057280 0.058738
0.242152 0.059358 0.055428
0.275190 0.061437 0.052118
0.307530 0.066024 0.052565
0.339520 0.071867 0.054892
0.371511 0.077709 0.057219
0.403501 0.083552 0.059545
0.435492 0.089394 0.061872
0.466150 0.095996 0.064775
0.495475 0.103357 0.068254
0.524800 0.110718 0.071733
0.554126 0.118079 0.075213
0.583451 0.125440 0.078692
0.609786 0.132859 0.082448
0.630140 0.140394 0.086758
0.650495 0.147929 0.091069
0.670849 0.155464 0.095379
0.691203 0.162999 0.099689
0.709918 0.170369 0.103961
0.720437 0.176914 0.108039
0.730955 0.183460 0.112118
0.741474 0.190005 0.116196
0.751993 0.196550 0.120275
0.762511 0.203096 0.124353
0.027224 0.045429 0.074568
0.043177 0.047708 0.075386
0.059129 0.049988 0.076205
0.075082 0.052267 0.077024
0.091035 0.054547 0.077843
0.106987 0.056826 0.078661
0.139304 0.058617 0.074774
0.174895 0.060311 0.069945
0.210485 0.062005 0.065117
0.246075 0.063699 0.060288
0.281665 0.065393 0.055460
0.315087 0.069993 0.055493
0.347426 0.076046 0.057957
0.379764 0.082099 0.060420
0.412102 0.088152 0.062884
0.444440 0.094205 0.065348
0.475267 0.101076 0.068425
0.504583 0.108767 0.072115
0.533899 0.116457 0.075804
0.563216 0.124147 0.079494
0.592532 0.131838 0.083184
0.618870 0.139629 0.087187
0.639252 0.147621 0.091817
0.659633 0.155613 0.096448
0.680015 0.163606 0.101078
0.700397 0.171598 0.105708
0.719136 0.179412 0.110303
0.729664 0.186332 0.114720
0.740192 0.193253 0.119137
0.750720 0.200173 0.123554
0.761247 0.207093 0.127971
0.771775 0.214014 0.132388
0.027319 0.048170 0.079814
0.042119 0.051044 0.081685
0.056919 0.053918 0.083556
0.071719 0.056792 0.085426
0.086519 0.059666 0.087297
0.101318 0.062540 0.089168
0.135571 0.064111 0.084190
0.173713 0.065421 0.077843
0.211856 0.066730 0.071496
0.249998 0.068040 0.065149
0.288141 0.069350 0.058802
0.322645 0.073962 0.058420
0.355331 0.080225 0.061021
0.388017 0.086488 0.063622
0.420702 0.092752 0.066223
0.453388 0.099015 0.068824
0.484385 0.106156 0.072075
0.513692 0.114176 0.075975
0.542999 0.122196 0.079875
0.572306 0.130216 0.083775
0.601613 0.138235 0.087675
0.627954 0.146398 0.091926
0.648363 0.154848 0.096876
0.668772 0.163298 0.101827
0.689181 0.171747 0.106777
0.709591 0.180197 0.111728
0.728354 0.188454 0.116646
0.738891 0.195750 0.121401
0.749428 0.203046 0.126157
0.759965 0.210341 0.130912
0.770502 0.217637 0.135668
0.781039 0.224932 0.140423
0.028044 0.052078 0.087266
0.041886 0.055626 0.090232
0.055728 0.059173 0.093197
0.069571 0.062721 0.096163
0.083413 0.066269 0.099128
0.097256 0.069817 0.102093
0.130959 0.071662 0.097405
0.168635 0.073167 0.091186
0.206311 0.074672 0.084967
0.243987 0.076177 0.078748
0.281663 0.077682 0.072529
0.318196 0.082202 0.071074
0.354156 0.088231 0.072001
0.390117 0.094260 0.072928
0.426078 0.100288 0.073855
0.462039 0.106317 0.074782
0.494656 0.113527 0.077352
0.523929 0.121918 0.081566
0.553203 0.130310 0.085781
0.582476 0.138702 0.089995
0.611750 0.147094 0.094209
0.638025 0.155657 0.098818
0.658303 0.164564 0.104217
0.678581 0.173471 0.109616
0.698859 0.182378 0.115015
0.719137 0.191286 0.120413
0.737786 0.199990 0.125798
0.748289 0.207678 0.131111
0.758793 0.215367 0.136425
0.769296 0.223056 0.141738
0.779799 0.230745 0.147052
0.790303 0.238434 0.152365
0.029083 0.056568 0.095821
0.042066 0.060829 0.099903
0.055048 0.065091 0.103984
0.068031 0.069352 0.108066
0.081013 0.073614 0.112147
0.093996 0.077875 0.116229
0.125910 0.080243 0.112519
0.161610 0.082233 0.107251
0.197310 0.084223 0.101984
0.233010 0.086212 0.096716
0.268710 0.088202 0.091448
0.307743 0.092579 0.088591
0.348442 0.098150 0.086938
0.389141 0.103722 0.085285
0.429841 0.109293 0.083632
0.470540 0.114864 0.081980
0.505504 0.122042 0.083443
0.534731 0.130827 0.088023
0.563959 0.139612 0.092603
0.593187 0.148397 0.097184
0.622415 0.157182 0.101764
0.648589 0.166161 0.106787
0.668657 0.175525 0.112699
0.688724 0.184890 0.118610
0.708792 0.194254 0.124521
0.728860 0.203619 0.130432
0.747324 0.212771 0.136355
0.757773 0.220862 0.142336
0.768221 0.228954 0.148317
0.778670 0.237045 0.154298
0.789118 0.245136 0.160280
0.799567 0.253228 0.166261
0.030123 0.061058 0.104376
0.042246 0.066033 0.109573
0.054368 0.071008 0.114771
0.066491 0.075983 0.119969
0.078614 0.080958 0.125166
0.090736 0.085933 0.130364
0.120860 0.088824 0.127633
0.154584 0.091299 0.123317
0.188308 0.093773 0.119000
0.222032 0.096248 0.114684
0.255756 0.098722 0.110368
0.297290 0.102956 0.106107
0.342728 0.108070 0.101875
0.388166 0.113184 0.097642
0.433604 0.118297 0.093410
0.479042 0.123411 0.089178
0.516352 0.130557 0.089534
0.545534 0.139736 0.094480
0.574716 0.148914 0.099426
0.603898 0.158093 0.104372
0.633080 0.167271 0.109318
0.659154 0.176664 0.114757
0.679011 0.186486 0.121180
0.698868 0.196308 0.127604
0.718725 0.206130 0.134027
0.738582 0.215952 0.140450
0.756862 0.225552 0.146911
0.767256 0.234046 0.153561
0.777650 0.242540 0.160210
0.788043 0.251034 0.166859
0.798437 0.259528 0.173508
0.808831 0.268022 0.180157
0.031163 0.065548 0.112931
0.042426 0.071237 0.119244
0.053688 0.076925 0.125558
0.064951 0.082614 0.131872
0.076214 0.088302 0.138185
0.087477 0.093991 0.144499
0.115810 0.097405 0.142747
0.147558 0.100364 0.139382
0.179307 0.103324 0.136017
0.211055 0.106283 0.132652
0.242803 0.109242 0.129287
0.286836 0.113333 0.123624
0.337013 0.117989 0.116812
0.387190 0.122646 0.110000
0.437366 0.127302 0.103188
0.487543 0.131958 0.096375
0.527200 0.139072 0.095625
0.556336 0.148644 0.100937
0.585472 0.158216 0.106249
0.614609 0.167788 0.111561
0.643745 0.177360 0.116873
0.669718 0.187167 0.122726
0.689365 0.197447 0.129662
0.709012 0.207726 0.136598
0.728658 0.218005 0.143533
0.748305 0.228285 0.150469
0.766401 0.238333 0.157468
0.776739 0.247230 0.164785
0.787078 0.256126 0.172102
0.797417 0.265023 0.179419
0.807756 0.273919 0.186736
0.818094 0.282815 0.194053
0.032203 0.070038 0.121486
0.042606 0.076440 0.128915
0.053008 0.082842 0.136345
0.063411 0.089244 0.143775
0.073814 0.095646 0.151204
0.084217 0.102049 0.158634
0.110761 0.105986 0.157861
0.140533 0.109430 0.155448
0.170305 0.112874 0.153034
0.200077 0.116318 0.150620
0.229849 0.119763 0.148207
0.276383 0.123710 0.141141
0.331299 0.127909 0.131749
0.386214 0.132108 0.122357
0.441129 0.136307 0.112965
0.496045 0.140506 0.103573
0.538048 0.147588 0.101716
0.567138 0.157553 0.107394
0.596229 0.167518 0.113072
0.625319 0.177483 0.118750
0.654410 0.187448 0.124428
0.680282 0.197671 0.130696
0.699719 0.208408 0.138144
0.719155 0.219144 0.145592
0.738592 0.229881 0.153040
0.758028 0.240618 0.160488
0.775939 0.251115 0.168025
0.786223 0.260414 0.176010
0.796507 0.269712 0.183994
0.806791 0.279011 0.191979
0.817074 0.288310 0.199964
0.827358 0.297609 0.207948
0.033928 0.076112 0.132049
0.043626 0.083246 0.140526
0.053325 0.090380 0.149004
0.063023 0.097513 0.157481
0.072722 0.104647 0.165958
0.082420 0.111781 0.174435
0.107444 0.116443 0.174881
0.135533 0.120610 0.173721
0.163622 0.124776 0.172560
0.191710 0.128943 0.171400
0.219799 0.133110 0.170240
0.266879 0.137417 0.163189
0.323455 0.141795 0.153194
0.380031 0.146172 0.143198
0.436606 0.150549 0.133202
0.493182 0.154927 0.123207
0.537298 0.162009 0.120329
0.568955 0.171796 0.124571
0.600611 0.181582 0.128813
0.632268 0.191369 0.133054
0.663925 0.201156 0.137296
0.691427 0.211406 0.142809
0.710621 0.222582 0.150865
0.729815 0.233757 0.158922
0.749009 0.244933 0.166978
0.768203 0.256109 0.175034
0.785897 0.267045 0.183200
0.796089 0.276783 0.191912
0.806281 0.286521 0.200624
0.816474 0.296259 0.209336
0.826666 0.305997 0.218048
0.836858 0.315735 0.226760
0.036339 0.083769 0.144622
0.045488 0.091653 0.154078
0.054638 0.099537 0.163534
0.063787 0.107421 0.172990
0.072937 0.115305 0.182446
0.082086 0.123189 0.191901
0.105860 0.128776 0.193807
0.132558 0.133903 0.194201
0.159256 0.139030 0.194596
0.185955 0.144158 0.194991
0.212653 0.149285 0.195386
0.258324 0.154456 0.189769
0.313482 0.159647 0.181145
0.368640 0.164838 0.172522
0.423798 0.170030 0.163898
0.478955 0.175221 0.155275
0.524951 0.182336 0.151465
0.561786 0.191372 0.152468
0.598620 0.200409 0.153471
0.635455 0.209446 0.154474
0.672289 0.218482 0.155478
0.703152 0.228372 0.159067
0.722071 0.239969 0.167827
0.740991 0.251565 0.176588
0.759910 0.263162 0.185349
0.778830 0.274759 0.194109
0.796273 0.286125 0.202993
0.806338 0.296338 0.212492
0.816402 0.306552 0.221990
0.826466 0.316766 0.231489
0.836531 0.326980 0.240988
0.846595 0.337193 0.250486
0.038749 0.091425 0.157194
0.047350 0.100060 0.167629
0.055950 0.108694 0.178064
0.064551 0.117328 0.188498
0.073152 0.125962 0.198933
0.081752 0.134596 0.209368
0.104276 0.141109 0.212732
0.129583 0.147197 0.214682
0.154891 0.153285 0.216632
0.180199 0.159373 0.218582
0.205507 0.165461 0.220532
0.249770 0.171494 0.216348
0.303509 0.177499 0.209097
0.357249 0.183505 0.201846
0.410989 0.189511 0.194594
0.464729 0.195516 0.187343
0.512605 0.202662 0.182600
0.554617 0.210949 0.180365
0.596629 0.219235 0.178129
0.638641 0.227522 0.175894
0.680653 0.235808 0.173659
0.714876 0.245339 0.175324
0.733521 0.257356 0.184789
0.752166 0.269373 0.194254
0.770812 0.281391 0.203719
0.789457 0.293408 0.213185
0.806650 0.305204 0.222786
0.816587 0.315894 0.233072
0.826523 0.326583 0.243357
0.836459 0.337273 0.253642
0.846395 0.347962 0.263928
0.856331 0.358651 0.274213
0.041160 0.099082 0.169766
0.049211 0.108467 0.181180
0.057263 0.117851 0.192594
0.065315 0.127235 0.204007
0.073367 0.136619 0.215421
0.081418 0.146004 0.226835
0.102691 0.153442 0.231658
0.126609 0.160490 0.235163
0.150526 0.167539 0.238668
0.174444 0.174587 0.242173
0.198361 0.181636 0.245679
0.241215 0.188532 0.242928
0.293537 0.195352 0.237049
0.345858 0.202171 0.231169
0.398180 0.208991 0.225290
0.450502 0.215811 0.219411
0.500258 0.222989 0.213735
0.547448 0.230526 0.208261
0.594638 0.238062 0.202788
0.641828 0.245598 0.197314
0.689017 0.253135 0.191841
0.726601 0.262305 0.191582
0.744972 0.274743 0.201751
0.763342 0.287182 0.211921
0.781713 0.299620 0.222090
0.800084 0.312058 0.232260
0.817027 0.324284 0.242580
0.826835 0.335449 0.253652
0.836644 0.346614 0.264724
0.846452 0.357779 0.275796
0.856260 0.368944 0.286868
0.866068 0.380109 0.297940
0.043570 0.106739 0.182339
0.051073 0.116874 0.194731
0.058576 0.127008 0.207124
0.066079 0.137142 0.219516
0.073582 0.147277 0.231909
0.081084 0.157411 0.244301
0.101107 0.165775 0.250584
0.123634 0.173784 0.255644
0.146161 0.181793 0.260704
0.168688 0.189802 0.265765
0.191215 0.197811 0.270825
0.232660 0.205570 0.269507
0.283564 0.213204 0.265000
0.334468 0.220838 0.260493
0.385372 0.228472 0.255986
0.436276 0.236106 0.251479
0.487911 0.243316 0.244870
0.540279 0.250102 0.236158
0.592647 0.256888 0.227446
0.645014 0.263675 0.218734
0.697382 0.270461 0.210022
0.738326 0.279272 0.207839
0.756422 0.292131 0.218713
0.774518 0.304990 0.229587
0.792614 0.317849 0.240461
0.810711 0.330708 0.251335
0.827404 0.343364 0.262373
0.837084 0.355004 0.274232
0.846764 0.366645 0.286090
0.856444 0.378286 0.297949
0.866124 0.389927 0.309808
0.875804 0.401568 0.321667
0.046343 0.115294 0.195604
0.053413 0.126179 0.208927
0.060483 0.137063 0.222249
0.067552 0.147948 0.235572
0.074622 0.158832 0.248894
0.081692 0.169717 0.262217
0.100718 0.179056 0.269925
0.122135 0.188087 0.276510
0.143552 0.197118 0.283095
0.164969 0.206148 0.289680
0.186386 0.215179 0.296265
0.226656 0.223969 0.296549
0.276352 0.232640 0.293683
0.326048 0.241311 0.290816
0.375745 0.249982 0.287950
0.425441 0.258653 0.285084
0.478178 0.266348 0.278556
0.533955 0.273067 0.268369
0.589731 0.279786 0.258181
0.645508 0.286505 0.247993
0.701285 0.293224 0.237805
0.744781 0.301916 0.234427
0.763716 0.314552 0.244666
0.782651 0.327189 0.254906
0.801585 0.339825 0.265146
0.820520 0.352462 0.275385
0.837882 0.364998 0.286013
0.847379 0.377032 0.298579
0.856876 0.389066 0.311145
0.866373 0.401100 0.323711
0.875871 0.413134 0.336278
0.885368 0.425168 0.348844
0.049840 0.125645 0.210256
0.056709 0.137280 0.224411
0.063578 0.148914 0.238566
0.070446 0.160549 0.252721
0.077315 0.172184 0.266876
0.084184 0.183818 0.281031
0.102718 0.194236 0.290098
0.123586 0.204410 0.298146
0.144454 0.214584 0.306195
0.165323 0.224758 0.314244
0.186191 0.234932 0.322292
0.225753 0.245092 0.324516
0.274663 0.255245 0.323827
0.323572 0.265398 0.323138
0.372482 0.275550 0.322449
0.421392 0.285703 0.321759
0.473671 0.294789 0.317345
0.529320 0.302807 0.309207
0.584968 0.310825 0.301068
0.640617 0.318843 0.292930
0.696266 0.326861 0.284791
0.740698 0.335916 0.281674
0.762697 0.347043 0.288603
0.784697 0.358170 0.295531
0.806696 0.369297 0.302459
0.828695 0.380424 0.309387
0.848562 0.391740 0.317346
0.857767 0.404003 0.330461
0.866971 0.416266 0.343576
0.876175 0.428529 0.356691
0.885380 0.440792 0.369807
0.894584 0.453054 0.382922
0.053338 0.135996 0.224908
0.060005 0.148381 0.239896
0.066673 0.160766 0.254883
0.073340 0.173150 0.269871
0.080007 0.185535 0.284858
0.086675 0.197920 0.299846
0.104719 0.209416 0.310271
0.125038 0.220733 0.319783
0.145357 0.232051 0.329295
0.165676 0.243368 0.338808
0.185995 0.254686 0.348320
0.224850 0.266215 0.352483
0.272973 0.277850 0.353971
0.321096 0.289484 0.355459
0.369219 0.301119 0.356947
0.417342 0.312754 0.358435
0.469164 0.323230 0.356134
0.524685 0.332547 0.350045
0.580205 0.341864 0.343955
0.635726 0.351181 0.337866
0.691247 0.360499 0.331776
0.736615 0.369916 0.328922
0.761679 0.379533 0.332539
0.786743 0.389151 0.336155
0.811807 0.398769 0.339772
0.836871 0.408386 0.343388
0.859243 0.418483 0.348679
0.868154 0.430974 0.362343
0.877066 0.443466 0.376007
0.885978 0.455957 0.389671
0.894889 0.468449 0.403335
0.903801 0.480941 0.416999
0.056836 0.146347 0.239560
0.063302 0.159482 0.255380
0.069768 0.172617 0.271200
0.076234 0.185752 0.287020
0.082700 0.198887 0.302840
0.089166 0.212022 0.318660
0.106719 0.224595 0.330443
0.126489 0.237056 0.341419
0.146260 0.249517 0.352395
0.166030 0.261978 0.363371
0.185800 0.274439 0.374348
0.223948 0.287338 0.380450
0.271284 0.300454 0.384115
0.318620 0.313571 0.387780
0.365957 0.326688 0.391446
0.413293 0.339804 0.395111
0.464657 0.351671 0.394923
0.520050 0.362287 0.390883
0.575442 0.372903 0.386843
0.630835 0.383519 0.382802
0.686227 0.394136 0.378762
0.732532 0.403916 0.376170
0.760660 0.412024 0.376475
0.788789 0.420132 0.376780
0.816917 0.428240 0.377085
0.845046 0.436348 0.377390
0.869923 0.445225 0.380013
0.878542 0.457946 0.394226
0.887161 0.470666 0.408439
0.895780 0.483386 0.422651
0.904399 0.496106 0.436864
0.913017 0.508827 0.451077
0.060333 0.156698 0.254212
0.066598 0.170583 0.270865
0.072863 0.184468 0.287517
0.079128 0.198353 0.304170
0.085393 0.212238 0.320822
0.091657 0.226123 0.337474
0.108719 0.239775 0.350616
0.127941 0.253379 0.363056
0.147162 0.266984 0.375496
0.166384 0.280588 0.387935
0.185605 0.294193 0.400375
0.223045 0.308460 0.408417
0.269595 0.323059 0.414259
0.316144 0.337658 0.420102
0.362694 0.352256 0.425944
0.409243 0.366855 0.431787
0.460150 0.380112 0.433712
0.515415 0.392027 0.431721
0.570679 0.403942 0.429730
0.625944 0.415858 0.427739
0.681208 0.427773 0.425747
0.728449 0.437916 0.423418
0.759642 0.444515 0.420411
0.790835 0.451113 0.417405
0.822028 0.457712 0.414398
0.853221 0.464311 0.411391
0.880603 0.471968 0.411346
0.888929 0.484917 0.426108
0.897255 0.497866 0.440870
0.905582 0.510815 0.455631
0.913908 0.523764 0.470393
0.922234 0.536713 0.485155
0.063728 0.167309 0.268927
0.069859 0.181886 0.286330
0.075990 0.196463 0.303733
0.082120 0.211041 0.321135
0.088251 0.225618 0.338538
0.094382 0.240195 0.355940
0.111097 0.254882 0.370330
0.129930 0.269590 0.384118
0.148763 0.284299 0.397905
0.167595 0.299007 0.411693
0.186428 0.313715 0.425480
0.223342 0.329329 0.435348
0.269297 0.345394 0.443257
0.315252 0.361459 0.451165
0.361207 0.377525 0.459074
0.407162 0.393590 0.466982
0.457684 0.408227 0.470949
0.512775 0.421435 0.470975
0.567866 0.434643 0.471001
0.622956 0.447851 0.471027
0.678047 0.461059 0.471053
0.725996 0.471691 0.469231
0.759660 0.477171 0.463715
0.793325 0.482651 0.458199
0.826989 0.488130 0.452683
0.860654 0.493610 0.447166
0.890070 0.500307 0.445021
0.898245 0.513088 0.459728
0.906421 0.525869 0.474435
0.914596 0.538650 0.489141
0.922771 0.551432 0.503848
0.930946 0.564213 0.518555
0.066612 0.179219 0.283958
0.072943 0.194199 0.301699
0.079275 0.209179 0.319440
0.085607 0.224159 0.337181
0.091939 0.239139 0.354922
0.098271 0.254118 0.372663
0.115363 0.269627 0.387749
0.134608 0.285241 0.402305
0.153852 0.300855 0.416861
0.173096 0.316469 0.431417
0.192341 0.332083 0.445973
0.229636 0.348925 0.457104
0.275957 0.366381 0.466522
0.322277 0.383837 0.475939
0.368598 0.401293 0.485357
0.414919 0.418749 0.494775
0.465424 0.434712 0.500426
0.520112 0.449182 0.502308
0.574800 0.463653 0.504191
0.629488 0.478123 0.506074
0.684176 0.492594 0.507957
0.731692 0.504345 0.507874
