filter/Red and Blue/lut/Impulse 01.cube
# LUT by SparkleStock. Enhanced with VOXCOLOR algorithms.
LUT_3D_SIZE 5
DOMAIN_MIN 0.000000 0.000000 0.000000
DOMAIN_MAX 0.903226 0.903226 0.903226
0.042979 0.039072 0.039072
0.164552 0.042444 0.052448
0.364402 0.052322 0.064705
0.589555 0.065942 0.080232
0.717208 0.083847 0.098121
0.043342 0.049833 0.070259
0.184019 0.055441 0.071711
0.422885 0.069552 0.081589
0.653138 0.097179 0.107267
0.768368 0.131160 0.138761
0.049990 0.067320 0.117287
0.157919 0.096534 0.159999
0.468131 0.110358 0.132808
0.714765 0.147672 0.159375
0.818167 0.203403 0.217615
0.066485 0.106211 0.214936
0.134091 0.174044 0.304387
0.393997 0.232482 0.321220
0.776244 0.257406 0.272128
0.871274 0.333416 0.345909
0.088322 0.169877 0.332294
0.148982 0.271474 0.429886
0.390610 0.393589 0.495541
0.767583 0.495783 0.516729
0.923108 0.535898 0.517312
0.037591 0.056568 0.136232
0.141955 0.067108 0.113363
0.404256 0.075818 0.097649
0.656246 0.097325 0.109002
0.769079 0.130126 0.137756
0.048506 0.085916 0.194205
0.113586 0.140379 0.236858
0.362823 0.167666 0.227367
0.681022 0.190989 0.215104
0.814921 0.227747 0.240392
0.063044 0.126005 0.269692
0.122953 0.203721 0.331095
0.358508 0.271369 0.357085
0.710811 0.304416 0.334459
0.858219 0.345407 0.355094
0.083086 0.183989 0.358503
0.145616 0.278844 0.425289
0.368066 0.386540 0.485764
0.748313 0.454700 0.477125
0.898611 0.492457 0.483475
0.111215 0.262238 0.448781
0.190510 0.370560 0.514806
0.431265 0.508875 0.591760
0.784584 0.618927 0.624223
0.934057 0.652381 0.615761
0.036079 0.080909 0.274308
0.092551 0.111026 0.276182
0.368316 0.131105 0.205138
0.704668 0.150065 0.169998
0.815813 0.190388 0.206516
0.043675 0.119419 0.344509
0.096343 0.201526 0.384209
0.282873 0.275619 0.388922
0.687585 0.301717 0.340819
0.854302 0.333187 0.345177
0.061180 0.176281 0.422013
0.127109 0.283969 0.461338
0.281021 0.398063 0.513302
0.688522 0.452109 0.487429
0.884746 0.480831 0.475846
0.087041 0.250664 0.500815
0.170838 0.371843 0.540388
0.357049 0.500125 0.600699
0.696134 0.599933 0.622501
0.907287 0.617604 0.590441
0.120177 0.340629 0.568277
0.235796 0.470678 0.614188
0.468898 0.601900 0.673510
0.781241 0.707703 0.706857
0.930902 0.740857 0.692203
0.034259 0.116901 0.426689
0.064329 0.160110 0.450701
0.209497 0.220194 0.428306
0.705741 0.239130 0.292976
0.859869 0.278635 0.303107
0.040521 0.161503 0.492729
0.090146 0.251834 0.523198
0.210990 0.356516 0.544199
0.636450 0.445624 0.499293
0.886236 0.457214 0.459035
0.055150 0.221499 0.561664
0.126798 0.340367 0.588408
0.275315 0.475872 0.628847
0.611017 0.592994 0.635708
0.900218 0.604651 0.583315
0.079265 0.294534 0.624327
0.182980 0.442443 0.651210
0.391112 0.585096 0.691791
0.638450 0.695195 0.724208
0.908544 0.715239 0.676602
0.117332 0.389264 0.681697
0.257780 0.543125 0.716037
0.524955 0.681947 0.755683
0.771662 0.776403 0.778826
0.923896 0.810181 0.756429
0.029903 0.161259 0.542455
0.058432 0.212564 0.575320
0.138315 0.286435 0.588154
0.446198 0.389241 0.551750
0.854633 0.416076 0.444635
0.043289 0.212933 0.601783
0.089219 0.304816 0.641169
0.179529 0.408334 0.666274
0.472204 0.538352 0.665510
0.873604 0.589944 0.588660
0.060687 0.274650 0.660941
0.127660 0.391947 0.699143
0.266765 0.524193 0.734519
0.539979 0.654795 0.748218
0.883964 0.714245 0.691352
0.084970 0.343016 0.712142
0.182650 0.485852 0.748439
0.378476 0.628222 0.784308
0.647836 0.748837 0.806390
0.895112 0.800648 0.763658
0.114438 0.411388 0.751215
0.263874 0.579509 0.789965
0.527301 0.723860 0.822914
0.788189 0.821253 0.831541
0.917839 0.864201 0.811385
