filter/Red and Blue/lut/Impulse 01.cube
# LUT by SparkleStock. Enhanced with VOXCOLOR algorithms.
LUT_3D_SIZE 8
DOMAIN_MIN 0.000000 0.000000 0.000000
DOMAIN_MAX 0.903226 0.903226 0.903226
0.042979 0.039072 0.039072
0.103289 0.040206 0.047012
0.188373 0.043483 0.054149
0.298704 0.048824 0.061113
0.430005 0.055938 0.068557
0.560644 0.063878 0.077821
0.653787 0.072606 0.088030
0.717208 0.083847 0.098121
0.042790 0.045122 0.056844
0.111882 0.045085 0.054392
0.205852 0.048747 0.059327
0.325355 0.055966 0.068194
0.465219 0.066391 0.078583
0.597761 0.079308 0.090921
0.688171 0.093622 0.104326
0.746744 0.109065 0.117637
0.043672 0.051440 0.074749
0.103403 0.056453 0.080360
0.218298 0.059595 0.077020
0.359519 0.066369 0.078311
0.503733 0.079911 0.091659
0.633512 0.097701 0.107900
0.720326 0.118276 0.126885
0.775463 0.139199 0.147179
0.046965 0.060703 0.099799
0.091815 0.074547 0.123816
0.208495 0.081691 0.121343
0.369906 0.088714 0.112234
0.545263 0.100917 0.112225
0.669748 0.123537 0.134052
0.752001 0.150955 0.160636
0.803905 0.178615 0.189909
0.053535 0.075285 0.137989
0.086748 0.099905 0.183009
0.173157 0.118356 0.197872
0.340615 0.129823 0.183770
0.575839 0.137503 0.153865
0.705777 0.162227 0.175510
0.784471 0.196353 0.209656
0.832699 0.231890 0.248040
0.063744 0.099295 0.198677
0.088907 0.136356 0.255992
0.156794 0.169323 0.289370
0.296906 0.198415 0.297565
0.513505 0.222158 0.281949
0.730092 0.229904 0.249877
0.818227 0.266811 0.281169
0.863387 0.311063 0.325207
0.075844 0.132443 0.270235
0.097592 0.180238 0.328746
0.156689 0.228258 0.372564
0.283675 0.277760 0.399376
0.487686 0.326518 0.407365
0.716276 0.356438 0.390978
0.835766 0.378561 0.390630
0.896226 0.415835 0.416476
0.088322 0.169877 0.332294
0.109643 0.226003 0.391761
0.167047 0.287347 0.441220
0.291660 0.355841 0.480337
0.493190 0.428904 0.507977
0.720121 0.484945 0.516241
0.854352 0.509267 0.508729
0.923108 0.535898 0.517312
0.039009 0.048525 0.089740
0.087463 0.052294 0.077628
0.186818 0.054058 0.073006
0.319921 0.058131 0.074615
0.468585 0.067019 0.081163
0.600834 0.078911 0.091452
0.689489 0.092933 0.104149
0.747598 0.109260 0.117893
0.044089 0.061308 0.115122
0.079568 0.078637 0.128313
0.167978 0.086126 0.128931
0.302596 0.092322 0.126456
0.469171 0.102808 0.127592
0.620207 0.116277 0.133589
0.715931 0.132486 0.145044
0.775184 0.151396 0.160917
0.049515 0.074669 0.145823
0.078758 0.100462 0.172751
0.161364 0.117715 0.183395
0.298348 0.129932 0.182140
0.478382 0.140627 0.174948
0.642175 0.155570 0.177081
0.742941 0.174706 0.189410
0.802712 0.197253 0.209195
0.055833 0.091105 0.182631
0.081914 0.123207 0.217880
0.157221 0.151057 0.240268
0.296502 0.172236 0.243960
0.493475 0.186774 0.230564
0.665988 0.203053 0.228888
0.769918 0.225200 0.242025
0.829703 0.251857 0.265415
0.063628 0.112712 0.226602
0.087153 0.151058 0.268634
0.150849 0.188532 0.302103
0.289978 0.221135 0.313927
0.506833 0.246337 0.301181
0.690634 0.263970 0.294009
0.796747 0.288651 0.306198
0.856046 0.319270 0.331344
0.074423 0.142723 0.282314
0.096696 0.187391 0.326781
0.153968 0.235830 0.369148
0.279934 0.283990 0.396300
0.485189 0.326389 0.399571
0.713486 0.346420 0.376304
0.825130 0.372485 0.384449
0.882891 0.405653 0.408629
0.088206 0.180653 0.342797
0.111502 0.231069 0.386723
0.168316 0.289936 0.433284
0.290444 0.353550 0.471376
0.488862 0.415828 0.492259
0.716470 0.456353 0.486321
0.844574 0.477285 0.479798
0.909962 0.504753 0.492096
0.103141 0.223892 0.398744
0.128749 0.277327 0.440875
0.191221 0.345432 0.489474
0.317679 0.422514 0.534743
0.515499 0.500884 0.568516
0.734526 0.559488 0.580572
0.865067 0.584915 0.574058
0.931649 0.606258 0.576786
0.037449 0.059451 0.153531
0.071766 0.068446 0.145316
0.164238 0.073347 0.125788
0.310325 0.078103 0.109333
0.492266 0.085837 0.105290
0.634420 0.099297 0.112352
0.721523 0.116746 0.126311
0.775961 0.137464 0.145445
0.042615 0.075856 0.186421
0.067484 0.103993 0.207017
0.135418 0.122917 0.208918
0.269006 0.134712 0.198298
0.466177 0.142520 0.182674
0.638785 0.155121 0.179283
0.741756 0.172454 0.187896
0.802039 0.194303 0.205968
0.050044 0.095869 0.224378
0.073094 0.134066 0.254715
0.126942 0.167626 0.275450
0.250596 0.190905 0.276932
0.452974 0.202872 0.258428
0.646594 0.217693 0.249954
0.761948 0.236060 0.255344
0.827133 0.259303 0.272250
0.058799 0.120073 0.267804
0.083055 0.163798 0.299520
0.131592 0.209234 0.332831
0.247959 0.246477 0.348436
0.446874 0.270181 0.337818
0.656860 0.286329 0.323584
0.782004 0.305179 0.325168
0.851148 0.329522 0.340231
0.068507 0.149081 0.316235
0.093909 0.197206 0.348569
0.143485 0.250110 0.386810
0.255272 0.301610 0.415052
0.445144 0.344634 0.421820
0.669505 0.361385 0.400101
0.802081 0.379458 0.396040
0.874000 0.404017 0.408097
0.081028 0.185197 0.366555
0.108285 0.237619 0.399172
0.159556 0.296629 0.439680
0.270110 0.358086 0.475618
0.456381 0.415718 0.495868
0.688622 0.449188 0.482911
0.823476 0.467675 0.474634
0.895326 0.490228 0.481747
0.096339 0.227493 0.417450
0.127103 0.284503 0.450409
0.184627 0.349305 0.491600
0.299648 0.419668 0.532213
0.485063 0.490321 0.563214
0.707722 0.539955 0.565832
0.844117 0.561058 0.555469
0.916007 0.580639 0.556544
0.113261 0.274560 0.465502
0.148688 0.334354 0.497997
0.217839 0.403979 0.539462
0.343517 0.481419 0.583000
0.531833 0.561316 0.620924
0.740746 0.621474 0.635439
0.867953 0.648781 0.629888
0.934011 0.666345 0.627559
0.036646 0.072874 0.230446
0.059058 0.087554 0.234343
0.129733 0.099745 0.213034
0.275802 0.108591 0.180042
0.492459 0.115093 0.149227
0.659092 0.127919 0.146434
0.750001 0.146756 0.159116
0.802835 0.170860 0.182990
0.040189 0.091621 0.268484
0.064023 0.126452 0.290927
0.110948 0.157504 0.297411
0.230585 0.180419 0.284661
0.438736 0.193588 0.255711
0.647089 0.203043 0.237459
0.763330 0.219127 0.239326
0.827070 0.242230 0.256633
0.047534 0.116222 0.309877
0.073367 0.161830 0.335402
0.111317 0.209108 0.360308
0.214356 0.247844 0.367791
0.407336 0.272078 0.350506
0.640937 0.285234 0.328107
0.776063 0.300987 0.323460
0.849075 0.323209 0.334718
0.057372 0.146315 0.355034
0.085776 0.198235 0.377995
0.125269 0.256823 0.411556
0.218649 0.310494 0.435758
0.391859 0.350313 0.437162
0.640546 0.368268 0.413465
0.789039 0.384141 0.403918
0.869111 0.405268 0.409776
0.068932 0.181614 0.403249
0.100382 0.238832 0.424972
0.147554 0.303008 0.458769
0.237188 0.368361 0.493524
0.391499 0.426329 0.515982
0.645887 0.449165 0.491707
0.802600 0.464466 0.477222
0.887252 0.483705 0.477981
0.083465 0.223146 0.449531
0.118026 0.284509 0.472227
0.172344 0.351757 0.505234
0.271288 0.421796 0.541753
0.431007 0.489288 0.572545
0.658514 0.535368 0.570452
0.815473 0.550597 0.552302
0.902422 0.564990 0.545836
0.100413 0.269720 0.492872
0.139989 0.335645 0.517543
0.205976 0.405889 0.550471
0.316443 0.479366 0.587616
0.480835 0.552469 0.622334
0.693370 0.608695 0.632063
0.837367 0.631486 0.619972
0.917031 0.645575 0.612089
0.119009 0.320274 0.533499
0.165297 0.389455 0.560005
0.247171 0.461728 0.593309
0.373421 0.537269 0.630796
0.544883 0.613314 0.667282
0.741559 0.673337 0.683206
0.865591 0.702755 0.678521
0.932540 0.717987 0.671958
0.035535 0.089629 0.318169
0.051050 0.108846 0.331050
0.093327 0.130862 0.327160
0.222500 0.148189 0.290797
0.455440 0.157399 0.224486
0.671143 0.167041 0.199116
0.774636 0.185302 0.205687
0.828695 0.211640 0.231322
0.038164 0.110682 0.357670
0.061091 0.149894 0.378728
0.095654 0.188930 0.390699
0.191883 0.226122 0.383170
0.378462 0.257390 0.352428
0.640120 0.264525 0.313625
0.778669 0.276612 0.303155
0.850182 0.298446 0.314992
0.044075 0.137173 0.399802
0.071061 0.187559 0.419734
0.108864 0.242810 0.442519
0.187946 0.298374 0.456693
0.337645 0.346516 0.452190
0.620780 0.359261 0.412870
0.783602 0.369843 0.393984
0.868729 0.388581 0.396386
0.053349 0.169901 0.442722
0.084200 0.228331 0.458879
0.130272 0.294881 0.485811
0.203806 0.363038 0.513265
0.329687 0.423457 0.528607
0.614277 0.446725 0.497527
0.790222 0.459265 0.476303
0.884149 0.476074 0.472445
0.065913 0.209070 0.485377
0.102139 0.275781 0.499819
0.157471 0.347059 0.524695
0.234670 0.420188 0.556925
0.352688 0.488742 0.586808
0.619239 0.525564 0.570272
0.798219 0.541734 0.549846
0.896470 0.556903 0.541229
0.081819 0.254151 0.529062
0.122331 0.325872 0.544633
0.188793 0.400815 0.569014
0.284217 0.476172 0.600247
0.416288 0.548013 0.632576
0.625773 0.604183 0.640998
0.802954 0.620623 0.618562
0.905859 0.630417 0.602202
0.100626 0.304716 0.567166
0.147283 0.380447 0.585648
0.229510 0.458147 0.611293
0.341917 0.534211 0.641699
0.483468 0.605184 0.672440
0.676821 0.664524 0.687788
0.826886 0.690204 0.675535
0.915309 0.701373 0.660785
0.120734 0.359043 0.602447
0.175796 0.436679 0.623907
0.276367 0.516034 0.651425
0.407850 0.591796 0.681560
0.560242 0.660013 0.710101
0.739705 0.717560 0.726295
0.860076 0.748624 0.722001
0.929158 0.762786 0.711862
0.034590 0.111182 0.405892
0.047177 0.132887 0.421993
0.075641 0.160502 0.428581
0.157672 0.191538 0.414770
0.328002 0.219977 0.371348
0.655531 0.220544 0.282161
0.792420 0.236927 0.268705
0.853882 0.264491 0.288619
0.037072 0.134284 0.443783
0.058999 0.175531 0.462056
0.086731 0.217464 0.476090
0.154845 0.263655 0.479206
0.299907 0.312338 0.463463
0.611292 0.339521 0.405603
0.784219 0.348540 0.378317
0.871333 0.365821 0.379333
0.042319 0.162409 0.482854
0.069107 0.214297 0.500014
0.105256 0.271541 0.518944
0.171692 0.333123 0.533968
0.297594 0.395523 0.537618
0.580719 0.442749 0.507066
0.778487 0.451040 0.473757
0.885267 0.462135 0.462387
0.050409 0.195808 0.522907
0.081638 0.255786 0.537510
0.128820 0.324845 0.558000
0.202064 0.398013 0.580214
0.320816 0.469888 0.597539
0.567077 0.529083 0.587485
0.776388 0.540626 0.554274
0.895294 0.548949 0.535878
0.061400 0.234300 0.563092
0.099278 0.304118 0.575443
0.156574 0.379542 0.594531
0.242520 0.458315 0.619677
0.368425 0.536376 0.646115
0.571617 0.599279 0.649414
0.778730 0.615622 0.620392
0.901766 0.623636 0.598896
0.075988 0.277039 0.599312
0.122006 0.357986 0.612451
0.194284 0.439904 0.631830
0.300419 0.520678 0.656091
0.440533 0.597139 0.682298
0.592666 0.658540 0.699450
0.786516 0.678288 0.674782
0.907473 0.686281 0.651412
0.096528 0.328799 0.634465
0.148860 0.413832 0.649797
0.237876 0.498101 0.670644
0.363595 0.578969 0.694751
0.518244 0.653040 0.719184
0.663744 0.709793 0.736217
0.814561 0.737398 0.723501
0.912556 0.747929 0.703687
0.118185 0.384237 0.667141
0.179522 0.470655 0.685518
0.287880 0.555923 0.708622
0.433369 0.635672 0.732817
0.599851 0.705667 0.754617
0.739143 0.756827 0.768044
0.852346 0.787152 0.761620
0.925030 0.800998 0.747661
0.032699 0.136043 0.482272
0.045043 0.160237 0.499397
0.067646 0.190512 0.511070
0.124246 0.227859 0.510715
0.244729 0.270694 0.490959
0.520638 0.307194 0.431265
0.755570 0.310091 0.364340
0.875965 0.326653 0.347557
0.036621 0.162048 0.517577
0.057869 0.204575 0.536534
0.082625 0.246850 0.551501
0.134916 0.295803 0.560044
0.245036 0.354189 0.557563
0.504273 0.412149 0.524759
0.753672 0.426511 0.468366
0.889457 0.439988 0.445214
0.042788 0.191798 0.553819
0.068744 0.244144 0.572328
0.103594 0.301343 0.589828
0.161166 0.363762 0.604739
0.264663 0.431131 0.613569
0.502858 0.501598 0.601146
0.754063 0.526597 0.555656
0.898080 0.538942 0.528920
0.051180 0.225349 0.590163
0.081461 0.285306 0.607332
0.127819 0.354615 0.626034
0.197388 0.428216 0.645093
0.305134 0.502503 0.661543
0.517531 0.577270 0.662398
0.757790 0.609901 0.627161
0.902341 0.622172 0.599124
0.061832 0.262569 0.625652
0.098668 0.332212 0.641695
0.154699 0.408031 0.660236
0.240593 0.487989 0.681439
0.365491 0.568938 0.702978
0.548223 0.641181 0.710873
0.765835 0.677136 0.684486
0.903334 0.689652 0.656842
0.075591 0.303333 0.657945
0.121397 0.384463 0.673870
0.192440 0.466987 0.692717
0.297827 0.549405 0.713557
0.438753 0.628965 0.734585
0.593713 0.695193 0.749194
0.780665 0.730417 0.729702
0.904555 0.742975 0.703176
0.092658 0.346083 0.686771
0.148694 0.437340 0.704470
0.239276 0.525623 0.724589
0.366792 0.609407 0.745267
0.525067 0.685993 0.764301
0.676095 0.744285 0.776106
0.811330 0.779436 0.767625
0.906855 0.791754 0.745880
0.113486 0.396720 0.715654
0.181054 0.492191 0.735350
0.292524 0.582838 0.757136
0.440745 0.665809 0.777727
0.611191 0.737728 0.794109
0.754176 0.788031 0.801169
0.851623 0.821052 0.797196
0.919879 0.835504 0.781642
0.029903 0.161259 0.542455
0.043808 0.188813 0.562941
0.064197 0.221135 0.578813
0.105224 0.261727 0.587504
0.188114 0.312976 0.585702
0.387961 0.377048 0.562192
0.670557 0.402867 0.493038
0.854633 0.416076 0.444635
0.037245 0.189544 0.576010
0.057430 0.234133 0.600287
0.081055 0.276926 0.617318
0.123237 0.326433 0.629308
0.205352 0.388287 0.636168
0.399023 0.463526 0.627295
0.678842 0.503828 0.576122
0.866876 0.521599 0.532303
0.045418 0.221191 0.610502
0.069942 0.274912 0.634898
0.103968 0.331712 0.654311
0.154835 0.392832 0.670003
0.238481 0.460003 0.681777
0.424863 0.539623 0.682477
0.691110 0.589539 0.645451
0.875327 0.610435 0.605453
0.055067 0.256000 0.644527
0.084056 0.316507 0.667467
0.129220 0.384807 0.688634
0.194693 0.456402 0.707674
0.290582 0.528940 0.723355
0.465635 0.607242 0.729206
0.708453 0.661176 0.702490
0.881445 0.683702 0.665871
0.066719 0.293603 0.676837
0.101801 0.362411 0.698314
0.155793 0.436666 0.719607
0.239669 0.514990 0.740880
0.360189 0.594894 0.760566
0.520677 0.667947 0.768599
0.731772 0.720308 0.748765
0.886683 0.742987 0.715358
0.081252 0.333336 0.705513
0.124795 0.412162 0.726098
0.193108 0.492396 0.747197
0.294338 0.573264 0.767996
0.430538 0.652682 0.787108
0.588892 0.721419 0.799437
0.763244 0.768308 0.784632
0.893316 0.789665 0.754525
0.096634 0.370533 0.728791
0.152136 0.460928 0.749963
0.241218 0.548352 0.771705
0.364948 0.631591 0.792028
0.518304 0.708376 0.808818
0.675008 0.768978 0.817083
0.802949 0.810170 0.810585
0.901323 0.829475 0.787107
0.114438 0.411388 0.751215
0.184069 0.509599 0.773068
0.296327 0.602017 0.795705
0.442618 0.686047 0.815378
0.609251 0.758645 0.828898
0.756752 0.810037 0.831551
0.849874 0.845111 0.827473
0.917839 0.864201 0.811385
