filter/Red and Blue/lut/Impulse 02Impulse 02.cube
# LUT by SparkleStock. Enhanced with VOXCOLOR algorithms.
LUT_3D_SIZE 5
DOMAIN_MIN 0.000000 0.000000 0.000000
DOMAIN_MAX 0.903226 0.903226 0.903226
0.027350 0.023443 0.023443
0.162984 0.031612 0.030801
0.345740 0.053669 0.034692
0.535783 0.083516 0.046989
0.655260 0.114900 0.065446
0.027035 0.039946 0.064075
0.177258 0.050093 0.054150
0.394901 0.078952 0.056206
0.600702 0.126090 0.077710
0.721719 0.173667 0.105098
0.031163 0.065548 0.112931
0.147558 0.100364 0.139382
0.437366 0.127302 0.103188
0.669718 0.187167 0.122726
0.787078 0.256126 0.172102
0.046343 0.115294 0.195604
0.122135 0.188087 0.276510
0.375745 0.249982 0.287950
0.744781 0.301916 0.234427
0.856876 0.389066 0.311145
0.069495 0.191130 0.298988
0.139285 0.300892 0.420493
0.375990 0.425061 0.511641
0.737388 0.536999 0.546517
0.915456 0.589908 0.552903
0.013132 0.059207 0.132813
0.132221 0.068493 0.098876
0.377404 0.086116 0.072283
0.603179 0.125770 0.078099
0.722813 0.172931 0.104689
0.024186 0.095587 0.182396
0.102018 0.150180 0.218686
0.342537 0.180094 0.199902
0.636469 0.222454 0.178504
0.782020 0.277223 0.200156
0.041441 0.144675 0.253089
0.112834 0.220646 0.314910
0.342394 0.288609 0.338669
0.672831 0.336899 0.307934
0.836340 0.396070 0.327976
0.065070 0.211719 0.340741
0.139843 0.304300 0.419193
0.355191 0.411578 0.493490
0.716264 0.489870 0.485263
0.884914 0.541761 0.496213
0.095406 0.299844 0.444405
0.192964 0.405706 0.530773
0.426990 0.542971 0.631930
0.752215 0.656618 0.680846
0.922232 0.697968 0.676334
0.005916 0.099350 0.251794
0.071255 0.129157 0.251602
0.343770 0.145273 0.167689
0.658275 0.186404 0.128306
0.782998 0.244302 0.158982
0.014773 0.145467 0.320415
0.079803 0.230616 0.371441
0.271503 0.296593 0.375792
0.650409 0.333117 0.312837
0.831910 0.384007 0.314865
0.038698 0.213788 0.408532
0.117798 0.317568 0.463313
0.282933 0.425464 0.526045
0.652440 0.481842 0.497011
0.863894 0.526326 0.483996
0.069915 0.296209 0.504042
0.170927 0.410412 0.560210
0.355155 0.530531 0.634705
0.667960 0.633290 0.671547
0.889496 0.659803 0.638907
0.108957 0.386977 0.592226
0.246057 0.508633 0.652891
0.466720 0.631919 0.724686
0.746646 0.741070 0.775832
0.917042 0.778320 0.766455
0.003143 0.150758 0.392367
0.039379 0.198336 0.425853
0.187955 0.255073 0.412385
0.672970 0.276172 0.235272
0.842285 0.336227 0.249412
0.012409 0.202479 0.472189
0.073542 0.295859 0.525318
0.202835 0.397418 0.563210
0.608411 0.477378 0.511367
0.871541 0.507516 0.460721
0.034279 0.269608 0.561746
0.118798 0.384932 0.609639
0.275014 0.513123 0.665643
0.589446 0.625228 0.685807
0.881160 0.647777 0.629598
0.067221 0.345965 0.645798
0.186223 0.482937 0.688494
0.387858 0.614784 0.740560
0.619648 0.721020 0.784868
0.887118 0.750529 0.745487
0.111696 0.435079 0.718620
0.268381 0.578367 0.765576
0.508154 0.707853 0.815248
0.728717 0.801821 0.851327
0.908105 0.843971 0.839669
0.001560 0.206018 0.522652
0.034770 0.263948 0.574588
0.119466 0.338462 0.606569
0.417998 0.433834 0.575048
0.840266 0.468047 0.433302
0.018305 0.264504 0.605760
0.076376 0.353883 0.663281
0.174071 0.452015 0.703145
0.452949 0.576565 0.716290
0.855231 0.636475 0.636284
0.044267 0.327469 0.684546
0.124007 0.437555 0.735795
0.263296 0.559702 0.782352
0.514073 0.684054 0.809077
0.860399 0.751680 0.762408
0.078096 0.394665 0.748614
0.187733 0.525239 0.795724
0.370318 0.657517 0.841523
0.608168 0.772538 0.875349
0.869128 0.832096 0.844273
0.113424 0.459203 0.795023
0.274067 0.612990 0.845070
0.499266 0.746273 0.887736
0.731950 0.844393 0.910611
0.898329 0.895282 0.901538
