filter/Red and Blue/lut/Impulse 04.cube
# LUT by SparkleStock. Enhanced with VOXCOLOR algorithms.
LUT_3D_SIZE 8
DOMAIN_MIN 0.000000 0.000000 0.000000
DOMAIN_MAX 0.903226 0.903226 0.903226
0.027350 0.019536 0.019536
0.086022 0.017771 0.026815
0.185064 0.017189 0.029367
0.307842 0.016574 0.032219
0.432030 0.018756 0.038749
0.540455 0.024806 0.048675
0.624767 0.033566 0.059207
0.683910 0.045870 0.068282
0.030218 0.026153 0.034976
0.094268 0.021400 0.030700
0.200291 0.021031 0.032903
0.330397 0.022892 0.038942
0.462632 0.029550 0.048582
0.577147 0.042601 0.060386
0.662142 0.061208 0.072114
0.715565 0.084498 0.082384
0.030328 0.031785 0.051203
0.079657 0.037207 0.061698
0.215123 0.029091 0.043821
0.359165 0.032298 0.046098
0.495025 0.045457 0.057494
0.610117 0.067720 0.071532
0.694569 0.097814 0.086456
0.746985 0.132966 0.100717
0.032360 0.042672 0.076017
0.070661 0.062822 0.104755
0.169319 0.062954 0.097867
0.366361 0.057957 0.070726
0.529931 0.072908 0.070388
0.645385 0.104894 0.087127
0.727872 0.145642 0.106623
0.779300 0.190112 0.127099
0.039348 0.063405 0.113025
0.068961 0.104097 0.165905
0.128375 0.125844 0.188799
0.305135 0.122028 0.158234
0.528375 0.126828 0.118807
0.683980 0.159103 0.116715
0.765420 0.210070 0.144071
0.816056 0.263029 0.175681
0.051542 0.098066 0.165426
0.071991 0.164514 0.250209
0.110399 0.212323 0.304652
0.246933 0.227427 0.299242
0.480460 0.230418 0.248147
0.690404 0.250138 0.208073
0.807085 0.297281 0.216723
0.856680 0.357475 0.262464
0.065383 0.151050 0.238560
0.078197 0.241689 0.354472
0.109803 0.311345 0.430514
0.232680 0.353309 0.454801
0.444000 0.374305 0.430337
0.677981 0.391109 0.381405
0.836347 0.422669 0.360349
0.897666 0.473015 0.393855
0.072646 0.226720 0.341077
0.087538 0.324617 0.461614
0.124626 0.402966 0.537897
0.252589 0.464708 0.577150
0.461930 0.511799 0.583969
0.688672 0.546295 0.567573
0.853476 0.571204 0.544940
0.928878 0.598375 0.547188
0.023821 0.029682 0.063429
0.069941 0.034094 0.055368
0.178846 0.029014 0.046671
0.323410 0.026692 0.045026
0.465414 0.030980 0.050254
0.580954 0.042921 0.060151
0.663330 0.061300 0.071637
0.715985 0.085288 0.082803
0.030275 0.044866 0.087037
0.055682 0.071481 0.112226
0.135674 0.071242 0.109267
0.278210 0.068324 0.098252
0.443556 0.072711 0.089849
0.589196 0.088157 0.089028
0.690044 0.113421 0.096028
0.747505 0.145721 0.108364
0.037706 0.062978 0.116413
0.058932 0.101503 0.157640
0.120334 0.119587 0.173748
0.263213 0.115390 0.155089
0.443618 0.118316 0.134053
0.607555 0.137574 0.125005
0.720382 0.169519 0.129291
0.780776 0.208220 0.144272
0.045474 0.086658 0.152312
0.065234 0.134589 0.203582
0.111210 0.171438 0.243674
0.259482 0.173442 0.224296
0.453527 0.176432 0.192947
0.630126 0.197299 0.175809
0.750994 0.233934 0.177956
0.814366 0.277892 0.196801
0.054126 0.121899 0.202113
0.071953 0.180597 0.265359
0.108351 0.235775 0.327831
0.243560 0.255188 0.327100
0.459699 0.257911 0.283769
0.657650 0.275892 0.252687
0.783752 0.314672 0.253391
0.848360 0.361571 0.276923
0.063360 0.173949 0.272786
0.080711 0.242234 0.346419
0.115029 0.311069 0.421632
0.236851 0.353304 0.446842
0.452378 0.367956 0.415170
0.673589 0.380991 0.369308
0.818325 0.412478 0.355514
0.881889 0.458951 0.382644
0.072853 0.244008 0.365123
0.093939 0.315104 0.438762
0.134315 0.390040 0.514096
0.256428 0.450649 0.555695
0.458049 0.487283 0.552308
0.683810 0.506890 0.515686
0.844965 0.529004 0.489309
0.912821 0.564082 0.504017
0.083702 0.324161 0.465961
0.111904 0.388749 0.525214
0.167735 0.462927 0.590709
0.301966 0.532079 0.634800
0.500251 0.586590 0.651204
0.709547 0.623531 0.643701
0.862707 0.645671 0.624766
0.934229 0.663928 0.619362
0.021080 0.044752 0.115593
0.053226 0.058185 0.118518
0.125623 0.057807 0.101393
0.294718 0.052278 0.079877
0.472269 0.055376 0.071117
0.608544 0.071251 0.074912
0.696342 0.098075 0.085445
0.747069 0.132920 0.099276
0.027562 0.065300 0.147014
0.051302 0.107492 0.185098
0.096576 0.133951 0.200016
0.239114 0.124226 0.171618
0.430319 0.120820 0.141437
0.603306 0.136544 0.126600
0.719102 0.166532 0.127587
0.779768 0.204307 0.140770
0.037328 0.098249 0.195059
0.061068 0.151372 0.238821
0.092456 0.204156 0.287241
0.213256 0.205544 0.271512
0.407533 0.202148 0.234762
0.603321 0.215937 0.207334
0.741076 0.246825 0.199920
0.811992 0.287451 0.212757
0.047768 0.138584 0.250645
0.069897 0.202311 0.304283
0.099563 0.268023 0.368493
0.205759 0.297729 0.382475
0.400971 0.295216 0.341894
0.611909 0.300023 0.296856
0.764672 0.328334 0.279657
0.842688 0.369443 0.291645
0.058009 0.190372 0.317902
0.080489 0.259790 0.376526
0.113979 0.328432 0.441052
0.215602 0.377407 0.474325
0.410629 0.391140 0.449651
0.628882 0.395836 0.401212
0.789324 0.416905 0.373461
0.870170 0.454438 0.382524
0.069010 0.253763 0.395716
0.095525 0.323807 0.452599
0.136642 0.391071 0.510957
0.241208 0.451417 0.554605
0.430567 0.485323 0.552186
0.650196 0.498450 0.512964
0.815127 0.514333 0.480517
0.894601 0.544532 0.484862
0.081957 0.326707 0.481039
0.116908 0.392726 0.529589
0.169983 0.456672 0.579708
0.284468 0.522610 0.625232
0.467600 0.571383 0.638680
0.678496 0.598069 0.618177
0.839604 0.614688 0.591114
0.915919 0.634782 0.587210
0.099810 0.400645 0.561000
0.146158 0.459357 0.597248
0.213955 0.518665 0.638692
0.345776 0.584979 0.679023
0.528422 0.642340 0.700610
0.719480 0.681448 0.699585
0.861983 0.702534 0.684306
0.931864 0.714592 0.673642
0.019473 0.064918 0.178282
0.041231 0.088497 0.199264
0.086354 0.111340 0.203958
0.239365 0.098220 0.150955
0.449598 0.095566 0.111188
0.623539 0.112793 0.099856
0.725635 0.143979 0.105871
0.777441 0.184606 0.121304
0.023052 0.091543 0.221698
0.048370 0.148199 0.273753
0.079725 0.196964 0.308836
0.179204 0.210534 0.293074
0.388830 0.198429 0.236091
0.604047 0.200195 0.189142
0.743776 0.227851 0.175154
0.811361 0.268045 0.186051
0.030792 0.134557 0.286314
0.058242 0.201724 0.337629
0.089334 0.273189 0.397086
0.165095 0.310148 0.410928
0.363255 0.302967 0.361362
0.594205 0.300218 0.304367
0.759096 0.324193 0.278323
0.840911 0.362663 0.284647
0.042698 0.190893 0.361233
0.072265 0.262968 0.408305
0.109862 0.336595 0.463346
0.183315 0.392636 0.499583
0.366571 0.398980 0.468360
0.595810 0.397522 0.413764
0.773032 0.417481 0.382084
0.864085 0.452561 0.384584
0.056112 0.253256 0.436694
0.089818 0.327698 0.480642
0.136439 0.398717 0.528344
0.215943 0.462284 0.572408
0.384038 0.494322 0.571116
0.605223 0.498895 0.525056
0.787745 0.507383 0.481817
0.883210 0.535264 0.477461
0.070990 0.321964 0.512666
0.112923 0.394386 0.551162
0.171048 0.460857 0.591437
0.259967 0.523986 0.632954
0.420363 0.572476 0.648834
0.629228 0.591959 0.622054
0.805693 0.598961 0.581946
0.899508 0.615653 0.568613
0.089920 0.393668 0.584285
0.144548 0.460066 0.614226
0.217013 0.520716 0.646324
0.318081 0.580675 0.681841
0.477620 0.633453 0.701063
0.670344 0.667863 0.694079
0.828940 0.683159 0.669610
0.913673 0.692044 0.652239
0.116361 0.459614 0.641098
0.186202 0.519475 0.664038
0.273882 0.575756 0.690932
0.388007 0.632720 0.721818
0.549298 0.687196 0.742759
0.723156 0.727574 0.745364
0.856380 0.748830 0.732824
0.926981 0.757337 0.718769
0.016204 0.097538 0.265123
0.031978 0.128774 0.300229
0.062554 0.170726 0.328931
0.160678 0.186432 0.302397
0.396988 0.164935 0.204568
0.624604 0.165242 0.141259
0.752589 0.198856 0.137306
0.809545 0.241649 0.153214
0.017954 0.130268 0.321417
0.043632 0.195969 0.379492
0.070896 0.255362 0.423766
0.136129 0.298337 0.432357
0.337016 0.296864 0.369768
0.585645 0.286985 0.290039
0.762109 0.302057 0.247822
0.841984 0.339328 0.250926
0.023313 0.178079 0.392889
0.053643 0.252814 0.446601
0.091764 0.330269 0.500364
0.149556 0.390248 0.529121
0.318397 0.411174 0.501097
0.565725 0.404738 0.430258
0.768988 0.409333 0.373846
0.866255 0.439812 0.367130
0.035086 0.238774 0.471448
0.070813 0.316150 0.513702
0.120694 0.393255 0.556729
0.190326 0.462449 0.595531
0.335895 0.499650 0.592706
0.565683 0.501783 0.539219
0.774484 0.504062 0.484027
0.881268 0.528591 0.471269
0.051040 0.304933 0.546315
0.096045 0.383532 0.578608
0.159437 0.456631 0.611930
0.241889 0.524507 0.648003
0.372248 0.574174 0.664009
0.580638 0.586699 0.628833
0.782347 0.587666 0.577508
0.892111 0.605048 0.559552
0.069849 0.374286 0.615270
0.128578 0.450162 0.638627
0.206306 0.518119 0.664571
0.300176 0.580279 0.693298
0.426593 0.633537 0.714939
0.611922 0.661122 0.700873
0.794195 0.667953 0.662247
0.900788 0.674922 0.637315
0.094246 0.442560 0.672391
0.170733 0.512428 0.688649
0.262871 0.574617 0.708848
0.367895 0.631570 0.732388
0.496926 0.682554 0.751999
0.661541 0.720584 0.752307
0.816066 0.737129 0.729961
0.909408 0.739611 0.704650
0.128233 0.503075 0.712323
0.224442 0.567586 0.726580
0.330178 0.626116 0.745169
0.443778 0.679199 0.766567
0.574404 0.728094 0.785324
0.721896 0.766573 0.788596
0.847943 0.788343 0.776021
0.921450 0.795343 0.759106
0.010627 0.145055 0.378180
0.024181 0.180502 0.419347
0.048421 0.230428 0.459372
0.103287 0.276114 0.469792
0.293666 0.277114 0.389161
0.574612 0.255075 0.258092
0.776512 0.261879 0.186211
0.843260 0.305622 0.200570
0.013088 0.182509 0.441760
0.039117 0.249748 0.495074
0.065553 0.309920 0.536750
0.116475 0.369058 0.559822
0.274770 0.398556 0.525364
0.542996 0.391865 0.429926
0.772066 0.389597 0.348417
0.870293 0.417416 0.335022
0.018498 0.230902 0.510277
0.050671 0.304985 0.557335
0.095508 0.381075 0.597789
0.154422 0.446764 0.625425
0.287242 0.496216 0.622406
0.531004 0.507688 0.561525
0.767242 0.504494 0.487198
0.887043 0.519458 0.459583
0.029952 0.288261 0.579195
0.069490 0.365295 0.615649
0.129938 0.442248 0.647342
0.208909 0.513240 0.676423
0.328522 0.570870 0.687575
0.540591 0.594241 0.651377
0.764822 0.595226 0.591241
0.894387 0.602681 0.558221
0.046937 0.351136 0.643572
0.099595 0.429584 0.668532
0.176903 0.503103 0.691617
0.271491 0.571293 0.715170
0.385103 0.629397 0.732559
0.567047 0.660152 0.714409
0.768346 0.666145 0.668370
0.897438 0.669715 0.634547
0.067176 0.413736 0.698923
0.140460 0.492220 0.714022
0.235112 0.562239 0.730975
0.340848 0.624755 0.748840
0.455017 0.678909 0.766085
0.607637 0.715930 0.763109
0.777673 0.727798 0.731557
0.900015 0.727152 0.696129
0.093683 0.475212 0.742548
0.191639 0.550680 0.752114
0.300930 0.616437 0.765778
0.415708 0.674298 0.781311
0.532881 0.723818 0.796153
0.664079 0.763008 0.800885
0.800688 0.781201 0.782086
0.904656 0.781211 0.750241
0.132376 0.533117 0.773710
0.254674 0.604067 0.783980
0.374074 0.665992 0.797801
0.493374 0.719699 0.812604
0.609489 0.765308 0.826155
0.728034 0.801721 0.830565
0.837211 0.823834 0.819079
0.915514 0.830415 0.797555
0.005751 0.200268 0.499760
0.019447 0.238305 0.540686
0.041822 0.288356 0.579052
0.081444 0.343207 0.601435
0.202475 0.383550 0.578306
0.468466 0.377607 0.457268
0.742786 0.360308 0.317780
0.876888 0.378429 0.270952
0.010575 0.240489 0.560886
0.037587 0.304721 0.604614
0.064653 0.360447 0.637375
0.112391 0.421300 0.660846
0.228899 0.475947 0.657040
0.470800 0.495547 0.587763
0.739603 0.491788 0.486590
0.894599 0.500054 0.433453
0.018569 0.287413 0.619356
0.051466 0.356569 0.656585
0.101891 0.427849 0.685179
0.165066 0.490988 0.706520
0.276648 0.550257 0.712909
0.488438 0.587689 0.677879
0.738405 0.596373 0.606948
0.902096 0.598269 0.554131
0.031214 0.339944 0.673561
0.072094 0.411849 0.703270
0.140638 0.484851 0.725783
0.228537 0.552937 0.745241
0.341697 0.613120 0.754848
0.521966 0.657907 0.739073
0.742053 0.674508 0.689882
0.902213 0.673583 0.640420
0.048298 0.396086 0.722450
0.104312 0.469755 0.743597
0.191001 0.540800 0.760947
0.295069 0.607929 0.777131
0.410965 0.666834 0.788885
0.565592 0.712446 0.783235
0.752211 0.731950 0.747274
0.899275 0.731059 0.702283
0.068026 0.450238 0.763155
0.149499 0.526546 0.776921
0.255179 0.596419 0.790977
0.368919 0.659460 0.804418
0.487287 0.714299 0.815704
0.616801 0.757766 0.817484
0.767000 0.778129 0.792350
0.897581 0.777960 0.750854
0.091861 0.501389 0.795549
0.205860 0.579818 0.805452
0.327801 0.648229 0.817946
0.448263 0.707466 0.830153
0.566946 0.757306 0.839502
0.678179 0.796972 0.844340
0.793253 0.819025 0.829533
0.898620 0.822062 0.795659
0.129181 0.552365 0.820685
0.274532 0.630044 0.831917
0.404869 0.695834 0.844776
0.525601 0.750970 0.856319
0.639524 0.795864 0.864072
0.741591 0.830954 0.867030
0.831745 0.854582 0.858566
0.908174 0.863520 0.836438
0.003907 0.249533 0.599126
0.019169 0.291299 0.639312
0.041927 0.339817 0.671360
0.078102 0.394016 0.692861
0.167236 0.447577 0.693149
0.358016 0.486103 0.650330
0.640292 0.488113 0.531667
0.872992 0.477033 0.413516
0.012161 0.291349 0.652140
0.039556 0.354065 0.690861
0.068107 0.405792 0.716274
0.116802 0.462443 0.735352
0.214642 0.521806 0.741948
0.396051 0.571608 0.719606
0.658359 0.590291 0.642968
0.882253 0.587802 0.557074
0.023584 0.338519 0.699895
0.056761 0.405368 0.733220
0.111188 0.470834 0.757012
0.178839 0.528899 0.773100
0.280808 0.587187 0.781372
0.446099 0.639771 0.770209
0.679465 0.667714 0.718741
0.885161 0.671173 0.652129
0.039022 0.389514 0.742445
0.079803 0.457533 0.770241
0.153922 0.525474 0.790503
0.249061 0.589257 0.806898
0.358303 0.646751 0.815957
0.505496 0.696895 0.809972
0.704542 0.727817 0.772934
0.885356 0.734273 0.717628
0.056957 0.441757 0.779712
0.113919 0.510104 0.801308
0.206220 0.577022 0.818890
0.316829 0.641319 0.834339
0.433994 0.698470 0.845034
0.568058 0.745770 0.842774
0.732734 0.775789 0.814353
0.885600 0.783545 0.766572
0.076626 0.491278 0.810753
0.160776 0.560877 0.826996
0.271455 0.627197 0.842789
0.389244 0.688702 0.856663
0.508863 0.743206 0.867095
0.628919 0.787641 0.868925
0.761295 0.815915 0.848676
0.887603 0.824232 0.807228
0.097586 0.532646 0.834231
0.219157 0.607051 0.847960
0.346683 0.674229 0.862904
0.468229 0.733081 0.875599
0.583939 0.782946 0.883742
0.690797 0.822884 0.886286
0.793654 0.849982 0.874907
0.891392 0.860347 0.843939
0.128722 0.570288 0.851382
0.288413 0.649816 0.866458
0.424898 0.717423 0.881626
0.543996 0.773134 0.893009
0.652640 0.817842 0.898487
0.750828 0.852096 0.897777
0.832848 0.877810 0.891700
0.903186 0.892212 0.873965
