filter/Red and Blue/lut/Midnight 04.cube
# LUT by SparkleStock. Enhanced with VOXCOLOR algorithms.
LUT_3D_SIZE 32
0.085958 0.019536 0.062515
0.099902 0.019394 0.061192
0.113845 0.019252 0.059868
0.127788 0.019111 0.058545
0.141731 0.018969 0.057222
0.155674 0.018827 0.055898
0.175604 0.020103 0.055993
0.196731 0.021663 0.056371
0.217858 0.023223 0.056749
0.238985 0.024782 0.057127
0.260113 0.026342 0.057505
0.284422 0.028784 0.059081
0.310323 0.031667 0.061255
0.336224 0.034550 0.063429
0.362125 0.037434 0.065603
0.388026 0.040317 0.067777
0.414329 0.043814 0.070708
0.441034 0.047926 0.074394
0.467738 0.052038 0.078081
0.494442 0.056150 0.081768
0.521147 0.060262 0.085454
0.545740 0.064500 0.089267
0.566111 0.068991 0.093332
0.586482 0.073481 0.097397
0.606853 0.077971 0.101461
0.627224 0.082461 0.105526
0.646374 0.086951 0.109433
0.659419 0.091441 0.112553
0.672464 0.095931 0.115672
0.685509 0.100421 0.118792
0.698554 0.104912 0.121911
0.711600 0.109402 0.125031
0.085439 0.022514 0.066296
0.100269 0.022317 0.064744
0.115099 0.022120 0.063192
0.129930 0.021924 0.061640
0.144760 0.021727 0.060088
0.159591 0.021530 0.058536
0.179874 0.022957 0.058714
0.201248 0.024709 0.059239
0.222623 0.026461 0.059763
0.243997 0.028213 0.060288
0.265371 0.029965 0.060812
0.290007 0.032648 0.062571
0.316274 0.035796 0.064946
0.342541 0.038944 0.067322
0.368808 0.042093 0.069697
0.395075 0.045241 0.072072
0.421565 0.048972 0.075149
0.448279 0.053285 0.078927
0.474992 0.057599 0.082705
0.501706 0.061912 0.086483
0.528420 0.066225 0.090262
0.552937 0.070607 0.094111
0.573061 0.075124 0.098102
0.593185 0.079642 0.102094
0.613309 0.084159 0.106086
0.633433 0.088677 0.110077
0.652308 0.093172 0.113916
0.664942 0.097552 0.116989
0.677575 0.101932 0.120063
0.690208 0.106313 0.123137
0.702842 0.110693 0.126211
0.715475 0.115073 0.129284
0.084919 0.025491 0.070078
0.100636 0.025240 0.068297
0.116354 0.024988 0.066516
0.132072 0.024737 0.064735
0.147790 0.024485 0.062954
0.163507 0.024234 0.061174
0.184145 0.025812 0.061436
0.205766 0.027755 0.062107
0.227387 0.029699 0.062778
0.249009 0.031643 0.063448
0.270630 0.033587 0.064119
0.295592 0.036511 0.066061
0.322225 0.039925 0.068637
0.348858 0.043339 0.071214
0.375491 0.046752 0.073791
0.402123 0.050166 0.076367
0.428801 0.054130 0.079590
0.455524 0.058645 0.083460
0.482247 0.063159 0.087330
0.508969 0.067674 0.091199
0.535692 0.072188 0.095069
0.560133 0.076713 0.098955
0.580010 0.081258 0.102873
0.599887 0.085803 0.106791
0.619764 0.090348 0.110710
0.639641 0.094893 0.114628
0.658242 0.099392 0.118398
0.670464 0.103663 0.121426
0.682686 0.107933 0.124454
0.694907 0.112204 0.127482
0.707129 0.116475 0.130510
0.719351 0.120745 0.133538
0.084399 0.028469 0.073859
0.101004 0.028163 0.071849
0.117609 0.027856 0.069840
0.134214 0.027550 0.067830
0.150819 0.027243 0.065821
0.167424 0.026937 0.063811
0.188415 0.028666 0.064157
0.210284 0.030802 0.064975
0.232152 0.032938 0.065792
0.254020 0.035074 0.066609
0.275888 0.037210 0.067426
0.301177 0.040375 0.069551
0.328176 0.044054 0.072329
0.355174 0.047733 0.075106
0.382173 0.051412 0.077884
0.409172 0.055091 0.080662
0.436037 0.059288 0.084032
0.462769 0.064004 0.087993
0.489501 0.068720 0.091954
0.516233 0.073435 0.095915
0.542965 0.078151 0.099876
0.567330 0.082819 0.103799
0.586960 0.087392 0.107644
0.606590 0.091964 0.111489
0.626220 0.096537 0.115334
0.645850 0.101109 0.119179
0.664176 0.105613 0.122881
0.675986 0.109774 0.125863
0.687796 0.113935 0.128845
0.699607 0.118095 0.131827
0.711417 0.122256 0.134810
0.723227 0.126417 0.137792
0.083879 0.031447 0.077640
0.101371 0.031085 0.075402
0.118864 0.030724 0.073164
0.136356 0.030363 0.070925
0.153849 0.030001 0.068687
0.171341 0.029640 0.066449
0.192686 0.031520 0.066879
0.214801 0.033848 0.067842
0.236916 0.036176 0.068806
0.259032 0.038504 0.069770
0.281147 0.040833 0.070733
0.306762 0.044238 0.073041
0.334126 0.048182 0.076020
0.361491 0.052127 0.078999
0.388856 0.056071 0.081978
0.416220 0.060015 0.084957
0.443273 0.064446 0.088473
0.470014 0.069363 0.092526
0.496755 0.074280 0.096578
0.523496 0.079197 0.100631
0.550238 0.084114 0.104683
0.574526 0.088925 0.108642
0.593909 0.093525 0.112414
0.613292 0.098125 0.116186
0.632675 0.102725 0.119958
0.652058 0.107325 0.123730
0.670110 0.111834 0.127363
0.681509 0.115885 0.130300
0.692907 0.119936 0.133236
0.704306 0.123987 0.136173
0.715704 0.128038 0.139109
0.727102 0.132089 0.142046
0.083359 0.034424 0.081421
0.101739 0.034008 0.078954
0.120119 0.033592 0.076487
0.138498 0.033176 0.074020
0.156878 0.032759 0.071553
0.175258 0.032343 0.069087
0.196957 0.034374 0.069600
0.219319 0.036894 0.070710
0.241681 0.039415 0.071820
0.264043 0.041935 0.072930
0.286405 0.044455 0.074040
0.312347 0.048102 0.076530
0.340077 0.052311 0.079711
0.367808 0.056521 0.082891
0.395538 0.060730 0.086072
0.423269 0.064940 0.089252
0.450509 0.069604 0.092915
0.477260 0.074722 0.097059
0.504010 0.079841 0.101203
0.530760 0.084959 0.105347
0.557510 0.090077 0.109491
0.581722 0.095032 0.113486
0.600858 0.099659 0.117185
0.619994 0.104286 0.120884
0.639130 0.108914 0.124583
0.658267 0.113541 0.128282
0.676044 0.118054 0.131846
0.687031 0.121995 0.134737
0.698018 0.125937 0.137627
0.709005 0.129878 0.140518
0.719991 0.133819 0.143409
0.730978 0.137760 0.146300
0.081894 0.036496 0.084887
0.100147 0.036223 0.082435
0.118400 0.035950 0.079984
0.136654 0.035677 0.077532
0.154907 0.035404 0.075081
0.173160 0.035132 0.072629
0.196180 0.037372 0.073058
0.220154 0.040115 0.074062
0.244128 0.042858 0.075067
0.268102 0.045600 0.076072
0.292076 0.048343 0.077077
0.318630 0.052231 0.079661
0.346475 0.056690 0.083035
0.374320 0.061150 0.086409
0.402165 0.065610 0.089783
0.430010 0.070069 0.093157
0.457186 0.074940 0.096966
0.483694 0.080221 0.101209
0.510202 0.085503 0.105452
0.536710 0.090784 0.109695
0.563217 0.096065 0.113938
0.587181 0.101176 0.118014
0.606054 0.105945 0.121754
0.624928 0.110714 0.125494
0.643802 0.115484 0.129234
0.662676 0.120253 0.132974
0.680206 0.124905 0.136579
0.691017 0.128973 0.139507
0.701829 0.133041 0.142436
0.712640 0.137108 0.145365
0.723451 0.141176 0.148294
0.734263 0.145244 0.151223
0.080239 0.038387 0.088290
0.098163 0.038297 0.085903
0.116087 0.038207 0.083515
0.134011 0.038117 0.081127
0.151935 0.038027 0.078740
0.169859 0.037937 0.076352
0.194395 0.040398 0.076662
0.220253 0.043370 0.077511
0.246112 0.046341 0.078360
0.271970 0.049313 0.079210
0.297828 0.052285 0.080059
0.325054 0.056413 0.082719
0.352963 0.061119 0.086286
0.380872 0.065826 0.089852
0.408781 0.070533 0.093418
0.436689 0.075239 0.096984
0.463752 0.080311 0.100939
0.489967 0.085748 0.105283
0.516182 0.091185 0.109627
0.542397 0.096622 0.113970
0.568612 0.102059 0.118314
0.592291 0.107328 0.122478
0.610900 0.112262 0.126282
0.629508 0.117196 0.130086
0.648117 0.122130 0.133890
0.666725 0.127063 0.137694
0.684013 0.131882 0.141361
0.694696 0.136123 0.144345
0.705380 0.140365 0.147329
0.716063 0.144607 0.150313
0.726746 0.148848 0.153297
0.737430 0.153090 0.156280
0.078585 0.040277 0.091693
0.096180 0.040370 0.089370
0.113774 0.040463 0.087046
0.131369 0.040556 0.084722
0.148964 0.040649 0.082399
0.166558 0.040742 0.080075
0.192610 0.043425 0.080266
0.220352 0.046625 0.080960
0.248095 0.049825 0.081654
0.275838 0.053026 0.082347
0.303581 0.056226 0.083041
0.331477 0.060595 0.085778
0.359450 0.065549 0.089536
0.387423 0.070502 0.093294
0.415396 0.075456 0.097053
0.443369 0.080409 0.100811
0.470317 0.085683 0.104912
0.496239 0.091275 0.109357
0.522161 0.096867 0.113801
0.548084 0.102460 0.118246
0.574006 0.108052 0.122690
0.597402 0.113480 0.126942
0.615745 0.118579 0.130810
0.634088 0.123677 0.134678
0.652432 0.128776 0.138546
0.670775 0.133874 0.142414
0.687820 0.138859 0.146144
0.698375 0.143274 0.149183
0.708931 0.147690 0.152222
0.719486 0.152105 0.155260
0.730041 0.156520 0.158299
0.740596 0.160936 0.161338
0.076931 0.042168 0.095096
0.094196 0.042444 0.092837
0.111462 0.042720 0.090577
0.128727 0.042996 0.088318
0.145992 0.043272 0.086058
0.163257 0.043548 0.083799
0.190824 0.046451 0.083870
0.220452 0.049880 0.084409
0.250079 0.053309 0.084947
0.279706 0.056738 0.085485
0.309333 0.060167 0.086023
0.337900 0.064777 0.088836
0.365937 0.069978 0.092787
0.393975 0.075178 0.096737
0.422012 0.080379 0.100687
0.450049 0.085580 0.104638
0.476882 0.091054 0.108886
0.502512 0.096802 0.113431
0.528141 0.102550 0.117976
0.553771 0.108298 0.122521
0.579400 0.114046 0.127066
0.602513 0.119632 0.131406
0.620591 0.124895 0.135339
0.638669 0.130158 0.139271
0.656746 0.135422 0.143203
0.674824 0.140685 0.147135
0.691627 0.145836 0.150927
0.702054 0.150425 0.154021
0.712482 0.155014 0.157114
0.722909 0.159603 0.160208
0.733336 0.164193 0.163301
0.743763 0.168782 0.166395
0.075277 0.044058 0.098499
0.092213 0.044517 0.096304
0.109149 0.044976 0.094108
0.126085 0.045435 0.091913
0.143021 0.045894 0.089717
0.159956 0.046353 0.087522
0.189039 0.049478 0.087475
0.220551 0.053135 0.087857
0.252062 0.056793 0.088240
0.283574 0.060451 0.088623
0.315086 0.064108 0.089006
0.344324 0.068959 0.091895
0.372425 0.074407 0.096037
0.400526 0.079854 0.100180
0.428627 0.085302 0.104322
0.456728 0.090750 0.108465
0.483447 0.096425 0.112859
0.508784 0.102329 0.117505
0.534121 0.108232 0.122150
0.559458 0.114136 0.126796
0.584795 0.120039 0.131441
0.607623 0.125784 0.135871
0.625436 0.131212 0.139867
0.643249 0.136640 0.143863
0.661061 0.142068 0.147859
0.678874 0.147495 0.151855
0.695434 0.152812 0.155710
0.705733 0.157575 0.158858
0.716032 0.162339 0.162007
0.726332 0.167102 0.165155
0.736631 0.171865 0.168304
0.746930 0.176628 0.171452
0.073969 0.046611 0.102375
0.090496 0.047179 0.100256
0.107024 0.047748 0.098136
0.123551 0.048317 0.096017
0.140078 0.048886 0.093898
0.156606 0.049454 0.091779
0.186113 0.052742 0.091701
0.218216 0.056573 0.092032
0.250320 0.060405 0.092363
0.282423 0.064236 0.092694
0.314526 0.068068 0.093025
0.344870 0.073215 0.095935
0.374334 0.079019 0.100136
0.403798 0.084823 0.104336
0.433263 0.090628 0.108536
0.462727 0.096432 0.112737
0.489969 0.102397 0.117226
0.514988 0.108524 0.122002
0.540008 0.114650 0.126779
0.565028 0.120776 0.131556
0.590048 0.126902 0.136333
0.612560 0.132856 0.140887
0.630059 0.138467 0.144996
0.647557 0.144078 0.149105
0.665056 0.149688 0.153214
0.682554 0.155299 0.157323
0.698831 0.160793 0.161283
0.708996 0.165699 0.164498
0.719161 0.170605 0.167714
0.729326 0.175512 0.170929
0.739490 0.180418 0.174145
0.749655 0.185324 0.177360
0.072835 0.049494 0.106487
0.088914 0.050136 0.104450
0.104993 0.050778 0.102413
0.121072 0.051420 0.100376
0.137151 0.052061 0.098339
0.153230 0.052703 0.096302
0.182617 0.056125 0.096239
0.214665 0.060103 0.096569
0.246714 0.064081 0.096900
0.278762 0.068059 0.097231
0.310811 0.072037 0.097562
0.342478 0.077507 0.100466
0.373955 0.083723 0.104658
0.405431 0.089939 0.108849
0.436908 0.096155 0.113040
0.468385 0.102371 0.117232
0.496468 0.108670 0.121789
0.521159 0.115052 0.126712
0.545849 0.121434 0.131635
0.570539 0.127817 0.136558
0.595230 0.134199 0.141481
0.617410 0.140388 0.146179
0.634570 0.146191 0.150425
0.651730 0.151994 0.154671
0.668890 0.157797 0.158917
0.686050 0.163599 0.163164
0.702022 0.169274 0.167250
0.712050 0.174309 0.170539
0.722077 0.179343 0.173828
0.732105 0.184378 0.177116
0.742133 0.189412 0.180405
0.752160 0.194446 0.183694
0.071700 0.052377 0.110599
0.087331 0.053092 0.108644
0.102962 0.053807 0.106690
0.118593 0.054522 0.104735
0.134224 0.055237 0.102781
0.149855 0.055952 0.100826
0.179121 0.059508 0.100776
0.211115 0.063633 0.101107
0.243108 0.067757 0.101438
0.275102 0.071881 0.101768
0.307095 0.076005 0.102099
0.340086 0.081798 0.104998
0.373575 0.088426 0.109180
0.407064 0.095054 0.113362
0.440554 0.101682 0.117544
0.474043 0.108309 0.121726
0.502968 0.114942 0.126352
0.527329 0.121581 0.131422
0.551690 0.128219 0.136491
0.576051 0.134857 0.141561
0.600412 0.141496 0.146630
0.622260 0.147920 0.151471
0.639082 0.153915 0.155854
0.655903 0.159910 0.160238
0.672725 0.165905 0.164621
0.689547 0.171900 0.169005
0.705213 0.177756 0.173218
0.715103 0.182918 0.176580
0.724994 0.188081 0.179942
0.734884 0.193243 0.183303
0.744775 0.198406 0.186665
0.754665 0.203568 0.190027
0.070566 0.055260 0.114711
0.085749 0.056048 0.112839
0.100931 0.056837 0.110967
0.116114 0.057625 0.109094
0.131296 0.058413 0.107222
0.146479 0.059201 0.105350
0.175625 0.062892 0.105313
0.207564 0.067162 0.105644
0.239502 0.071433 0.105975
0.271441 0.075703 0.106306
0.303380 0.079974 0.106637
0.337694 0.086090 0.109529
0.373195 0.093130 0.113702
0.408697 0.100169 0.117875
0.444199 0.107208 0.122048
0.479701 0.114248 0.126221
0.509468 0.121215 0.130915
0.533499 0.128109 0.136131
0.557531 0.135004 0.141347
0.581563 0.141898 0.146563
0.605594 0.148793 0.151779
0.627110 0.155452 0.156763
0.643593 0.161639 0.161284
0.660076 0.167826 0.165804
0.676559 0.174013 0.170325
0.693043 0.180200 0.174846
0.708404 0.186238 0.179185
0.718157 0.191528 0.182620
0.727911 0.196819 0.186055
0.737664 0.202109 0.189490
0.747417 0.207400 0.192926
0.757170 0.212691 0.196361
0.069432 0.058143 0.118823
0.084166 0.059005 0.117033
0.098900 0.059866 0.115243
0.113635 0.060728 0.113453
0.128369 0.061589 0.111663
0.143103 0.062450 0.109873
0.172129 0.066275 0.109851
0.204013 0.070692 0.110182
0.235896 0.075109 0.110512
0.267780 0.079526 0.110843
0.299664 0.083943 0.111174
0.335301 0.090382 0.114060
0.372816 0.097833 0.118224
0.410330 0.105284 0.122388
0.447844 0.112735 0.126552
0.485359 0.120186 0.130716
0.515967 0.127487 0.135479
0.539670 0.134638 0.140841
0.563372 0.141789 0.146203
0.587074 0.148939 0.151566
0.610777 0.156090 0.156928
0.631960 0.162983 0.162055
0.648105 0.169363 0.166713
0.664249 0.175742 0.171371
0.680394 0.182121 0.176029
0.696539 0.188500 0.180687
0.711595 0.194719 0.185153
0.721211 0.200138 0.188661
0.730827 0.205557 0.192169
0.740443 0.210975 0.195678
0.750059 0.216394 0.199186
0.759675 0.221813 0.202694
0.068510 0.061475 0.123384
0.082897 0.062415 0.121663
0.097283 0.063354 0.119941
0.111670 0.064293 0.118220
0.126057 0.065232 0.116499
0.140444 0.066171 0.114777
0.169358 0.070093 0.114751
0.201178 0.074610 0.115064
0.232997 0.079128 0.115376
0.264817 0.083645 0.115689
0.296637 0.088163 0.116001
0.333046 0.094886 0.118900
0.371749 0.102712 0.123091
0.410453 0.110538 0.127282
0.449156 0.118364 0.131473
0.487860 0.126191 0.135665
0.519239 0.133892 0.140540
0.543294 0.141468 0.146099
0.567348 0.149044 0.151658
0.591403 0.156620 0.157217
0.615458 0.164196 0.162776
0.636769 0.171434 0.168075
0.652593 0.177996 0.172857
0.668418 0.184558 0.177638
0.684242 0.191120 0.182419
0.700067 0.197683 0.187201
0.714834 0.204078 0.191784
0.724312 0.209638 0.195380
0.733791 0.215199 0.198975
0.743270 0.220759 0.202570
0.752749 0.226320 0.206165
0.762228 0.231880 0.209760
0.067801 0.065257 0.128394
0.081941 0.066278 0.126728
0.096080 0.067300 0.125061
0.110220 0.068321 0.123395
0.124360 0.069343 0.121728
0.138500 0.070364 0.120062
0.167312 0.074345 0.120014
0.199058 0.078917 0.120290
0.230805 0.083490 0.120566
0.262551 0.088062 0.120842
0.294298 0.092635 0.121118
0.330926 0.099602 0.124047
0.369996 0.107767 0.128302
0.409065 0.115931 0.132558
0.448135 0.124096 0.136813
0.487204 0.132260 0.141068
0.519283 0.140428 0.146099
0.544372 0.148599 0.151905
0.569460 0.156769 0.157711
0.594548 0.164940 0.163517
0.619637 0.173111 0.169323
0.641536 0.180803 0.174823
0.657059 0.187539 0.179715
0.672582 0.194275 0.184606
0.688104 0.201011 0.189497
0.703627 0.207747 0.194388
0.718119 0.214313 0.199080
0.727461 0.220029 0.202776
0.736802 0.225745 0.206471
0.746144 0.231461 0.210167
0.755486 0.237177 0.213863
0.764827 0.242893 0.217559
0.067092 0.069038 0.133404
0.080985 0.070142 0.131793
0.094878 0.071245 0.130181
0.108770 0.072349 0.128570
0.122663 0.073453 0.126958
0.136556 0.074557 0.125346
0.165266 0.078597 0.125277
0.196939 0.083225 0.125517
0.228612 0.087852 0.125756
0.260286 0.092479 0.125995
0.291959 0.097107 0.126235
0.328807 0.104318 0.129194
0.368243 0.112821 0.133513
0.407678 0.121324 0.137833
0.447113 0.129827 0.142152
0.486549 0.138330 0.146472
0.519328 0.146964 0.151658
0.545450 0.155729 0.157711
0.571572 0.164495 0.163764
0.597694 0.173260 0.169816
0.623816 0.182025 0.175869
0.646304 0.190172 0.181572
0.661525 0.197082 0.186573
0.676745 0.203992 0.191573
0.691966 0.210901 0.196574
0.707187 0.217811 0.201575
0.721405 0.224548 0.206375
0.730609 0.230419 0.210172
0.739814 0.236291 0.213968
0.749018 0.242162 0.217765
0.758222 0.248034 0.221561
0.767427 0.253905 0.225357
0.066383 0.072819 0.138414
0.080029 0.074005 0.136858
0.093675 0.075191 0.135301
0.107320 0.076378 0.133744
0.120966 0.077564 0.132188
0.134612 0.078750 0.130631
0.163220 0.082849 0.130540
0.194820 0.087532 0.130743
0.226420 0.092214 0.130946
0.258020 0.096896 0.131149
0.289620 0.101578 0.131352
0.326688 0.109034 0.134341
0.366489 0.117875 0.138725
0.406291 0.126717 0.143108
0.446092 0.135558 0.147492
0.485893 0.144400 0.151875
0.519372 0.153500 0.157217
0.546528 0.162860 0.163517
0.573683 0.172220 0.169816
0.600839 0.181580 0.176116
0.627995 0.190940 0.182416
0.651072 0.199541 0.188320
0.665990 0.206625 0.193430
0.680909 0.213708 0.198541
0.695828 0.220792 0.203652
0.710747 0.227875 0.208762
0.724691 0.234783 0.213671
0.733758 0.240810 0.217568
0.742825 0.246837 0.221465
0.751892 0.252864 0.225362
0.760959 0.258891 0.229259
0.770026 0.264918 0.233156
0.065674 0.076600 0.143424
0.079073 0.077869 0.141923
0.092472 0.079137 0.140421
0.105870 0.080406 0.138919
0.119269 0.081674 0.137417
0.132668 0.082943 0.135915
0.161173 0.087102 0.135804
0.192700 0.091839 0.135970
0.224227 0.096576 0.136136
0.255754 0.101313 0.136302
0.287281 0.106050 0.136468
0.324569 0.113749 0.139489
0.364736 0.122929 0.143936
0.404903 0.132109 0.148384
0.445070 0.141289 0.152831
0.485238 0.150469 0.157278
0.519416 0.160037 0.162776
0.547605 0.169991 0.169323
0.575795 0.179946 0.175869
0.603984 0.189900 0.182416
0.632174 0.199855 0.188963
0.655839 0.208910 0.195068
0.670456 0.216168 0.200288
0.685073 0.223425 0.205509
0.699690 0.230682 0.210729
0.714307 0.237940 0.215950
0.727976 0.245018 0.220966
0.736906 0.251200 0.224964
0.745836 0.257383 0.228962
0.754766 0.263566 0.232959
0.763696 0.269748 0.236957
0.772626 0.275931 0.240955
0.064997 0.080586 0.148671
0.078219 0.081940 0.147218
0.091440 0.083294 0.145765
0.104662 0.084648 0.144312
0.117884 0.086002 0.142859
0.131106 0.087356 0.141406
0.159547 0.091582 0.141289
0.191031 0.096383 0.141440
0.222515 0.101185 0.141591
0.254000 0.105986 0.141742
0.285484 0.110787 0.141893
0.322988 0.118698 0.144947
0.363503 0.128165 0.149452
0.404018 0.137632 0.153958
0.444533 0.147098 0.158463
0.485048 0.156565 0.162968
0.519824 0.166539 0.168601
0.548861 0.177021 0.175362
0.577898 0.187503 0.182122
0.606936 0.197985 0.188882
0.635973 0.208467 0.195643
0.660141 0.218026 0.201979
0.674572 0.225738 0.207468
0.689003 0.233450 0.212957
0.703434 0.241161 0.218446
0.717865 0.248873 0.223934
0.731360 0.256350 0.229187
0.740178 0.262651 0.233258
0.748995 0.268953 0.237329
0.757812 0.275254 0.241399
0.766629 0.281556 0.245470
0.775446 0.287857 0.249541
0.064382 0.084982 0.154390
0.077568 0.086427 0.152973
0.090753 0.087872 0.151557
0.103938 0.089318 0.150140
0.117123 0.090763 0.148724
0.130309 0.092209 0.147308
0.158758 0.096519 0.147220
0.190261 0.101403 0.147399
0.221764 0.106286 0.147577
0.253266 0.111170 0.147755
0.284769 0.116053 0.147934
0.322487 0.124114 0.151027
0.363313 0.133764 0.155578
0.404139 0.143413 0.160130
0.444965 0.153063 0.164681
0.485791 0.162712 0.169232
0.520960 0.172975 0.174961
0.550473 0.183850 0.181867
0.579986 0.194726 0.188774
0.609499 0.205601 0.195681
0.639012 0.216477 0.202588
0.663512 0.226636 0.209217
0.677989 0.235363 0.215291
0.692466 0.244090 0.221365
0.706942 0.252817 0.227440
0.721419 0.261545 0.233514
0.734942 0.269875 0.239257
0.743695 0.276222 0.243346
0.752448 0.282569 0.247436
0.761201 0.288917 0.251525
0.769954 0.295264 0.255614
0.778707 0.301611 0.259703
0.063768 0.089377 0.160109
0.076916 0.090914 0.158729
0.090065 0.092451 0.157349
0.103214 0.093988 0.155969
0.116363 0.095525 0.154589
0.129511 0.097062 0.153210
0.157970 0.101456 0.153151
0.189491 0.106422 0.153357
0.221012 0.111388 0.153563
0.252533 0.116353 0.153769
0.284054 0.121319 0.153974
0.321985 0.129530 0.157108
0.363122 0.139362 0.161705
0.404259 0.149195 0.166301
0.445396 0.159027 0.170898
0.486533 0.168860 0.175495
0.522096 0.179410 0.181320
0.552084 0.190679 0.188373
0.582073 0.201948 0.195426
0.612062 0.213217 0.202479
0.642050 0.224486 0.209532
0.666883 0.235246 0.216454
0.681406 0.244988 0.223114
0.695928 0.254731 0.229774
0.710451 0.264473 0.236434
0.724973 0.274216 0.243093
0.738523 0.283400 0.249328
0.747212 0.289793 0.253435
0.755901 0.296186 0.257543
0.764590 0.302579 0.261650
0.773280 0.308972 0.265757
0.781969 0.315365 0.269865
0.063153 0.093773 0.165828
0.076265 0.095401 0.164484
0.089378 0.097030 0.163141
0.102490 0.098658 0.161798
0.115602 0.100286 0.160455
0.128714 0.101915 0.159112
0.157182 0.106393 0.159082
0.188721 0.111441 0.159315
0.220260 0.116489 0.159549
0.251799 0.121537 0.159782
0.283339 0.126585 0.160015
0.321484 0.134945 0.163188
0.362932 0.144961 0.167831
0.404380 0.154976 0.172473
0.445828 0.164992 0.177116
0.487276 0.175007 0.181758
0.523232 0.185846 0.187679
0.553696 0.197508 0.194879
0.584160 0.209170 0.202078
0.614625 0.220832 0.209278
0.645089 0.232495 0.216477
0.670254 0.243855 0.223692
0.684823 0.254613 0.230937
0.699391 0.265371 0.238182
0.713959 0.276129 0.245428
0.728527 0.286888 0.252673
0.742105 0.296926 0.259398
0.750730 0.303364 0.263524
0.759355 0.309803 0.267650
0.767980 0.316242 0.271775
0.776605 0.322680 0.275901
0.785230 0.329119 0.280027
0.062539 0.098168 0.171547
0.075614 0.099888 0.170240
0.088690 0.101608 0.168933
0.101765 0.103328 0.167627
0.114841 0.105048 0.166320
0.127916 0.106768 0.165014
0.156394 0.111330 0.165013
0.187951 0.116460 0.165274
0.219509 0.121591 0.165534
0.251066 0.126721 0.165795
0.282624 0.131852 0.166056
0.320982 0.140361 0.169268
0.362741 0.150559 0.173957
0.404500 0.160758 0.178645
0.446259 0.170956 0.183333
0.488018 0.181155 0.188022
0.524368 0.192282 0.194039
0.555308 0.204337 0.201385
0.586248 0.216393 0.208730
0.617188 0.228448 0.216076
0.648128 0.240504 0.223422
0.673625 0.252465 0.230930
0.688239 0.264239 0.238760
0.702853 0.276012 0.246591
0.717467 0.287786 0.254422
0.732081 0.299559 0.262252
0.745686 0.310451 0.269468
0.754247 0.316935 0.273613
0.762808 0.323420 0.277757
0.771369 0.329904 0.281901
0.779930 0.336389 0.286045
0.788491 0.342873 0.290189
0.061791 0.102454 0.177187
0.074872 0.104300 0.175961
0.087954 0.106147 0.174735
0.101035 0.107993 0.173509
0.114117 0.109839 0.172284
0.127199 0.111686 0.171058
0.155696 0.116342 0.171092
0.187276 0.121561 0.171379
0.218857 0.126780 0.171666
0.250437 0.131999 0.171952
0.282017 0.137218 0.172239
0.320594 0.145896 0.175493
0.362668 0.156303 0.180230
0.404743 0.166711 0.184967
0.446818 0.177118 0.189704
0.488892 0.187525 0.194441
0.525634 0.198953 0.200551
0.557044 0.211400 0.208034
0.588453 0.223848 0.215517
0.619863 0.236295 0.223000
0.651273 0.248742 0.230483
0.677109 0.261259 0.238245
0.691799 0.273913 0.246566
0.706489 0.286568 0.254886
0.721179 0.299223 0.263206
0.735870 0.311878 0.271526
0.749524 0.323564 0.279186
0.758003 0.330408 0.283550
0.766482 0.337252 0.287914
0.774960 0.344096 0.292277
0.783439 0.350941 0.296641
0.791918 0.357785 0.301004
0.060373 0.106188 0.182433
0.073674 0.108336 0.181509
0.086975 0.110484 0.180585
0.100276 0.112632 0.179661
0.113577 0.114781 0.178738
0.126878 0.116929 0.177814
0.155450 0.121735 0.177914
0.187076 0.127073 0.178219
0.218703 0.132411 0.178524
0.250329 0.137749 0.178829
0.281955 0.143087 0.179133
0.320772 0.152030 0.182436
0.363185 0.162776 0.187237
0.405598 0.173521 0.192038
0.448011 0.184267 0.196839
0.490424 0.195013 0.201641
0.527555 0.206802 0.207828
0.559404 0.219633 0.215403
0.591253 0.232465 0.222977
0.623101 0.245296 0.230552
0.654950 0.258128 0.238126
0.681156 0.270971 0.245953
