filter/Red and Blue/lut/Midnight 03_S.cube
# LUT by SparkleStock. Enhanced with VOXCOLOR algorithms.
LUT_3D_SIZE 8
DOMAIN_MIN 0.000000 0.000000 0.000000
DOMAIN_MAX 0.903226 0.903226 0.903226
0.039072 0.031258 0.019536
0.079720 0.030690 0.018024
0.133759 0.033471 0.016913
0.203947 0.039285 0.016519
0.290866 0.047911 0.016944
0.390689 0.060010 0.017701
0.486730 0.073528 0.021135
0.570341 0.088968 0.029714
0.039072 0.039198 0.033715
0.095088 0.048877 0.025177
0.170820 0.065532 0.022432
0.265793 0.084031 0.022319
0.375729 0.100249 0.022964
0.481406 0.110592 0.026501
0.562201 0.117963 0.034790
0.618417 0.126456 0.046497
0.039072 0.048076 0.047493
0.097082 0.062091 0.037943
0.188771 0.097286 0.031278
0.301919 0.134941 0.028637
0.423946 0.161318 0.030499
0.533716 0.170113 0.036092
0.607437 0.168951 0.048164
0.651416 0.167651 0.063769
0.039151 0.059073 0.062208
0.093404 0.072246 0.054060
0.190192 0.116431 0.044893
0.312746 0.168747 0.039585
0.444112 0.210235 0.041132
0.556272 0.221408 0.048725
0.628105 0.214574 0.063824
0.670086 0.206614 0.082985
0.039411 0.073181 0.078680
0.089822 0.081835 0.071831
0.179812 0.117847 0.063574
0.302182 0.171911 0.057408
0.443227 0.230129 0.056537
0.557381 0.250907 0.066563
0.630614 0.246101 0.083959
0.676572 0.239277 0.105507
0.040167 0.092087 0.096640
0.088529 0.097375 0.090962
0.171701 0.117475 0.084395
0.286021 0.153085 0.080070
0.422016 0.201185 0.081121
0.544952 0.244503 0.094221
0.624771 0.257969 0.111884
0.677352 0.264678 0.134091
0.041238 0.111781 0.115546
0.089381 0.116873 0.111527
0.170329 0.129763 0.105754
0.281976 0.154084 0.102519
0.416321 0.190984 0.105720
0.541087 0.235376 0.122015
0.623589 0.269227 0.147591
0.681350 0.293921 0.172932
0.042270 0.124259 0.136075
0.090797 0.130583 0.133336
0.171352 0.141715 0.128322
0.283184 0.162087 0.126125
0.419166 0.194389 0.131263
0.546908 0.239049 0.150937
0.631076 0.284513 0.183536
0.688769 0.323477 0.216915
0.039072 0.041656 0.051109
0.090844 0.038308 0.033057
0.158495 0.040174 0.035416
0.244905 0.046573 0.045329
0.348675 0.057083 0.052981
0.454206 0.072988 0.053152
0.541076 0.094215 0.051366
0.608415 0.117272 0.053718
0.039365 0.057061 0.062068
0.087468 0.078576 0.075518
0.176236 0.098179 0.088203
0.292615 0.116130 0.098377
0.421937 0.132264 0.104521
0.535363 0.144147 0.103960
0.611669 0.153749 0.098700
0.656335 0.163556 0.092801
0.040383 0.071019 0.077913
0.085891 0.105709 0.099581
0.189648 0.150634 0.112159
0.324223 0.190969 0.120282
0.465012 0.216728 0.126698
0.582322 0.226722 0.128131
0.654860 0.225445 0.125388
0.691634 0.221179 0.121403
0.041413 0.085077 0.096019
0.082777 0.122127 0.115927
0.189360 0.183511 0.124256
0.331775 0.244872 0.128696
0.482365 0.287964 0.134291
0.602208 0.301592 0.139368
0.675573 0.294743 0.142169
0.714611 0.282160 0.145075
0.042058 0.100522 0.114741
0.076690 0.131083 0.132534
0.172201 0.189679 0.136976
0.312945 0.260199 0.136907
0.476418 0.325628 0.139204
0.601370 0.351680 0.148399
0.678850 0.349028 0.157543
0.726225 0.339223 0.168414
0.042814 0.118842 0.135336
0.072111 0.139805 0.152374
0.153745 0.178343 0.153930
0.280235 0.231986 0.150225
0.437609 0.295371 0.149784
0.582789 0.349857 0.161259
0.669802 0.370802 0.176866
0.728115 0.381706 0.195436
0.043763 0.139536 0.158340
0.072670 0.157848 0.177849
0.145797 0.180514 0.178697
0.260782 0.213916 0.173108
0.408966 0.261285 0.171254
0.557788 0.318770 0.183338
0.657245 0.368386 0.206614
0.725747 0.405317 0.231879
0.045204 0.156185 0.186193
0.076053 0.174766 0.206010
0.146154 0.191628 0.208353
0.255629 0.214877 0.204376
0.398299 0.250392 0.203565
0.545872 0.302220 0.216327
0.650323 0.360969 0.244062
0.721522 0.412128 0.277314
0.039340 0.056072 0.084288
0.081189 0.052223 0.066182
0.164098 0.052151 0.059708
0.269081 0.057787 0.066959
0.381019 0.070156 0.084353
0.491014 0.088934 0.085182
0.573774 0.114862 0.078210
0.634031 0.144249 0.075925
0.039925 0.074587 0.096071
0.079697 0.097057 0.119580
0.176599 0.114630 0.139612
0.305919 0.130993 0.157975
0.444700 0.148100 0.173396
0.562542 0.162515 0.170543
0.637871 0.176747 0.154337
0.679862 0.192551 0.135305
0.041448 0.093604 0.112960
0.081132 0.131518 0.149098
0.181117 0.177958 0.184180
0.319653 0.218393 0.210994
0.473660 0.243813 0.224810
0.601506 0.257357 0.224394
0.680346 0.261967 0.211051
0.720340 0.263249 0.191908
0.043352 0.112486 0.133463
0.081033 0.155052 0.167934
0.175111 0.223097 0.206440
0.314999 0.288692 0.234876
0.482094 0.332616 0.246014
0.618294 0.351673 0.251032
0.704146 0.352502 0.246270
0.751404 0.344912 0.236301
0.045223 0.131171 0.156418
0.077196 0.168872 0.186264
0.158491 0.238942 0.218486
0.295243 0.319387 0.240285
0.475940 0.390459 0.246699
0.619814 0.424849 0.257150
0.712019 0.431676 0.262022
0.770345 0.426341 0.264605
0.046912 0.151809 0.181722
0.074036 0.179939 0.209368
0.138509 0.231385 0.235065
0.256749 0.297714 0.248607
0.428694 0.370973 0.247954
0.600388 0.440973 0.259170
0.704163 0.473392 0.273836
0.775074 0.489037 0.288736
0.048845 0.173900 0.209861
0.076574 0.200309 0.240067
0.130935 0.235655 0.263335
0.233576 0.279917 0.272183
0.390781 0.334288 0.266768
0.564278 0.408089 0.274814
0.685369 0.473062 0.294803
0.769498 0.518112 0.317672
0.051947 0.193550 0.242442
0.082601 0.221640 0.274673
0.133586 0.250717 0.298783
0.228326 0.282448 0.307889
0.375412 0.320733 0.302290
0.542170 0.382868 0.308029
0.668281 0.454517 0.328708
0.756094 0.513901 0.356816
0.040033 0.072929 0.120336
0.066587 0.071289 0.108840
0.144231 0.070840 0.095257
0.259957 0.075709 0.090955
0.396125 0.088652 0.100432
0.508364 0.110833 0.107006
0.590695 0.139311 0.099640
0.650041 0.172490 0.097133
0.040789 0.092396 0.134667
0.072423 0.112116 0.160037
0.160744 0.126737 0.181528
0.292138 0.140889 0.200008
0.446496 0.157613 0.214522
0.568226 0.176357 0.215119
0.645454 0.196274 0.194438
0.690794 0.219209 0.170813
0.042829 0.116053 0.153665
0.078182 0.148622 0.192232
0.162951 0.190633 0.240767
0.295115 0.227747 0.279485
0.461147 0.251784 0.296629
0.599173 0.270401 0.299201
0.686102 0.283342 0.281755
0.734885 0.294418 0.256786
0.045889 0.140745 0.176883
0.082339 0.178909 0.216021
0.157850 0.242968 0.275922
0.283785 0.305866 0.325335
0.455380 0.349528 0.346239
0.610056 0.374383 0.354153
0.711803 0.385448 0.347021
0.773064 0.388360 0.331294
0.049608 0.164590 0.203927
0.084194 0.202291 0.239701
0.149917 0.271185 0.293284
0.266955 0.352024 0.340313
0.437752 0.426810 0.366008
0.607616 0.468050 0.378474
0.722654 0.485933 0.381987
0.798625 0.489142 0.379100
0.053102 0.189290 0.235219
0.085304 0.220828 0.268302
0.136054 0.276166 0.313030
0.234008 0.347538 0.349352
0.393041 0.427580 0.366289
0.591866 0.507225 0.376905
0.719089 0.549167 0.390775
0.807270 0.569177 0.401978
0.057166 0.215169 0.269805
0.091477 0.247128 0.305051
0.134587 0.290691 0.346044
0.217439 0.343478 0.375535
0.358658 0.405392 0.384765
0.554504 0.487613 0.388084
0.699458 0.561303 0.403910
0.801686 0.609417 0.422630
0.063078 0.238313 0.307219
0.100962 0.273529 0.345581
0.142522 0.312789 0.386367
0.217928 0.354174 0.413903
0.346475 0.399268 0.420341
0.530171 0.465824 0.418734
0.678000 0.544174 0.431378
0.783473 0.605584 0.451563
0.041167 0.091079 0.160038
0.057951 0.094159 0.155110
0.103081 0.096629 0.144610
0.212041 0.101944 0.126425
0.386865 0.113664 0.105300
0.511619 0.139889 0.116412
0.597759 0.169757 0.115169
0.659371 0.203806 0.118517
0.042052 0.111186 0.177260
0.066564 0.129635 0.200133
0.126685 0.143430 0.219222
0.245406 0.155636 0.228270
0.420171 0.169689 0.226388
0.556639 0.193496 0.231154
0.639781 0.219153 0.214599
0.691977 0.247971 0.197698
0.045036 0.138788 0.200535
0.074622 0.164826 0.234453
0.137487 0.199234 0.280630
0.255453 0.230013 0.316072
0.428431 0.251193 0.328517
0.580811 0.274519 0.334680
0.675509 0.295746 0.321091
0.734928 0.317475 0.303072
0.049781 0.169624 0.227855
0.083221 0.200621 0.265251
0.144284 0.251984 0.325103
0.251531 0.304999 0.380446
0.409683 0.346708 0.413332
0.583025 0.375275 0.423809
0.699245 0.395721 0.420093
0.775760 0.411256 0.408925
0.055816 0.200507 0.258304
0.092586 0.236367 0.297711
0.151673 0.292607 0.353252
0.240869 0.363279 0.417233
0.369265 0.437955 0.477143
0.567034 0.481475 0.490939
0.708446 0.508218 0.496124
0.805121 0.521638 0.492497
0.062092 0.230274 0.295451
0.099749 0.264718 0.333130
0.150807 0.314596 0.379816
0.225823 0.382124 0.433821
0.340786 0.464826 0.487097
0.554670 0.543040 0.499878
0.708049 0.588975 0.513259
0.816688 0.612563 0.521097
0.069440 0.263035 0.337553
0.110625 0.299588 0.376660
0.159393 0.343298 0.419123
0.223996 0.398979 0.465224
0.321509 0.468485 0.508693
0.524819 0.546332 0.511626
0.692416 0.618674 0.523349
0.813656 0.664725 0.536624
0.079133 0.291245 0.381330
0.124379 0.331363 0.422099
0.174982 0.373848 0.463449
0.235018 0.421997 0.505458
0.319743 0.477553 0.542239
0.506476 0.539000 0.538329
0.673150 0.614235 0.543659
0.795871 0.670513 0.554854
0.042302 0.110552 0.203710
0.055719 0.118608 0.206247
0.085353 0.127611 0.203626
0.151194 0.136499 0.190077
0.273217 0.146884 0.162731
0.499111 0.172669 0.125102
0.603083 0.204781 0.128787
0.665786 0.238916 0.143674
0.044211 0.132708 0.225617
0.065130 0.152620 0.247682
0.103748 0.169435 0.262446
0.178899 0.183448 0.265844
0.307844 0.196393 0.254201
0.526755 0.216814 0.219179
0.629902 0.247907 0.214048
0.690272 0.281660 0.217454
0.048945 0.163396 0.253782
0.075032 0.188188 0.283918
0.117419 0.217844 0.318919
0.197140 0.244331 0.343338
0.330851 0.263676 0.346273
0.542401 0.283720 0.322161
0.655303 0.313213 0.321504
0.725778 0.344335 0.326285
0.055983 0.200184 0.287786
0.087096 0.227744 0.321126
0.131975 0.267296 0.368017
0.209001 0.308621 0.411039
0.334785 0.344159 0.436074
0.542377 0.370190 0.427769
0.673914 0.400027 0.436177
0.762816 0.427836 0.445677
0.064928 0.240106 0.326268
0.102146 0.271622 0.362483
0.150795 0.314010 0.407912
0.219053 0.367658 0.461601
0.322362 0.428002 0.515462
0.524975 0.468747 0.526779
0.680380 0.503069 0.542355
0.792037 0.528542 0.553121
0.076033 0.276606 0.364147
0.118899 0.312938 0.402373
0.171743 0.357925 0.446219
0.240788 0.412755 0.495115
0.335466 0.477712 0.546649
0.491076 0.552017 0.589813
0.662660 0.598448 0.607919
0.795980 0.626001 0.614876
0.087967 0.316100 0.412591
0.134870 0.354824 0.450980
0.189855 0.397659 0.490863
0.256679 0.446886 0.532310
0.342060 0.505008 0.574790
0.473933 0.579323 0.615188
0.652678 0.643285 0.627813
0.794808 0.684293 0.634394
0.102039 0.350804 0.461930
0.153338 0.392495 0.499715
0.212312 0.435612 0.536864
0.279861 0.481435 0.573206
0.359584 0.531626 0.608312
0.471462 0.591633 0.640111
0.641874 0.654246 0.643908
0.781232 0.700001 0.645624
0.043121 0.130340 0.247855
0.055367 0.143861 0.259687
0.078525 0.159537 0.268244
0.123906 0.175659 0.267298
0.206681 0.191614 0.251463
0.377467 0.210740 0.211322
0.561559 0.242535 0.179561
0.672878 0.275652 0.177364
0.047518 0.156253 0.277251
0.069212 0.180950 0.304871
0.097587 0.202956 0.322872
0.147755 0.223152 0.330189
0.236209 0.242178 0.323754
0.406056 0.259887 0.286955
0.584129 0.287134 0.248516
0.692394 0.320237 0.242421
0.055207 0.191389 0.312768
0.082463 0.219750 0.345535
0.115855 0.250079 0.376801
0.171532 0.278552 0.397738
0.265451 0.302673 0.400854
0.433419 0.322454 0.374392
0.607955 0.347411 0.341331
0.719058 0.379492 0.339687
0.065687 0.233672 0.353587
0.097958 0.263240 0.387334
0.136711 0.299341 0.426451
0.194746 0.336904 0.460373
0.286775 0.371468 0.479511
0.453950 0.397076 0.467758
0.628593 0.423232 0.448365
0.747523 0.454025 0.454321
0.078425 0.280421 0.398241
0.117312 0.312354 0.433165
0.162294 0.349729 0.470484
0.218992 0.394218 0.511886
0.300204 0.443666 0.552770
0.462811 0.480064 0.559661
0.640710 0.511547 0.557844
0.771298 0.541373 0.569710
0.092897 0.325606 0.442462
0.139263 0.361788 0.477849
0.192387 0.401984 0.514296
0.255694 0.447243 0.552511
0.334800 0.498421 0.592386
0.451971 0.557615 0.630841
0.629487 0.598264 0.641374
0.773415 0.627901 0.650163
0.109580 0.371243 0.488732
0.163704 0.411879 0.524258
0.224379 0.452886 0.558424
0.293123 0.496056 0.592084
0.372485 0.543346 0.626181
0.473530 0.599748 0.662798
0.621876 0.652364 0.682371
0.757441 0.689218 0.692448
0.129443 0.412402 0.536452
0.188901 0.455267 0.569509
0.255876 0.497307 0.600842
0.329796 0.539255 0.630672
0.410467 0.582070 0.659469
0.500654 0.628510 0.688811
0.620794 0.678135 0.707645
0.742015 0.715239 0.713390
0.046540 0.153161 0.295065
0.057737 0.171213 0.316319
0.078153 0.193122 0.335689
0.113827 0.217103 0.348221
0.173345 0.241270 0.348613
0.287426 0.262006 0.323450
0.483082 0.290461 0.278350
0.637326 0.319529 0.249389
0.053163 0.182300 0.332828
0.076433 0.210371 0.364766
0.101210 0.238404 0.389353
0.139047 0.266596 0.405985
0.202159 0.294338 0.411853
0.320278 0.317203 0.390660
0.511043 0.342744 0.343727
0.660336 0.371121 0.314226
0.064110 0.222183 0.376673
0.094076 0.253916 0.411922
0.125873 0.286918 0.443533
0.169994 0.320252 0.466907
0.237862 0.352445 0.477385
0.358579 0.378519 0.463645
0.541911 0.403549 0.423107
0.686704 0.431304 0.397918
0.078348 0.270068 0.424098
0.113508 0.302702 0.459066
0.153040 0.338575 0.493899
0.203547 0.376544 0.523449
0.274305 0.414513 0.542326
0.396899 0.445012 0.537714
0.571734 0.471701 0.510092
0.713282 0.499018 0.493326
0.094877 0.322855 0.472698
0.136487 0.356433 0.506511
0.183471 0.392985 0.538311
0.238652 0.433848 0.570807
0.309348 0.477962 0.601909
0.429996 0.514567 0.608309
0.595921 0.544645 0.597394
0.735953 0.571717 0.591127
0.112661 0.374894 0.518993
0.162505 0.411103 0.550969
0.218689 0.448910 0.580518
0.282173 0.489204 0.609537
0.355116 0.532570 0.639034
0.448332 0.579524 0.667262
0.602639 0.613524 0.668869
0.742761 0.640183 0.666946
0.133967 0.424403 0.560683
0.193343 0.464670 0.591338
0.259141 0.504037 0.619064
0.331120 0.543386 0.645381
0.409136 0.583476 0.671534
0.494738 0.625318 0.698532
0.606891 0.664847 0.716183
0.727334 0.694635 0.720632
0.160096 0.471199 0.600947
0.225982 0.511953 0.628254
0.299303 0.551560 0.653774
0.378188 0.589711 0.678005
0.460442 0.626287 0.701322
0.541766 0.661459 0.723679
0.622506 0.698214 0.746231
0.718625 0.726900 0.752688
