filter/Red and Blue/lut/Midnight 04.cube
# LUT by SparkleStock. Enhanced with VOXCOLOR algorithms.
LUT_3D_SIZE 5
DOMAIN_MIN 0.000000 0.000000 0.000000
DOMAIN_MAX 0.903226 0.903226 0.903226
0.085958 0.019536 0.062515
0.196731 0.021663 0.056371
0.362125 0.037434 0.065603
0.545740 0.064500 0.089267
0.672464 0.095931 0.115672
0.080239 0.038387 0.088290
0.220253 0.043370 0.077511
0.408781 0.070533 0.093418
0.592291 0.107328 0.122478
0.705380 0.140365 0.147329
0.070566 0.055260 0.114711
0.207564 0.067162 0.105644
0.444199 0.107208 0.122048
0.627110 0.155452 0.156763
0.727911 0.196819 0.186055
0.064997 0.080586 0.148671
0.191031 0.096383 0.141440
0.444533 0.147098 0.158463
0.660141 0.218026 0.201979
0.748995 0.268953 0.237329
0.058955 0.109922 0.187680
0.186877 0.132585 0.185058
0.449205 0.191416 0.203975
0.685202 0.280683 0.253660
0.776032 0.367075 0.308728
0.074095 0.040041 0.120651
0.208866 0.043875 0.084780
0.406670 0.068125 0.089630
0.589382 0.104265 0.118680
0.704439 0.141513 0.146887
0.068156 0.073048 0.144065
0.125723 0.094891 0.159860
0.352797 0.126485 0.158057
0.604659 0.173532 0.178369
0.727685 0.211952 0.200437
0.064341 0.106808 0.183850
0.119501 0.138021 0.211470
0.361111 0.182455 0.214661
0.629275 0.241005 0.233309
0.751823 0.289240 0.258562
0.061252 0.142499 0.229373
0.117175 0.184179 0.268040
0.358397 0.237429 0.273228
0.670385 0.316090 0.289922
0.778259 0.377403 0.323429
0.061016 0.184362 0.287124
0.122981 0.242800 0.337390
0.362832 0.312829 0.354802
0.680409 0.407982 0.376915
0.806894 0.486077 0.408154
0.067935 0.070212 0.190114
0.137766 0.076659 0.165584
0.413022 0.104770 0.129441
0.625901 0.153390 0.153250
0.726879 0.195319 0.184737
0.064209 0.111964 0.223300
0.106720 0.146140 0.248891
0.332395 0.180865 0.223477
0.617583 0.238918 0.233160
0.748697 0.287578 0.257114
0.063065 0.171032 0.275113
0.100232 0.223424 0.326271
0.220671 0.285460 0.358443
0.555766 0.351053 0.358017
0.761289 0.403795 0.360398
0.066475 0.227084 0.340755
0.110697 0.293186 0.401517
0.215759 0.369927 0.452923
0.591759 0.447746 0.446766
0.788341 0.504523 0.446112
0.070772 0.288435 0.418103
0.128914 0.373598 0.484107
0.249344 0.458049 0.536506
0.619579 0.548223 0.546231
0.819999 0.602265 0.536581
0.067541 0.106739 0.276655
0.092394 0.124823 0.282958
0.221911 0.153210 0.254071
0.640280 0.214351 0.204115
0.748786 0.268475 0.237168
0.068157 0.157847 0.329269
0.101908 0.207872 0.370105
0.229813 0.256774 0.361110
0.636832 0.315062 0.298550
0.772842 0.376585 0.323391
0.070965 0.241389 0.394627
0.115952 0.304882 0.448083
0.197411 0.381253 0.492810
0.564071 0.448745 0.455829
0.783876 0.505388 0.448340
0.079942 0.338653 0.469670
0.144179 0.413132 0.522850
0.233699 0.491542 0.576089
0.375497 0.569409 0.622315
0.752896 0.624303 0.592900
0.093917 0.422974 0.551154
0.175789 0.501258 0.598790
0.291826 0.576367 0.645443
0.452999 0.647500 0.688852
0.786313 0.695843 0.664253
0.071543 0.143747 0.374926
0.092980 0.181171 0.410931
0.151021 0.236276 0.427766
0.378175 0.311551 0.402089
0.728343 0.377248 0.341740
0.078712 0.212092 0.443447
0.115460 0.278963 0.496193
0.188499 0.357958 0.525386
0.432099 0.446373 0.514917
0.764880 0.502192 0.447530
0.086824 0.319810 0.519640
0.143363 0.391021 0.566620
0.229809 0.474556 0.608212
0.471737 0.564304 0.615750
0.787124 0.612175 0.562594
0.101056 0.444474 0.588697
0.183316 0.509929 0.626135
0.297695 0.578983 0.663536
0.448051 0.647073 0.700788
0.768122 0.698572 0.673367
0.124126 0.543150 0.643002
0.233405 0.599589 0.673804
0.380315 0.655500 0.708329
0.537553 0.710481 0.745139
0.720552 0.753751 0.754364
