filter/Red and Blue/lut/Midnight 03.cube
# LUT by SparkleStock. Enhanced with VOXCOLOR algorithms.
LUT_3D_SIZE 32
0.039072 0.031258 0.019536
0.049139 0.031116 0.019158
0.059207 0.030974 0.018780
0.069274 0.030832 0.018402
0.079341 0.030690 0.018024
0.089409 0.030549 0.017645
0.102903 0.031431 0.017385
0.117082 0.032518 0.017149
0.131262 0.033605 0.016913
0.145441 0.034692 0.016677
0.159620 0.035779 0.016440
0.177644 0.037497 0.016424
0.197590 0.039529 0.016519
0.217535 0.041561 0.016613
0.237481 0.043594 0.016708
0.257426 0.045626 0.016803
0.279901 0.048131 0.016944
0.304904 0.051109 0.017133
0.329907 0.054086 0.017322
0.354910 0.057064 0.017512
0.379913 0.060042 0.017701
0.405057 0.063177 0.018157
0.430486 0.066627 0.019150
0.455914 0.070078 0.020143
0.481342 0.073528 0.021135
0.506771 0.076978 0.022128
0.531112 0.080555 0.023475
0.550018 0.084761 0.026594
0.568924 0.088968 0.029714
0.587829 0.093174 0.032833
0.606735 0.097381 0.035953
0.625641 0.101587 0.039072
0.039072 0.033243 0.023081
0.049734 0.033119 0.022337
0.060396 0.032996 0.021593
0.071058 0.032872 0.020849
0.081720 0.032749 0.020105
0.092382 0.032625 0.019361
0.106303 0.033686 0.019185
0.120876 0.034983 0.019122
0.135448 0.036281 0.019060
0.150021 0.037578 0.018997
0.164594 0.038876 0.018935
0.183072 0.040858 0.019056
0.203502 0.043184 0.019269
0.223933 0.045509 0.019483
0.244363 0.047834 0.019696
0.264794 0.050159 0.019910
0.287680 0.052961 0.020193
0.313021 0.056241 0.020547
0.338362 0.059520 0.020901
0.363704 0.062800 0.021255
0.389045 0.066079 0.021608
0.414403 0.069504 0.022236
0.439795 0.073220 0.023411
0.465187 0.076936 0.024587
0.490579 0.080651 0.025762
0.515970 0.084367 0.026938
0.540162 0.088173 0.028421
0.558355 0.092435 0.031440
0.576547 0.096696 0.034458
0.594739 0.100958 0.037477
0.612931 0.105219 0.040496
0.631124 0.109480 0.043515
0.039072 0.035228 0.026626
0.050329 0.035123 0.025516
0.061585 0.035017 0.024406
0.072842 0.034912 0.023296
0.084098 0.034807 0.022186
0.095355 0.034702 0.021076
0.109703 0.035941 0.020984
0.124669 0.037449 0.021095
0.139635 0.038957 0.021206
0.154601 0.040465 0.021318
0.169567 0.041972 0.021429
0.188499 0.044220 0.021688
0.209415 0.046838 0.022020
0.230330 0.049456 0.022352
0.251245 0.052074 0.022685
0.272161 0.054692 0.023017
0.295458 0.057791 0.023442
0.321138 0.061373 0.023961
0.346818 0.064954 0.024479
0.372498 0.068536 0.024998
0.398178 0.072117 0.025516
0.423750 0.075832 0.026314
0.449105 0.079813 0.027673
0.474460 0.083793 0.029031
0.499815 0.087774 0.030390
0.525170 0.091755 0.031748
0.549213 0.095792 0.033367
0.566691 0.100108 0.036285
0.584170 0.104425 0.039203
0.601649 0.108741 0.042121
0.619128 0.113057 0.045040
0.636606 0.117374 0.047958
0.039072 0.037213 0.030171
0.050923 0.037126 0.028695
0.062774 0.037039 0.027219
0.074626 0.036952 0.025743
0.086477 0.036865 0.024267
0.098328 0.036778 0.022791
0.113103 0.038196 0.022783
0.128462 0.039914 0.023068
0.143822 0.041632 0.023353
0.159181 0.043351 0.023638
0.174541 0.045069 0.023923
0.193927 0.047582 0.024319
0.215327 0.050493 0.024770
0.236728 0.053403 0.025222
0.258128 0.056314 0.025673
0.279528 0.059225 0.026124
0.303237 0.062621 0.026692
0.329256 0.066505 0.027375
0.355274 0.070388 0.028058
0.381292 0.074271 0.028741
0.407311 0.078155 0.029424
0.433096 0.082159 0.030393
0.458414 0.086405 0.031934
0.483733 0.090651 0.033476
0.509052 0.094898 0.035017
0.534370 0.099144 0.036559
0.558263 0.103411 0.038313
0.575028 0.107782 0.041130
0.591793 0.112153 0.043948
0.608559 0.116524 0.046765
0.625324 0.120896 0.049583
0.642089 0.125267 0.052401
0.039072 0.039198 0.033715
0.051518 0.039129 0.031874
0.063964 0.039061 0.030032
0.076410 0.038992 0.028190
0.088855 0.038924 0.026348
0.101301 0.038855 0.024506
0.116503 0.040451 0.024582
0.132256 0.042380 0.025041
0.148008 0.044308 0.025500
0.163761 0.046237 0.025959
0.179514 0.048166 0.026418
0.199355 0.050944 0.026951
0.221240 0.054147 0.027521
0.243125 0.057351 0.028091
0.265010 0.060554 0.028661
0.286895 0.063757 0.029232
0.311016 0.067452 0.029941
0.337373 0.071637 0.030788
0.363730 0.075822 0.031636
0.390087 0.080007 0.032484
0.416443 0.084192 0.033331
0.442442 0.088486 0.034471
0.467724 0.092998 0.036196
0.493006 0.097509 0.037920
0.518288 0.102021 0.039645
0.543570 0.106532 0.041369
0.567314 0.111030 0.043259
0.583365 0.115456 0.045976
0.599417 0.119882 0.048693
0.615468 0.124308 0.051410
0.631520 0.128734 0.054127
0.647572 0.133160 0.056844
0.039072 0.041183 0.037260
0.052112 0.041133 0.035053
0.065153 0.041083 0.032845
0.078193 0.041032 0.030637
0.091234 0.040982 0.028429
0.104274 0.040932 0.026222
0.119903 0.042706 0.026381
0.136049 0.044845 0.027014
0.152195 0.046984 0.027646
0.168341 0.049123 0.028279
0.184488 0.051262 0.028912
0.204783 0.054306 0.029582
0.227153 0.057802 0.030271
0.249523 0.061298 0.030961
0.271892 0.064794 0.031650
0.294262 0.068290 0.032339
0.318795 0.072282 0.033190
0.345490 0.076769 0.034202
0.372186 0.081256 0.035214
0.398881 0.085743 0.036227
0.425576 0.090230 0.037239
0.451788 0.094814 0.038550
0.477034 0.099591 0.040457
0.502279 0.104367 0.042365
0.527524 0.109144 0.044272
0.552770 0.113921 0.046179
0.576364 0.118648 0.048205
0.591702 0.123129 0.050821
0.607040 0.127610 0.053437
0.622378 0.132091 0.056054
0.637716 0.136572 0.058670
0.653054 0.141053 0.061286
0.039072 0.043405 0.040687
0.052090 0.043418 0.038510
0.065107 0.043432 0.036332
0.078125 0.043446 0.034155
0.091142 0.043460 0.031978
0.104160 0.043473 0.029801
0.120652 0.045351 0.029735
0.137840 0.047601 0.030092
0.155028 0.049852 0.030449
0.172215 0.052102 0.030806
0.189403 0.054352 0.031162
0.210211 0.057628 0.031871
0.232829 0.061417 0.032755
0.255447 0.065206 0.033639
0.278066 0.068995 0.034524
0.300684 0.072784 0.035408
0.325377 0.077034 0.036435
0.352144 0.081747 0.037604
0.378911 0.086460 0.038774
0.405678 0.091173 0.039943
0.432445 0.095885 0.041113
0.458654 0.100690 0.042579
0.483749 0.105679 0.044639
0.508843 0.110667 0.046698
0.533938 0.115656 0.048758
0.559032 0.120645 0.050818
0.582459 0.125578 0.052983
0.597549 0.130236 0.055674
0.612638 0.134894 0.058365
0.627728 0.139552 0.061056
0.642817 0.144210 0.063747
0.657907 0.148868 0.066438
0.039072 0.045673 0.044090
0.051943 0.045760 0.042023
0.064814 0.045847 0.039955
0.077686 0.045934 0.037888
0.090557 0.046021 0.035820
0.103428 0.046108 0.033753
0.120872 0.048074 0.033401
0.139230 0.050416 0.033391
0.157589 0.052758 0.033382
0.175947 0.055100 0.033373
0.194306 0.057441 0.033364
0.215638 0.060943 0.034091
0.238458 0.065025 0.035185
0.261278 0.069106 0.036280
0.284097 0.073188 0.037375
0.306917 0.077269 0.038470
0.331719 0.081772 0.039679
0.358505 0.086695 0.041004
0.385290 0.091618 0.042329
0.412075 0.096541 0.043654
0.438861 0.101464 0.044979
0.465024 0.106476 0.046598
0.489945 0.111666 0.048804
0.514866 0.116856 0.051010
0.539786 0.122046 0.053216
0.564707 0.127236 0.055423
0.587963 0.132371 0.057728
0.602897 0.137230 0.060529
0.617831 0.142089 0.063329
0.632765 0.146948 0.066130
0.647699 0.151807 0.068931
0.662633 0.156666 0.071732
0.039072 0.047942 0.047493
0.051797 0.048102 0.045535
0.064522 0.048262 0.043578
0.077247 0.048422 0.041620
0.089971 0.048582 0.039662
0.102696 0.048742 0.037705
0.121092 0.050797 0.037066
0.140621 0.053230 0.036691
0.160150 0.055664 0.036316
0.179680 0.058097 0.035941
0.199209 0.060530 0.035566
0.221066 0.064258 0.036311
0.244087 0.068632 0.037616
0.267108 0.073006 0.038921
0.290129 0.077380 0.040226
0.313150 0.081755 0.041531
0.338062 0.086509 0.042924
0.364866 0.091642 0.044404
0.391669 0.096776 0.045885
0.418473 0.101909 0.047365
0.445276 0.107043 0.048846
0.471394 0.112262 0.050617
0.496141 0.117653 0.052969
0.520888 0.123045 0.055322
0.545635 0.128436 0.057674
0.570382 0.133827 0.060027
0.593467 0.139163 0.062473
0.608246 0.144223 0.065383
0.623024 0.149284 0.068294
0.637803 0.154344 0.071204
0.652581 0.159405 0.074115
0.667360 0.164465 0.077025
0.039072 0.050211 0.050896
0.051651 0.050444 0.049048
0.064229 0.050677 0.047200
0.076807 0.050911 0.045352
0.089386 0.051144 0.043504
0.101964 0.051377 0.041657
0.121311 0.053520 0.040731
0.142011 0.056045 0.039990
0.162712 0.058570 0.039249
0.183412 0.061095 0.038508
0.204113 0.063619 0.037767
0.226494 0.067572 0.038531
0.249716 0.072239 0.040046
0.272938 0.076906 0.041562
0.296161 0.081573 0.043077
0.319383 0.086240 0.044593
0.344405 0.091246 0.046168
0.371227 0.096590 0.047804
0.398048 0.101934 0.049440
0.424870 0.107278 0.051076
0.451692 0.112622 0.052712
0.477764 0.118048 0.054636
0.502337 0.123641 0.057135
0.526910 0.129233 0.059634
0.551483 0.134826 0.062133
0.576056 0.140418 0.064631
0.598971 0.145956 0.067217
0.613594 0.151217 0.070238
0.628217 0.156479 0.073258
0.642840 0.161740 0.076278
0.657463 0.167002 0.079299
0.672086 0.172264 0.082319
0.039072 0.052479 0.054299
0.051504 0.052786 0.052561
0.063936 0.053092 0.050823
0.076368 0.053399 0.049085
0.088800 0.053705 0.047347
0.101233 0.054012 0.045609
0.121531 0.056243 0.044396
0.143402 0.058859 0.043290
0.165273 0.061476 0.042183
0.187145 0.064092 0.041076
0.209016 0.066708 0.039969
0.231922 0.070887 0.040750
0.255345 0.075847 0.042476
0.278769 0.080806 0.044202
0.302192 0.085766 0.045928
0.325615 0.090726 0.047654
0.350747 0.095983 0.049413
0.377587 0.101537 0.051204
0.404428 0.107092 0.052996
0.431268 0.112646 0.054787
0.458108 0.118200 0.056579
0.484134 0.123834 0.058655
0.508534 0.129628 0.061300
0.532933 0.135422 0.063945
0.557332 0.141216 0.066591
0.581731 0.147009 0.069236
0.604475 0.152748 0.071962
0.618943 0.158211 0.075092
0.633410 0.163674 0.078222
0.647878 0.169136 0.081352
0.662345 0.174599 0.084483
0.676813 0.180062 0.087613
0.039104 0.055252 0.058143
0.051432 0.055614 0.056460
0.063760 0.055975 0.054777
0.076089 0.056336 0.053094
0.088417 0.056698 0.051410
0.100746 0.057059 0.049727
0.121387 0.059360 0.048448
0.143692 0.062050 0.047250
0.165996 0.064739 0.046051
0.188300 0.067429 0.044853
0.210605 0.070119 0.043654
0.234285 0.074480 0.044322
0.258654 0.079678 0.045923
0.283022 0.084875 0.047524
0.307391 0.090073 0.049125
0.331760 0.095270 0.050726
0.357288 0.100761 0.052518
0.383976 0.106544 0.054502
0.410663 0.112327 0.056485
0.437351 0.118110 0.058469
0.464039 0.123893 0.060452
0.489861 0.129751 0.062716
0.513952 0.135758 0.065538
0.538044 0.141765 0.068360
0.562135 0.147772 0.071182
0.586226 0.153779 0.074004
0.608691 0.159728 0.076906
0.623028 0.165386 0.080207
0.637364 0.171044 0.083508
0.651701 0.176702 0.086809
0.666037 0.182360 0.090110
0.680373 0.188018 0.093411
0.039151 0.058277 0.062208
0.051397 0.058684 0.060552
0.063643 0.059091 0.058896
0.075889 0.059498 0.057241
0.088135 0.059906 0.055585
0.100381 0.060313 0.053929
0.121063 0.062675 0.052693
0.143431 0.065429 0.051540
0.165799 0.068182 0.050387
0.188168 0.070936 0.049235
0.210536 0.073689 0.048082
0.235116 0.078212 0.048570
0.260802 0.083620 0.049878
0.286488 0.089028 0.051186
0.312174 0.094436 0.052494
0.337860 0.099844 0.053803
0.363928 0.105559 0.055554
0.390378 0.111580 0.057748
0.416828 0.117601 0.059942
0.443278 0.123621 0.062136
0.469727 0.129642 0.064330
0.495266 0.135732 0.066797
0.518982 0.141959 0.069811
0.542698 0.148185 0.072826
0.566414 0.154412 0.075840
0.590131 0.160639 0.078854
0.612264 0.166803 0.081950
0.626481 0.172653 0.085452
0.640699 0.178503 0.088954
0.654916 0.184353 0.092456
0.669134 0.190203 0.095958
0.683351 0.196053 0.099460
0.039198 0.061302 0.066273
0.051362 0.061755 0.064644
0.063526 0.062208 0.063016
0.075689 0.062661 0.061388
0.087853 0.063113 0.059759
0.100017 0.063566 0.058131
0.120738 0.065990 0.056937
0.143170 0.068807 0.055830
0.165603 0.071625 0.054723
0.188035 0.074442 0.053617
0.210467 0.077260 0.052510
0.235947 0.081945 0.052818
0.262950 0.087563 0.053833
0.289954 0.093182 0.054848
0.316957 0.098800 0.055864
0.343960 0.104418 0.056879
0.370568 0.110357 0.058589
0.396780 0.116616 0.060994
0.422992 0.122874 0.063398
0.449204 0.129133 0.065802
0.475416 0.135392 0.068207
0.500671 0.141713 0.070879
0.524012 0.148159 0.074085
0.547353 0.154606 0.077291
0.570694 0.161052 0.080498
0.594035 0.167498 0.083704
0.615836 0.173877 0.086993
0.629934 0.179919 0.090697
0.644033 0.185962 0.094400
0.658132 0.192004 0.098103
0.672230 0.198046 0.101807
0.686329 0.204088 0.105510
0.039245 0.064327 0.070338
0.051327 0.064826 0.068737
0.063408 0.065324 0.067136
0.075490 0.065823 0.065535
0.087571 0.066321 0.063934
0.099653 0.066820 0.062333
0.120413 0.069304 0.061182
0.142909 0.072186 0.060121
0.165406 0.075068 0.059060
0.187902 0.077949 0.057998
0.210399 0.080831 0.056937
0.236778 0.085677 0.057065
0.265099 0.091506 0.057788
0.293419 0.097335 0.058511
0.321740 0.103164 0.059233
0.350060 0.108992 0.059956
0.377208 0.115155 0.061625
0.403182 0.121652 0.064240
0.429156 0.128148 0.066854
0.455130 0.134645 0.069469
0.481104 0.141141 0.072084
0.506076 0.147694 0.074960
0.529042 0.154360 0.078359
0.552008 0.161026 0.081757
0.574974 0.167692 0.085155
0.597940 0.174358 0.088554
0.619408 0.180952 0.092037
0.633388 0.187186 0.095941
0.647367 0.193420 0.099846
0.661347 0.199655 0.103751
0.675327 0.205889 0.107655
0.689306 0.212123 0.111560
0.039293 0.067352 0.074402
0.051292 0.067896 0.072829
0.063291 0.068441 0.071255
0.075290 0.068985 0.069682
0.087289 0.069529 0.068108
0.099288 0.070074 0.066535
0.120088 0.072619 0.065427
0.142649 0.075565 0.064411
0.165209 0.078510 0.063396
0.187770 0.081456 0.062380
0.210330 0.084402 0.061365
0.237609 0.089410 0.061313
0.267247 0.095449 0.061743
0.296885 0.101488 0.062173
0.326523 0.107527 0.062603
0.356161 0.113566 0.063033
0.383848 0.119953 0.064660
0.409584 0.126688 0.067486
0.435320 0.133422 0.070311
0.461057 0.140156 0.073136
0.486793 0.146891 0.075961
0.511481 0.153676 0.079042
0.534072 0.160561 0.082632
0.556663 0.167446 0.086223
0.579254 0.174332 0.089813
0.601845 0.181217 0.093404
0.622980 0.188026 0.097080
0.636841 0.194453 0.101186
0.650702 0.200879 0.105292
0.664563 0.207305 0.109398
0.678423 0.213732 0.113504
0.692284 0.220158 0.117610
0.039411 0.070661 0.078703
0.051350 0.071264 0.077171
0.063290 0.071868 0.075639
0.075230 0.072472 0.074107
0.087169 0.073076 0.072574
0.099109 0.073679 0.071042
0.119934 0.076250 0.069933
0.142535 0.079214 0.068908
0.165137 0.082178 0.067884
0.187738 0.085142 0.066859
0.210340 0.088106 0.065834
0.238181 0.093230 0.065706
0.268643 0.099433 0.066027
0.299104 0.105637 0.066347
0.329565 0.111841 0.066667
0.360026 0.118045 0.066987
0.388228 0.124693 0.068642
0.414170 0.131784 0.071632
0.440112 0.138875 0.074622
0.466055 0.145966 0.077612
0.491997 0.153057 0.080602
0.516683 0.160138 0.083848
0.538858 0.167197 0.087608
0.561032 0.174256 0.091368
0.583207 0.181316 0.095128
0.605382 0.188375 0.098887
0.626145 0.195360 0.102741
0.639850 0.201979 0.107067
0.653555 0.208598 0.111392
0.667261 0.215216 0.115718
0.680966 0.221835 0.120043
0.694671 0.228453 0.124369
0.039600 0.074253 0.083241
0.051503 0.074930 0.081763
0.063406 0.075607 0.080286
0.075309 0.076283 0.078809
0.087212 0.076960 0.077331
0.099115 0.077637 0.075854
0.119949 0.080197 0.074700
0.142569 0.083134 0.073612
0.165189 0.086070 0.072523
0.187809 0.089007 0.071435
0.210428 0.091943 0.070346
0.238495 0.097137 0.070245
0.269286 0.103460 0.070639
0.300077 0.109783 0.071032
0.330867 0.116106 0.071425
0.361658 0.122428 0.071819
0.390349 0.129373 0.073570
0.416941 0.136940 0.076679
0.443532 0.144507 0.079787
0.470124 0.152074 0.082896
0.496715 0.159641 0.086005
0.521682 0.167081 0.089380
0.543400 0.174269 0.093286
0.565117 0.181456 0.097192
0.586834 0.188643 0.101098
0.608552 0.195830 0.105004
0.628902 0.202955 0.109020
0.642415 0.209765 0.113583
0.655928 0.216576 0.118147
0.669441 0.223387 0.122710
0.682954 0.230197 0.127273
0.696467 0.237008 0.131837
0.039789 0.077845 0.087778
0.051655 0.078595 0.086356
0.063522 0.079345 0.084933
0.075388 0.080095 0.083511
0.087255 0.080845 0.082088
0.099121 0.081595 0.080666
0.119964 0.084145 0.079468
0.142602 0.087054 0.078315
0.165240 0.089963 0.077163
0.187879 0.092872 0.076010
0.210517 0.095781 0.074857
0.238810 0.101045 0.074784
0.269929 0.107487 0.075251
0.301049 0.113928 0.075717
0.332169 0.120370 0.076184
0.363289 0.126812 0.076650
0.392470 0.134054 0.078498
0.419711 0.142097 0.081725
0.446952 0.150139 0.084953
0.474193 0.158182 0.088181
0.501434 0.166224 0.091408
0.526682 0.174025 0.094911
0.547942 0.181340 0.098964
0.569202 0.188655 0.103016
0.590461 0.195971 0.107069
0.611721 0.203286 0.111121
0.631658 0.210549 0.115299
0.644979 0.217552 0.120100
0.658300 0.224555 0.124901
0.671621 0.231557 0.129702
0.684942 0.238560 0.134503
0.698263 0.245563 0.139304
0.039978 0.081437 0.092316
0.051808 0.082260 0.090948
0.063638 0.083083 0.089580
0.075468 0.083907 0.088213
0.087297 0.084730 0.086845
0.099127 0.085553 0.085477
0.119979 0.088092 0.084236
0.142636 0.090974 0.083019
0.165292 0.093855 0.081802
0.187949 0.096737 0.080586
0.210605 0.099618 0.079369
0.239124 0.104953 0.079323
0.270573 0.111513 0.079863
0.302022 0.118074 0.080403
0.333471 0.124635 0.080942
0.364921 0.131195 0.081482
0.394590 0.138735 0.083425
0.422481 0.147253 0.086772
0.450372 0.155771 0.090119
0.478262 0.164290 0.093465
0.506153 0.172808 0.096812
0.531681 0.180968 0.100443
0.552484 0.188411 0.104641
0.573286 0.195855 0.108840
0.594089 0.203298 0.113039
0.614891 0.210742 0.117238
0.634415 0.218143 0.121577
0.647544 0.225338 0.126616
0.660672 0.232533 0.131655
0.673801 0.239728 0.136694
0.686930 0.246923 0.141733
0.700059 0.254118 0.146772
0.040167 0.085029 0.096853
0.051960 0.085925 0.095540
0.063754 0.086822 0.094227
0.075547 0.087718 0.092915
0.087340 0.088615 0.091602
0.099133 0.089511 0.090289
0.119995 0.092039 0.089003
0.142669 0.094894 0.087723
0.165344 0.097748 0.086442
0.188019 0.100602 0.085161
0.210694 0.103456 0.083880
0.239438 0.108860 0.083862
0.271216 0.115540 0.084475
0.302995 0.122220 0.085088
0.334773 0.128899 0.085701
0.366552 0.135579 0.086314
0.396711 0.143415 0.088353
0.425251 0.152409 0.091819
0.453792 0.161403 0.095284
0.482332 0.170397 0.098750
0.510872 0.179391 0.102215
0.536680 0.187911 0.105974
0.557026 0.195483 0.110319
0.577371 0.203054 0.114665
0.597716 0.210626 0.119010
0.618061 0.218197 0.123355
0.637171 0.225738 0.127856
0.650108 0.233125 0.133133
0.663045 0.240512 0.138409
0.675982 0.247899 0.143686
0.688918 0.255286 0.148963
0.701855 0.262673 0.154240
0.040388 0.088731 0.101548
0.052163 0.089704 0.100308
0.063938 0.090677 0.099069
0.075712 0.091650 0.097829
0.087487 0.092622 0.096590
0.099262 0.093595 0.095350
0.120154 0.096123 0.094025
0.142868 0.098962 0.092684
0.165583 0.101801 0.091342
0.188297 0.104640 0.090000
0.211011 0.107479 0.088659
0.239982 0.112951 0.088653
0.272081 0.119740 0.089314
0.304179 0.126530 0.089976
0.336278 0.133319 0.090638
0.368377 0.140108 0.091299
0.398978 0.148197 0.093435
0.428083 0.157584 0.097044
0.457187 0.166971 0.100652
0.486291 0.176359 0.104261
0.515396 0.185746 0.107870
0.541442 0.194629 0.111832
0.561372 0.202502 0.116501
0.581303 0.210376 0.121169
0.601233 0.218249 0.125838
0.621164 0.226122 0.130506
0.639900 0.233935 0.135303
0.652666 0.241444 0.140742
0.665432 0.248953 0.146180
0.678198 0.256462 0.151619
0.690964 0.263971 0.157057
0.703730 0.271480 0.162496
0.040671 0.092654 0.106558
0.052464 0.093709 0.105428
0.064258 0.094764 0.104298
0.076051 0.095820 0.103169
0.087844 0.096875 0.102039
0.099638 0.097930 0.100909
0.120600 0.100479 0.099557
0.143397 0.103327 0.098160
0.166194 0.106175 0.096764
0.188991 0.109023 0.095367
0.211787 0.111871 0.093971
0.240987 0.117408 0.093946
0.273387 0.124289 0.094608
0.305788 0.131169 0.095270
0.338189 0.138050 0.095931
0.370589 0.144931 0.096593
0.401538 0.153179 0.098824
0.431036 0.162795 0.102625
0.460534 0.172411 0.106426
0.490031 0.182028 0.110227
0.519529 0.191644 0.114028
0.545728 0.200895 0.118344
0.565329 0.209418 0.123690
0.584930 0.217941 0.129035
0.604531 0.226464 0.134381
0.624132 0.234987 0.139726
0.642573 0.243338 0.145088
0.655211 0.250828 0.150536
0.667849 0.258319 0.155984
0.680486 0.265810 0.161431
0.693124 0.273300 0.166879
0.705762 0.280791 0.172327
0.040955 0.096577 0.111568
0.052766 0.097715 0.110548
0.064578 0.098852 0.109528
0.076389 0.099989 0.108508
0.088201 0.101127 0.107488
0.100013 0.102264 0.106468
0.121047 0.104835 0.105088
0.143926 0.107692 0.103637
0.166805 0.110549 0.102185
0.189684 0.113406 0.100734
0.212563 0.116264 0.099283
0.241992 0.121864 0.099240
0.274694 0.128837 0.099902
0.307397 0.135809 0.100563
0.340099 0.142781 0.101225
0.372802 0.149753 0.101887
0.404098 0.158162 0.104214
0.433989 0.168007 0.108207
0.463880 0.177851 0.112200
0.493771 0.187696 0.116193
0.523662 0.197541 0.120186
0.550014 0.207162 0.124856
0.569285 0.216334 0.130878
0.588557 0.225506 0.136901
0.607829 0.234679 0.142923
0.627101 0.243851 0.148946
0.645245 0.252740 0.154874
0.657755 0.260213 0.160331
0.670265 0.267685 0.165787
0.682775 0.275157 0.171244
0.695285 0.282630 0.176701
0.707795 0.290102 0.182158
0.041238 0.100500 0.116578
0.053068 0.101720 0.115668
0.064898 0.102940 0.114758
0.076728 0.104159 0.113847
0.088558 0.105379 0.112937
0.100388 0.106599 0.112027
0.121494 0.109191 0.110620
0.144455 0.112057 0.109114
0.167417 0.114924 0.107607
0.190378 0.117790 0.106101
0.213340 0.120656 0.104594
0.242996 0.126321 0.104533
0.276001 0.133385 0.105195
0.309005 0.140448 0.105857
0.342009 0.147512 0.106519
0.375014 0.154576 0.107180
0.406658 0.163145 0.109604
0.436943 0.173218 0.113789
0.467227 0.183291 0.117974
0.497511 0.193365 0.122159
0.527796 0.203438 0.126345
0.554299 0.213428 0.131368
0.573242 0.223250 0.138067
0.592184 0.233072 0.144767
0.611127 0.242894 0.151466
0.630069 0.252715 0.158165
0.647918 0.262143 0.164659
0.660300 0.269597 0.170125
0.672682 0.277051 0.175591
0.685064 0.284505 0.181057
0.697445 0.291959 0.186523
0.709827 0.299413 0.191989
0.041522 0.104423 0.121588
0.053370 0.105725 0.120788
0.065218 0.107027 0.119987
0.077066 0.108329 0.119187
0.088915 0.109631 0.118386
0.100763 0.110933 0.117586
0.121941 0.113547 0.116151
0.144984 0.116422 0.114590
0.168028 0.119298 0.113029
0.191072 0.122173 0.111468
0.214116 0.125049 0.109906
0.244001 0.130777 0.109827
0.277307 0.137933 0.110489
0.310614 0.145088 0.111150
0.343920 0.152243 0.111812
0.377226 0.159398 0.112474
0.409218 0.168127 0.114993
0.439896 0.178429 0.119371
0.470574 0.188731 0.123748
0.501251 0.199034 0.128125
0.531929 0.209336 0.132503
0.558585 0.219694 0.137880
0.577198 0.230166 0.145256
0.595811 0.240637 0.152632
0.614425 0.251108 0.160009
0.633038 0.261580 0.167385
0.650591 0.271545 0.174444
0.662845 0.278981 0.179919
0.675098 0.286417 0.185394
0.687352 0.293853 0.190870
0.699606 0.301288 0.196345
0.711859 0.308724 0.201820
0.041798 0.108378 0.126622
0.053673 0.109767 0.125919
0.065549 0.111156 0.125216
0.077424 0.112545 0.124513
0.089300 0.113934 0.123810
0.101176 0.115322 0.123107
0.122425 0.117973 0.121659
0.145550 0.120876 0.120061
0.168675 0.123779 0.118463
0.191799 0.126682 0.116865
0.214924 0.129585 0.115267
0.245034 0.135386 0.115184
0.278638 0.142636 0.115858
0.312241 0.149885 0.116532
0.345845 0.157135 0.117206
0.379449 0.164385 0.117880
0.411784 0.173277 0.120502
0.442850 0.183811 0.125073
0.473917 0.194345 0.129644
0.504983 0.204878 0.134215
0.536050 0.215412 0.138786
0.562881 0.226117 0.144499
0.581241 0.237165 0.152496
0.599601 0.248213 0.160492
0.617961 0.259261 0.168489
0.636321 0.270308 0.176486
0.653629 0.280769 0.184091
0.665677 0.288291 0.189737
0.677725 0.295814 0.195383
0.689772 0.303337 0.201029
0.701820 0.310859 0.206674
0.713868 0.318382 0.212320
0.042034 0.112490 0.131774
0.053983 0.113988 0.131107
0.065932 0.115487 0.130441
0.077880 0.116986 0.129775
0.089829 0.118485 0.129108
0.101778 0.119983 0.128442
0.123101 0.122751 0.127045
0.146299 0.125773 0.125502
0.169496 0.128795 0.123959
0.192694 0.131817 0.122416
0.215892 0.134839 0.120874
0.246210 0.140753 0.120857
0.280088 0.148112 0.121604
0.313966 0.155472 0.122351
0.347844 0.162831 0.123099
0.381722 0.170191 0.123846
0.414377 0.179261 0.126605
0.445810 0.190042 0.131377
0.477242 0.200823 0.136150
0.508674 0.211604 0.140922
0.540107 0.222385 0.145694
0.567225 0.233325 0.151654
