filter/Red and Blue/lut/Midnight 05.cube
# LUT by SparkleStock. Enhanced with VOXCOLOR algorithms.
LUT_3D_SIZE 5
DOMAIN_MIN 0.000000 0.000000 0.000000
DOMAIN_MAX 0.903226 0.903226 0.903226
0.078144 0.066422 0.082051
0.143298 0.068809 0.078325
0.251487 0.076009 0.077474
0.396392 0.094183 0.083343
0.510788 0.113041 0.090370
0.085305 0.084218 0.105770
0.167048 0.087000 0.095728
0.297217 0.105833 0.103932
0.444791 0.129949 0.113347
0.555206 0.147482 0.116333
0.092174 0.107251 0.134854
0.181095 0.112672 0.127720
0.337822 0.136421 0.130669
0.481894 0.164328 0.144998
0.586241 0.188159 0.154851
0.104919 0.140108 0.179188
0.198746 0.150165 0.176950
0.367725 0.173230 0.174484
0.527965 0.216669 0.193288
0.621682 0.247529 0.214406
0.129458 0.179298 0.236079
0.233853 0.204640 0.248162
0.411506 0.231176 0.245035
0.578143 0.275433 0.259297
0.671379 0.336626 0.304581
0.091851 0.099437 0.138509
0.163083 0.089680 0.105842
0.292866 0.101691 0.099626
0.440500 0.125891 0.109364
0.553898 0.146515 0.115507
0.108086 0.136358 0.176251
0.167615 0.164631 0.202873
0.309687 0.175053 0.189630
0.482246 0.190844 0.179480
0.591679 0.204514 0.174806
0.134263 0.181009 0.233774
0.204607 0.224902 0.276813
0.353715 0.238300 0.260399
0.525813 0.252548 0.243764
0.632466 0.271987 0.242374
0.165787 0.231417 0.300237
0.248746 0.290560 0.356338
0.395325 0.307708 0.342631
0.577378 0.314851 0.304763
0.677436 0.349964 0.320277
0.212828 0.296901 0.382546
0.304626 0.369710 0.446386
0.446917 0.397851 0.444203
0.621892 0.407941 0.409397
0.727045 0.447231 0.419016
0.120934 0.149852 0.227839
0.171603 0.151985 0.209167
0.323609 0.138136 0.143717
0.477447 0.160924 0.141010
0.584331 0.186725 0.152638
0.152821 0.204209 0.282517
0.218008 0.250092 0.324611
0.342169 0.245010 0.276517
0.517409 0.251897 0.245174
0.629117 0.270531 0.241074
0.199200 0.278463 0.356739
0.273715 0.342928 0.420693
0.361765 0.385917 0.445971
0.535361 0.383006 0.402343
0.669624 0.381323 0.363620
0.251867 0.353562 0.440903
0.331495 0.423317 0.505831
0.411286 0.475425 0.544913
0.586138 0.465916 0.486148
0.716704 0.470374 0.454496
0.305106 0.430012 0.524953
0.384732 0.500376 0.583408
0.462280 0.548159 0.617620
0.629126 0.551725 0.578074
0.763282 0.554809 0.539125
0.172382 0.219473 0.348560
0.217526 0.248175 0.366372
0.309093 0.264993 0.341805
0.517073 0.216370 0.201451
0.620776 0.247085 0.213093
0.221795 0.290156 0.415349
0.288653 0.350438 0.467043
0.376243 0.380476 0.461640
0.560784 0.322795 0.320293
0.672238 0.349789 0.321513
0.280191 0.384254 0.493711
0.351595 0.445002 0.546682
0.418651 0.496712 0.582072
0.573176 0.473537 0.500466
0.712692 0.472064 0.457814
0.334716 0.473915 0.566100
0.405969 0.527951 0.611630
0.465762 0.575365 0.648926
0.534179 0.615425 0.673163
0.717860 0.591571 0.599551
0.383601 0.544520 0.635196
0.448313 0.589284 0.669188
0.508482 0.628436 0.698539
0.581287 0.666077 0.721813
0.758598 0.654988 0.660816
0.239781 0.299177 0.463618
0.291457 0.348985 0.508542
0.365123 0.406783 0.536363
0.490477 0.424046 0.493194
0.654624 0.367725 0.353371
0.295775 0.381561 0.536922
0.361343 0.446788 0.586258
0.426943 0.499834 0.611635
0.544347 0.516929 0.576355
0.707672 0.472186 0.458298
0.353548 0.480041 0.606304
0.414330 0.528487 0.642872
0.471549 0.573730 0.672385
0.580233 0.598793 0.656388
0.745797 0.571051 0.565787
0.401275 0.562610 0.661606
0.458289 0.597107 0.688285
0.514109 0.631272 0.712477
0.582308 0.667194 0.732662
0.748998 0.661866 0.672714
0.436986 0.615541 0.702793
0.491353 0.644437 0.724171
0.552500 0.676429 0.744471
0.621552 0.710969 0.764510
0.728570 0.731022 0.757303
