filter/Red and Blue/lut/Midnight 05.cube
# LUT by SparkleStock. Enhanced with VOXCOLOR algorithms.
LUT_3D_SIZE 32
0.078144 0.066422 0.082051
0.086746 0.066801 0.081531
0.095348 0.067179 0.081011
0.103951 0.067557 0.080492
0.112553 0.067935 0.079972
0.121155 0.068313 0.079452
0.132002 0.068573 0.078892
0.143298 0.068809 0.078325
0.154595 0.069046 0.077758
0.165891 0.069282 0.077191
0.177187 0.069518 0.076624
0.193777 0.070763 0.076624
0.213014 0.072512 0.076907
0.232250 0.074261 0.077191
0.251487 0.076009 0.077474
0.270724 0.077758 0.077758
0.291024 0.080050 0.078396
0.312387 0.082886 0.079389
0.333751 0.085722 0.080381
0.355114 0.088558 0.081374
0.376478 0.091394 0.082366
0.396392 0.094183 0.083343
0.413407 0.096877 0.084288
0.430423 0.099571 0.085234
0.447438 0.102265 0.086179
0.464453 0.104959 0.087124
0.481106 0.107653 0.088101
0.495947 0.110347 0.089235
0.510788 0.113041 0.090370
0.525629 0.115735 0.091504
0.540470 0.118429 0.092639
0.555311 0.121123 0.093773
0.079278 0.068927 0.085502
0.088182 0.069196 0.084588
0.097086 0.069464 0.083675
0.105991 0.069733 0.082762
0.114895 0.070001 0.081849
0.123799 0.070269 0.080935
0.135146 0.070717 0.080592
0.146982 0.071200 0.080364
0.158818 0.071683 0.080135
0.170654 0.072167 0.079906
0.182490 0.072650 0.079678
0.199473 0.074190 0.079943
0.219030 0.076259 0.080455
0.238587 0.078328 0.080968
0.258144 0.080397 0.081480
0.277700 0.082466 0.081992
0.298193 0.084964 0.082749
0.319620 0.087892 0.083751
0.341048 0.090819 0.084752
0.362475 0.093746 0.085754
0.383903 0.096674 0.086756
0.403872 0.099502 0.087696
0.420924 0.102132 0.088513
0.437976 0.104762 0.089331
0.455028 0.107392 0.090148
0.472079 0.110022 0.090965
0.488705 0.112651 0.091808
0.503198 0.115272 0.092777
0.517692 0.117893 0.093747
0.532185 0.120513 0.094717
0.546679 0.123134 0.095686
0.561172 0.125755 0.096656
0.080413 0.071433 0.088952
0.089619 0.071591 0.087645
0.098825 0.071750 0.086339
0.108031 0.071908 0.085032
0.117236 0.072067 0.083725
0.126442 0.072225 0.082419
0.138290 0.072860 0.082292
0.150665 0.073591 0.082402
0.163041 0.074321 0.082512
0.175417 0.075051 0.082622
0.187793 0.075782 0.082732
0.205169 0.077618 0.083262
0.225046 0.080007 0.084003
0.244923 0.082396 0.084744
0.264800 0.084785 0.085485
0.284677 0.087174 0.086226
0.305362 0.089878 0.087102
0.326853 0.092897 0.088113
0.348345 0.095916 0.089124
0.369837 0.098935 0.090135
0.391328 0.101954 0.091145
0.411352 0.104822 0.092049
0.428441 0.107388 0.092738
0.445529 0.109954 0.093427
0.462617 0.112520 0.094116
0.479706 0.115086 0.094806
0.496304 0.117649 0.095514
0.510450 0.120196 0.096319
0.524595 0.122744 0.097124
0.538741 0.125292 0.097929
0.552887 0.127839 0.098734
0.567033 0.130387 0.099539
0.081547 0.073938 0.092402
0.091055 0.073986 0.090702
0.100563 0.074035 0.089002
0.110071 0.074084 0.087302
0.119578 0.074133 0.085602
0.129086 0.074181 0.083902
0.141434 0.075004 0.083992
0.154349 0.075981 0.084441
0.167264 0.076959 0.084889
0.180180 0.077936 0.085337
0.193095 0.078913 0.085785
0.210865 0.081045 0.086581
0.231062 0.083755 0.087551
0.251260 0.086464 0.088521
0.271457 0.089173 0.089490
0.291654 0.091883 0.090460
0.312531 0.094792 0.091455
0.334086 0.097903 0.092475
0.355642 0.101013 0.093495
0.377198 0.104123 0.094515
0.398753 0.107234 0.095535
0.418832 0.110141 0.096402
0.435957 0.112643 0.096963
0.453082 0.115145 0.097524
0.470207 0.117647 0.098085
0.487332 0.120149 0.098646
0.503903 0.122646 0.099221
0.517701 0.125121 0.099861
0.531499 0.127596 0.100501
0.545297 0.130070 0.101142
0.559096 0.132545 0.101782
0.572894 0.135019 0.102422
0.082681 0.076443 0.095853
0.092491 0.076382 0.093759
0.102301 0.076321 0.091666
0.112111 0.076260 0.089572
0.121920 0.076199 0.087479
0.131730 0.076138 0.085386
0.144577 0.077148 0.085692
0.158033 0.078372 0.086479
0.171488 0.079596 0.087266
0.184943 0.080821 0.088053
0.198398 0.082045 0.088839
0.216561 0.084473 0.089901
0.237079 0.087502 0.091099
0.257596 0.090532 0.092297
0.278114 0.093561 0.093496
0.298631 0.096591 0.094694
0.319700 0.099706 0.095808
0.341319 0.102908 0.096837
0.362939 0.106110 0.097866
0.384559 0.109312 0.098895
0.406178 0.112514 0.099924
0.426312 0.115461 0.100755
0.443474 0.117899 0.101188
0.460635 0.120337 0.101621
0.477797 0.122775 0.102054
0.494959 0.125212 0.102487
0.511502 0.127644 0.102927
0.524952 0.130046 0.103403
0.538403 0.132447 0.103878
0.551853 0.134848 0.104354
0.565304 0.137250 0.104830
0.578755 0.139651 0.105305
0.083816 0.078948 0.099303
0.093927 0.078777 0.096816
0.104039 0.078606 0.094329
0.114151 0.078435 0.091843
0.124262 0.078265 0.089356
0.134374 0.078094 0.086869
0.147721 0.079291 0.087392
0.161716 0.080763 0.088518
0.175711 0.082234 0.089643
0.189706 0.083705 0.090768
0.203701 0.085177 0.091893
0.222258 0.087900 0.093220
0.243095 0.091250 0.094647
0.263933 0.094600 0.096074
0.284770 0.097949 0.097501
0.305608 0.101299 0.098928
0.326869 0.104620 0.100161
0.348552 0.107914 0.101199
0.370236 0.111207 0.102237
0.391920 0.114500 0.103276
0.413604 0.117793 0.104314
0.433792 0.120780 0.105108
0.450990 0.123154 0.105413
0.468189 0.125528 0.105718
0.485387 0.127902 0.106023
0.502585 0.130276 0.106327
0.519101 0.132642 0.106633
0.532204 0.134970 0.106944
0.545307 0.137298 0.107255
0.558409 0.139627 0.107567
0.571512 0.141955 0.107878
0.584615 0.144283 0.108189
0.084596 0.081571 0.102556
0.094750 0.081420 0.100179
0.104904 0.081269 0.097802
0.115058 0.081118 0.095425
0.125213 0.080967 0.093048
0.135367 0.080816 0.090671
0.149521 0.082166 0.091050
0.164475 0.083815 0.091980
0.179429 0.085465 0.092910
0.194383 0.087115 0.093840
0.209337 0.088764 0.094771
0.228269 0.091608 0.096118
0.249190 0.095050 0.097675
0.270112 0.098491 0.099232
0.291033 0.101932 0.100788
0.311955 0.105373 0.102345
0.333190 0.108790 0.103704
0.354740 0.112182 0.104866
0.376289 0.115575 0.106028
0.397839 0.118967 0.107190
0.419388 0.122359 0.108351
0.439472 0.125432 0.109248
0.456623 0.127863 0.109616
0.473774 0.130295 0.109983
0.490925 0.132727 0.110351
0.508076 0.135159 0.110718
0.524527 0.137584 0.111076
0.537480 0.139976 0.111382
0.550434 0.142368 0.111688
0.563387 0.144761 0.111995
0.576341 0.147153 0.112301
0.589295 0.149545 0.112608
0.085305 0.084218 0.105770
0.095450 0.084112 0.103604
0.105595 0.084007 0.101437
0.115740 0.083902 0.099271
0.125885 0.083797 0.097104
0.136030 0.083692 0.094937
0.151052 0.085186 0.095100
0.167048 0.087000 0.095728
0.183045 0.088815 0.096356
0.199042 0.090629 0.096984
0.215039 0.092443 0.097613
0.234343 0.095373 0.098933
0.255301 0.098860 0.100599
0.276259 0.102347 0.102266
0.297217 0.105833 0.103932
0.318175 0.109320 0.105599
0.339342 0.112810 0.107086
0.360718 0.116303 0.108394
0.382094 0.119796 0.109702
0.403469 0.123289 0.111010
0.424845 0.126782 0.112319
0.444791 0.129949 0.113347
0.461878 0.132463 0.113815
0.478965 0.134977 0.114283
0.496052 0.137492 0.114751
0.513139 0.140006 0.115219
0.529519 0.142515 0.115665
0.542362 0.144999 0.115999
0.555206 0.147482 0.116333
0.568050 0.149966 0.116666
0.580894 0.152450 0.117000
0.593737 0.154933 0.117334
0.086014 0.086864 0.108984
0.096150 0.086805 0.107028
0.106286 0.086745 0.105072
0.116422 0.086686 0.103116
0.126557 0.086627 0.101160
0.136693 0.086567 0.099203
0.152582 0.088206 0.099149
0.169622 0.090185 0.099476
0.186662 0.092164 0.099802
0.203701 0.094143 0.100128
0.220741 0.096122 0.100454
0.240417 0.099137 0.101747
0.261412 0.102670 0.103524
0.282407 0.106202 0.105300
0.303401 0.109735 0.107076
0.324396 0.113268 0.108852
0.345494 0.116831 0.110468
0.366696 0.120425 0.111922
0.387898 0.124018 0.113377
0.409100 0.127612 0.114831
0.430302 0.131205 0.116286
0.450111 0.134467 0.117445
0.467134 0.137063 0.118014
0.484157 0.139660 0.118582
0.501179 0.142256 0.119151
0.518202 0.144853 0.119720
0.534510 0.147446 0.120254
0.547244 0.150021 0.120615
0.559978 0.152596 0.120977
0.572712 0.155171 0.121338
0.585446 0.157746 0.121699
0.598180 0.160321 0.122061
0.086723 0.089511 0.112198
0.096849 0.089497 0.110452
0.106976 0.089484 0.108707
0.117103 0.089470 0.106961
0.127230 0.089456 0.105215
0.137357 0.089443 0.103469
0.154113 0.091227 0.103199
0.172196 0.093370 0.103223
0.190278 0.095514 0.103248
0.208361 0.097658 0.103272
0.226443 0.099801 0.103296
0.246492 0.102902 0.104562
0.267523 0.106480 0.106448
0.288554 0.110058 0.108334
0.309585 0.113637 0.110220
0.330616 0.117215 0.112106
0.351646 0.120851 0.113849
0.372674 0.124546 0.115450
0.393702 0.128240 0.117051
0.414731 0.131934 0.118652
0.435759 0.135628 0.120253
0.455430 0.138984 0.121543
0.472389 0.141663 0.122213
0.489348 0.144342 0.122882
0.506307 0.147021 0.123551
0.523266 0.149700 0.124221
0.539502 0.152376 0.124843
0.552126 0.155043 0.125232
0.564751 0.157710 0.125621
0.577375 0.160376 0.126010
0.589999 0.163043 0.126398
0.602623 0.165710 0.126787
0.087432 0.092158 0.115412
0.097549 0.092190 0.113877
0.107667 0.092222 0.112342
0.117785 0.092254 0.110806
0.127902 0.092286 0.109271
0.138020 0.092318 0.107736
0.155644 0.094247 0.107248
0.174769 0.096555 0.106971
0.193895 0.098864 0.106693
0.213020 0.101172 0.106416
0.232145 0.103480 0.106138
0.252566 0.106666 0.107376
0.273634 0.110290 0.109372
0.294701 0.113914 0.111368
0.315769 0.117538 0.113364
0.336837 0.121162 0.115360
0.357798 0.124872 0.117231
0.378652 0.128667 0.118978
0.399507 0.132462 0.120726
0.420361 0.136257 0.122473
0.441215 0.140052 0.124220
0.460750 0.143502 0.125642
0.477645 0.146263 0.126412
0.494540 0.149024 0.127182
0.511434 0.151785 0.127952
0.528329 0.154546 0.128721
0.544494 0.157307 0.129432
0.557008 0.160065 0.129849
0.569523 0.162823 0.130265
0.582037 0.165581 0.130681
0.594552 0.168340 0.131097
0.607066 0.171098 0.131514
0.088487 0.095624 0.119824
0.098614 0.095714 0.118413
0.108741 0.095804 0.117003
0.118868 0.095894 0.115593
0.128994 0.095984 0.114182
0.139121 0.096074 0.112772
0.157087 0.098028 0.112186
0.176621 0.100354 0.111765
0.196155 0.102681 0.111345
0.215689 0.105008 0.110924
0.235223 0.107334 0.110503
0.256231 0.110642 0.111636
0.277976 0.114440 0.113547
0.299721 0.118238 0.115457
0.321465 0.122036 0.117368
0.343210 0.125834 0.119278
0.364377 0.129650 0.121174
0.384966 0.133484 0.123055
0.405555 0.137319 0.124937
0.426144 0.141153 0.126818
0.446733 0.144988 0.128700
0.466045 0.148521 0.130279
0.482803 0.151449 0.131253
0.499560 0.154378 0.132227
0.516318 0.157307 0.133201
0.533075 0.160236 0.134176
0.549103 0.163150 0.135066
0.561484 0.165987 0.135534
0.573864 0.168824 0.136002
0.586244 0.171662 0.136470
0.598624 0.174499 0.136938
0.611005 0.177337 0.137406
0.089716 0.099500 0.124834
0.099861 0.099654 0.123506
0.110006 0.099808 0.122178
0.120151 0.099962 0.120850
0.130296 0.100116 0.119522
0.140442 0.100270 0.118194
0.158487 0.102189 0.117568
0.178112 0.104460 0.117083
0.197738 0.106732 0.116599
0.217363 0.109004 0.116114
0.236989 0.111276 0.115629
0.258692 0.114723 0.116619
0.281434 0.118759 0.118346
0.304176 0.122795 0.120074
0.326918 0.126831 0.121801
0.349659 0.130866 0.123529
0.371169 0.134806 0.125397
0.391447 0.138650 0.127407
0.411725 0.142494 0.129416
0.432003 0.146337 0.131426
0.452281 0.150181 0.133435
0.471328 0.153790 0.135185
0.487912 0.156929 0.136415
0.504496 0.160068 0.137646
0.521079 0.163208 0.138876
0.537663 0.166347 0.140107
0.553522 0.169448 0.141221
0.565756 0.172359 0.141753
0.577990 0.175269 0.142285
0.590224 0.178180 0.142817
0.602458 0.181090 0.143349
0.614691 0.184001 0.143881
0.090945 0.103375 0.129844
0.101108 0.103594 0.128598
0.111272 0.103812 0.127352
0.121435 0.104030 0.126107
0.131599 0.104248 0.124861
0.141762 0.104466 0.123615
0.159887 0.106349 0.122950
0.179604 0.108566 0.122401
0.199321 0.110783 0.121853
0.219037 0.113000 0.121304
0.238754 0.115217 0.120755
0.261153 0.118805 0.121602
0.284892 0.123078 0.123146
0.308631 0.127352 0.124691
0.332370 0.131626 0.126235
0.356109 0.135899 0.127779
0.377962 0.139963 0.129621
0.397929 0.143815 0.131758
0.417896 0.147668 0.133896
0.437863 0.151521 0.136033
0.457830 0.155374 0.138171
0.476611 0.159059 0.140091
0.493021 0.162409 0.141578
0.509431 0.165758 0.143064
0.525841 0.169108 0.144551
0.542251 0.172458 0.146038
0.557940 0.175746 0.147376
0.570028 0.178730 0.147972
0.582115 0.181714 0.148568
0.594203 0.184698 0.149164
0.606291 0.187681 0.149760
0.618378 0.190665 0.150356
0.092174 0.107251 0.134854
0.102355 0.107533 0.133690
0.112537 0.107815 0.132527
0.122719 0.108097 0.131364
0.132901 0.108379 0.130200
0.143082 0.108661 0.129037
0.161286 0.110510 0.128332
0.181095 0.112672 0.127720
0.200903 0.114834 0.127107
0.220712 0.116996 0.126494
0.240520 0.119158 0.125881
0.263614 0.122886 0.126584
0.288350 0.127398 0.127946
0.313086 0.131909 0.129307
0.337822 0.136421 0.130669
0.362558 0.140932 0.132030
0.384754 0.145119 0.133844
0.404410 0.148981 0.136109
0.424066 0.152843 0.138375
0.443722 0.156705 0.140641
0.463378 0.160567 0.142906
0.481894 0.164328 0.144998
0.498130 0.167888 0.146740
0.514366 0.171448 0.148483
0.530602 0.175008 0.150226
0.546839 0.178569 0.151969
0.562359 0.182045 0.153531
0.574300 0.185102 0.154191
0.586241 0.188159 0.154851
0.598182 0.191216 0.155511
0.610124 0.194273 0.156172
0.622065 0.197330 0.156832
0.093403 0.111127 0.139864
0.103603 0.111473 0.138783
0.113803 0.111819 0.137702
0.124003 0.112165 0.136621
0.134203 0.112511 0.135540
0.144403 0.112857 0.134459
0.162686 0.114671 0.133714
0.182586 0.116778 0.133038
0.202486 0.118885 0.132361
0.222386 0.120992 0.131684
0.242286 0.123099 0.131007
0.266074 0.126968 0.131567
0.291808 0.131717 0.132745
0.317541 0.136467 0.133924
0.343274 0.141216 0.135102
0.369007 0.145965 0.136281
0.391547 0.150275 0.138067
0.410891 0.154147 0.140461
0.430236 0.158018 0.142855
0.449581 0.161889 0.145248
0.468926 0.165760 0.147642
0.487177 0.169597 0.149904
0.503239 0.173368 0.151903
0.519302 0.177138 0.153902
0.535364 0.180909 0.155901
0.551426 0.184679 0.157899
0.566777 0.188343 0.159686
0.578572 0.191473 0.160410
0.590367 0.194603 0.161134
0.602162 0.197734 0.161859
0.613957 0.200864 0.162583
0.625751 0.203994 0.163307
0.094962 0.115499 0.145677
0.105231 0.115959 0.144729
0.115500 0.116420 0.143781
0.125768 0.116880 0.142832
0.136037 0.117341 0.141884
0.146305 0.117801 0.140936
0.164680 0.119580 0.140141
0.184676 0.121623 0.139377
0.204672 0.123666 0.138613
0.224668 0.125710 0.137849
0.244664 0.127753 0.137086
0.268890 0.131670 0.137519
0.295232 0.136524 0.138551
0.321574 0.141379 0.139583
0.347915 0.146234 0.140616
0.374257 0.151088 0.141648
0.397162 0.155593 0.143434
0.416630 0.159747 0.145974
0.436099 0.163902 0.148514
0.455567 0.168057 0.151054
0.475036 0.172211 0.153594
0.493289 0.176281 0.156030
0.509114 0.180179 0.158258
0.524938 0.184078 0.160485
0.540763 0.187977 0.162713
0.556587 0.191875 0.164940
0.571717 0.195670 0.166944
0.583375 0.198946 0.167828
0.595032 0.202223 0.168713
0.606690 0.205499 0.169597
0.618348 0.208776 0.170481
0.630005 0.212052 0.171366
0.096853 0.120367 0.152294
0.107240 0.120992 0.151529
0.117628 0.121617 0.150764
0.128016 0.122242 0.149998
0.138403 0.122868 0.149233
0.148791 0.123493 0.148467
0.167269 0.125238 0.147612
0.187366 0.127208 0.146738
0.207462 0.129178 0.145865
0.227559 0.131148 0.144991
0.247655 0.133118 0.144117
0.272062 0.136993 0.144441
0.298623 0.141820 0.145363
0.325184 0.146647 0.146286
0.351745 0.151474 0.147208
0.378306 0.156301 0.148131
0.401600 0.161071 0.149944
0.421627 0.165784 0.152649
0.441653 0.170496 0.155354
0.461679 0.175209 0.158059
0.481706 0.179922 0.160763
0.500231 0.184378 0.163376
0.515754 0.188323 0.165805
0.531276 0.192267 0.168234
0.546799 0.196211 0.170662
0.562322 0.200156 0.173091
0.577179 0.204025 0.175305
0.588708 0.207521 0.176446
0.600238 0.211017 0.177586
0.611767 0.214513 0.178727
0.623297 0.218009 0.179867
0.634826 0.221505 0.181008
0.098744 0.125235 0.158911
0.109250 0.126025 0.158329
0.119756 0.126815 0.157746
0.130263 0.127605 0.157164
0.140769 0.128394 0.156582
0.151276 0.129184 0.155999
0.169858 0.130896 0.155083
0.190055 0.132793 0.154099
0.210252 0.134690 0.153116
0.230450 0.136586 0.152132
0.250647 0.138483 0.151149
0.275233 0.142315 0.151363
0.302014 0.147115 0.152176
0.328794 0.151914 0.152988
0.355575 0.156714 0.153801
0.382356 0.161514 0.154614
0.406038 0.166549 0.156455
0.426623 0.171820 0.159324
0.447207 0.177090 0.162193
0.467792 0.182361 0.165063
0.488376 0.187632 0.167932
0.507173 0.192476 0.170722
0.522394 0.196466 0.173352
0.537614 0.200456 0.175982
0.552835 0.204446 0.178612
0.568056 0.208436 0.181242
0.582640 0.212380 0.183667
0.594041 0.216096 0.185063
0.605443 0.219811 0.186460
0.616844 0.223527 0.187856
0.628246 0.227243 0.189253
0.639647 0.230958 0.190649
0.100634 0.130104 0.165528
0.111260 0.131058 0.165129
0.121885 0.132012 0.164729
0.132510 0.132967 0.164330
0.143136 0.133921 0.163931
0.153761 0.134876 0.163531
0.172447 0.136554 0.162554
0.192745 0.138378 0.161460
0.213042 0.140201 0.160367
0.233340 0.142025 0.159274
0.253638 0.143848 0.158181
0.278404 0.147638 0.158285
0.305405 0.152410 0.158988
0.332405 0.157182 0.159691
0.359405 0.161954 0.160394
0.386405 0.166727 0.161096
0.410477 0.172027 0.162965
0.431619 0.177856 0.165999
0.452762 0.183685 0.169033
0.473904 0.189513 0.172067
0.495047 0.195342 0.175101
0.514115 0.200573 0.178068
0.529034 0.204609 0.180899
0.543952 0.208645 0.183730
0.558871 0.212681 0.186562
0.573790 0.216716 0.189393
0.588101 0.220735 0.192028
0.599375 0.224671 0.193681
0.610648 0.228606 0.195333
0.621921 0.232541 0.196986
0.633195 0.236476 0.198639
0.644468 0.240411 0.200291
0.102525 0.134972 0.172145
0.113269 0.136091 0.171929
0.124013 0.137210 0.171712
0.134758 0.138329 0.171496
0.145502 0.139448 0.171279
0.156246 0.140567 0.171063
0.175036 0.142212 0.170024
0.195434 0.143963 0.168821
0.215833 0.145713 0.167618
0.236231 0.147463 0.166415
0.256630 0.149214 0.165213
0.281576 0.152960 0.165207
0.308795 0.157705 0.165800
0.336015 0.162450 0.166393
0.363235 0.167195 0.166986
0.390455 0.171939 0.167579
0.414915 0.177505 0.169475
0.436616 0.183892 0.172674
0.458316 0.190279 0.175873
0.480017 0.196666 0.179071
0.501717 0.203052 0.182270
0.521056 0.208671 0.185414
0.535673 0.212752 0.188446
0.550290 0.216834 0.191479
0.564907 0.220915 0.194511
0.579524 0.224997 0.197544
0.593563 0.229091 0.200389
0.604708 0.233245 0.202298
0.615853 0.237400 0.204207
0.626998 0.241555 0.206116
0.638144 0.245709 0.208025
0.649289 0.249864 0.209933
0.104919 0.140108 0.179188
0.115798 0.141434 0.179200
0.126676 0.142761 0.179212
0.137555 0.144087 0.179224
0.148433 0.145414 0.179237
0.159312 0.146740 0.179249
0.178225 0.148417 0.178205
0.198746 0.150165 0.176950
0.219266 0.151912 0.175696
0.239787 0.153659 0.174441
0.260307 0.155406 0.173186
0.285434 0.159124 0.173080
0.312864 0.163826 0.173548
0.340294 0.168528 0.174016
0.367725 0.173230 0.174484
0.395155 0.177932 0.174952
0.419929 0.183661 0.176828
0.442047 0.190416 0.180112
0.464166 0.197172 0.183396
0.486284 0.203928 0.186681
0.508402 0.210684 0.189965
0.527965 0.216669 0.193288
0.542418 0.221114 0.196689
0.556870 0.225558 0.200091
0.571322 0.230002 0.203492
0.585774 0.234447 0.206894
0.599654 0.238872 0.210088
0.610668 0.243200 0.212247
0.621682 0.247529 0.214406
0.632696 0.251857 0.216565
0.643710 0.256186 0.218724
0.654724 0.260514 0.220883
0.108323 0.145780 0.187081
0.119366 0.147399 0.187413
0.130409 0.149018 0.187746
0.141452 0.150637 0.188078
0.152495 0.152256 0.188411
0.163538 0.153876 0.188743
0.182616 0.155716 0.187806
0.203301 0.157600 0.186615
0.223987 0.159485 0.185424
0.244672 0.161369 0.184234
0.265357 0.163254 0.183043
0.290667 0.166968 0.182854
0.318289 0.171597 0.183167
0.345911 0.176226 0.183480
0.373534 0.180855 0.183792
0.401156 0.185483 0.184105
0.426095 0.191171 0.185866
0.448350 0.197918 0.189077
0.470606 0.204664 0.192288
0.492861 0.211411 0.195499
0.515117 0.218158 0.198710
0.534808 0.224469 0.202219
0.549370 0.229911 0.206325
0.563932 0.235352 0.210431
0.578494 0.240794 0.214537
0.593056 0.246235 0.218643
0.607004 0.251505 0.222464
0.617881 0.255916 0.224861
0.628758 0.260327 0.227258
0.639635 0.264738 0.229654
0.650512 0.269149 0.232051
0.661389 0.273559 0.234448
0.111726 0.151451 0.194974
0.122933 0.153363 0.195627
0.134141 0.155275 0.196279
0.145349 0.157187 0.196932
0.156557 0.159099 0.197584
0.167765 0.161011 0.198237
0.187007 0.163014 0.197407
0.207857 0.165036 0.196280
0.228707 0.167058 0.195153
0.249557 0.169080 0.194027
0.270406 0.171101 0.192900
0.295899 0.174812 0.192629
0.323714 0.179368 0.192786
0.351528 0.183924 0.192943
0.379343 0.188479 0.193100
0.407157 0.193035 0.193257
0.432261 0.198682 0.194905
0.454653 0.205419 0.198042
0.477046 0.212157 0.201180
0.499439 0.218894 0.204318
0.521832 0.225632 0.207456
0.541651 0.232269 0.211151
0.556322 0.238708 0.215961
0.570994 0.245147 0.220772
0.585666 0.251585 0.225582
0.600338 0.258024 0.230392
0.614354 0.264139 0.234840
0.625094 0.268632 0.237474
0.635834 0.273125 0.240109
0.646574 0.277618 0.242744
0.657313 0.282111 0.245378
0.668053 0.286604 0.248013
0.115129 0.157123 0.202867
0.126501 0.159328 0.203840
0.137874 0.161532 0.204813
0.149246 0.163737 0.205786
0.160618 0.165942 0.206758
0.171991 0.168146 0.207731
0.191398 0.170313 0.207008
0.212413 0.172472 0.205945
0.233427 0.174631 0.204882
0.254442 0.176790 0.203820
0.275456 0.178949 0.202757
0.301132 0.182657 0.202404
0.329138 0.187139 0.202405
0.357145 0.191622 0.202407
0.385152 0.196104 0.202408
0.413158 0.200587 0.202410
0.438426 0.206192 0.203943
0.460956 0.212921 0.207007
0.483486 0.219649 0.210072
0.506016 0.226377 0.213136
0.528546 0.233106 0.216201
0.548493 0.240070 0.220082
0.563275 0.247505 0.225597
0.578057 0.254941 0.231112
0.592838 0.262377 0.236626
0.607620 0.269813 0.242141
0.621705 0.276772 0.247216
0.632307 0.281347 0.250088
0.642910 0.285923 0.252960
0.653512 0.290498 0.255833
0.664115 0.295074 0.258705
0.674717 0.299649 0.261578
0.118532 0.162795 0.210761
0.130069 0.165292 0.212053
0.141606 0.167790 0.213346
0.153143 0.170287 0.214639
0.164680 0.172785 0.215932
0.176217 0.175282 0.217225
0.195789 0.177612 0.216608
0.216968 0.179908 0.215610
0.238148 0.182204 0.214611
0.259327 0.184500 0.213612
0.280506 0.186796 0.212614
0.306365 0.190501 0.212178
0.334563 0.194910 0.212024
0.362762 0.199320 0.211870
0.390961 0.203729 0.211716
0.419159 0.208138 0.211562
0.444592 0.213703 0.212981
0.467259 0.220422 0.215972
0.489926 0.227141 0.218964
0.512594 0.233860 0.221955
0.535261 0.240579 0.224947
0.555336 0.247870 0.229014
0.570227 0.256303 0.235233
0.585119 0.264736 0.241452
0.600010 0.273169 0.247671
0.614902 0.281602 0.253890
0.629055 0.289405 0.259591
0.639521 0.294063 0.262702
0.649986 0.298721 0.265812
0.660451 0.303379 0.268922
0.670916 0.308037 0.272032
0.681382 0.312694 0.275143
0.121990 0.168427 0.218780
0.133727 0.171252 0.220411
0.145464 0.174078 0.222043
0.157200 0.176903 0.223674
0.168937 0.179728 0.225305
0.180674 0.182553 0.226937
0.200422 0.185072 0.226454
0.221772 0.187530 0.225548
0.243122 0.189988 0.224643
0.264471 0.192446 0.223737
0.285821 0.194903 0.222831
0.311860 0.198629 0.222331
0.340243 0.202988 0.222034
0.368626 0.207347 0.221737
0.397009 0.211706 0.221439
0.425393 0.216065 0.221142
0.450982 0.221598 0.222441
0.473779 0.228307 0.225336
0.496576 0.235015 0.228232
0.519373 0.241724 0.231127
0.542170 0.248432 0.234022
0.562354 0.255990 0.238214
0.577314 0.265246 0.244997
0.592274 0.274503 0.251780
0.607234 0.283759 0.258563
0.622194 0.293015 0.265347
0.636385 0.301556 0.271590
0.646730 0.306519 0.275135
0.657075 0.311481 0.278680
0.667419 0.316444 0.282225
0.677764 0.321407 0.285769
0.688109 0.326370 0.289314
0.125724 0.173863 0.227429
0.137836 0.177191 0.229491
0.149948 0.180519 0.231552
0.162060 0.183848 0.233613
0.174171 0.187176 0.235675
0.186283 0.190504 0.237736
0.206261 0.193344 0.237523
0.227812 0.196085 0.236855
0.249364 0.198826 0.236187
0.270915 0.201568 0.235520
0.292466 0.204309 0.234852
0.318669 0.208171 0.234376
0.347199 0.212594 0.233996
0.375728 0.217018 0.233617
0.404258 0.221441 0.233237
0.432787 0.225864 0.232858
0.458496 0.231420 0.234010
0.481384 0.238110 0.236695
0.504272 0.244801 0.239380
0.527161 0.251491 0.242065
0.550049 0.258181 0.244750
0.570249 0.265711 0.248755
