filter/Red and Blue/lut/Midnight 03_S.cube
# LUT by SparkleStock. Enhanced with VOXCOLOR algorithms.
LUT_3D_SIZE 32
0.039072 0.031258 0.019536
0.049234 0.031116 0.019158
0.059396 0.030974 0.018780
0.069558 0.030832 0.018402
0.079720 0.030690 0.018024
0.089881 0.030549 0.017645
0.103982 0.031392 0.017385
0.118870 0.032431 0.017149
0.133759 0.033471 0.016913
0.148647 0.034511 0.016677
0.163535 0.035551 0.016440
0.182678 0.037252 0.016424
0.203947 0.039285 0.016519
0.225216 0.041317 0.016613
0.246485 0.043349 0.016708
0.267754 0.045382 0.016803
0.290866 0.047911 0.016944
0.315822 0.050935 0.017133
0.340778 0.053960 0.017322
0.365733 0.056985 0.017512
0.390689 0.060010 0.017701
0.415266 0.063177 0.018157
0.439088 0.066627 0.019150
0.462909 0.070078 0.020143
0.486730 0.073528 0.021135
0.510552 0.076978 0.022128
0.533475 0.080555 0.023475
0.551908 0.084761 0.026594
0.570341 0.088968 0.029714
0.588775 0.093174 0.032833
0.607208 0.097381 0.035953
0.625641 0.101587 0.039072
0.039072 0.033243 0.023081
0.050194 0.033741 0.022264
0.061317 0.034240 0.021446
0.072439 0.034738 0.020629
0.083562 0.035237 0.019812
0.094684 0.035736 0.018995
0.110210 0.037486 0.018692
0.126617 0.039486 0.018492
0.143024 0.041486 0.018293
0.159431 0.043487 0.018093
0.175838 0.045487 0.017893
0.196547 0.047881 0.017884
0.219408 0.050471 0.017969
0.242269 0.053062 0.018054
0.265130 0.055652 0.018140
0.287991 0.058242 0.018225
0.312082 0.060995 0.018449
0.337403 0.063910 0.018812
0.362725 0.066825 0.019175
0.388047 0.069741 0.019538
0.413368 0.072656 0.019901
0.437784 0.075603 0.020583
0.460389 0.078614 0.021905
0.482994 0.081625 0.023227
0.505598 0.084637 0.024549
0.528203 0.087648 0.025871
0.549757 0.090787 0.027506
0.566059 0.094563 0.030708
0.582360 0.098340 0.033910
0.598662 0.102116 0.037111
0.614964 0.105893 0.040313
0.631266 0.109670 0.043515
0.039072 0.035228 0.026626
0.051155 0.036367 0.025369
0.063238 0.037506 0.024113
0.075321 0.038645 0.022857
0.087404 0.039784 0.021600
0.099487 0.040922 0.020344
0.116439 0.043580 0.019999
0.134364 0.046541 0.019836
0.152289 0.049501 0.019672
0.170215 0.052462 0.019509
0.188140 0.055423 0.019346
0.210417 0.058509 0.019343
0.234870 0.061658 0.019419
0.259322 0.064806 0.019495
0.283775 0.067954 0.019571
0.308227 0.071103 0.019648
0.333298 0.074080 0.019954
0.358985 0.076885 0.020491
0.384673 0.079691 0.021027
0.410360 0.082496 0.021564
0.436048 0.085301 0.022101
0.460302 0.088029 0.023009
0.481690 0.090601 0.024660
0.503078 0.093173 0.026311
0.524466 0.095745 0.027963
0.545854 0.098317 0.029614
0.566039 0.101019 0.031537
0.580209 0.104365 0.034821
0.594379 0.107712 0.038105
0.608550 0.111059 0.041390
0.622720 0.114405 0.044674
0.636890 0.117752 0.047958
0.039072 0.037213 0.030171
0.052116 0.038992 0.028475
0.065159 0.040772 0.026780
0.078203 0.042551 0.025084
0.091246 0.044330 0.023389
0.104290 0.046109 0.021693
0.122667 0.049674 0.021305
0.142111 0.053595 0.021179
0.161555 0.057517 0.021052
0.180999 0.061438 0.020926
0.200443 0.065360 0.020799
0.224287 0.069138 0.020802
0.250331 0.072844 0.020869
0.276376 0.076551 0.020936
0.302420 0.080257 0.021003
0.328464 0.083963 0.021070
0.354513 0.087164 0.021459
0.380567 0.089860 0.022169
0.406620 0.092556 0.022880
0.432674 0.095251 0.023590
0.458727 0.097947 0.024301
0.482820 0.100455 0.025435
0.502991 0.102588 0.027415
0.523162 0.104721 0.029396
0.543334 0.106854 0.031376
0.563505 0.108987 0.033357
0.582321 0.111251 0.035568
0.594360 0.114167 0.038935
0.606398 0.117084 0.042301
0.618437 0.120001 0.045668
0.630476 0.122917 0.049034
0.642514 0.125834 0.052401
0.039072 0.039198 0.033715
0.053076 0.041618 0.031581
0.067080 0.044037 0.029446
0.081084 0.046457 0.027312
0.095088 0.048877 0.025177
0.109092 0.051296 0.023043
0.128895 0.055768 0.022612
0.149858 0.060650 0.022522
0.170820 0.065532 0.022432
0.191783 0.070414 0.022342
0.212745 0.075296 0.022252
0.238157 0.079766 0.022261
0.265793 0.084031 0.022319
0.293429 0.088295 0.022377
0.321065 0.092560 0.022435
0.348701 0.096824 0.022493
0.375729 0.100249 0.022964
0.402148 0.102835 0.023848
0.428568 0.105421 0.024732
0.454987 0.108007 0.025617
0.481406 0.110592 0.026501
0.505337 0.112881 0.027860
0.524292 0.114575 0.030170
0.543247 0.116269 0.032480
0.562201 0.117963 0.034790
0.581156 0.119657 0.037100
0.598603 0.121483 0.039600
0.608510 0.123969 0.043048
0.618417 0.126456 0.046497
0.628324 0.128943 0.049946
0.638232 0.131430 0.053395
0.648139 0.133916 0.056844
0.039072 0.041183 0.037260
0.054037 0.044243 0.034687
0.069001 0.047303 0.032113
0.083966 0.050363 0.029539
0.098930 0.053423 0.026966
0.113895 0.056483 0.024392
0.135123 0.061862 0.023919
0.157604 0.067704 0.023865
0.180086 0.073547 0.023812
0.202567 0.079389 0.023759
0.225048 0.085232 0.023705
0.252027 0.090394 0.023720
0.281255 0.095217 0.023769
0.310482 0.100040 0.023818
0.339710 0.104862 0.023866
0.368938 0.109685 0.023915
0.396945 0.113334 0.024469
0.423730 0.115810 0.025527
0.450515 0.118286 0.026585
0.477300 0.120762 0.027643
0.504086 0.123238 0.028701
0.527855 0.125307 0.030286
0.545593 0.126562 0.032925
0.563331 0.127817 0.035565
0.581069 0.129071 0.038204
0.598807 0.130326 0.040843
0.614885 0.131715 0.043631
0.622660 0.133771 0.047162
0.630436 0.135828 0.050693
0.638212 0.137885 0.054224
0.645988 0.139942 0.057755
0.653763 0.141999 0.061286
0.039072 0.043444 0.040687
0.054014 0.046710 0.038116
0.068955 0.049976 0.035546
0.083897 0.053241 0.032975
0.098839 0.056507 0.030405
0.113781 0.059773 0.027834
0.136112 0.066539 0.027042
0.159921 0.074006 0.026606
0.183730 0.081472 0.026170
0.207539 0.088938 0.025734
0.231348 0.096404 0.025298
0.259231 0.102623 0.025240
0.289151 0.108217 0.025371
0.319071 0.113811 0.025502
0.348991 0.119405 0.025633
0.378911 0.124999 0.025765
0.407382 0.128986 0.026419
0.434404 0.131368 0.027598
0.461425 0.133749 0.028776
0.488447 0.136131 0.029955
0.515469 0.138512 0.031134
0.539239 0.140301 0.032881
0.556507 0.140903 0.035766
0.573776 0.141505 0.038650
0.591044 0.142108 0.041535
0.608312 0.142710 0.044420
0.623881 0.143448 0.047455
0.630951 0.144869 0.051244
0.638021 0.146290 0.055032
0.645091 0.147711 0.058821
0.652161 0.149132 0.062610
0.659230 0.150553 0.066399
0.039072 0.045760 0.044090
0.053794 0.049145 0.041611
0.068516 0.052529 0.039132
0.083238 0.055914 0.036653
0.097961 0.059299 0.034174
0.112683 0.062684 0.031694
0.136052 0.070933 0.030529
0.161151 0.080156 0.029626
0.186250 0.089379 0.028724
0.211349 0.098602 0.027821
0.236448 0.107824 0.026919
0.265103 0.115171 0.026772
0.295535 0.121579 0.027004
0.325967 0.127987 0.027236
0.356400 0.134395 0.027468
0.386832 0.140803 0.027699
0.415664 0.145152 0.028459
0.442896 0.147442 0.029748
0.470128 0.149732 0.031036
0.497360 0.152022 0.032324
0.524592 0.154312 0.033613
0.548396 0.155808 0.035509
0.565344 0.155715 0.038623
0.582293 0.155622 0.041736
0.599241 0.155529 0.044849
0.616189 0.155436 0.047963
0.631421 0.155483 0.051238
0.638070 0.156227 0.055319
0.644719 0.156971 0.059401
0.651368 0.157715 0.063482
0.658017 0.158459 0.067564
0.664666 0.159203 0.071645
0.039072 0.048076 0.047493
0.053575 0.051580 0.045105
0.068077 0.055083 0.042718
0.082580 0.058587 0.040330
0.097082 0.062091 0.037943
0.111585 0.065594 0.035555
0.135993 0.075328 0.034016
0.162382 0.086307 0.032647
0.188771 0.097286 0.031278
0.215159 0.108265 0.029909
0.241548 0.119244 0.028539
0.270974 0.127719 0.028305
0.301919 0.134941 0.028637
0.332863 0.142163 0.028969
0.363808 0.149385 0.029302
0.394753 0.156608 0.029634
0.423946 0.161318 0.030499
0.451389 0.163517 0.031897
0.478831 0.165715 0.033296
0.506273 0.167914 0.034694
0.533716 0.170113 0.036092
0.557553 0.171315 0.038138
0.574181 0.170527 0.041480
0.590809 0.169739 0.044822
0.607437 0.168951 0.048164
0.624065 0.168162 0.051506
0.638960 0.167517 0.055020
0.645188 0.167584 0.059395
0.651416 0.167651 0.063769
0.657645 0.167718 0.068143
0.663873 0.167785 0.072517
0.670101 0.167852 0.076892
0.039072 0.050392 0.050896
0.053355 0.054015 0.048600
0.067638 0.057637 0.046304
0.081921 0.061260 0.044008
0.096204 0.064882 0.041711
0.110487 0.068505 0.039415
0.135933 0.079722 0.037503
0.163612 0.092457 0.035667
0.191291 0.105193 0.033832
0.218970 0.117928 0.031996
0.246648 0.130664 0.030160
0.276846 0.140266 0.029837
0.308303 0.148303 0.030270
0.339760 0.156339 0.030703
0.371216 0.164376 0.031136
0.402673 0.172412 0.031569
0.432228 0.177484 0.032539
0.459881 0.179591 0.034047
0.487534 0.181698 0.035555
0.515187 0.183806 0.037063
0.542839 0.185913 0.038571
0.566711 0.186823 0.040766
0.583018 0.185339 0.044337
0.599326 0.183856 0.047908
0.615634 0.182372 0.051479
0.631942 0.180889 0.055049
0.646499 0.179551 0.058803
0.652307 0.178941 0.063470
0.658114 0.178331 0.068137
0.663922 0.177721 0.072804
0.669729 0.177111 0.077471
0.675537 0.176502 0.082138
0.039072 0.052708 0.054299
0.053136 0.056449 0.052094
0.067199 0.060191 0.049890
0.081263 0.063932 0.047685
0.095326 0.067674 0.045480
0.109390 0.071415 0.043276
0.135874 0.084116 0.040990
0.164843 0.098608 0.038688
0.193811 0.113100 0.036385
0.222780 0.127591 0.034083
0.251748 0.142083 0.031781
0.282717 0.152814 0.031369
0.314686 0.161665 0.031903
0.346656 0.170516 0.032436
0.378625 0.179366 0.032970
0.410594 0.188217 0.033504
0.440510 0.193650 0.034579
0.468373 0.195666 0.036197
0.496236 0.197681 0.037815
0.524100 0.199697 0.039432
0.551963 0.201713 0.041050
0.575868 0.202330 0.043395
0.591855 0.200151 0.047194
0.607843 0.197973 0.050994
0.623830 0.195794 0.054793
0.639818 0.193615 0.058593
0.654039 0.191585 0.062586
0.659426 0.190298 0.067545
0.664812 0.189011 0.072505
0.670199 0.187725 0.077465
0.675585 0.186438 0.082425
0.680972 0.185151 0.087384
0.039104 0.055717 0.058143
0.052923 0.059303 0.056024
0.066743 0.062889 0.053905
0.080562 0.066475 0.051785
0.094382 0.070061 0.049666
0.108201 0.073647 0.047547
0.134729 0.086530 0.045166
0.163798 0.101272 0.042733
0.192867 0.116014 0.040299
0.221937 0.130756 0.037866
0.251006 0.145498 0.035432
0.282492 0.157115 0.034894
0.315187 0.167170 0.035302
0.347882 0.177225 0.035711
0.380577 0.187280 0.036120
0.413272 0.197336 0.036528
0.443607 0.203517 0.037608
0.471583 0.205826 0.039360
0.499559 0.208134 0.041112
0.527535 0.210442 0.042864
0.555511 0.212751 0.044616
0.579464 0.213460 0.047112
0.595369 0.210970 0.051098
0.611274 0.208480 0.055083
0.627180 0.205990 0.059069
0.643085 0.203501 0.063054
0.657256 0.201177 0.067236
0.662759 0.199683 0.072403
0.668261 0.198188 0.077571
0.673764 0.196694 0.082738
0.679266 0.195200 0.087905
0.684769 0.193706 0.093072
0.039151 0.059073 0.062208
0.052714 0.062366 0.060171
0.066278 0.065659 0.058134
0.079841 0.068953 0.056097
0.093404 0.072246 0.054060
0.106968 0.075539 0.052023
0.133041 0.087954 0.049686
0.161616 0.102193 0.047290
0.190192 0.116431 0.044893
0.218767 0.130670 0.042496
0.247342 0.144909 0.040099
0.279219 0.157292 0.039414
0.312746 0.168747 0.039585
0.346273 0.180201 0.039756
0.379801 0.191656 0.039927
0.413328 0.203111 0.040097
0.444112 0.210235 0.041132
0.472152 0.213028 0.043030
0.500192 0.215821 0.044928
0.528232 0.218615 0.046826
0.556272 0.221408 0.048725
0.580279 0.222400 0.051374
0.596221 0.219792 0.055524
0.612163 0.217183 0.059674
0.628105 0.214574 0.063824
0.644047 0.211966 0.067974
0.658313 0.209547 0.072321
0.664200 0.208080 0.077653
0.670086 0.206614 0.082985
0.675973 0.205147 0.088316
0.681860 0.203680 0.093648
0.687747 0.202214 0.098980
0.039198 0.062429 0.066273
0.052505 0.065429 0.064318
0.065813 0.068430 0.062364
0.079120 0.071430 0.060409
0.092427 0.074431 0.058454
0.105734 0.077431 0.056500
0.131353 0.089378 0.054207
0.159435 0.103113 0.051847
0.187516 0.116849 0.049487
0.215597 0.130585 0.047127
0.243678 0.144321 0.044766
0.275945 0.157469 0.043935
0.310305 0.170323 0.043868
0.344665 0.183178 0.043801
0.379025 0.196032 0.043734
0.413385 0.208887 0.043667
0.444616 0.216953 0.044655
0.472721 0.220231 0.046700
0.500825 0.223509 0.048745
0.528929 0.226787 0.050789
0.557033 0.230065 0.052834
0.581095 0.231341 0.055635
0.597074 0.228613 0.059950
0.613052 0.225886 0.064265
0.629031 0.223158 0.068579
0.645009 0.220430 0.072894
0.659370 0.217918 0.077406
0.665641 0.216478 0.082902
0.671912 0.215039 0.088399
0.678182 0.213600 0.093895
0.684453 0.212160 0.099392
0.690724 0.210721 0.104888
0.039245 0.065784 0.070338
0.052296 0.068492 0.068465
0.065348 0.071200 0.066593
0.078399 0.073908 0.064721
0.091450 0.076616 0.062848
0.104501 0.079323 0.060976
0.129666 0.090802 0.058728
0.157253 0.104034 0.056404
0.184840 0.117267 0.054081
0.212427 0.130499 0.051757
0.240015 0.143732 0.049433
0.272672 0.157646 0.048456
0.307864 0.171900 0.048151
0.343056 0.186154 0.047846
0.378249 0.200408 0.047541
0.413441 0.214662 0.047236
0.445121 0.223670 0.048179
0.473289 0.227433 0.050370
0.501457 0.231196 0.052561
0.529626 0.234959 0.054752
0.557794 0.238722 0.056943
0.581911 0.240282 0.059896
0.597926 0.237435 0.064376
0.613941 0.234589 0.068855
0.629956 0.231742 0.073335
0.645971 0.228895 0.077814
0.660426 0.226288 0.082491
0.667081 0.224876 0.088152
0.673737 0.223464 0.093813
0.680392 0.222052 0.099474
0.687047 0.220641 0.105135
0.693702 0.219229 0.110796
0.039293 0.069140 0.074402
0.052088 0.071555 0.072612
0.064883 0.073970 0.070822
0.077678 0.076385 0.069032
0.090473 0.078800 0.067242
0.103267 0.081216 0.065453
0.127978 0.092226 0.063248
0.155071 0.104955 0.060961
0.182164 0.117685 0.058674
0.209258 0.130414 0.056387
0.236351 0.143144 0.054100
0.269398 0.157822 0.052976
0.305423 0.173476 0.052433
0.341448 0.189130 0.051891
0.377473 0.204784 0.051348
0.413497 0.220437 0.050805
0.445626 0.230388 0.051702
0.473858 0.234636 0.054040
0.502090 0.238883 0.056377
0.530322 0.243131 0.058714
0.558555 0.247379 0.061052
0.582727 0.249222 0.064158
0.598778 0.246257 0.068802
0.614830 0.243291 0.073446
0.630882 0.240326 0.078090
0.646933 0.237360 0.082734
0.661483 0.234658 0.087575
0.668522 0.233274 0.093401
0.675562 0.231890 0.099227
0.682601 0.230505 0.105053
0.689640 0.229121 0.110878
0.696680 0.227736 0.116704
0.039411 0.073181 0.078680
0.052014 0.075345 0.076968
0.064617 0.077508 0.075255
0.077219 0.079672 0.073543
0.089822 0.081835 0.071831
0.102425 0.083999 0.070119
0.126669 0.094209 0.067992
0.153241 0.106028 0.065783
0.179812 0.117847 0.063574
0.206384 0.129666 0.061365
0.232956 0.141485 0.059155
0.265961 0.156020 0.058014
0.302182 0.171911 0.057408
0.338404 0.187803 0.056801
0.374625 0.203694 0.056194
0.410847 0.219586 0.055587
0.443227 0.230129 0.056537
0.471765 0.235323 0.059044
0.500304 0.240518 0.061550
0.528843 0.245712 0.064057
0.557381 0.250907 0.066563
0.581828 0.253543 0.069807
0.598090 0.251062 0.074524
0.614352 0.248582 0.079241
0.630614 0.246101 0.083959
0.646876 0.243621 0.088676
0.661670 0.241378 0.093599
0.669121 0.240328 0.099553
0.676572 0.239277 0.105507
0.684023 0.238227 0.111461
0.691474 0.237176 0.117415
0.698925 0.236126 0.123368
0.039600 0.077908 0.083170
0.052075 0.079861 0.081531
0.064549 0.081814 0.079892
0.077024 0.083767 0.078253
0.089499 0.085720 0.076614
0.101974 0.087673 0.074975
0.125739 0.096750 0.072960
0.151762 0.107252 0.070869
0.177785 0.117754 0.068779
0.203808 0.128256 0.066689
0.229831 0.138758 0.064598
0.262360 0.152237 0.063570
0.298142 0.167204 0.063073
0.333924 0.182172 0.062576
0.369707 0.197140 0.062079
0.405489 0.212107 0.061582
0.437924 0.222893 0.062683
0.467011 0.229496 0.065382
0.496099 0.236099 0.068080
0.525187 0.242703 0.070779
0.554274 0.249306 0.073478
0.579215 0.253244 0.076843
0.595861 0.251852 0.081542
0.612507 0.250460 0.086241
0.629153 0.249068 0.090940
0.645800 0.247676 0.095639
0.660987 0.246448 0.100562
0.668877 0.246038 0.106608
0.676767 0.245628 0.112653
0.684657 0.245217 0.118698
0.692547 0.244807 0.124744
0.700437 0.244397 0.130789
0.039789 0.082634 0.087660
0.052136 0.084377 0.086094
0.064482 0.086120 0.084528
0.076829 0.087862 0.082963
0.089176 0.089605 0.081397
0.101523 0.091348 0.079831
0.124809 0.099292 0.077927
0.150283 0.108476 0.075956
0.175757 0.117661 0.073984
0.201231 0.126846 0.072013
0.226705 0.136030 0.070042
0.258758 0.148454 0.069126
0.294102 0.162498 0.068739
0.329445 0.176542 0.068352
0.364788 0.190585 0.067964
0.400131 0.204629 0.067577
0.432621 0.215657 0.068829
0.462258 0.223669 0.071720
0.491894 0.231681 0.074610
0.521530 0.239693 0.077501
0.551167 0.247705 0.080392
0.576601 0.252945 0.083879
0.593632 0.252642 0.088560
0.610662 0.252339 0.093241
0.627693 0.252035 0.097922
0.644723 0.251732 0.102602
0.660303 0.251517 0.107526
0.668633 0.251748 0.113662
0.676962 0.251978 0.119799
0.685291 0.252208 0.125936
0.693620 0.252438 0.132073
0.701950 0.252668 0.138209
0.039978 0.087361 0.092150
0.052197 0.088893 0.090657
0.064415 0.090425 0.089165
0.076634 0.091958 0.087672
0.088853 0.093490 0.086180
0.101071 0.095022 0.084687
0.123879 0.101834 0.082894
0.148804 0.109701 0.081042
0.173729 0.117568 0.079189
0.198654 0.125435 0.077337
0.223579 0.133303 0.075485
0.255157 0.144671 0.074682
0.290061 0.157791 0.074405
0.324965 0.170911 0.074127
0.359870 0.184031 0.073850
0.394774 0.197150 0.073572
0.427318 0.208421 0.074975
0.457504 0.217842 0.078058
0.487689 0.227263 0.081141
0.517874 0.236683 0.084223
0.548060 0.246104 0.087306
0.573988 0.252647 0.090916
0.591403 0.253432 0.095578
0.608817 0.254217 0.100241
0.626232 0.255002 0.104903
0.643647 0.255787 0.109565
0.659620 0.256587 0.114489
0.668389 0.257457 0.120717
0.677157 0.258328 0.126945
0.685925 0.259199 0.133173
0.694694 0.260069 0.139402
0.703462 0.260940 0.145630
0.040167 0.092087 0.096640
0.052258 0.093409 0.095221
0.064348 0.094731 0.093801
0.076439 0.096053 0.092382
0.088529 0.097375 0.090962
0.100620 0.098697 0.089543
0.122949 0.104375 0.087862
0.147325 0.110925 0.086128
0.171701 0.117475 0.084395
0.196078 0.124025 0.082661
0.220454 0.130575 0.080928
0.251556 0.140889 0.080238
0.286021 0.153085 0.080070
0.320486 0.165280 0.079903
0.354951 0.177476 0.079735
0.389416 0.189672 0.079567
0.422016 0.201185 0.081121
0.452750 0.212014 0.084396
0.483484 0.222844 0.087671
0.514218 0.233674 0.090946
0.544952 0.244503 0.094221
0.571375 0.252348 0.097952
0.589174 0.254222 0.102596
0.606973 0.256095 0.107240
0.624771 0.257969 0.111884
0.642570 0.259843 0.116528
0.658937 0.261656 0.121452
0.668145 0.263167 0.127772
0.677352 0.264678 0.134091
0.686560 0.266189 0.140411
0.695767 0.267700 0.146731
0.704975 0.269211 0.153051
0.040388 0.096892 0.101225
0.052396 0.098083 0.099891
0.064404 0.099274 0.098557
0.076412 0.100465 0.097223
0.088421 0.101655 0.095889
0.100429 0.102846 0.094555
0.122406 0.107634 0.092956
0.146377 0.113141 0.091305
0.170347 0.118648 0.089654
0.194318 0.124155 0.088003
0.218289 0.129662 0.086351
0.249044 0.139043 0.085766
0.283192 0.150361 0.085715
0.317340 0.161678 0.085663
0.351488 0.172996 0.085611
0.385636 0.184313 0.085559
0.418264 0.195823 0.087268
0.449374 0.207525 0.090738
0.480483 0.219227 0.094208
0.511592 0.230928 0.097679
0.542701 0.242630 0.101149
0.569474 0.251476 0.105080
0.587575 0.254609 0.109935
0.605676 0.257742 0.114789
0.623777 0.260875 0.119644
0.641878 0.264008 0.124498
0.658570 0.266988 0.129599
0.668220 0.269200 0.135931
0.677869 0.271413 0.142263
0.687519 0.273625 0.148595
0.697168 0.275837 0.154927
0.706818 0.278050 0.161259
0.040671 0.101855 0.105999
0.052689 0.103073 0.104774
0.064706 0.104292 0.103550
0.076723 0.105510 0.102326
0.088741 0.106728 0.101101
0.100758 0.107946 0.099877
0.122638 0.112327 0.098305
0.146489 0.117340 0.096663
0.170341 0.122353 0.095021
0.194193 0.127366 0.093379
0.218045 0.132379 0.091736
0.248712 0.141071 0.091240
0.282787 0.151602 0.091316
0.316861 0.162132 0.091392
0.350936 0.172663 0.091469
0.385011 0.183194 0.091545
0.417616 0.194210 0.093419
0.448753 0.205710 0.097090
0.479890 0.217211 0.100761
0.511026 0.228711 0.104433
0.542163 0.240212 0.108104
0.569000 0.249457 0.112393
0.587238 0.254191 0.117915
0.605476 0.258925 0.123437
0.623714 0.263659 0.128960
0.641952 0.268393 0.134482
0.658834 0.272844 0.140115
0.668932 0.275880 0.146300
0.679029 0.278916 0.152486
0.689127 0.281951 0.158671
0.699225 0.284987 0.164857
0.709323 0.288022 0.171043
0.040955 0.106818 0.110772
0.052981 0.108064 0.109658
0.065008 0.109309 0.108543
0.077034 0.110555 0.107429
0.089061 0.111801 0.106314
0.101087 0.113046 0.105200
0.122869 0.117020 0.103653
0.146602 0.121539 0.102020
0.170335 0.126058 0.100387
0.194068 0.130577 0.098754
0.217801 0.135096 0.097122
0.248380 0.143099 0.096713
0.282381 0.152843 0.096918
0.316383 0.162587 0.097122
0.350384 0.172331 0.097326
0.384386 0.182075 0.097531
0.416968 0.192597 0.099569
0.448133 0.203896 0.103442
0.479297 0.215195 0.107314
0.510461 0.226495 0.111187
0.541625 0.237794 0.115060
0.568526 0.247438 0.119705
0.586901 0.253773 0.125895
0.605277 0.260108 0.132085
0.623652 0.266443 0.138275
0.642027 0.272778 0.144465
0.659097 0.278701 0.150630
0.669644 0.282560 0.156670
0.680190 0.286418 0.162709
0.690736 0.290277 0.168748
0.701282 0.294136 0.174787
0.711828 0.297995 0.180826
0.041238 0.111781 0.115546
0.053274 0.113054 0.114541
0.065310 0.114327 0.113537
0.077345 0.115600 0.112532
0.089381 0.116873 0.111527
0.101417 0.118146 0.110522
0.123101 0.121713 0.109002
0.146715 0.125738 0.107378
0.170329 0.129763 0.105754
0.193943 0.133788 0.104130
0.217557 0.137813 0.102507
0.248047 0.145126 0.102187
0.281976 0.154084 0.102519
0.315904 0.163041 0.102852
0.349832 0.171999 0.103184
0.383761 0.180956 0.103517
0.416321 0.190984 0.105720
0.447512 0.202082 0.109794
0.478704 0.213180 0.113867
0.509895 0.224278 0.117941
0.541087 0.235376 0.122015
0.568052 0.245420 0.127017
0.586564 0.253356 0.133875
0.605077 0.261291 0.140733
0.623589 0.269227 0.147591
0.642102 0.277163 0.154449
0.659361 0.284557 0.161146
0.670356 0.289239 0.167039
0.681350 0.293921 0.172932
0.692344 0.298604 0.178824
0.703339 0.303286 0.184717
0.714333 0.307968 0.190610
0.041522 0.116743 0.120320
0.053567 0.118044 0.119425
0.065612 0.119345 0.118530
0.077656 0.120645 0.117635
0.089701 0.121946 0.116740
0.101746 0.123246 0.115845
0.123333 0.126406 0.114350
0.146828 0.129937 0.112736
0.170323 0.133468 0.111121
0.193818 0.136999 0.109506
0.217313 0.140530 0.107892
0.247715 0.147154 0.107661
0.281570 0.155325 0.108121
0.315425 0.163495 0.108581
0.349280 0.171666 0.109042
0.383135 0.179837 0.109502
0.415673 0.189371 0.111870
0.446892 0.200267 0.116145
0.478111 0.211164 0.120420
0.509330 0.222061 0.124696
0.540549 0.232958 0.128971
0.567578 0.243401 0.134329
0.586227 0.252938 0.141855
0.604877 0.262475 0.149381
0.623527 0.272011 0.156907
0.642177 0.281548 0.164432
0.659625 0.290413 0.171662
0.671068 0.295919 0.177408
0.682510 0.301424 0.183155
0.693953 0.306930 0.188901
0.705395 0.312435 0.194647
0.716838 0.317941 0.200394
0.041798 0.121139 0.125204
0.053856 0.122482 0.124409
0.065915 0.123826 0.123615
0.077973 0.125169 0.122821
0.090032 0.126512 0.122026
0.102090 0.127855 0.121232
0.123599 0.130689 0.119768
0.146998 0.133820 0.118170
0.170397 0.136952 0.116572
0.193796 0.140084 0.114975
0.217195 0.143215 0.113377
0.247550 0.149275 0.113232
0.281382 0.156800 0.113815
0.315214 0.164324 0.114397
0.349047 0.171848 0.114980
0.382879 0.179372 0.115562
0.415443 0.188516 0.118093
0.446738 0.199278 0.122573
0.478033 0.210041 0.127052
0.509329 0.220804 0.131531
0.540624 0.231566 0.136011
0.567744 0.242379 0.141710
0.586516 0.253291 0.149847
0.605288 0.264203 0.157984
0.624059 0.275115 0.166121
0.642831 0.286027 0.174258
0.660429 0.296179 0.182006
0.672156 0.302536 0.187811
0.683884 0.308892 0.193615
0.695612 0.315248 0.199420
0.707340 0.321605 0.205224
0.719067 0.327961 0.211028
0.042034 0.122699 0.130639
0.054129 0.124161 0.129900
0.066224 0.125623 0.129160
0.078319 0.127085 0.128421
0.090415 0.128547 0.127681
0.102510 0.130010 0.126942
0.124040 0.132924 0.125533
0.147457 0.136129 0.123990
0.170875 0.139334 0.122447
0.194292 0.142538 0.120904
0.217709 0.145743 0.119361
0.248222 0.151864 0.119296
0.282283 0.159443 0.119970
0.316344 0.167023 0.120644
0.350405 0.174602 0.121318
0.384466 0.182181 0.121992
0.417304 0.191452 0.124678
0.448920 0.202416 0.129377
0.480535 0.213380 0.134076
0.512151 0.224344 0.138775
0.543766 0.235308 0.143474
0.571116 0.246337 0.149429
