filter/Red and Blue/lut/Midnight 04.cube
# LUT by SparkleStock. Enhanced with VOXCOLOR algorithms.
LUT_3D_SIZE 8
DOMAIN_MIN 0.000000 0.000000 0.000000
DOMAIN_MAX 0.903226 0.903226 0.903226
0.085958 0.019536 0.062515
0.141731 0.018969 0.057222
0.217858 0.023223 0.056749
0.310323 0.031667 0.061255
0.414329 0.043814 0.070708
0.521147 0.060262 0.085454
0.606853 0.077971 0.101461
0.672464 0.095931 0.115672
0.083879 0.031447 0.077640
0.153849 0.030001 0.068687
0.236916 0.036176 0.068806
0.334126 0.048182 0.076020
0.443273 0.064446 0.088473
0.550238 0.084114 0.104683
0.632675 0.102725 0.119958
0.692907 0.119936 0.133236
0.078585 0.040277 0.091693
0.148964 0.040649 0.082399
0.248095 0.049825 0.081654
0.359450 0.065549 0.089536
0.470317 0.085683 0.104912
0.574006 0.108052 0.122690
0.652432 0.128776 0.138546
0.708931 0.147690 0.152222
0.072835 0.049494 0.106487
0.137151 0.052061 0.098339
0.246714 0.064081 0.096900
0.373955 0.083723 0.104658
0.496468 0.108670 0.121789
0.595230 0.134199 0.141481
0.668890 0.157797 0.158917
0.722077 0.179343 0.173828
0.068510 0.061475 0.123384
0.126057 0.065232 0.116499
0.232997 0.079128 0.115376
0.371749 0.102712 0.123091
0.519239 0.133892 0.140540
0.615458 0.164196 0.162776
0.684242 0.191120 0.182419
0.733791 0.215199 0.198975
0.065674 0.076600 0.143424
0.119269 0.081674 0.137417
0.224227 0.096576 0.136136
0.364736 0.122929 0.143936
0.519416 0.160037 0.162776
0.632174 0.199855 0.188963
0.699690 0.230682 0.210729
0.745836 0.257383 0.228962
0.063153 0.093773 0.165828
0.115602 0.100286 0.160455
0.220260 0.116489 0.159549
0.362932 0.144961 0.167831
0.523232 0.185846 0.187679
0.645089 0.232495 0.216477
0.713959 0.276129 0.245428
0.759355 0.309803 0.267650
0.058955 0.109922 0.187680
0.113038 0.119722 0.185191
0.218549 0.138041 0.185382
0.363702 0.169248 0.194244
0.529476 0.214651 0.215106
0.658628 0.267514 0.245770
0.730645 0.319909 0.278675
0.776032 0.367075 0.308728
0.078585 0.030312 0.094844
0.153092 0.030038 0.071986
0.236551 0.035414 0.067013
0.332870 0.046542 0.073373
0.441651 0.062842 0.085808
0.547737 0.081778 0.101872
0.630882 0.101609 0.118220
0.692218 0.121619 0.133212
0.075042 0.046468 0.105285
0.109808 0.052001 0.106531
0.186481 0.060445 0.105832
0.299349 0.074002 0.108195
0.436855 0.093455 0.116817
0.561218 0.115838 0.131399
0.647893 0.136420 0.145485
0.707401 0.155146 0.158297
0.071499 0.060891 0.122327
0.094954 0.069790 0.130847
0.180992 0.080714 0.129762
0.307896 0.097182 0.130431
0.453258 0.120596 0.139959
0.579875 0.146469 0.155569
0.665298 0.169441 0.170246
0.722338 0.189390 0.183095
0.068090 0.075523 0.142231
0.091433 0.086429 0.152162
0.184781 0.099164 0.149986
0.323367 0.118896 0.149836
0.479906 0.147506 0.160509
0.601275 0.177086 0.178252
0.682406 0.203346 0.195032
0.736434 0.226183 0.209462
0.064954 0.091676 0.162641
0.087619 0.104309 0.175563
0.176258 0.118316 0.174117
0.322938 0.141339 0.173218
0.503976 0.176122 0.182819
0.622943 0.210407 0.202595
0.698961 0.240407 0.221911
0.749593 0.267121 0.238881
0.062411 0.109435 0.185170
0.085430 0.125312 0.201689
0.170533 0.140967 0.201841
0.313115 0.165975 0.201395
0.495139 0.204930 0.211084
0.640504 0.248955 0.231526
0.716142 0.283651 0.253078
0.763446 0.314999 0.273131
0.060061 0.128511 0.211159
0.085484 0.149170 0.231410
0.168648 0.167716 0.234205
0.309025 0.195483 0.235373
0.492023 0.238443 0.245866
0.645675 0.288864 0.267142
0.729016 0.333273 0.291050
0.778758 0.371732 0.314052
0.059577 0.149825 0.239988
0.086473 0.173837 0.263289
0.169577 0.197503 0.270499
0.310346 0.231022 0.275675
0.495588 0.279644 0.288553
0.653833 0.336020 0.310345
0.742842 0.387211 0.334406
0.794987 0.434320 0.360917
0.072819 0.043633 0.129584
0.127597 0.043755 0.107098
0.235073 0.049769 0.089196
0.357106 0.062941 0.085858
0.468044 0.083006 0.100705
0.571325 0.104949 0.118605
0.650267 0.126384 0.135640
0.707963 0.148278 0.151555
0.069367 0.062893 0.140939
0.089300 0.072698 0.147123
0.172617 0.080460 0.135927
0.299009 0.094506 0.128871
0.446545 0.118798 0.138480
0.575718 0.144976 0.154038
0.662903 0.168041 0.168834
0.721224 0.188721 0.182072
0.066412 0.083971 0.159298
0.078430 0.098668 0.175595
0.140279 0.113176 0.178441
0.255662 0.131797 0.178162
0.416275 0.156952 0.182340
0.569950 0.186777 0.194051
0.670236 0.212819 0.206610
0.733476 0.234557 0.218142
0.064360 0.105038 0.182326
0.078555 0.122376 0.201570
0.128077 0.143362 0.215601
0.238125 0.167267 0.221484
0.411248 0.194122 0.220544
0.575280 0.227746 0.230664
0.681265 0.257308 0.242887
0.746690 0.281818 0.254600
0.063244 0.125272 0.208153
0.078356 0.145156 0.231133
0.126778 0.169306 0.248068
0.246459 0.197155 0.253493
0.441649 0.228709 0.248670
0.601484 0.267158 0.260545
0.700644 0.300277 0.274968
0.761887 0.328758 0.289077
0.061823 0.147117 0.236073
0.078785 0.171610 0.263684
0.126019 0.198511 0.283141
0.242476 0.228913 0.290143
0.437253 0.264407 0.286232
0.624034 0.310977 0.295085
0.720879 0.348008 0.310853
0.777475 0.381261 0.328287
0.060386 0.170411 0.268119
0.080896 0.201530 0.300473
0.128756 0.232723 0.322801
0.243742 0.267089 0.332546
0.436794 0.307504 0.331929
0.628829 0.359460 0.341647
0.734740 0.402189 0.355088
0.794307 0.440485 0.373257
0.061702 0.196852 0.304513
0.084328 0.233575 0.340044
0.134362 0.270617 0.365830
0.250498 0.311443 0.380320
0.443434 0.358758 0.385552
0.636777 0.415697 0.397336
0.747994 0.461975 0.408408
0.810373 0.503610 0.425617
0.068975 0.060286 0.168467
0.096724 0.061640 0.154104
0.198571 0.067633 0.129672
0.341921 0.081839 0.113441
0.493313 0.105264 0.116919
0.593300 0.131464 0.137356
0.667018 0.154716 0.155505
0.721045 0.178270 0.172580
0.066255 0.081204 0.183286
0.081435 0.094490 0.193221
0.157513 0.102632 0.176822
0.291031 0.117014 0.159393
0.463573 0.143710 0.158421
0.592125 0.174693 0.176468
0.677403 0.200997 0.193071
0.734075 0.224400 0.207659
0.063885 0.107968 0.203856
0.078202 0.127020 0.223820
0.118709 0.146359 0.232507
0.221984 0.167277 0.229816
0.397260 0.191694 0.220456
0.567094 0.226283 0.230422
0.676984 0.256011 0.242213
0.744843 0.280707 0.253536
0.062693 0.136794 0.230206
0.080132 0.159244 0.254179
0.098933 0.189248 0.283196
0.177744 0.218391 0.296072
0.344440 0.243704 0.285423
0.543732 0.281140 0.288616
0.675603 0.313898 0.295426
0.755116 0.340438 0.303565
0.063021 0.165028 0.261786
0.082398 0.191301 0.289628
0.104325 0.225839 0.322317
0.179184 0.261431 0.342087
0.334138 0.294735 0.341245
0.541307 0.335033 0.342290
0.681793 0.370074 0.346220
0.766821 0.398596 0.352385
0.063857 0.192472 0.296536
0.085046 0.223920 0.328689
0.108489 0.261770 0.363886
0.184013 0.300491 0.385984
0.341655 0.337954 0.387176
0.572815 0.383899 0.382667
0.706802 0.421361 0.386900
0.784278 0.453259 0.395607
0.064179 0.221954 0.335291
0.089200 0.260729 0.371716
0.116274 0.303330 0.408896
0.193622 0.345825 0.433056
0.351007 0.387283 0.437637
0.584237 0.437943 0.435815
0.724309 0.477421 0.435868
0.802589 0.511535 0.443672
0.066698 0.254377 0.378276
0.094993 0.300235 0.417148
0.126817 0.348108 0.455385
0.208101 0.395410 0.482155
0.366868 0.442005 0.492302
0.597552 0.497372 0.495896
0.739802 0.537585 0.493858
0.819177 0.570768 0.498281
0.067179 0.080302 0.212706
0.081169 0.084200 0.207089
0.130638 0.090261 0.190574
0.268623 0.104544 0.165977
0.494459 0.130032 0.142292
0.610986 0.162105 0.160203
0.682688 0.188318 0.179228
0.732852 0.213537 0.197749
0.065300 0.101806 0.231807
0.078408 0.119108 0.246918
0.122533 0.131239 0.238739
0.249206 0.146781 0.214671
0.463425 0.171644 0.187736
0.606662 0.207480 0.202451
0.691480 0.237944 0.220432
0.746135 0.265093 0.237292
0.064187 0.132382 0.256982
0.079648 0.155449 0.280600
0.109845 0.180314 0.295244
0.211414 0.203472 0.286599
0.402690 0.225618 0.255840
0.581940 0.264652 0.262299
0.691179 0.298311 0.274813
0.757991 0.327215 0.287872
0.063812 0.169979 0.288048
0.083449 0.196760 0.315184
0.105591 0.232225 0.347270
0.172342 0.265876 0.360974
0.311185 0.293721 0.347555
0.527611 0.333729 0.344374
0.674891 0.368971 0.346700
0.764225 0.397905 0.351910
0.064500 0.211353 0.324540
0.088602 0.243354 0.355177
0.115587 0.282472 0.388813
0.147546 0.325946 0.423267
0.210956 0.370592 0.451543
0.457415 0.409468 0.440653
0.648154 0.444821 0.430541
0.765383 0.471858 0.425019
0.068464 0.246976 0.365804
0.094280 0.284009 0.399391
0.124197 0.325937 0.434537
0.161055 0.372013 0.470765
0.231326 0.420256 0.501511
0.483984 0.462768 0.489558
0.668245 0.499475 0.479694
0.780348 0.527321 0.474270
0.071427 0.284300 0.410279
0.101483 0.328177 0.446566
0.136244 0.373910 0.482350
0.178642 0.421410 0.517727
0.254115 0.470061 0.547655
0.505254 0.516929 0.541415
0.690275 0.553188 0.529403
0.799646 0.580756 0.522881
0.075626 0.323915 0.457488
0.110280 0.373692 0.494293
0.151053 0.423366 0.529269
0.201017 0.472249 0.563127
0.283676 0.520570 0.592543
0.529821 0.572293 0.594438
0.711363 0.607871 0.583487
0.817787 0.632363 0.574389
0.067368 0.101477 0.263563
0.076821 0.109326 0.267460
0.104542 0.120583 0.263257
0.181674 0.135574 0.246698
0.334015 0.156433 0.218055
0.602326 0.195532 0.193228
0.697861 0.228526 0.208666
0.745634 0.256990 0.228895
0.067099 0.125615 0.290275
0.080315 0.147549 0.310934
0.108141 0.166600 0.313991
0.184274 0.186276 0.300341
0.336132 0.210151 0.272598
0.603616 0.245647 0.238908
0.706733 0.281382 0.252169
0.759461 0.313645 0.272291
0.067285 0.160692 0.321298
0.084371 0.188509 0.348264
0.108831 0.218953 0.368182
0.178010 0.248223 0.368455
0.322723 0.275458 0.343496
0.587689 0.310559 0.305997
0.707794 0.347136 0.312673
0.772191 0.380562 0.328235
0.068325 0.205265 0.356877
0.089813 0.236164 0.385746
0.113870 0.275057 0.417866
0.168332 0.314157 0.436096
0.284458 0.349110 0.428974
0.544624 0.385270 0.393611
0.693989 0.421633 0.390573
0.779491 0.453532 0.396753
0.070732 0.256996 0.396809
0.097281 0.291980 0.427323
0.127307 0.333103 0.459498
0.163531 0.378581 0.492677
0.230966 0.425361 0.519124
0.470159 0.463335 0.495315
0.659615 0.499651 0.482743
0.777317 0.527937 0.475966
0.076160 0.309889 0.439976
0.107595 0.350360 0.471287
0.145170 0.393541 0.502899
0.190563 0.438722 0.534868
0.251827 0.484808 0.565102
0.372344 0.528571 0.580911
0.595418 0.568677 0.572912
0.757636 0.594497 0.557456
0.082660 0.356679 0.486842
0.118298 0.400386 0.517661
0.162057 0.445036 0.548071
0.215133 0.490143 0.578376
0.282025 0.535237 0.607811
0.387102 0.579559 0.630542
0.611686 0.618302 0.622470
0.773811 0.642183 0.605451
0.090019 0.403405 0.533605
0.130924 0.449575 0.562894
0.182123 0.495190 0.591269
0.243926 0.539678 0.619284
0.319637 0.582831 0.646716
0.430327 0.625427 0.669914
0.643523 0.662710 0.663902
0.795160 0.684167 0.647049
0.068817 0.122336 0.318201
0.077636 0.135479 0.332588
0.096412 0.152929 0.340723
0.142930 0.174970 0.337783
0.239737 0.202330 0.320861
0.456868 0.239306 0.289398
0.651779 0.275830 0.266001
0.757975 0.306654 0.264909
0.071013 0.151305 0.352524
0.085596 0.179023 0.379328
0.106211 0.205399 0.393136
0.154622 0.234287 0.394288
0.255480 0.268138 0.382346
0.475411 0.306705 0.350331
0.668593 0.337974 0.317374
0.774402 0.370261 0.313779
0.073178 0.192300 0.389914
0.092109 0.225363 0.419712
0.114968 0.261634 0.443881
0.164831 0.299731 0.455079
0.266968 0.338835 0.448261
0.486240 0.380020 0.419757
0.680495 0.409547 0.383036
0.788794 0.441025 0.375890
0.075938 0.244288 0.429874
0.099513 0.279343 0.458976
0.126698 0.321712 0.489547
0.174125 0.366531 0.511577
0.265433 0.410550 0.516974
0.480118 0.454477 0.495566
0.680949 0.484897 0.460466
0.797342 0.513827 0.448615
0.079913 0.305154 0.471721
0.109438 0.342772 0.500247
0.143948 0.385289 0.528955
0.186061 0.431444 0.558143
0.254076 0.479507 0.583033
0.449001 0.525054 0.573852
0.662594 0.558396 0.545804
0.795651 0.583929 0.528602
0.086439 0.368976 0.513985
0.122418 0.408757 0.540872
0.166486 0.450878 0.567597
0.219486 0.494599 0.594535
0.284410 0.538917 0.620976
0.377903 0.581169 0.641196
0.604930 0.619965 0.628829
0.771336 0.644043 0.608808
0.096212 0.426817 0.554947
0.139236 0.467643 0.579756
0.192315 0.508317 0.604419
0.255313 0.548909 0.629363
0.327973 0.589269 0.654668
0.411622 0.628222 0.679178
0.584919 0.664649 0.681799
0.740247 0.687320 0.667903
0.107410 0.479860 0.594913
0.156365 0.519610 0.617358
0.218279 0.558189 0.639727
0.291272 0.595826 0.662621
0.373426 0.632670 0.686300
0.463428 0.668453 0.710050
0.601300 0.702204 0.720344
0.740628 0.723224 0.710092
0.071543 0.143747 0.374926
0.082173 0.163483 0.396430
0.097183 0.187680 0.415420
0.127005 0.218053 0.426744
0.187270 0.255528 0.426278
0.333162 0.300206 0.408244
0.564451 0.346639 0.373739
0.728343 0.377248 0.341740
0.075739 0.177906 0.412579
0.092195 0.210706 0.443800
0.110363 0.244446 0.466360
0.143811 0.283000 0.480818
0.210078 0.328413 0.486366
0.363227 0.378460 0.473974
0.590617 0.420585 0.434732
0.750266 0.450285 0.400935
0.079667 0.225305 0.454293
0.100980 0.263119 0.486341
0.125128 0.304419 0.513159
0.164965 0.350393 0.532479
0.237235 0.401063 0.541944
0.394220 0.452874 0.534787
0.614919 0.491563 0.496531
0.769363 0.518885 0.463528
0.084135 0.285078 0.497801
0.110849 0.323944 0.526819
0.142708 0.368471 0.554692
0.188282 0.417311 0.577957
0.262020 0.469025 0.593045
0.419268 0.521430 0.591426
0.632582 0.558147 0.559294
0.783142 0.582536 0.528919
0.089924 0.354905 0.540862
0.123469 0.393722 0.566579
0.164071 0.436318 0.590764
0.213875 0.481846 0.615153
0.283630 0.529857 0.638227
0.431333 0.581780 0.643902
0.637820 0.618385 0.622275
0.788378 0.640345 0.595689
0.098584 0.427278 0.579601
0.139707 0.464668 0.602046
0.190709 0.503695 0.623514
0.251750 0.544223 0.645251
0.323813 0.585799 0.667674
0.414522 0.626594 0.688308
0.613611 0.665274 0.680576
0.774525 0.687864 0.658389
0.110309 0.490685 0.612459
0.159930 0.526170 0.632317
0.221778 0.561415 0.651948
0.294069 0.596946 0.672303
0.374785 0.632881 0.693869
0.461467 0.667855 0.715874
0.590003 0.701518 0.725711
0.731275 0.723660 0.714122
0.124126 0.543150 0.643002
0.180866 0.575540 0.660343
0.253036 0.607553 0.678387
0.335875 0.639483 0.697830
0.424926 0.671435 0.718864
0.515182 0.702814 0.740155
0.603509 0.732422 0.758060
0.720552 0.753751 0.754364
