filter/Red and Blue/lut/Midnight 03_S.cube
# LUT by SparkleStock. Enhanced with VOXCOLOR algorithms.
LUT_3D_SIZE 5
DOMAIN_MIN 0.000000 0.000000 0.000000
DOMAIN_MAX 0.903226 0.903226 0.903226
0.039072 0.031258 0.019536
0.118870 0.032431 0.017149
0.246485 0.043349 0.016708
0.415266 0.063177 0.018157
0.570341 0.088968 0.029714
0.039072 0.045760 0.044090
0.161151 0.080156 0.029626
0.356400 0.134395 0.027468
0.548396 0.155808 0.035509
0.644719 0.156971 0.059401
0.039245 0.065784 0.070338
0.157253 0.104034 0.056404
0.378249 0.200408 0.047541
0.581911 0.240282 0.059896
0.673737 0.223464 0.093813
0.040388 0.096892 0.101225
0.146377 0.113141 0.091305
0.351488 0.172996 0.085611
0.569474 0.251476 0.105080
0.677869 0.271413 0.142263
0.042270 0.124259 0.136075
0.147916 0.138437 0.129810
0.351764 0.177355 0.127656
0.574487 0.250295 0.157148
0.688769 0.323477 0.216915
0.039245 0.052054 0.075828
0.141597 0.048023 0.052060
0.320287 0.060086 0.070652
0.509239 0.089872 0.077039
0.628909 0.137641 0.070558
0.040748 0.083600 0.098965
0.151221 0.148645 0.154829
0.397125 0.204194 0.188356
0.618764 0.229643 0.190548
0.705416 0.234983 0.161667
0.043648 0.114180 0.134416
0.142067 0.203825 0.184783
0.402562 0.329797 0.212790
0.647458 0.383337 0.225459
0.752375 0.369499 0.223931
0.046099 0.148062 0.175595
0.117109 0.204709 0.215486
0.339434 0.311683 0.222858
0.627190 0.432028 0.237241
0.763792 0.474457 0.269004
0.049869 0.183649 0.227749
0.118407 0.228727 0.272146
0.307104 0.281310 0.276290
0.579729 0.376638 0.285788
0.747264 0.487107 0.334974
0.040600 0.081909 0.139903
0.102930 0.083170 0.122762
0.321498 0.093532 0.101450
0.536266 0.131684 0.113235
0.654914 0.187877 0.107556
0.043022 0.120246 0.170811
0.126268 0.170280 0.236581
0.366450 0.215682 0.286602
0.616199 0.252343 0.297415
0.723820 0.284779 0.255356
0.050094 0.168683 0.215496
0.131915 0.248121 0.295638
0.339016 0.367499 0.390168
0.630679 0.436403 0.421971
0.790606 0.455251 0.409353
0.058515 0.216401 0.273761
0.128637 0.284836 0.341533
0.283326 0.407816 0.417783
0.616571 0.551525 0.444590
0.815334 0.610539 0.468658
0.070616 0.264306 0.343811
0.146412 0.332679 0.414668
0.270214 0.413535 0.475427
0.563582 0.521187 0.479841
0.791603 0.640580 0.504103
0.042554 0.115452 0.214676
0.073918 0.132654 0.219526
0.185472 0.149947 0.195073
0.531869 0.188393 0.128337
0.667458 0.247856 0.150817
0.048527 0.161087 0.259613
0.100134 0.204886 0.309772
0.235919 0.242780 0.334903
0.567539 0.276624 0.293548
0.714252 0.334639 0.300343
0.062592 0.229353 0.323628
0.128856 0.286178 0.389575
0.253529 0.366832 0.470801
0.567407 0.428726 0.487075
0.775533 0.481942 0.511051
0.082945 0.298324 0.392994
0.168274 0.368554 0.462662
0.291915 0.461407 0.543644
0.508822 0.586521 0.630698
0.790772 0.648760 0.645000
0.108216 0.365898 0.481472
0.206187 0.440161 0.545385
0.329728 0.519759 0.606035
0.500496 0.617923 0.666292
0.775114 0.705948 0.666016
0.046540 0.153161 0.295065
0.072100 0.187248 0.331040
0.139689 0.229432 0.350242
0.324104 0.267961 0.315166
0.637326 0.319529 0.249389
0.060928 0.211106 0.365085
0.112005 0.266445 0.423085
0.191115 0.322321 0.457871
0.385020 0.368826 0.438112
0.679767 0.415374 0.375054
0.086523 0.296514 0.448562
0.156628 0.356301 0.508068
0.252002 0.426694 0.562580
0.450075 0.487939 0.571964
0.725750 0.535670 0.543796
0.117459 0.387651 0.530106
0.212718 0.453156 0.583708
0.329450 0.524026 0.633216
0.483809 0.604561 0.684447
0.742240 0.655899 0.683687
0.160096 0.471199 0.600947
0.280207 0.541776 0.647578
0.419382 0.608099 0.689732
0.562039 0.670410 0.729288
0.718625 0.726900 0.752688
