filter/Red and Blue/lut/Midnight 03.cube
# LUT by SparkleStock. Enhanced with VOXCOLOR algorithms.
LUT_3D_SIZE 5
DOMAIN_MIN 0.000000 0.000000 0.000000
DOMAIN_MAX 0.903226 0.903226 0.903226
0.039072 0.031258 0.019536
0.117082 0.032518 0.017149
0.237481 0.043594 0.016708
0.405057 0.063177 0.018157
0.568924 0.088968 0.029714
0.039072 0.045673 0.044090
0.139230 0.050416 0.033391
0.284097 0.073188 0.037375
0.465024 0.106476 0.046598
0.617831 0.142089 0.063329
0.039245 0.064327 0.070338
0.142909 0.072186 0.060121
0.321740 0.103164 0.059233
0.506076 0.147694 0.074960
0.647367 0.193420 0.099846
0.040388 0.088731 0.101548
0.142868 0.098962 0.092684
0.336278 0.133319 0.090638
0.541442 0.194629 0.111832
0.665432 0.248953 0.146180
0.042270 0.116602 0.136925
0.147047 0.130671 0.130944
0.349843 0.168527 0.128991
0.571568 0.240532 0.158809
0.685073 0.314918 0.217207
0.039245 0.052054 0.075828
0.131888 0.050319 0.039566
0.280029 0.069909 0.034301
0.461760 0.102512 0.044254
0.617438 0.141506 0.062732
0.040748 0.083371 0.098847
0.092867 0.100566 0.111346
0.262143 0.121199 0.099423
0.485519 0.160462 0.099231
0.643549 0.202494 0.113389
0.043648 0.113094 0.134069
0.096532 0.137859 0.158614
0.281024 0.166147 0.149108
0.514878 0.212865 0.148413
0.667622 0.264671 0.171577
0.046099 0.143100 0.174911
0.102732 0.175286 0.209045
0.286799 0.206697 0.201249
0.555262 0.265998 0.199032
0.692415 0.330424 0.239042
0.049869 0.178320 0.227296
0.116743 0.222072 0.271642
0.299469 0.262018 0.273932
0.562944 0.326097 0.278891
0.717821 0.406948 0.327375
0.040600 0.081909 0.139903
0.098862 0.084252 0.115842
0.299811 0.099318 0.065536
0.501995 0.143874 0.071179
0.645455 0.191934 0.097077
0.043022 0.119081 0.169407
0.088570 0.145671 0.192182
0.258038 0.165525 0.158227
0.499856 0.208420 0.148102
0.662783 0.261381 0.169031
0.050094 0.167389 0.214354
0.096943 0.208437 0.262781
0.203305 0.255772 0.293900
0.457312 0.294825 0.274513
0.668530 0.348154 0.277360
0.058689 0.211283 0.271986
0.116786 0.263089 0.332229
0.216065 0.323069 0.384643
0.498988 0.373179 0.363392
0.699070 0.431362 0.371249
0.070716 0.258236 0.341630
0.144536 0.325909 0.412814
0.257537 0.394552 0.470898
0.529840 0.450801 0.461671
0.735750 0.519220 0.471989
0.042554 0.115452 0.214676
0.073593 0.132735 0.219121
0.182450 0.150662 0.190677
0.525160 0.190251 0.114383
0.665043 0.249191 0.146801
0.048527 0.160172 0.258021
0.092320 0.200656 0.298554
0.202795 0.231490 0.288886
0.519473 0.261176 0.206061
0.683339 0.326041 0.236849
0.062765 0.224731 0.317658
0.120008 0.276031 0.375688
0.205212 0.336616 0.425724
0.473177 0.370573 0.369366
0.689736 0.426991 0.369927
0.083499 0.295759 0.390871
0.163822 0.360349 0.456452
0.259237 0.431047 0.519999
0.389564 0.506418 0.575763
0.671548 0.545890 0.536721
0.108819 0.360716 0.479016
0.205254 0.435270 0.543078
0.323493 0.511258 0.602467
0.465824 0.586250 0.654119
0.720168 0.629438 0.628019
0.046540 0.153161 0.295065
0.072100 0.187248 0.331040
0.139689 0.229432 0.350142
0.323811 0.267971 0.314731
0.637079 0.319611 0.249060
0.060928 0.210657 0.362169
0.110880 0.265939 0.420544
0.187530 0.321596 0.453220
0.378375 0.367684 0.427775
0.673539 0.414144 0.360476
0.086696 0.294239 0.442073
0.155098 0.353939 0.502862
0.244850 0.423318 0.555165
0.433132 0.480360 0.550828
0.702902 0.525055 0.496825
0.118568 0.383238 0.524240
0.211705 0.449290 0.579460
0.324512 0.519604 0.628077
0.460495 0.591525 0.670592
0.705275 0.631575 0.635953
0.160993 0.467956 0.598363
0.280031 0.538984 0.645769
0.417608 0.605562 0.687553
0.553900 0.664341 0.724582
0.695837 0.709388 0.737923
