filter/Red and Blue/lut/Midnight 05.cube
# LUT by SparkleStock. Enhanced with VOXCOLOR algorithms.
LUT_3D_SIZE 8
DOMAIN_MIN 0.000000 0.000000 0.000000
DOMAIN_MAX 0.903226 0.903226 0.903226
0.078144 0.066422 0.082051
0.112553 0.067935 0.079972
0.154595 0.069046 0.077758
0.213014 0.072512 0.076907
0.291024 0.080050 0.078396
0.376478 0.091394 0.082366
0.447438 0.102265 0.086179
0.510788 0.113041 0.090370
0.082681 0.076443 0.095853
0.121920 0.076199 0.087479
0.171488 0.079596 0.087266
0.237079 0.087502 0.091099
0.319700 0.099706 0.095808
0.406178 0.112514 0.099924
0.477797 0.122775 0.102054
0.538403 0.132447 0.103878
0.086014 0.086864 0.108984
0.126557 0.086627 0.101160
0.186662 0.092164 0.099802
0.261412 0.102670 0.103524
0.345494 0.116831 0.110468
0.430302 0.131205 0.116286
0.501179 0.142256 0.119151
0.559978 0.152596 0.120977
0.089716 0.099500 0.124834
0.130296 0.100116 0.119522
0.197738 0.106732 0.116599
0.281434 0.118759 0.118346
0.371169 0.134806 0.125397
0.452281 0.150181 0.133435
0.521079 0.163208 0.138876
0.577990 0.175269 0.142285
0.094962 0.115499 0.145677
0.136037 0.117341 0.141884
0.204672 0.123666 0.138613
0.295232 0.136524 0.138551
0.397162 0.155593 0.143434
0.475036 0.172211 0.153594
0.540763 0.187977 0.162713
0.595032 0.202223 0.168713
0.102525 0.134972 0.172145
0.145502 0.139448 0.171279
0.215833 0.145713 0.167618
0.308795 0.157705 0.165800
0.414915 0.177505 0.169475
0.501717 0.203052 0.182270
0.564907 0.220915 0.194511
0.615853 0.237400 0.204207
0.115129 0.157123 0.202867
0.160618 0.165942 0.206758
0.233427 0.174631 0.204882
0.329138 0.187139 0.202405
0.438426 0.206192 0.203943
0.528546 0.233106 0.216201
0.592838 0.262377 0.236626
0.642910 0.285923 0.252960
0.129458 0.179298 0.236079
0.179406 0.194624 0.246044
0.255605 0.207665 0.247732
0.354154 0.222201 0.245959
0.466010 0.241242 0.245579
0.557928 0.267930 0.255477
0.622200 0.302927 0.278823
0.671379 0.336626 0.304581
0.084194 0.083060 0.110599
0.121237 0.076375 0.092126
0.169542 0.077687 0.086479
0.234499 0.085179 0.088202
0.316845 0.096852 0.092801
0.403178 0.109513 0.097064
0.475870 0.120725 0.100316
0.537634 0.132044 0.103854
0.089756 0.098934 0.125571
0.117691 0.106925 0.131060
0.166969 0.113229 0.132787
0.240070 0.120373 0.132102
0.334194 0.129884 0.130374
0.428124 0.140949 0.129797
0.501153 0.149814 0.129307
0.559517 0.158004 0.129067
0.098363 0.116662 0.147650
0.124823 0.130976 0.162913
0.181394 0.138324 0.162507
0.262166 0.144951 0.157542
0.359019 0.154890 0.155496
0.452794 0.166951 0.155327
0.525055 0.176754 0.155133
0.581581 0.185352 0.154599
0.108238 0.135982 0.174123
0.137586 0.153775 0.193316
0.199717 0.161615 0.190527
0.286787 0.167538 0.181024
0.388215 0.177187 0.175916
0.478057 0.191552 0.178666
0.548074 0.204123 0.181353
0.603021 0.215397 0.183156
0.118552 0.156939 0.203181
0.152643 0.179187 0.226457
0.214479 0.189244 0.226586
0.305404 0.194584 0.213972
0.417464 0.201699 0.199576
0.504366 0.218270 0.204208
0.571066 0.234295 0.210921
0.623939 0.249571 0.217011
0.131823 0.181242 0.235943
0.171669 0.208958 0.264412
0.234719 0.222750 0.268665
0.323939 0.229528 0.257892
0.434439 0.235859 0.241751
0.531062 0.251614 0.237572
0.596963 0.271228 0.247295
0.648070 0.291807 0.259601
0.150257 0.209687 0.274057
0.196280 0.244106 0.308227
0.261272 0.263045 0.317390
0.349604 0.272619 0.309438
0.458194 0.279190 0.293206
0.556378 0.294025 0.285827
0.624536 0.317790 0.295484
0.675780 0.343406 0.311466
0.174801 0.243364 0.319081
0.223753 0.282138 0.355218
0.291084 0.306733 0.369265
0.379996 0.320913 0.365775
0.487116 0.329480 0.351202
0.584342 0.343604 0.341785
0.653232 0.368740 0.349446
0.704804 0.399845 0.368952
0.095065 0.105723 0.149191
0.124686 0.099862 0.130706
0.181829 0.094239 0.109439
0.256693 0.097452 0.099160
0.340641 0.112743 0.105794
0.425571 0.126928 0.111904
0.497800 0.138948 0.115805
0.558498 0.151385 0.119718
0.103621 0.126623 0.169273
0.129139 0.140791 0.182933
0.179006 0.141227 0.171386
0.255168 0.142522 0.157359
0.353636 0.153117 0.154641
0.448802 0.164975 0.153655
0.522399 0.174971 0.153414
0.580187 0.184346 0.153452
0.116830 0.152003 0.197482
0.144810 0.175183 0.223761
0.192018 0.187898 0.229048
0.265443 0.195796 0.223786
0.364961 0.202995 0.215613
0.467789 0.210271 0.205725
0.544833 0.217596 0.199712
0.602550 0.224714 0.195698
0.133274 0.179657 0.231400
0.166272 0.207409 0.262235
0.213564 0.230279 0.280598
0.286154 0.243470 0.281352
0.386488 0.246303 0.265029
0.490813 0.251768 0.251401
0.568648 0.258940 0.243440
0.626163 0.266790 0.238885
0.151792 0.208281 0.269049
0.189679 0.240849 0.304323
0.238289 0.267285 0.326287
0.314300 0.279520 0.323024
0.421506 0.276872 0.294540
0.521812 0.284474 0.283024
0.595832 0.295283 0.279142
0.651342 0.307781 0.279345
0.171912 0.239488 0.309660
0.215233 0.277627 0.348782
0.265519 0.307444 0.373554
0.339837 0.322197 0.373469
0.444256 0.320993 0.346895
0.551947 0.322126 0.320582
0.624309 0.335823 0.318900
0.677950 0.354323 0.325828
0.195934 0.274486 0.353437
0.244856 0.319027 0.396997
0.296806 0.352155 0.424147
0.369479 0.369574 0.426876
0.470264 0.371398 0.404187
0.576971 0.371949 0.376666
0.651934 0.385338 0.370019
0.706081 0.406718 0.378090
0.226357 0.315911 0.403959
0.276683 0.363178 0.447364
0.329594 0.398847 0.475530
0.401589 0.419565 0.481421
0.499600 0.425468 0.463800
0.603139 0.427365 0.438405
0.679023 0.440121 0.428536
0.733859 0.463020 0.436082
0.110914 0.133782 0.198535
0.132570 0.133557 0.188368
0.186838 0.126242 0.160879
0.267660 0.122237 0.133517
0.364754 0.128519 0.119612
0.447098 0.145778 0.128760
0.517056 0.159653 0.134864
0.576094 0.173646 0.140042
0.124130 0.159366 0.224497
0.151844 0.179302 0.244246
0.198647 0.179483 0.227927
0.273731 0.174038 0.198728
0.376185 0.174199 0.175780
0.470116 0.189027 0.177265
0.542927 0.201677 0.179172
0.600238 0.213623 0.181166
0.142603 0.192238 0.257945
0.177174 0.221251 0.289343
0.217318 0.241339 0.302601
0.281521 0.249147 0.294229
0.377777 0.246072 0.267625
0.485093 0.251157 0.252176
0.564980 0.257974 0.242988
0.624111 0.265821 0.237912
0.165535 0.229241 0.297408
0.205886 0.262419 0.332551
0.243413 0.298343 0.368409
0.299568 0.319339 0.379591
0.387129 0.317738 0.355397
0.500573 0.315331 0.328286
0.586271 0.316951 0.309630
0.648257 0.321738 0.298573
0.191812 0.267851 0.341425
0.235885 0.304723 0.379568
0.275849 0.343407 0.417358
0.330947 0.368629 0.432871
0.413472 0.372860 0.415826
0.523079 0.369421 0.387770
0.609786 0.369914 0.366640
0.673377 0.375015 0.354457
0.219005 0.306633 0.388573
0.266191 0.347300 0.428252
0.307594 0.387216 0.465954
0.362079 0.413851 0.483162
0.442998 0.419918 0.468730
0.557402 0.409113 0.425678
0.640934 0.412108 0.407226
0.701537 0.422662 0.401554
0.247206 0.346989 0.435554
0.297542 0.392102 0.477035
0.339874 0.432368 0.513624
0.393230 0.459443 0.531199
0.471434 0.468311 0.520754
0.583257 0.459441 0.480759
0.669061 0.460863 0.456637
0.729831 0.472972 0.450959
0.279370 0.391969 0.486208
0.329573 0.437928 0.525826
0.371547 0.477148 0.559523
0.423970 0.504376 0.576817
0.500291 0.516364 0.570706
0.608286 0.511992 0.537607
0.694629 0.513134 0.512074
0.755905 0.524838 0.504641
0.132396 0.167104 0.258821
0.151765 0.174014 0.259046
0.187468 0.176802 0.245863
0.264056 0.169005 0.207531
0.383629 0.153250 0.150105
0.469321 0.168899 0.151367
0.536987 0.185006 0.159328
0.593228 0.201048 0.166626
0.151521 0.197445 0.289448
0.182614 0.223524 0.315184
0.221516 0.236118 0.314425
0.290673 0.228513 0.277320
0.396376 0.205431 0.212914
0.492904 0.217530 0.206655
0.564205 0.232628 0.210112
0.620217 0.247832 0.215380
0.176345 0.237173 0.328080
0.215104 0.270736 0.362715
0.254616 0.298484 0.383803
0.313917 0.303668 0.367229
0.403052 0.283762 0.310667
0.510128 0.285892 0.288599
0.588448 0.294884 0.280350
0.647223 0.306547 0.278514
0.205115 0.283467 0.371775
0.248771 0.319484 0.407815
0.288557 0.357255 0.443393
0.336364 0.379644 0.453748
0.403949 0.378598 0.427783
0.515734 0.371341 0.392886
0.604769 0.370233 0.368366
0.670567 0.374607 0.354361
0.236354 0.332993 0.418359
0.283025 0.371018 0.454819
0.323935 0.408458 0.489098
0.360854 0.444736 0.520867
0.404768 0.473899 0.541839
0.513509 0.462302 0.503006
0.614357 0.450453 0.462893
0.689722 0.445638 0.435175
0.269183 0.378672 0.467868
0.316472 0.417717 0.504248
0.357322 0.454234 0.536824
0.393842 0.488746 0.566591
0.437179 0.516239 0.585722
0.544669 0.504033 0.542573
0.642432 0.495529 0.507262
0.715504 0.494024 0.484193
0.299420 0.422191 0.514983
0.347261 0.462834 0.550051
0.387602 0.497861 0.580031
0.423566 0.529481 0.606793
0.466537 0.554962 0.624370
0.571171 0.548179 0.588655
0.670624 0.539805 0.550869
0.743163 0.539714 0.528210
0.329869 0.466504 0.561530
0.376100 0.505584 0.592710
0.415162 0.538039 0.618969
0.450745 0.566796 0.642434
0.494022 0.590743 0.658676
0.596334 0.590523 0.631854
0.695569 0.584118 0.596329
0.768069 0.584391 0.573716
0.163969 0.208697 0.330852
0.185533 0.222486 0.340445
0.218041 0.237752 0.343990
0.271344 0.245470 0.328467
0.354563 0.238094 0.283519
0.487532 0.205003 0.195058
0.561613 0.217621 0.192090
0.614988 0.237165 0.202950
0.189388 0.244307 0.366017
0.222790 0.274886 0.394435
0.259251 0.298139 0.406849
0.311148 0.308666 0.395055
0.389562 0.300777 0.351101
0.514670 0.259149 0.254666
0.589270 0.270494 0.248441
0.643951 0.290984 0.259225
0.218950 0.289408 0.406802
0.258366 0.325332 0.440563
0.296190 0.357444 0.465302
0.345245 0.376385 0.466328
0.417581 0.373548 0.431241
0.536386 0.331976 0.339332
0.614996 0.337646 0.323770
0.672820 0.354168 0.327074
0.251392 0.341300 0.451301
0.293797 0.377356 0.484343
0.331846 0.413576 0.515883
0.375017 0.441182 0.531760
0.435067 0.450593 0.517731
0.545512 0.417726 0.441794
0.632415 0.415195 0.413842
0.697035 0.423517 0.404020
0.285064 0.396444 0.497172
0.329280 0.431829 0.528722
0.367470 0.465102 0.557401
0.402478 0.497394 0.583838
0.444076 0.523606 0.599639
0.538686 0.508326 0.551368
0.636864 0.497846 0.512275
0.712772 0.495378 0.486566
0.315844 0.446075 0.538924
0.359771 0.480100 0.568580
0.398199 0.511113 0.594867
0.433129 0.540404 0.618604
0.468795 0.567239 0.637889
0.521699 0.581607 0.637428
0.624120 0.571960 0.601343
0.714374 0.562202 0.565864
0.345983 0.490130 0.581818
0.388045 0.522147 0.608255
0.425152 0.550310 0.631096
0.459650 0.576455 0.651805
0.494956 0.601213 0.670212
0.541472 0.620474 0.678884
0.646553 0.613467 0.643268
0.737386 0.604555 0.607707
0.373553 0.530174 0.621681
0.413127 0.559108 0.643961
0.448937 0.584362 0.663246
0.483404 0.607874 0.681212
0.519808 0.630652 0.698036
0.567733 0.650527 0.707707
0.672529 0.647384 0.676175
0.762102 0.641216 0.643536
0.200740 0.254071 0.399890
0.224867 0.273885 0.418241
0.257222 0.298443 0.434103
0.302417 0.321340 0.438970
0.366708 0.334526 0.422569
0.472062 0.315145 0.355014
0.571892 0.285995 0.279968
0.640229 0.282195 0.249890
0.231234 0.294584 0.439958
0.266838 0.329659 0.470826
0.301491 0.359430 0.490573
0.344592 0.383061 0.496195
0.405589 0.396126 0.480890
0.505254 0.373987 0.412651
0.602896 0.343520 0.337908
0.671567 0.342302 0.311755
0.263710 0.344173 0.482484
0.303070 0.381498 0.514313
0.338619 0.415097 0.539112
0.380278 0.442070 0.550218
0.438058 0.457064 0.539144
0.533431 0.438111 0.478628
0.631646 0.409488 0.407849
0.701494 0.408108 0.381638
0.297292 0.399246 0.525583
0.336837 0.433269 0.553797
0.372212 0.466577 0.580123
0.410456 0.495686 0.597499
0.460825 0.515038 0.596836
0.551153 0.504352 0.550010
0.652455 0.479924 0.486058
0.725762 0.476232 0.456765
0.330638 0.455676 0.567218
0.369751 0.486151 0.592134
0.404357 0.514446 0.614580
0.436893 0.542189 0.635688
0.475041 0.567136 0.650347
0.554603 0.569133 0.623033
0.660047 0.550974 0.568657
0.740216 0.543741 0.534511
0.359491 0.504502 0.602920
0.397692 0.531616 0.624979
0.432180 0.556626 0.644927
0.464943 0.580806 0.663382
0.498593 0.604481 0.679817
0.540377 0.624265 0.688226
0.643857 0.616609 0.649385
0.735723 0.607212 0.611565
0.385081 0.543829 0.635272
0.421879 0.568773 0.655258
0.456010 0.591281 0.672578
0.489401 0.613021 0.688672
0.523659 0.635044 0.704303
0.560481 0.656738 0.717957
0.640009 0.661086 0.700523
0.727132 0.656359 0.670638
0.408502 0.578135 0.666601
0.443083 0.599928 0.683353
0.476744 0.620163 0.697993
0.511017 0.640263 0.712114
0.547087 0.661155 0.726573
0.586018 0.682631 0.739981
0.653029 0.694253 0.735037
0.736002 0.693700 0.711601
0.239781 0.299177 0.463618
0.267176 0.325639 0.490129
0.300343 0.357509 0.514368
0.341097 0.390756 0.531780
0.392652 0.419636 0.536061
0.468733 0.426296 0.506148
0.572054 0.393812 0.421478
0.654624 0.367725 0.353371
0.271140 0.343172 0.505491
0.308578 0.381632 0.537305
0.342313 0.415674 0.561307
0.379822 0.447113 0.577047
0.428284 0.474442 0.581166
0.501461 0.480691 0.553391
0.602496 0.448875 0.472403
0.686208 0.427980 0.412928
0.304223 0.395501 0.547404
0.343403 0.433239 0.576780
0.377201 0.466778 0.600471
0.413285 0.497222 0.616583
0.459274 0.523146 0.621413
0.530470 0.530834 0.598593
0.630374 0.503616 0.526340
0.714356 0.486712 0.473570
0.337396 0.451670 0.587518
0.374620 0.483245 0.611615
0.407775 0.513096 0.633304
0.441948 0.541238 0.650309
0.483767 0.566002 0.658621
0.552714 0.576911 0.642265
0.652258 0.557127 0.582206
0.737153 0.543536 0.534925
0.368942 0.506995 0.624193
0.403936 0.532373 0.643706
0.435862 0.555970 0.661276
0.466900 0.579635 0.678332
0.502436 0.603281 0.692615
0.565766 0.618945 0.684676
0.664625 0.608549 0.638997
0.752152 0.598112 0.596569
0.395178 0.552400 0.654583
0.428756 0.573349 0.670998
0.460225 0.593166 0.685892
0.491670 0.613202 0.700259
0.525283 0.634216 0.714291
0.565788 0.655361 0.725002
0.658782 0.656117 0.695499
0.751134 0.649510 0.657643
0.416795 0.586394 0.679225
0.449200 0.605334 0.694034
0.481056 0.623449 0.707166
0.513950 0.642044 0.719907
0.549009 0.661903 0.732949
0.586816 0.682558 0.745160
0.647881 0.695322 0.741059
0.731301 0.695976 0.716742
0.436986 0.615541 0.702793
0.467356 0.631802 0.715501
0.499610 0.648742 0.726878
0.534160 0.666805 0.738320
0.571233 0.686142 0.750512
0.611063 0.706100 0.761935
0.656208 0.724852 0.770554
0.728570 0.731022 0.757303
