filter/Red and Blue/lut/Midnight 03.cube
# LUT by SparkleStock. Enhanced with VOXCOLOR algorithms.
LUT_3D_SIZE 8
DOMAIN_MIN 0.000000 0.000000 0.000000
DOMAIN_MAX 0.903226 0.903226 0.903226
0.039072 0.031258 0.019536
0.079341 0.030690 0.018024
0.131262 0.033605 0.016913
0.197590 0.039529 0.016519
0.279901 0.048131 0.016944
0.379913 0.060042 0.017701
0.481342 0.073528 0.021135
0.568924 0.088968 0.029714
0.039072 0.039198 0.033715
0.088855 0.038924 0.026348
0.148008 0.044308 0.025500
0.221240 0.054147 0.027521
0.311016 0.067452 0.029941
0.416443 0.084192 0.033331
0.518288 0.102021 0.039645
0.599417 0.119882 0.048693
0.039072 0.047942 0.047493
0.089971 0.048582 0.039662
0.160150 0.055664 0.036316
0.244087 0.068632 0.037616
0.338062 0.086509 0.042924
0.445276 0.107043 0.048846
0.545635 0.128436 0.057674
0.623024 0.149284 0.068294
0.039151 0.058277 0.062208
0.088135 0.059906 0.055585
0.165799 0.068182 0.050387
0.260802 0.083620 0.049878
0.363928 0.105559 0.055554
0.469727 0.129642 0.064330
0.566414 0.154412 0.075840
0.640699 0.178503 0.088954
0.039411 0.070661 0.078703
0.087169 0.073076 0.072574
0.165137 0.082178 0.067884
0.268643 0.099433 0.066027
0.388228 0.124693 0.068642
0.491997 0.153057 0.080602
0.583207 0.181316 0.095128
0.653555 0.208598 0.111392
0.040167 0.085029 0.096853
0.087340 0.088615 0.091602
0.165344 0.097748 0.086442
0.271216 0.115540 0.084475
0.396711 0.143415 0.088353
0.510872 0.179391 0.102215
0.597716 0.210626 0.119010
0.663045 0.240512 0.138409
0.041238 0.100500 0.116578
0.088558 0.105379 0.112937
0.167417 0.114924 0.107607
0.276001 0.133385 0.105195
0.406658 0.163145 0.109604
0.527796 0.203438 0.126345
0.611127 0.242894 0.151466
0.672682 0.277051 0.175591
0.042270 0.116602 0.136925
0.090358 0.123036 0.134407
0.170318 0.133811 0.129456
0.281538 0.153589 0.127351
0.416971 0.185245 0.132708
0.544164 0.229357 0.152602
0.627417 0.274937 0.184831
0.685073 0.314918 0.217207
0.039072 0.041656 0.051109
0.088563 0.038893 0.029398
0.146283 0.042826 0.023640
0.218404 0.052190 0.025490
0.308253 0.065659 0.028843
0.414266 0.081668 0.032526
0.517184 0.100106 0.039254
0.599642 0.119796 0.049217
0.039365 0.057061 0.062068
0.068000 0.061843 0.061925
0.124417 0.067633 0.060254
0.208050 0.077342 0.058343
0.315464 0.092595 0.057373
0.434711 0.112301 0.059158
0.540385 0.133004 0.064515
0.619663 0.152727 0.072965
0.040383 0.070885 0.077913
0.062802 0.078938 0.085545
0.127460 0.085974 0.082391
0.222267 0.097156 0.077316
0.336112 0.115459 0.076389
0.458223 0.138868 0.079784
0.562158 0.162503 0.086953
0.638551 0.184740 0.096913
0.041413 0.084465 0.095958
0.063976 0.094082 0.105893
0.134773 0.102033 0.101000
0.239314 0.114942 0.093454
0.362751 0.136546 0.091890
0.482408 0.163703 0.098376
0.581657 0.190732 0.109083
0.654783 0.216572 0.122587
0.042058 0.098788 0.114557
0.065321 0.110112 0.127097
0.133953 0.118907 0.123337
0.245092 0.133131 0.114244
0.386368 0.157419 0.109126
0.505113 0.188715 0.118314
0.598635 0.219457 0.133114
0.667769 0.249054 0.151372
0.042814 0.114327 0.135195
0.067418 0.127842 0.150426
0.134883 0.137767 0.147929
0.243393 0.152482 0.139387
0.384360 0.177756 0.134555
0.523242 0.215531 0.143379
0.614494 0.250382 0.162053
0.679482 0.284169 0.185825
0.043763 0.131091 0.158506
0.071007 0.147675 0.177633
0.138422 0.159399 0.177104
0.245506 0.175262 0.169588
0.385511 0.201713 0.165631
0.529312 0.242106 0.175729
0.626072 0.284406 0.199408
0.692027 0.323414 0.228181
0.045204 0.150175 0.186386
0.075699 0.168951 0.206252
0.144508 0.183975 0.208428
0.251970 0.202819 0.204040
0.392127 0.231118 0.202570
0.536951 0.273025 0.214470
0.637798 0.320114 0.241585
0.704887 0.364447 0.275741
0.039340 0.056072 0.084288
0.078975 0.052876 0.062699
0.151765 0.055037 0.042432
0.240212 0.064859 0.033481
0.333543 0.082650 0.039605
0.441410 0.102758 0.045698
0.542965 0.124507 0.054596
0.622257 0.148444 0.067001
0.039925 0.074380 0.095967
0.059640 0.081727 0.100573
0.121203 0.086107 0.088107
0.214265 0.095134 0.076242
0.328677 0.113116 0.075579
0.452701 0.136268 0.078532
0.559007 0.160158 0.085301
0.637170 0.183376 0.095525
0.041448 0.093275 0.112752
0.057142 0.105464 0.127122
0.107322 0.115891 0.128085
0.194588 0.128119 0.122805
0.316123 0.144985 0.117207
0.453234 0.169561 0.116465
0.567499 0.195884 0.121389
0.648790 0.220456 0.130768
0.043352 0.111750 0.133116
0.061175 0.126085 0.150577
0.104698 0.141839 0.162099
0.189958 0.157855 0.162501
0.320497 0.174783 0.152002
0.462657 0.201251 0.150219
0.578971 0.230241 0.156025
0.661154 0.257744 0.167434
0.045223 0.129347 0.155867
0.064719 0.145537 0.176608
0.108349 0.163392 0.191346
0.201456 0.181549 0.191043
0.348991 0.200746 0.175443
0.490013 0.230972 0.175950
0.598922 0.262931 0.186226
0.676406 0.294414 0.203014
0.046912 0.147301 0.180860
0.068793 0.166702 0.205302
0.112920 0.186560 0.222689
0.203687 0.205708 0.224139
0.349391 0.225849 0.209181
0.512350 0.261741 0.207058
0.618556 0.297658 0.221342
0.691279 0.333400 0.244171
0.048845 0.166343 0.208759
0.074641 0.190521 0.238312
0.120491 0.213318 0.258952
0.210371 0.234420 0.262897
0.353308 0.256213 0.250284
0.517067 0.293879 0.249434
0.631796 0.335949 0.265425
0.707302 0.376674 0.292097
0.051947 0.188331 0.241742
0.082151 0.216520 0.274094
0.131051 0.243293 0.298005
0.222132 0.268116 0.306008
0.364096 0.293003 0.298025
0.524309 0.331755 0.299988
0.643097 0.377380 0.317224
0.721725 0.422250 0.346227
0.040033 0.072929 0.120336
0.065312 0.071734 0.106931
0.136109 0.072854 0.080445
0.238907 0.081293 0.057638
0.358436 0.099638 0.050011
0.465168 0.124941 0.059824
0.562702 0.149558 0.070836
0.638936 0.177041 0.086105
0.040789 0.092018 0.134295
0.058131 0.101857 0.142893
0.116835 0.106510 0.125835
0.215675 0.114606 0.103236
0.346015 0.131945 0.090399
0.470425 0.159321 0.096666
0.574662 0.186712 0.106260
0.651418 0.213908 0.119847
0.042829 0.115090 0.152661
0.060795 0.130160 0.170335
0.098306 0.145167 0.177666
0.177932 0.158835 0.170889
0.307499 0.172431 0.152573
0.452777 0.198399 0.149990
0.573221 0.227625 0.154761
0.658299 0.255573 0.165718
0.045889 0.139403 0.175701
0.067581 0.157095 0.197122
0.091969 0.181089 0.224064
0.156509 0.201965 0.233876
0.280572 0.216271 0.217467
0.438685 0.240565 0.207640
0.571864 0.270656 0.208144
0.665159 0.300134 0.217370
0.049615 0.162897 0.203187
0.074430 0.183101 0.228399
0.102142 0.210153 0.259504
0.166301 0.236575 0.277211
0.285683 0.258583 0.271822
0.446129 0.283502 0.259837
0.580771 0.314018 0.259422
0.676351 0.345668 0.269378
0.053171 0.184571 0.233790
0.081049 0.208676 0.263147
0.111404 0.238213 0.297471
0.176113 0.266364 0.317705
0.296175 0.290332 0.313682
0.477037 0.320521 0.297981
0.606630 0.354127 0.300905
0.695465 0.388990 0.316143
0.057245 0.207242 0.267382
0.089695 0.237237 0.302073
0.124049 0.270498 0.339851
0.190809 0.301106 0.362839
0.310289 0.326970 0.361550
0.488904 0.358804 0.347704
0.625081 0.397365 0.350771
0.715593 0.436267 0.368562
0.063124 0.232847 0.305532
0.100423 0.268134 0.344219
0.139679 0.305509 0.384792
0.210064 0.339793 0.410877
0.330408 0.369153 0.413879
0.503286 0.402744 0.404909
0.640541 0.444229 0.409282
0.733068 0.485804 0.427385
0.041167 0.091079 0.160038
0.057609 0.094329 0.154427
0.099444 0.097589 0.139066
0.202185 0.104389 0.108637
0.368554 0.118514 0.069517
0.485898 0.149251 0.077884
0.579666 0.177198 0.090774
0.651695 0.207273 0.109013
0.042052 0.110845 0.176541
0.059325 0.124605 0.189660
0.100462 0.133261 0.182592
0.196379 0.141078 0.154454
0.352135 0.153293 0.114667
0.486208 0.183922 0.118370
0.588209 0.214987 0.130565
0.662618 0.245970 0.148565
0.045036 0.136874 0.198228
0.065350 0.155142 0.219559
0.098114 0.174436 0.234024
0.177794 0.189006 0.222643
0.317531 0.198839 0.183703
0.468131 0.225947 0.177427
0.586167 0.258009 0.184558
0.669928 0.290265 0.200217
0.049788 0.167188 0.225159
0.074822 0.188303 0.250732
0.103018 0.216265 0.282077
0.161414 0.241167 0.295107
0.268278 0.258460 0.278957
0.431217 0.280083 0.261324
0.571514 0.310367 0.258489
0.671491 0.342412 0.267510
0.055863 0.199215 0.257122
0.086470 0.224349 0.287365
0.119721 0.255169 0.321452
0.158568 0.290891 0.358187
0.219311 0.327412 0.388365
0.389185 0.344441 0.362210
0.551835 0.371065 0.347134
0.670119 0.401039 0.346398
0.062328 0.226525 0.293817
0.096962 0.255913 0.328206
0.134391 0.289412 0.365091
0.177293 0.327433 0.403965
0.242525 0.367189 0.436309
0.421739 0.391357 0.413534
0.577847 0.419789 0.400701
0.689965 0.450673 0.401984
0.069738 0.254450 0.334126
0.109292 0.289799 0.372975
0.152077 0.327267 0.412337
0.200379 0.367594 0.452508
0.269755 0.408611 0.485916
0.445630 0.434984 0.466132
0.603381 0.467480 0.454265
0.714135 0.500998 0.457327
0.079316 0.284846 0.378792
0.123893 0.325194 0.420067
0.172813 0.366811 0.461136
0.227400 0.410182 0.501965
0.301386 0.453238 0.535770
0.473160 0.482003 0.521941
0.627404 0.517358 0.513473
0.736304 0.552112 0.516701
0.042302 0.110552 0.203710
0.055670 0.118633 0.206150
0.084374 0.127862 0.202261
0.148071 0.137260 0.185139
0.266779 0.148495 0.151617
0.489508 0.175573 0.107438
0.595839 0.207789 0.116572
0.662502 0.240626 0.138670
0.044211 0.132659 0.225190
0.062716 0.151024 0.243980
0.093584 0.165985 0.247930
0.157540 0.178289 0.233958
0.274700 0.190191 0.201031
0.489908 0.211608 0.151167
0.602036 0.245733 0.160097
0.673373 0.281042 0.183856
0.048945 0.161860 0.251542
0.071748 0.184585 0.277449
0.101331 0.208327 0.298191
0.161617 0.227613 0.297996
0.273981 0.240694 0.268291
0.477373 0.258095 0.216338
0.600811 0.292182 0.220574
0.682216 0.328916 0.241963
0.056052 0.196724 0.283316
0.083857 0.221852 0.312850
0.114339 0.252406 0.346260
0.166451 0.281060 0.365298
0.260815 0.302929 0.356127
0.449775 0.317800 0.305981
0.589447 0.349138 0.300958
0.686175 0.384487 0.314441
0.065164 0.235411 0.320474
0.099505 0.263920 0.353985
0.136227 0.296956 0.389162
0.178616 0.334868 0.426353
0.242293 0.373782 0.455696
0.409066 0.390192 0.417114
0.567004 0.416721 0.400671
0.683329 0.447270 0.400782
0.076459 0.273991 0.361854
0.117773 0.308001 0.398716
0.162824 0.344802 0.435899
0.212922 0.384286 0.473112
0.273383 0.425528 0.507752
0.371986 0.464036 0.525356
0.536433 0.490049 0.509003
0.672536 0.515177 0.495472
0.088699 0.309283 0.409286
0.134292 0.347574 0.447455
0.185460 0.387304 0.485097
0.242528 0.428658 0.521918
0.308008 0.471424 0.556691
0.397059 0.513969 0.583065
0.561484 0.542211 0.568311
0.696440 0.567465 0.554925
0.102551 0.345393 0.459501
0.153096 0.387399 0.497452
0.210905 0.430275 0.534522
0.275318 0.473850 0.570170
0.347601 0.517662 0.603285
0.439553 0.559780 0.629040
0.596661 0.589317 0.617872
0.724636 0.614745 0.606772
0.043121 0.130340 0.247855
0.055367 0.143861 0.259687
0.078335 0.159584 0.268006
0.123196 0.175829 0.266255
0.205068 0.191995 0.248790
0.374739 0.211388 0.205856
0.559214 0.243442 0.175373
0.671698 0.276247 0.175489
0.047518 0.156253 0.276873
0.068546 0.180586 0.303714
0.094541 0.202062 0.318518
0.140848 0.221755 0.320060
0.224691 0.240458 0.305644
0.392241 0.258176 0.260915
0.572822 0.286303 0.225321
0.684952 0.320030 0.226343
0.055207 0.190521 0.310884
0.081462 0.218553 0.342779
0.110649 0.247165 0.369569
0.159124 0.273216 0.381526
0.243969 0.294821 0.371139
0.406229 0.312749 0.329094
0.582997 0.338275 0.291081
0.696600 0.372430 0.291080
0.065766 0.231296 0.349706
0.096842 0.260603 0.382859
0.130649 0.294206 0.417699
0.179070 0.327446 0.442450
0.257341 0.356335 0.446425
0.412346 0.375657 0.410647
0.586393 0.399670 0.372775
0.704112 0.432572 0.369159
0.078723 0.276414 0.392701
0.116260 0.307981 0.427436
0.156920 0.342980 0.461737
0.203331 0.382169 0.496821
0.266984 0.422766 0.525888
0.407566 0.446019 0.503416
0.579631 0.469558 0.468847
0.704789 0.498821 0.458851
0.093628 0.321873 0.437910
0.138724 0.357637 0.473505
0.188565 0.395473 0.507919
0.243917 0.435523 0.541556
0.307011 0.477354 0.573514
0.389452 0.518302 0.596577
0.554353 0.543331 0.573213
0.691668 0.566735 0.555108
0.110902 0.364817 0.483988
0.163726 0.405589 0.520206
0.222265 0.446029 0.553852
0.286361 0.486781 0.585519
0.355780 0.528113 0.615610
0.431065 0.569108 0.643669
0.558399 0.598294 0.640853
0.682513 0.621700 0.629379
0.130377 0.407796 0.533584
0.189065 0.450920 0.567176
0.255111 0.493203 0.598637
0.327253 0.534621 0.628043
0.403950 0.575023 0.655539
0.482472 0.613390 0.681215
0.586716 0.644323 0.690118
0.697455 0.667722 0.684128
0.046540 0.153161 0.295065
0.057737 0.171213 0.316319
0.078153 0.193122 0.335689
0.113827 0.217103 0.348175
0.173317 0.241270 0.348444
0.287179 0.262006 0.323061
0.482707 0.290552 0.277833
0.637079 0.319611 0.249060
0.053163 0.182221 0.331736
0.076103 0.210292 0.363797
0.100498 0.238308 0.388310
0.137757 0.266512 0.404345
0.200037 0.294308 0.408934
0.317280 0.317173 0.386016
0.508103 0.342714 0.337924
0.658188 0.371150 0.309302
0.064110 0.221545 0.372934
0.093545 0.253207 0.408767
0.124226 0.286205 0.440185
0.166690 0.319378 0.462363
0.232454 0.351161 0.470414
0.350857 0.376884 0.452325
0.533728 0.401378 0.406422
0.678554 0.429397 0.378805
0.078426 0.268445 0.418063
0.112951 0.300961 0.454025
0.150908 0.336861 0.488783
0.198769 0.374463 0.517009
0.265799 0.411360 0.532813
0.383798 0.440277 0.520826
0.556542 0.465096 0.481213
0.696004 0.492290 0.455778
0.095202 0.319938 0.465952
0.136080 0.353457 0.500893
0.181631 0.390095 0.533050
0.233765 0.430493 0.564754
0.299195 0.472975 0.592957
0.412044 0.505786 0.589864
0.573022 0.531702 0.559773
0.707968 0.557165 0.537542
0.113632 0.370764 0.512918
0.162306 0.407220 0.546069
0.217267 0.445307 0.576109
0.278550 0.485346 0.604703
0.346849 0.527107 0.632323
0.427680 0.568360 0.654735
0.573647 0.595251 0.636973
0.707103 0.617447 0.616995
0.135346 0.419263 0.555696
0.193632 0.459879 0.587420
0.258272 0.499716 0.615554
0.328556 0.539198 0.641565
0.403348 0.578363 0.666471
0.480036 0.615621 0.689975
0.578041 0.645547 0.696336
0.690118 0.668307 0.687396
0.160993 0.467956 0.598363
0.226294 0.508930 0.626254
0.298953 0.548859 0.651977
0.376970 0.587201 0.676049
0.457768 0.623449 0.698785
0.535221 0.656372 0.719612
0.605834 0.686673 0.738075
0.695837 0.709388 0.737923
