filter/Red and Blue/lut/Spotlight 02_S.cube
# LUT by SparkleStock. Enhanced with VOXCOLOR algorithms.
LUT_3D_SIZE 32
0.054701 0.070330 0.168254
0.060703 0.070471 0.169010
0.066706 0.070613 0.169766
0.072709 0.070755 0.170523
0.078711 0.070897 0.171279
0.084714 0.071039 0.172035
0.106786 0.070590 0.170231
0.132073 0.070022 0.167915
0.157359 0.069455 0.165599
0.182646 0.068888 0.163283
0.207933 0.068321 0.160967
0.243554 0.068321 0.157486
0.284344 0.068605 0.153421
0.325133 0.068888 0.149356
0.365922 0.069172 0.145291
0.406712 0.069455 0.141227
0.443413 0.071606 0.138698
0.476025 0.075623 0.137705
0.508638 0.079641 0.136713
0.541250 0.083658 0.135720
0.573863 0.087676 0.134728
0.600488 0.092969 0.135058
0.615140 0.100815 0.138036
0.629792 0.108661 0.141014
0.644444 0.116507 0.143991
0.659096 0.124353 0.146969
0.672606 0.132475 0.150309
0.680405 0.141975 0.155461
0.688204 0.151475 0.160613
0.696002 0.160975 0.165765
0.703801 0.170475 0.170917
0.711600 0.179976 0.176068
0.055977 0.073780 0.170286
0.061733 0.074681 0.170979
0.067488 0.075582 0.171671
0.073244 0.076483 0.172363
0.078999 0.077384 0.173055
0.084755 0.078285 0.173747
0.107091 0.078275 0.171468
0.132744 0.078083 0.168594
0.158396 0.077891 0.165720
0.184049 0.077699 0.162846
0.209701 0.077507 0.159972
0.245591 0.077785 0.156048
0.286600 0.078297 0.151599
0.327609 0.078809 0.147150
0.368618 0.079321 0.142701
0.409627 0.079834 0.138252
0.446579 0.081975 0.135577
0.479475 0.085746 0.134676
0.512371 0.089516 0.133775
0.545268 0.093287 0.132874
0.578164 0.097057 0.131973
0.605040 0.102018 0.132538
0.619874 0.109361 0.136037
0.634709 0.116704 0.139536
0.649544 0.124047 0.143036
0.664379 0.131389 0.146535
0.677964 0.139034 0.150414
0.685296 0.148186 0.156197
0.692628 0.157339 0.161980
0.699960 0.166491 0.167764
0.707292 0.175644 0.173547
0.714624 0.184797 0.179330
0.057253 0.077230 0.172319
0.062762 0.078891 0.172947
0.068270 0.080551 0.173575
0.073779 0.082211 0.174203
0.079288 0.083872 0.174831
0.084796 0.085532 0.175460
0.107396 0.085961 0.172704
0.133415 0.086144 0.169272
0.159433 0.086327 0.165840
0.185451 0.086510 0.162408
0.211470 0.086693 0.158976
0.247628 0.087248 0.154610
0.288857 0.087989 0.149777
0.330085 0.088730 0.144944
0.371313 0.089471 0.140110
0.412542 0.090212 0.135277
0.449746 0.092344 0.132456
0.482926 0.095868 0.131646
0.516105 0.099391 0.130837
0.549285 0.102915 0.130027
0.582465 0.106438 0.129218
0.609591 0.111067 0.130018
0.624609 0.117907 0.134038
0.639627 0.124746 0.138059
0.654644 0.131586 0.142080
0.669662 0.138426 0.146100
0.683322 0.145593 0.150520
0.690187 0.154398 0.156934
0.697053 0.163203 0.163348
0.703918 0.172008 0.169762
0.710784 0.180813 0.176177
0.717649 0.189618 0.182591
0.058529 0.080681 0.174351
0.063791 0.083100 0.174915
0.069053 0.085520 0.175479
0.074314 0.087940 0.176043
0.079576 0.090359 0.176608
0.084837 0.092779 0.177172
0.107701 0.093647 0.173941
0.134086 0.094205 0.169951
0.160470 0.094763 0.165961
0.186854 0.095321 0.161971
0.213238 0.095879 0.157981
0.249665 0.096712 0.153172
0.291113 0.097681 0.147955
0.332561 0.098651 0.142737
0.374009 0.099621 0.137520
0.415457 0.100590 0.132303
0.452913 0.102714 0.129335
0.486376 0.105990 0.128617
0.519839 0.109267 0.127899
0.553303 0.112543 0.127181
0.586766 0.115820 0.126462
0.614142 0.120116 0.127498
0.629343 0.126453 0.132040
0.644544 0.132789 0.136582
0.659744 0.139126 0.141124
0.674945 0.145462 0.145666
0.688679 0.152152 0.150625
0.695078 0.160609 0.157670
0.701477 0.169067 0.164716
0.707876 0.177524 0.171761
0.714275 0.185981 0.178807
0.720674 0.194439 0.185852
0.059805 0.084131 0.176383
0.064820 0.087310 0.176884
0.069835 0.090489 0.177384
0.074849 0.093668 0.177884
0.079864 0.096847 0.178384
0.084879 0.100026 0.178884
0.108006 0.101333 0.175177
0.134756 0.102266 0.170629
0.161507 0.103199 0.166081
0.188257 0.104132 0.161533
0.215007 0.105065 0.156985
0.251702 0.106175 0.151734
0.293370 0.107374 0.146133
0.335037 0.108572 0.140531
0.376705 0.109770 0.134930
0.418372 0.110969 0.129328
0.456079 0.113083 0.126214
0.489826 0.116112 0.125587
0.523573 0.119142 0.124961
0.557320 0.122171 0.124334
0.591067 0.125201 0.123707
0.618693 0.129165 0.124977
0.634077 0.134998 0.130041
0.649461 0.140832 0.135104
0.664844 0.146665 0.140168
0.680228 0.152498 0.145231
0.694037 0.158711 0.150730
0.699969 0.166821 0.158407
0.705902 0.174930 0.166083
0.711834 0.183040 0.173760
0.717767 0.191150 0.181437
0.723699 0.199260 0.189113
0.061082 0.087581 0.178416
0.065849 0.091519 0.178852
0.070617 0.095458 0.179288
0.075384 0.099396 0.179724
0.080152 0.103334 0.180160
0.084920 0.107272 0.180596
0.108311 0.109019 0.176414
0.135427 0.110327 0.171308
0.162543 0.111635 0.166202
0.189659 0.112943 0.161095
0.216776 0.114251 0.155989
0.253739 0.115639 0.150297
0.295626 0.117066 0.144311
0.337513 0.118493 0.138325
0.379400 0.119920 0.132339
0.421287 0.121347 0.126353
0.459246 0.123452 0.123093
0.493277 0.126235 0.122558
0.527307 0.129017 0.122023
0.561338 0.131800 0.121487
0.595368 0.134582 0.120952
0.623244 0.138214 0.122457
0.638811 0.143544 0.128042
0.654378 0.148874 0.133627
0.669944 0.154204 0.139212
0.685511 0.159535 0.144797
0.699395 0.165270 0.150835
0.704860 0.173032 0.159143
0.710326 0.180794 0.167451
0.715792 0.188556 0.175759
0.721258 0.196318 0.184067
0.726724 0.204081 0.192375
0.063618 0.094616 0.183993
0.068322 0.098879 0.184571
0.073025 0.103142 0.185149
0.077729 0.107405 0.185727
0.082432 0.111668 0.186304
0.087136 0.115931 0.186882
0.109742 0.119124 0.182818
0.135928 0.122103 0.177824
0.162114 0.125082 0.172831
0.188300 0.128061 0.167838
0.214486 0.131040 0.162844
0.251454 0.133122 0.156888
0.293812 0.134755 0.150449
0.336170 0.136388 0.144010
0.378528 0.138021 0.137572
0.420886 0.139654 0.131133
0.459447 0.141738 0.127555
0.494211 0.144274 0.126836
0.528975 0.146809 0.126118
0.563739 0.149345 0.125400
0.598503 0.151880 0.124682
0.627084 0.155177 0.126191
0.643298 0.159996 0.132152
0.659513 0.164816 0.138113
0.675728 0.169635 0.144075
0.691943 0.174455 0.150036
0.706377 0.179721 0.156522
0.711910 0.187219 0.165629
0.717443 0.194717 0.174736
0.722976 0.202216 0.183842
0.728509 0.209714 0.192949
0.734042 0.217212 0.202056
0.066407 0.102367 0.190279
0.071083 0.106868 0.191040
0.075759 0.111369 0.191801
0.080435 0.115870 0.192562
0.085111 0.120370 0.193322
0.089787 0.124871 0.194083
0.111397 0.129713 0.190255
0.136394 0.134622 0.185509
0.161391 0.139531 0.180762
0.186388 0.144441 0.176016
0.211385 0.149350 0.171270
0.248304 0.152209 0.165084
0.291183 0.154044 0.158179
0.334063 0.155878 0.151274
0.376943 0.157712 0.144369
0.419822 0.159546 0.137463
0.459056 0.161607 0.133533
0.494643 0.163896 0.132577
0.530230 0.166184 0.131621
0.565817 0.168473 0.130665
0.601404 0.170762 0.129709
0.630781 0.173723 0.131175
0.647737 0.178030 0.137484
0.664692 0.182337 0.143793
0.681648 0.186644 0.150102
0.698604 0.190952 0.156411
0.713685 0.195749 0.163325
0.719392 0.203001 0.173264
0.725099 0.210252 0.183204
0.730805 0.217503 0.193143
0.736512 0.224755 0.203082
0.742219 0.232006 0.213021
0.069195 0.110119 0.196565
0.073844 0.114857 0.197509
0.078493 0.119596 0.198453
0.083141 0.124335 0.199397
0.087790 0.129073 0.200341
0.092439 0.133812 0.201284
0.113053 0.140301 0.197692
0.136861 0.147141 0.193193
0.160669 0.153981 0.188694
0.184476 0.160820 0.184194
0.208284 0.167660 0.179695
0.245154 0.171297 0.173281
0.288555 0.173332 0.165909
0.331956 0.175368 0.158537
0.375357 0.177403 0.151166
0.418758 0.179438 0.143794
0.458664 0.181477 0.139511
0.495074 0.183518 0.138317
0.531485 0.185560 0.137123
0.567895 0.187601 0.135930
0.604306 0.189643 0.134736
0.634478 0.192269 0.136159
0.652175 0.196064 0.142815
0.669872 0.199859 0.149472
0.687569 0.203654 0.156129
0.705265 0.207448 0.162786
0.720993 0.211778 0.170128
0.726873 0.218783 0.180900
0.732754 0.225787 0.191672
0.738635 0.232791 0.202443
0.744515 0.239795 0.213215
0.750396 0.246800 0.223987
0.071984 0.117870 0.202852
0.076605 0.122846 0.203978
0.081226 0.127823 0.205105
0.085848 0.132799 0.206232
0.090469 0.137776 0.207359
0.095090 0.142752 0.208485
0.114709 0.150890 0.205129
0.137327 0.159660 0.200877
0.159946 0.168430 0.196625
0.182564 0.177200 0.192373
0.205183 0.185970 0.188120
0.242004 0.190384 0.181477
0.285926 0.192621 0.173639
0.329849 0.194857 0.165801
0.373771 0.197094 0.157962
0.417694 0.199331 0.150124
0.458272 0.201346 0.145489
0.495506 0.203141 0.144058
0.532739 0.204935 0.142626
0.569973 0.206730 0.141194
0.607207 0.208524 0.139763
0.638176 0.210815 0.141143
0.656613 0.214098 0.148147
0.675051 0.217380 0.155152
0.693489 0.220663 0.162156
0.711927 0.223945 0.169160
0.728300 0.227807 0.176931
0.734355 0.234564 0.188535
0.740409 0.241322 0.200140
0.746464 0.248079 0.211744
0.752518 0.254836 0.223348
0.758573 0.261594 0.234952
0.074773 0.125621 0.209138
0.079366 0.130836 0.210448
0.083960 0.136050 0.211757
0.088554 0.141264 0.213067
0.093148 0.146479 0.214377
0.097742 0.151693 0.215686
0.116365 0.161479 0.212567
0.137794 0.172179 0.208561
0.159223 0.182879 0.204556
0.180652 0.193579 0.200551
0.202081 0.204279 0.196546
0.238854 0.209471 0.189674
0.283298 0.211909 0.181369
0.327742 0.214347 0.173064
0.372186 0.216785 0.164759
0.416630 0.219223 0.156455
0.457880 0.221216 0.151467
0.495937 0.222763 0.149798
0.533994 0.224311 0.148128
0.572051 0.225858 0.146459
0.610109 0.227406 0.144789
0.641873 0.229361 0.146127
0.661052 0.232131 0.153479
0.680230 0.234902 0.160831
0.699409 0.237672 0.168183
0.718588 0.240442 0.175535
0.735608 0.243836 0.183734
0.741836 0.250346 0.196171
0.748065 0.256856 0.208607
0.754293 0.263367 0.221044
0.760521 0.269877 0.233481
0.766749 0.276387 0.245918
0.078538 0.135484 0.218165
0.083080 0.140765 0.219737
0.087622 0.146047 0.221309
0.092164 0.151328 0.222881
0.096706 0.156610 0.224453
0.101248 0.161891 0.226025
0.119242 0.172494 0.223648
0.139928 0.184160 0.220481
0.160613 0.195827 0.217315
0.181298 0.207494 0.214148
0.201983 0.219160 0.210981
0.238200 0.225345 0.204513
0.282184 0.228790 0.196394
0.326167 0.232234 0.188275
0.370151 0.235678 0.180157
0.414134 0.239122 0.172038
0.455679 0.241510 0.166845
0.494785 0.242841 0.164577
0.533891 0.244172 0.162310
0.572997 0.245503 0.160043
0.612103 0.246834 0.157776
0.644820 0.248513 0.158693
0.664758 0.250887 0.165978
0.684696 0.253261 0.173262
0.704634 0.255634 0.180547
0.724572 0.258008 0.187832
0.742300 0.261071 0.196048
0.748976 0.267578 0.208921
0.755653 0.274086 0.221794
0.762329 0.280593 0.234667
0.769006 0.287100 0.247539
0.775682 0.293607 0.260412
0.082792 0.146402 0.228564
0.087270 0.151665 0.230437
0.091748 0.156928 0.232311
0.096226 0.162191 0.234185
0.100704 0.167455 0.236059
0.105181 0.172718 0.237933
0.122731 0.183721 0.236551
0.142894 0.195873 0.234519
0.163058 0.208024 0.232487
0.183222 0.220176 0.230454
0.203386 0.232327 0.228422
0.238795 0.239613 0.222673
0.281827 0.244466 0.215067
0.324859 0.249319 0.207460
0.367891 0.254172 0.199854
0.410923 0.259025 0.192247
0.452573 0.262017 0.186921
0.492841 0.263146 0.183877
0.533109 0.264276 0.180832
0.573377 0.265406 0.177787
0.613645 0.266536 0.174742
0.647392 0.267967 0.175049
0.668099 0.270003 0.182060
0.688805 0.272038 0.189070
0.709511 0.274074 0.196081
0.730218 0.276109 0.203091
0.748684 0.278910 0.211118
0.755946 0.285536 0.224229
0.763208 0.292162 0.237339
0.770470 0.298788 0.250450
0.777732 0.305414 0.263560
0.784994 0.312041 0.276671
0.087046 0.157320 0.238962
0.091459 0.162565 0.241137
0.095873 0.167810 0.243313
0.100287 0.173055 0.245489
0.104701 0.178299 0.247665
0.109115 0.183544 0.249840
0.126219 0.194949 0.249454
0.145861 0.207585 0.248556
0.165504 0.220222 0.247658
0.185146 0.232858 0.246760
0.204788 0.245494 0.245862
0.239389 0.253881 0.240834
0.281470 0.260143 0.233739
0.323551 0.266405 0.226645
0.365632 0.272666 0.219551
0.407712 0.278928 0.212456
0.449467 0.282523 0.206998
0.490897 0.283452 0.203176
0.532327 0.284380 0.199354
0.573756 0.285309 0.195531
0.615186 0.286237 0.191709
0.649964 0.287422 0.191406
0.671439 0.289119 0.198142
0.692914 0.290816 0.204878
0.714389 0.292513 0.211614
0.735864 0.294210 0.218350
0.755067 0.296748 0.226188
0.762915 0.303493 0.239536
0.770762 0.310238 0.252885
0.778610 0.316984 0.266233
0.786457 0.323729 0.279582
0.794305 0.330474 0.292930
0.091299 0.168238 0.249360
0.095649 0.173465 0.251838
0.099999 0.178691 0.254315
0.104349 0.183918 0.256793
0.108699 0.189144 0.259270
0.113049 0.194371 0.261748
0.129708 0.206176 0.262358
0.148828 0.219298 0.262594
0.167949 0.232419 0.262830
0.187070 0.245540 0.263067
0.206191 0.258661 0.263303
0.239984 0.268149 0.258994
0.281113 0.275819 0.252412
0.322243 0.283490 0.245830
0.363372 0.291161 0.239248
0.404501 0.298831 0.232666
0.446362 0.303030 0.227075
0.488953 0.303757 0.222475
0.531545 0.304485 0.217875
0.574136 0.305212 0.213275
0.616728 0.305939 0.208675
0.652536 0.306877 0.207763
0.674780 0.308235 0.214224
0.697023 0.309594 0.220686
0.719266 0.310952 0.227147
0.741510 0.312311 0.233609
0.761451 0.314587 0.241258
0.769884 0.321451 0.254844
0.778317 0.328315 0.268430
0.786750 0.335179 0.282016
0.795183 0.342043 0.295603
0.803616 0.348907 0.309189
0.095553 0.179156 0.259758
0.099839 0.184365 0.262538
0.104125 0.189573 0.265317
0.108411 0.194781 0.268097
0.112697 0.199989 0.270876
0.116982 0.205198 0.273655
0.133196 0.217404 0.275261
0.151795 0.231010 0.276632
0.170395 0.244616 0.278002
0.188994 0.258222 0.279373
0.207594 0.271828 0.280744
0.240579 0.282417 0.277154
0.280757 0.291496 0.271084
0.320935 0.300575 0.265015
0.361112 0.309655 0.258945
0.401290 0.318734 0.252875
0.443256 0.323537 0.247152
0.487009 0.324063 0.241774
0.530762 0.324589 0.236397
0.574516 0.325115 0.231019
0.618269 0.325641 0.225642
0.655108 0.326332 0.224119
0.678120 0.327352 0.230306
0.701132 0.328372 0.236493
0.724144 0.329392 0.242680
0.747155 0.330412 0.248867
0.767835 0.332425 0.256327
0.776853 0.339408 0.270152
0.785872 0.346391 0.283976
0.794890 0.353374 0.297800
0.803908 0.360357 0.311624
0.812927 0.367340 0.325448
0.100611 0.191067 0.270983
0.104942 0.196252 0.274028
0.109274 0.201438 0.277073
0.113605 0.206623 0.280118
0.117937 0.211809 0.283163
0.122268 0.216994 0.286207
0.138196 0.229353 0.288859
0.156443 0.243146 0.291433
0.174691 0.256940 0.294007
0.192938 0.270734 0.296580
0.211185 0.284527 0.299154
0.243376 0.295959 0.296877
0.282538 0.306209 0.292175
0.321701 0.316459 0.287473
0.360863 0.326710 0.282771
0.400026 0.336960 0.278069
0.441877 0.342465 0.272789
0.486417 0.343224 0.266931
0.530957 0.343983 0.261073
0.575497 0.344743 0.255216
0.620037 0.345502 0.249358
0.657672 0.346261 0.247225
0.681498 0.347020 0.252543
0.705324 0.347780 0.257861
0.729150 0.348539 0.263180
0.752976 0.349298 0.268498
0.774418 0.351111 0.275213
0.783939 0.358190 0.288919
0.793461 0.365269 0.302624
0.802982 0.372348 0.316329
0.812504 0.379427 0.330034
0.822025 0.386506 0.343739
0.106471 0.203970 0.283036
0.110958 0.209128 0.286309
0.115445 0.214286 0.289583
0.119933 0.219444 0.292856
0.124420 0.224602 0.296130
0.128907 0.229760 0.299403
0.144708 0.242023 0.303153
0.162772 0.255707 0.306998
0.180837 0.269390 0.310844
0.198901 0.283074 0.314689
0.216965 0.296758 0.318534
0.248375 0.308775 0.318163
0.286458 0.319958 0.315684
0.324541 0.331142 0.313205
0.362624 0.342325 0.310726
0.400707 0.353509 0.308247
0.442225 0.359814 0.303987
0.487176 0.361241 0.297946
0.532128 0.362668 0.291905
0.577079 0.364095 0.285864
0.622031 0.365522 0.279824
0.660228 0.366666 0.277081
0.684913 0.367242 0.280936
0.709599 0.367818 0.284790
0.734285 0.368395 0.288644
0.758971 0.368971 0.292499
0.781199 0.370643 0.297916
0.791142 0.377796 0.311145
0.801084 0.384948 0.324375
0.811026 0.392100 0.337604
0.820969 0.399252 0.350834
0.830911 0.406404 0.364063
0.112332 0.216873 0.295088
0.116975 0.222004 0.298591
0.121617 0.227134 0.302093
0.126260 0.232265 0.305595
0.130903 0.237395 0.309097
0.135545 0.242526 0.312599
0.151220 0.254693 0.317447
0.169101 0.268267 0.322564
0.186982 0.281841 0.327680
0.204864 0.295415 0.332797
0.222745 0.308989 0.337914
0.253374 0.321591 0.339449
0.290378 0.333708 0.339193
0.327382 0.345824 0.338936
0.364385 0.357941 0.338680
0.401389 0.370057 0.338424
0.442572 0.377163 0.335184
0.487935 0.379258 0.328961
0.533299 0.381353 0.322737
0.578662 0.383448 0.316513
0.624025 0.385543 0.310290
0.662783 0.387070 0.306937
0.688329 0.387464 0.309328
0.713874 0.387857 0.311719
0.739420 0.388250 0.314109
0.764966 0.388644 0.316500
0.787981 0.390176 0.320618
0.798344 0.397401 0.333372
0.808707 0.404627 0.346126
0.819070 0.411852 0.358879
0.829434 0.419077 0.371633
0.839797 0.426303 0.384387
0.118193 0.229777 0.307141
0.122991 0.234880 0.310872
0.127789 0.239983 0.314603
0.132587 0.245086 0.318333
0.137385 0.250189 0.322064
0.142183 0.255292 0.325795
0.157732 0.267363 0.331741
0.175430 0.280827 0.338129
0.193128 0.294291 0.344517
0.210827 0.307756 0.350906
0.228525 0.321220 0.357294
0.258374 0.334408 0.360735
0.294298 0.347457 0.362701
0.330222 0.360507 0.364668
0.366146 0.373556 0.366635
0.402070 0.386606 0.368602
0.442920 0.394512 0.366382
0.488695 0.397275 0.359975
0.534470 0.400038 0.353569
0.580245 0.402800 0.347162
0.626020 0.405563 0.340755
0.665338 0.407475 0.336793
0.691744 0.407685 0.337720
0.718149 0.407896 0.338647
0.744555 0.408106 0.339574
0.770961 0.408317 0.340501
0.794763 0.409708 0.343320
0.805547 0.417007 0.355598
0.816331 0.424305 0.367876
0.827115 0.431604 0.380154
0.837899 0.438903 0.392433
0.848683 0.446201 0.404711
0.124054 0.242680 0.319193
0.129007 0.247756 0.323153
0.133961 0.252831 0.327112
0.138915 0.257907 0.331072
0.143868 0.262982 0.335032
0.148822 0.268058 0.338991
0.164244 0.280033 0.346034
0.181759 0.293387 0.353694
0.199274 0.306742 0.361354
0.216790 0.320096 0.369014
0.234305 0.333451 0.376674
0.263373 0.347224 0.382020
0.298218 0.361207 0.386210
0.333062 0.375189 0.390400
0.367907 0.389172 0.394590
0.402752 0.403155 0.398780
0.443267 0.411861 0.397580
0.489454 0.415292 0.390990
0.535641 0.418722 0.384400
0.581827 0.422153 0.377811
0.628014 0.425583 0.371221
0.667894 0.427879 0.366649
0.695159 0.427907 0.366113
0.722425 0.427934 0.365576
0.749690 0.427962 0.365039
0.776956 0.427989 0.364503
0.801544 0.429241 0.366022
0.812749 0.436613 0.377825
0.823954 0.443984 0.389627
0.835159 0.451356 0.401430
0.846363 0.458728 0.413232
0.857568 0.466099 0.425034
0.130750 0.255662 0.331356
0.135932 0.260771 0.335508
0.141114 0.265880 0.339659
0.146297 0.270989 0.343811
0.151479 0.276098 0.347963
0.156661 0.281208 0.352114
0.172185 0.293178 0.360059
0.189776 0.306520 0.368761
0.207368 0.319862 0.377464
0.224959 0.333205 0.386167
0.242551 0.346547 0.394870
0.271020 0.360766 0.401812
0.304929 0.375422 0.407874
0.338837 0.390079 0.413936
0.372746 0.404735 0.419998
0.406654 0.419392 0.426060
0.446540 0.428887 0.426141
0.492404 0.433220 0.420241
0.538267 0.437553 0.414340
0.584131 0.441886 0.408440
0.629994 0.446219 0.402539
0.669983 0.449064 0.397945
0.698225 0.448933 0.395963
0.726466 0.448802 0.393981
0.754707 0.448671 0.391999
0.782949 0.448540 0.390017
0.808412 0.449648 0.390204
0.819982 0.456956 0.401238
0.831553 0.464264 0.412272
0.843124 0.471572 0.423306
0.854694 0.478879 0.434340
0.866265 0.486187 0.445374
0.139115 0.268801 0.343739
0.144673 0.274066 0.348010
0.150230 0.279331 0.352281
0.155788 0.284595 0.356551
0.161345 0.289860 0.360822
0.166902 0.295125 0.365092
0.182984 0.307273 0.373544
0.201170 0.320799 0.382833
0.219356 0.334324 0.392121
0.237542 0.347849 0.401409
0.255728 0.361374 0.410697
0.283963 0.375758 0.418615
0.317222 0.390570 0.425848
0.350481 0.405382 0.433081
0.383740 0.420194 0.440314
0.416999 0.435006 0.447547
0.455664 0.445265 0.449430
0.499734 0.450970 0.445963
0.543805 0.456675 0.442496
0.587875 0.462381 0.439029
0.631946 0.468086 0.435562
0.671142 0.471809 0.432120
0.700591 0.471568 0.428729
0.730040 0.471327 0.425339
0.759489 0.471086 0.421948
0.788938 0.470846 0.418557
0.815449 0.471806 0.417345
0.827276 0.478776 0.427025
0.839103 0.485745 0.436705
0.850930 0.492714 0.446385
0.862757 0.499683 0.456065
0.874583 0.506652 0.465745
0.147481 0.281941 0.356123
0.153414 0.287361 0.360512
0.159346 0.292781 0.364902
0.165279 0.298202 0.369291
0.171211 0.303622 0.373681
0.177144 0.309042 0.378070
0.193783 0.321369 0.387030
0.212564 0.335077 0.396904
0.231345 0.348785 0.406777
0.250125 0.362494 0.416651
0.268906 0.376202 0.426525
0.296906 0.390750 0.435419
0.329516 0.405717 0.443823
0.362125 0.420685 0.452227
0.394735 0.435652 0.460631
0.427344 0.450620 0.469034
0.464788 0.461643 0.472720
0.507065 0.468720 0.471686
0.549342 0.475798 0.470652
0.591620 0.482875 0.469618
0.633897 0.489953 0.468585
0.672301 0.494554 0.466296
0.702957 0.494203 0.461496
0.733614 0.493853 0.456696
0.764270 0.493502 0.451897
0.794926 0.493151 0.447097
0.822487 0.493964 0.444485
0.834570 0.500595 0.452811
0.846653 0.507226 0.461137
0.858736 0.513857 0.469464
0.870819 0.520487 0.477790
0.882902 0.527118 0.486116
0.155847 0.295081 0.368506
0.162155 0.300656 0.373014
0.168462 0.306232 0.377523
0.174770 0.311808 0.382031
0.181077 0.317383 0.386540
0.187385 0.322959 0.391048
0.204582 0.335464 0.400516
0.223958 0.349356 0.410975
0.243333 0.363247 0.421434
0.262708 0.377138 0.431893
0.282084 0.391029 0.442352
0.309849 0.405742 0.452222
0.341809 0.420865 0.461797
0.373769 0.435988 0.471372
0.405729 0.451111 0.480947
0.437689 0.466234 0.490522
0.473911 0.478021 0.496009
0.514395 0.486470 0.497408
0.554880 0.494920 0.498808
0.595364 0.503370 0.500208
0.635849 0.511819 0.501607
0.673460 0.517299 0.500471
0.705323 0.516839 0.494263
0.737187 0.516378 0.488054
0.769051 0.515918 0.481846
0.800915 0.515457 0.475637
0.829525 0.516122 0.471626
0.841864 0.522414 0.478598
0.854203 0.528707 0.485570
0.866542 0.534999 0.492542
0.878882 0.541291 0.499515
0.891221 0.547584 0.506487
0.164213 0.308220 0.380889
0.170895 0.313951 0.385517
0.177578 0.319683 0.390144
0.184261 0.325414 0.394771
0.190943 0.331145 0.399399
0.197626 0.336876 0.404026
0.215381 0.349560 0.414001
0.235351 0.363634 0.425046
0.255321 0.377708 0.436091
0.275291 0.391782 0.447135
0.295261 0.405856 0.458180
0.322792 0.420734 0.469025
0.354102 0.436012 0.479771
0.385413 0.451291 0.490517
0.416723 0.466570 0.501263
0.448034 0.481848 0.512009
0.483035 0.494399 0.519298
0.521726 0.504220 0.523131
0.560417 0.514042 0.526964
0.599109 0.523864 0.530797
0.637800 0.533686 0.534630
0.674618 0.540044 0.534646
0.707690 0.539474 0.527029
0.740761 0.538903 0.519412
0.773833 0.538333 0.511795
0.806904 0.537763 0.504177
0.836563 0.538280 0.498766
0.849158 0.544234 0.504385
0.861753 0.550188 0.510003
0.874349 0.556142 0.515621
0.886944 0.562095 0.521240
0.899539 0.568049 0.526858
0.173106 0.320982 0.393091
0.180187 0.326897 0.397874
0.187268 0.332813 0.402657
0.194348 0.338729 0.407440
0.201429 0.344644 0.412223
0.208509 0.350560 0.417006
0.226881 0.363454 0.427455
0.247511 0.377743 0.439038
0.268142 0.392032 0.450621
0.288772 0.406321 0.462204
0.309402 0.420610 0.473787
0.336757 0.435655 0.485488
0.367474 0.451076 0.497247
0.398192 0.466498 0.509007
0.428909 0.481920 0.520767
0.459627 0.497342 0.532527
0.493441 0.510545 0.541380
0.530353 0.521529 0.547328
0.567265 0.532513 0.553276
0.604178 0.543496 0.559223
0.641090 0.554480 0.565171
0.676973 0.561652 0.566312
0.710797 0.561201 0.557840
0.744622 0.560749 0.549367
0.778447 0.560298 0.540894
0.812271 0.559847 0.532422
0.842621 0.560405 0.526075
0.855598 0.566009 0.530356
0.868574 0.571614 0.534637
0.881550 0.577219 0.538919
0.894527 0.582823 0.543200
0.907503 0.588428 0.547481
0.184639 0.331852 0.404388
0.192232 0.338097 0.409509
0.199825 0.344342 0.414630
0.207417 0.350587 0.419752
0.215010 0.356832 0.424873
0.222603 0.363077 0.429994
0.241884 0.376338 0.440752
0.263502 0.391003 0.452637
0.285120 0.405667 0.464521
0.306738 0.420331 0.476406
0.328357 0.434995 0.488291
0.355834 0.450220 0.500245
0.386240 0.465724 0.512233
0.416646 0.481228 0.524222
0.447053 0.496733 0.536210
0.477459 0.512237 0.548199
0.510263 0.525536 0.557427
0.545464 0.536629 0.563896
0.580666 0.547723 0.570366
0.615867 0.558816 0.576835
0.651069 0.569909 0.583304
0.685305 0.577576 0.585430
