filter/Red and Blue/lut/Spotlight 04.cube
# LUT by SparkleStock. Enhanced with VOXCOLOR algorithms.
LUT_3D_SIZE 5
DOMAIN_MIN 0.000000 0.000000 0.000000
DOMAIN_MAX 0.903226 0.903226 0.903226
0.066422 0.070330 0.093773
0.158084 0.074473 0.087250
0.394880 0.086904 0.066422
0.618693 0.114814 0.061271
0.711789 0.158502 0.080870
0.080216 0.093505 0.113821
0.147410 0.109014 0.124775
0.389776 0.125228 0.103795
0.640185 0.154025 0.086413
0.740235 0.202243 0.103865
0.107897 0.137792 0.166111
0.157239 0.170950 0.197611
0.355323 0.217582 0.214664
0.659900 0.248115 0.168121
0.793210 0.306499 0.190387
0.145449 0.206719 0.247958
0.195785 0.253420 0.293468
0.363521 0.344150 0.368980
0.670540 0.407468 0.363413
0.854040 0.454766 0.357075
0.199354 0.291725 0.344094
0.268051 0.349660 0.398148
0.439339 0.462111 0.493136
0.691519 0.575833 0.568430
0.907598 0.626894 0.561421
0.069676 0.087195 0.148671
0.158049 0.102813 0.130571
0.414465 0.119004 0.092278
0.645985 0.147202 0.079359
0.739876 0.199889 0.102212
0.091727 0.119117 0.164987
0.151651 0.156317 0.189419
0.384674 0.190422 0.180086
0.654196 0.217051 0.148664
0.765800 0.261077 0.158652
0.129682 0.178361 0.219415
0.184058 0.227564 0.262910
0.357067 0.300753 0.314378
0.664089 0.337483 0.279100
0.816034 0.379587 0.274789
0.179037 0.254282 0.301862
0.244359 0.310153 0.351051
0.398453 0.410014 0.436007
0.664169 0.495126 0.473220
0.867199 0.526449 0.442217
0.258217 0.346418 0.398287
0.333063 0.405079 0.446689
0.493756 0.517450 0.540694
0.714287 0.627917 0.617845
0.908766 0.678950 0.617739
0.077758 0.104888 0.268880
0.132000 0.137330 0.266784
0.404220 0.191287 0.185649
0.689714 0.226272 0.132948
0.792988 0.288971 0.169194
0.102524 0.147663 0.289268
0.153312 0.199929 0.311219
0.378727 0.282205 0.302133
0.686241 0.317914 0.249607
0.816591 0.363807 0.255563
0.157010 0.234237 0.332292
0.222802 0.298475 0.371196
0.376735 0.403545 0.437202
0.665221 0.465111 0.438460
0.848875 0.498086 0.414473
0.233008 0.331170 0.408794
0.317963 0.397660 0.453240
0.466382 0.506437 0.533435
0.665417 0.606385 0.599048
0.881731 0.633807 0.570649
0.351881 0.439896 0.500199
0.439630 0.502296 0.542211
0.581664 0.605868 0.620175
0.751276 0.704600 0.689279
0.910277 0.756810 0.702412
0.096380 0.117066 0.415952
0.126537 0.156856 0.436560
0.262516 0.248103 0.432303
0.709231 0.336974 0.256538
0.851877 0.402143 0.289078
0.119588 0.162244 0.439381
0.159643 0.215759 0.461111
0.292010 0.322564 0.485080
0.697535 0.438259 0.398648
0.869081 0.478439 0.383185
0.177855 0.261719 0.479982
0.236757 0.325141 0.505755
0.377097 0.451787 0.561936
0.667950 0.580381 0.579186
0.885163 0.606060 0.539719
0.266289 0.376613 0.526839
0.356515 0.454556 0.562033
0.528293 0.582854 0.626485
0.676693 0.673926 0.676367
0.886115 0.717555 0.668795
0.404739 0.505403 0.606309
0.498511 0.573988 0.641423
0.655971 0.682311 0.700690
0.780795 0.766131 0.751927
0.910037 0.816356 0.768533
0.129899 0.147552 0.541620
0.155808 0.182429 0.567282
0.240915 0.270570 0.601380
0.471701 0.410702 0.591211
0.841574 0.514916 0.474741
0.152425 0.183785 0.563407
0.190918 0.234581 0.589423
0.283803 0.334298 0.630432
0.501063 0.475073 0.638923
0.855819 0.578046 0.545286
0.214244 0.278546 0.607849
0.267964 0.339908 0.633691
0.384062 0.460078 0.684229
0.571308 0.595809 0.719234
0.871693 0.688473 0.662615
0.306817 0.402185 0.653562
0.375697 0.470891 0.682439
0.515155 0.596406 0.737142
0.673871 0.713281 0.784013
0.883412 0.785815 0.759741
0.429445 0.534966 0.711084
0.509906 0.604321 0.742402
0.661198 0.720848 0.793455
0.800770 0.808580 0.823569
0.908783 0.860071 0.828996
