filter/Red and Blue/lut/Spotlight 02_S.cube
# LUT by SparkleStock. Enhanced with VOXCOLOR algorithms.
LUT_3D_SIZE 5
DOMAIN_MIN 0.000000 0.000000 0.000000
DOMAIN_MAX 0.903226 0.903226 0.903226
0.054701 0.070330 0.168254
0.132073 0.070022 0.167915
0.365922 0.069172 0.145291
0.600488 0.092969 0.135058
0.688204 0.151475 0.160613
0.066407 0.102367 0.190279
0.136394 0.134622 0.185509
0.376943 0.157712 0.144369
0.630781 0.173723 0.131175
0.725099 0.210252 0.183204
0.091299 0.168238 0.249360
0.148828 0.219298 0.262594
0.363372 0.291161 0.239248
0.652536 0.306877 0.207763
0.778317 0.328315 0.268430
0.130750 0.255662 0.331356
0.189776 0.306520 0.368761
0.372746 0.404735 0.419998
0.669983 0.449064 0.397945
0.831553 0.464264 0.412272
0.196172 0.342723 0.415684
0.279493 0.404263 0.466235
0.465196 0.511545 0.551653
0.693637 0.593499 0.604548
0.874920 0.613920 0.585924
0.062444 0.092969 0.223168
0.137018 0.106131 0.216724
0.389447 0.100358 0.191930
0.630528 0.122688 0.176472
0.719788 0.197203 0.198886
0.078010 0.139186 0.246524
0.164203 0.189026 0.263780
0.400921 0.218013 0.254489
0.654437 0.228743 0.236393
0.766465 0.263011 0.250135
0.115237 0.215716 0.303304
0.193706 0.288901 0.325589
0.399175 0.381642 0.329709
0.667937 0.400246 0.303443
0.819455 0.406448 0.321018
0.170494 0.304053 0.381914
0.250354 0.368468 0.418849
0.423893 0.487206 0.461247
0.674133 0.556443 0.447142
0.857420 0.562169 0.425697
0.266185 0.400317 0.468009
0.352242 0.457647 0.512812
0.518276 0.564245 0.590911
0.713500 0.653624 0.630965
0.882332 0.686311 0.597162
0.077695 0.121108 0.338131
0.123402 0.161109 0.345938
0.386914 0.196890 0.294226
0.672501 0.214524 0.254959
0.772354 0.291057 0.277307
0.097360 0.180525 0.367231
0.166218 0.237037 0.394878
0.401982 0.290815 0.404013
0.678274 0.300958 0.373690
0.809809 0.346195 0.363045
0.153926 0.289651 0.416644
0.236212 0.357848 0.447195
0.422249 0.449610 0.484896
0.675293 0.472019 0.476421
0.854605 0.481861 0.464505
0.237986 0.393558 0.485414
0.334377 0.457156 0.519780
0.492329 0.565443 0.567643
0.678810 0.645131 0.568378
0.877917 0.649571 0.535023
0.381878 0.500133 0.565733
0.468822 0.551921 0.601581
0.602437 0.641600 0.662887
0.743838 0.728524 0.691023
0.890267 0.774745 0.655993
0.104620 0.146851 0.470999
0.134703 0.197475 0.494923
0.264288 0.296452 0.505363
0.697269 0.346958 0.359870
0.827971 0.402804 0.376232
0.127969 0.206450 0.499460
0.175990 0.267140 0.527324
0.319596 0.368526 0.564124
0.691292 0.425732 0.492227
0.847272 0.454782 0.467740
0.190250 0.330146 0.553339
0.260117 0.394194 0.580265
0.411344 0.501127 0.628176
0.678730 0.564104 0.635335
0.872329 0.556882 0.603346
0.300753 0.459821 0.606547
0.388448 0.522136 0.632796
0.554082 0.622367 0.674878
0.686725 0.687466 0.703096
0.881765 0.693721 0.683527
0.454104 0.575383 0.673696
0.536576 0.624412 0.696430
0.671632 0.704100 0.736399
0.771028 0.773852 0.769227
0.892970 0.819451 0.752719
0.146560 0.192249 0.583024
0.176909 0.237644 0.609025
0.275099 0.343055 0.652330
0.498492 0.464691 0.651515
0.823282 0.514393 0.525405
0.172974 0.241877 0.608211
0.221929 0.300542 0.637775
0.333104 0.410459 0.686426
0.540071 0.524848 0.697459
0.836913 0.569212 0.590167
0.246475 0.357580 0.662701
0.315770 0.420703 0.692267
0.443709 0.531966 0.741104
0.615280 0.631452 0.767542
0.855364 0.662338 0.700643
0.368189 0.493734 0.721401
0.442293 0.552883 0.746914
0.570896 0.651442 0.785411
0.697480 0.731002 0.811184
0.870863 0.760479 0.784871
0.516865 0.618909 0.778255
0.576998 0.664604 0.794820
0.689399 0.741735 0.817918
0.797919 0.805030 0.833910
0.893668 0.849205 0.832927
