filter/Red and Blue/lut/Spotlight 01.cube
# LUT by SparkleStock. Enhanced with VOXCOLOR algorithms.
LUT_3D_SIZE 8
DOMAIN_MIN 0.000000 0.000000 0.000000
DOMAIN_MAX 0.903226 0.903226 0.903226
0.093773 0.082051 0.105495
0.121943 0.082808 0.110977
0.200465 0.088117 0.114451
0.313585 0.099161 0.117413
0.443562 0.116271 0.122021
0.555674 0.138013 0.135066
0.629343 0.162275 0.156461
0.679759 0.192674 0.185569
0.099256 0.089614 0.117405
0.117472 0.095054 0.125815
0.195269 0.101003 0.131076
0.313536 0.112243 0.134806
0.451234 0.131274 0.139415
0.568761 0.155064 0.152460
0.644797 0.181620 0.174587
0.695384 0.212062 0.203621
0.110095 0.104140 0.138824
0.125927 0.113227 0.150887
0.187800 0.125169 0.164829
0.299473 0.140440 0.174097
0.451411 0.159797 0.176917
0.582959 0.186674 0.187992
0.668066 0.217337 0.211300
0.723800 0.251645 0.242710
0.125897 0.125629 0.169908
0.142583 0.137753 0.185008
0.190994 0.158573 0.209902
0.290334 0.181152 0.229344
0.442759 0.202369 0.235509
0.595714 0.231904 0.241669
0.694613 0.266721 0.264005
0.758733 0.306293 0.297875
0.146457 0.154012 0.210083
0.164296 0.169008 0.227050
0.211825 0.199504 0.261715
0.298901 0.232594 0.295373
0.430529 0.260701 0.314567
0.606262 0.291061 0.313792
0.721323 0.328316 0.331192
0.795563 0.372266 0.365301
0.173303 0.190500 0.257537
0.193191 0.209009 0.277138
0.242458 0.248099 0.318896
0.326632 0.297484 0.368862
0.449533 0.346266 0.411347
0.619996 0.372965 0.410426
0.748572 0.407538 0.418043
0.833424 0.451378 0.445913
0.208342 0.234393 0.309087
0.230523 0.256293 0.332054
0.284278 0.303767 0.380600
0.369431 0.365494 0.440907
0.485648 0.429980 0.498617
0.639011 0.477293 0.526092
0.778113 0.505909 0.521264
0.870705 0.540659 0.533396
0.250447 0.282634 0.363914
0.276397 0.308377 0.389918
0.334819 0.362928 0.443255
0.420949 0.432969 0.508753
0.530930 0.506456 0.572930
0.667363 0.568534 0.618968
0.801819 0.602233 0.621564
0.896721 0.633296 0.625484
0.097176 0.087345 0.131395
0.123882 0.092492 0.128389
0.205399 0.099290 0.128868
0.323349 0.110931 0.131342
0.457717 0.129102 0.135877
0.571146 0.152161 0.149362
0.644913 0.179327 0.172538
0.695500 0.211440 0.203218
0.103976 0.098713 0.139061
0.121522 0.110584 0.149181
0.196524 0.120222 0.157552
0.313673 0.133097 0.163278
0.454147 0.152410 0.167190
0.576731 0.176045 0.177275
0.656038 0.203086 0.197216
0.708258 0.233802 0.224419
0.117377 0.116008 0.159761
0.134215 0.131478 0.175384
0.193050 0.150975 0.196960
0.301173 0.170459 0.211844
0.452126 0.188607 0.214478
0.589340 0.213775 0.220959
0.678428 0.243028 0.239547
0.735932 0.276246 0.266869
0.136436 0.140022 0.191211
0.155506 0.157765 0.209040
0.202559 0.187555 0.242181
0.297583 0.217085 0.269959
0.445015 0.239717 0.280109
0.602105 0.265201 0.281193
0.704700 0.296328 0.296856
0.770240 0.332990 0.324656
0.160490 0.171112 0.231313
0.181152 0.191133 0.251164
0.228384 0.227756 0.290379
0.310863 0.269124 0.332455
0.434854 0.305843 0.362493
0.611224 0.330536 0.358370
0.729704 0.361402 0.367496
0.805234 0.399984 0.393362
0.190703 0.209796 0.279205
0.213754 0.232536 0.301351
0.262984 0.275836 0.345714
0.343542 0.329561 0.399131
0.459471 0.382960 0.446850
0.621620 0.414873 0.455613
0.753256 0.443263 0.455901
0.840205 0.479624 0.473931
0.228254 0.255031 0.331804
0.254316 0.280746 0.356127
0.307601 0.330423 0.405352
0.389145 0.393803 0.466212
0.499575 0.460293 0.525235
0.645114 0.510949 0.557861
0.781095 0.537762 0.553085
0.873188 0.567255 0.559649
0.274842 0.306821 0.389229
0.301169 0.333461 0.413388
0.359036 0.388525 0.465814
0.442826 0.458908 0.530686
0.548202 0.532707 0.594242
0.677902 0.594997 0.640701
0.805971 0.628433 0.645614
0.897831 0.655986 0.646846
0.103525 0.096656 0.180464
0.124620 0.105054 0.178610
0.205352 0.118441 0.170903
0.329989 0.135545 0.165389
0.477574 0.155710 0.167778
0.596157 0.181019 0.180353
0.671784 0.211589 0.205172
0.723945 0.247796 0.239158
0.111953 0.109963 0.188862
0.128695 0.125840 0.198694
0.200000 0.146111 0.204431
0.319091 0.166410 0.206894
0.470465 0.185052 0.207956
0.599694 0.209545 0.214776
0.682120 0.238924 0.234374
0.736186 0.272811 0.263646
0.129842 0.135358 0.207429
0.148097 0.155038 0.222528
0.203245 0.185041 0.245851
0.307654 0.213639 0.264860
0.458752 0.234853 0.272486
0.602792 0.259803 0.275908
0.698414 0.288452 0.289561
0.759876 0.321379 0.313428
0.154275 0.167642 0.237232
0.176060 0.189512 0.254884
0.221651 0.228159 0.291544
0.309670 0.268122 0.328072
0.446825 0.299273 0.350360
0.608196 0.323543 0.350974
0.719047 0.351013 0.358243
0.789996 0.383775 0.377250
0.183690 0.203812 0.278129
0.208289 0.227705 0.298159
0.257309 0.271687 0.339622
0.333531 0.323713 0.389100
0.442983 0.371942 0.431479
0.617014 0.395822 0.432106
0.741718 0.421059 0.432780
0.822112 0.453294 0.447359
0.222038 0.248424 0.327601
0.248323 0.274163 0.349506
0.299865 0.322482 0.394375
0.376319 0.381998 0.449845
0.479258 0.441629 0.502802
0.625380 0.483446 0.526937
0.760151 0.505319 0.520922
0.851400 0.532199 0.525953
0.267735 0.299251 0.382130
0.296036 0.327069 0.405677
0.350417 0.379124 0.453001
0.427662 0.443932 0.511812
0.526376 0.510975 0.570296
0.656527 0.566496 0.609883
0.785594 0.593416 0.608927
0.877128 0.616343 0.607916
0.322140 0.357092 0.441747
0.349357 0.384355 0.464253
0.405297 0.438259 0.511752
0.483166 0.506030 0.571237
0.578328 0.576632 0.631144
0.695549 0.638667 0.677398
0.812180 0.673740 0.687751
0.899097 0.696938 0.685837
0.112742 0.109118 0.249785
0.128592 0.120175 0.252993
0.197953 0.141483 0.245138
0.324295 0.167098 0.230186
0.493930 0.193164 0.215250
0.624124 0.221535 0.225325
0.704167 0.255176 0.250387
0.759007 0.295824 0.287485
0.122561 0.123779 0.259988
0.138959 0.142306 0.269736
0.200757 0.172688 0.275817
0.318884 0.203735 0.273474
0.485984 0.228884 0.263190
0.627061 0.254087 0.265111
0.714359 0.285508 0.283271
0.771159 0.323088 0.314816
0.144847 0.157059 0.278537
0.163913 0.179159 0.291938
0.214524 0.218572 0.314815
0.315103 0.259758 0.334197
0.467739 0.292187 0.341974
0.622399 0.315810 0.341022
0.725133 0.343473 0.349104
0.790900 0.376813 0.370434
0.175443 0.199553 0.306795
0.198262 0.223655 0.322339
0.244477 0.270028 0.357356
0.327058 0.321942 0.396539
0.452815 0.365984 0.426388
0.618817 0.390482 0.428632
0.737715 0.414735 0.428373
0.814627 0.444184 0.439589
0.211887 0.245110 0.345436
0.238509 0.271175 0.362695
0.291438 0.321426 0.401522
0.362711 0.381511 0.451427
0.455125 0.437701 0.499391
0.621901 0.467834 0.512243
0.752414 0.489911 0.508040
0.839348 0.516088 0.511740
0.258139 0.296942 0.395311
0.286824 0.324372 0.414415
0.343081 0.377041 0.455918
0.416607 0.440617 0.508624
0.503990 0.503310 0.561813
0.630382 0.554761 0.598976
0.766570 0.573674 0.591774
0.862586 0.592763 0.586342
0.313275 0.354868 0.449978
0.343237 0.383470 0.470650
0.400581 0.437190 0.513027
0.474202 0.501987 0.566268
0.558687 0.566892 0.620675
0.670215 0.625354 0.664364
0.789797 0.654416 0.669715
0.880503 0.672126 0.662723
0.375648 0.418489 0.508637
0.404376 0.445892 0.528515
0.459981 0.498112 0.569261
0.531823 0.561790 0.620780
0.613749 0.626479 0.674046
0.715610 0.686120 0.718178
0.818419 0.723539 0.734329
0.899596 0.743481 0.730182
0.125692 0.124526 0.335972
0.139475 0.138017 0.344010
0.186811 0.166035 0.349759
0.303119 0.201394 0.331372
0.492054 0.238101 0.286469
0.648832 0.270918 0.283243
0.737590 0.307008 0.305067
0.795965 0.350973 0.343635
0.136389 0.140761 0.346596
0.153142 0.161282 0.357703
0.199180 0.196822 0.371390
0.307549 0.239219 0.367536
0.484636 0.280528 0.339950
0.650088 0.307627 0.328541
0.746252 0.339797 0.341380
0.807134 0.379817 0.372769
0.161757 0.178439 0.368650
0.180560 0.201593 0.381144
0.226048 0.246639 0.403982
0.320566 0.301097 0.420458
0.471521 0.352174 0.420519
0.644713 0.375685 0.409760
0.755015 0.401559 0.410630
0.824615 0.435250 0.429599
0.198049 0.229911 0.396972
0.219343 0.254379 0.409603
0.268225 0.306229 0.438710
0.347943 0.369013 0.471979
0.463058 0.427106 0.498235
0.635092 0.455692 0.501095
0.759774 0.477334 0.494817
0.841248 0.504225 0.500583
0.242088 0.288391 0.429507
0.267095 0.314790 0.441823
0.324002 0.368471 0.472617
0.393077 0.431603 0.513648
0.471637 0.490171 0.556257
0.626074 0.534292 0.584167
0.760279 0.555947 0.579445
0.853703 0.576833 0.574691
0.292493 0.347304 0.476253
0.321717 0.375096 0.490543
0.383442 0.430300 0.524090
0.456454 0.494798 0.567707
0.530923 0.555863 0.613685
0.636138 0.612448 0.655226
0.770637 0.634033 0.653692
0.870672 0.649461 0.643721
0.354328 0.411655 0.527228
0.385482 0.439926 0.543129
0.446908 0.494008 0.577495
0.519162 0.557193 0.621520
0.591858 0.617718 0.667772
0.683687 0.674575 0.709480
0.792292 0.707372 0.721977
0.881945 0.722963 0.712818
0.421898 0.478795 0.580009
0.452334 0.505607 0.595660
0.510555 0.556377 0.629278
0.579418 0.616028 0.671947
0.649330 0.673794 0.716223
0.734411 0.728005 0.755564
0.823207 0.767216 0.775547
0.898859 0.786134 0.770904
0.148568 0.145890 0.435228
0.162205 0.161429 0.447071
0.201411 0.195229 0.462950
0.281847 0.238700 0.467116
0.419882 0.284719 0.444131
0.660236 0.327489 0.362159
0.769876 0.366945 0.369517
0.832630 0.412564 0.406951
0.160144 0.163442 0.446144
0.177090 0.184878 0.458677
0.216863 0.224023 0.478429
0.294733 0.272775 0.490055
0.427140 0.323624 0.478013
0.660076 0.366455 0.409049
0.775290 0.400689 0.407554
0.841816 0.440992 0.435509
0.188048 0.204719 0.469943
0.206662 0.228136 0.482125
0.248620 0.275035 0.505501
0.321946 0.333289 0.526852
0.439585 0.392426 0.532471
0.654218 0.441222 0.492973
0.779878 0.466679 0.480511
0.855451 0.496638 0.491874
0.227560 0.260727 0.500484
0.247231 0.285054 0.511755
0.292211 0.337260 0.536600
0.360878 0.402501 0.565349
0.460335 0.468615 0.587739
0.645320 0.525611 0.582104
0.780431 0.544704 0.564932
0.867308 0.564590 0.560812
0.274344 0.324239 0.533349
0.295517 0.350128 0.543540
0.344526 0.403015 0.567079
0.411135 0.469172 0.598377
0.494770 0.537518 0.631310
0.637455 0.600105 0.653530
0.775882 0.619396 0.643044
0.873453 0.633568 0.630554
0.324163 0.391642 0.568386
0.349326 0.418356 0.577604
0.407743 0.473244 0.600549
0.483634 0.539502 0.632383
0.564552 0.603672 0.668118
0.643624 0.655494 0.699437
0.771826 0.682930 0.705548
0.874978 0.698967 0.694895
0.383584 0.460091 0.609968
0.411678 0.486247 0.619835
0.473004 0.539280 0.644174
0.550317 0.602826 0.677436
0.629007 0.663798 0.714225
0.694750 0.712209 0.746655
0.791858 0.747694 0.763019
0.881261 0.764343 0.754677
0.448928 0.527676 0.651681
0.478409 0.552405 0.662265
0.538757 0.601756 0.687794
0.612571 0.660454 0.721492
0.686012 0.716674 0.757460
0.749427 0.763279 0.789562
0.825853 0.801120 0.808706
0.897619 0.820475 0.804949
0.180897 0.174501 0.530387
0.195363 0.191845 0.544207
0.232599 0.230232 0.566830
0.297706 0.279822 0.585204
0.400180 0.333157 0.586044
0.582987 0.387831 0.541323
0.761139 0.429150 0.475891
0.865621 0.472706 0.468488
0.194205 0.193004 0.542084
0.211470 0.215679 0.556008
0.248951 0.257734 0.579899
0.312591 0.310849 0.601438
0.412243 0.367941 0.607826
0.589201 0.422696 0.571429
0.767113 0.460620 0.507444
0.873079 0.500356 0.495818
0.224809 0.236649 0.566992
0.242978 0.260886 0.579952
0.281859 0.308303 0.604201
0.343022 0.367753 0.629238
0.433846 0.430205 0.644138
0.597492 0.489298 0.625901
0.773718 0.524382 0.570333
0.882408 0.555701 0.551431
0.266402 0.295813 0.598147
0.284476 0.320175 0.609683
0.324612 0.370880 0.632734
0.383332 0.434651 0.659431
0.464178 0.501149 0.681678
0.606821 0.565004 0.683524
0.777161 0.599884 0.643411
0.888615 0.623020 0.619061
0.313460 0.362603 0.630350
0.331370 0.387214 0.640313
0.372543 0.437409 0.660542
0.430490 0.500904 0.686022
0.504281 0.568005 0.711761
0.618449 0.633220 0.729275
0.775941 0.671333 0.710372
0.888599 0.689969 0.685888
0.360865 0.432152 0.661971
0.380272 0.456739 0.669527
0.427021 0.506987 0.687124
0.491514 0.569122 0.710627
0.565720 0.632080 0.736252
0.644377 0.687852 0.759371
0.775617 0.729655 0.761126
0.883139 0.748722 0.743468
0.405775 0.498662 0.692699
0.430073 0.523100 0.700191
0.484157 0.572523 0.716966
0.556481 0.633215 0.739967
0.636155 0.693814 0.766049
0.708701 0.744145 0.790138
0.795134 0.782873 0.802503
0.881193 0.801020 0.792024
0.459435 0.563490 0.722636
0.486683 0.586488 0.730227
0.544133 0.633191 0.747867
0.618421 0.690176 0.771782
0.697578 0.746451 0.798297
0.767655 0.792634 0.822075
0.830445 0.828863 0.837722
0.895435 0.848757 0.834377
0.219111 0.211013 0.610186
0.234205 0.229955 0.625615
0.271935 0.273037 0.654363
0.330266 0.328241 0.683505
0.410722 0.386808 0.702049
0.535506 0.447514 0.696292
0.718096 0.496881 0.628054
0.856323 0.534989 0.574570
0.233449 0.229443 0.623237
0.250847 0.252649 0.637684
0.287681 0.297860 0.665744
0.343717 0.354961 0.695401
0.421741 0.415976 0.716068
0.543934 0.476673 0.713073
0.724022 0.523588 0.649049
0.862397 0.560079 0.596210
0.266530 0.274820 0.650669
0.284133 0.299818 0.664472
0.319990 0.347249 0.690026
0.372056 0.406742 0.718481
0.442568 0.469961 0.741365
0.557024 0.531568 0.744235
0.731011 0.577588 0.692147
0.868799 0.609436 0.640718
0.309912 0.336605 0.684297
0.326088 0.361462 0.696904
0.360247 0.409539 0.718961
0.408546 0.469685 0.744570
0.471841 0.533151 0.767754
0.574109 0.595262 0.777288
0.737352 0.642370 0.742465
0.872875 0.669961 0.695060
0.356057 0.405728 0.717681
0.370043 0.429195 0.728015
0.402092 0.475601 0.746224
0.448670 0.533630 0.767744
0.509050 0.594694 0.788546
0.596562 0.655684 0.803659
0.743269 0.705293 0.788481
0.873419 0.731116 0.748874
0.396241 0.474173 0.746674
0.410189 0.496464 0.753958
0.444016 0.540769 0.768251
0.494448 0.596323 0.786165
0.558598 0.654635 0.804964
0.636276 0.710818 0.822764
0.756858 0.759677 0.822823
0.873362 0.785155 0.794919
0.425793 0.536148 0.768222
0.444771 0.557874 0.774455
0.487911 0.601453 0.786779
0.549601 0.656235 0.803228
0.623991 0.713328 0.821825
0.703000 0.764968 0.839631
0.786587 0.807035 0.848144
0.877471 0.830920 0.832212
0.461609 0.595324 0.787577
0.484684 0.614861 0.793247
0.536196 0.656747 0.805832
0.606791 0.709787 0.822955
0.687490 0.764500 0.842082
0.766638 0.811786 0.858659
0.830601 0.848626 0.868947
0.896004 0.871820 0.862742
