filter/Red and Blue/lut/Spotlight 02.cube
# LUT by SparkleStock. Enhanced with VOXCOLOR algorithms.
LUT_3D_SIZE 5
DOMAIN_MIN 0.000000 0.000000 0.000000
DOMAIN_MAX 0.903226 0.903226 0.903226
0.054701 0.070330 0.168254
0.131482 0.070196 0.168766
0.364528 0.070700 0.149151
0.599543 0.095774 0.139478
0.687920 0.152042 0.161322
0.066407 0.102367 0.190279
0.121392 0.119506 0.207498
0.354134 0.123833 0.191493
0.617734 0.146376 0.173075
0.717047 0.203404 0.197769
0.091473 0.167545 0.249880
0.136993 0.203314 0.282927
0.330323 0.241882 0.304247
0.640710 0.256936 0.265949
0.771359 0.313546 0.288728
0.132018 0.251353 0.334381
0.187454 0.299429 0.376349
0.361944 0.386040 0.445809
0.658830 0.421428 0.435849
0.829490 0.452819 0.425319
0.197306 0.338895 0.418236
0.279483 0.400535 0.469657
0.464611 0.507899 0.556731
0.692526 0.589349 0.611533
0.873190 0.609076 0.589660
0.062444 0.092969 0.223168
0.132815 0.110845 0.213542
0.382507 0.115391 0.180963
0.625491 0.138980 0.166018
0.717236 0.201837 0.196453
0.078041 0.139043 0.246524
0.134560 0.178492 0.271053
0.358310 0.200675 0.266135
0.635129 0.215872 0.236906
0.743706 0.263072 0.250730
0.115497 0.215288 0.303416
0.173886 0.265064 0.343393
0.345076 0.331013 0.392311
0.648714 0.346468 0.361222
0.792515 0.380702 0.356706
0.171902 0.301391 0.382882
0.246714 0.356322 0.427967
0.406037 0.450978 0.504717
0.656575 0.506970 0.526997
0.838852 0.517839 0.493672
0.267713 0.397642 0.469226
0.352515 0.454495 0.514987
0.517643 0.557366 0.598993
0.712782 0.637832 0.655922
0.875912 0.660113 0.640680
0.077695 0.121108 0.338131
0.120914 0.163778 0.344006
0.380266 0.210689 0.281557
0.671021 0.232982 0.236857
0.770908 0.296350 0.272769
0.097693 0.180208 0.366985
0.147868 0.239246 0.390094
0.365542 0.310841 0.384395
0.671010 0.325930 0.336323
0.793256 0.365396 0.341959
0.154299 0.289105 0.416443
0.225748 0.349037 0.449289
0.381622 0.442445 0.503112
0.656404 0.476228 0.498172
0.822244 0.492531 0.471485
0.239950 0.391240 0.485685
0.334188 0.449806 0.523001
0.486188 0.544800 0.589967
0.663237 0.617873 0.638326
0.850089 0.618387 0.599805
0.384568 0.497502 0.566383
0.470311 0.549183 0.602759
0.604369 0.635987 0.668192
0.746944 0.709489 0.720504
0.879335 0.737828 0.717573
0.104620 0.146851 0.470999
0.134541 0.197718 0.494842
0.262858 0.298273 0.504162
0.696400 0.352110 0.354731
0.827971 0.404803 0.374357
0.128310 0.205968 0.498880
0.172280 0.268513 0.525145
0.304439 0.379756 0.555601
0.686731 0.451042 0.469227
0.842523 0.473710 0.447408
0.192390 0.328357 0.551316
0.258151 0.392811 0.577887
0.397672 0.506396 0.624675
0.668391 0.594959 0.624221
0.854481 0.592721 0.574778
0.302530 0.458399 0.605994
0.389094 0.519934 0.632432
0.553780 0.619415 0.676605
0.680246 0.688582 0.711035
0.857375 0.702685 0.688522
0.456958 0.573124 0.673490
0.538564 0.622425 0.696469
0.673408 0.701926 0.737494
0.775058 0.767265 0.775817
0.883446 0.800084 0.778420
0.146560 0.192249 0.583024
0.176909 0.237644 0.609025
0.275099 0.343055 0.652330
0.498359 0.464833 0.651364
0.823282 0.514476 0.525240
0.173512 0.241420 0.607159
0.221816 0.300699 0.636716
0.331819 0.411727 0.685202
0.537877 0.528504 0.694827
0.836065 0.574211 0.585410
0.248165 0.356030 0.660538
0.316263 0.420130 0.690031
0.442710 0.533205 0.738996
0.612408 0.638434 0.763021
0.851036 0.677725 0.686332
0.371211 0.491971 0.719593
0.443998 0.551557 0.745228
0.571445 0.651110 0.784032
0.697146 0.733218 0.808589
0.864324 0.772791 0.771521
0.519390 0.617436 0.777240
0.578724 0.663569 0.794055
0.690484 0.740982 0.817526
0.798704 0.804608 0.833401
0.890230 0.848187 0.831438
