filter/Red and Blue/lut/Spotlight 01_S.cube
# LUT by SparkleStock. Enhanced with VOXCOLOR algorithms.
LUT_3D_SIZE 32
0.093773 0.082051 0.105495
0.100863 0.082240 0.106818
0.107952 0.082429 0.108141
0.115042 0.082618 0.109465
0.122132 0.082808 0.110788
0.129221 0.082997 0.112112
0.151121 0.084249 0.112647
0.175982 0.085714 0.113025
0.200843 0.087179 0.113403
0.225704 0.088645 0.113782
0.250565 0.090110 0.114160
0.281130 0.093088 0.114632
0.314546 0.096821 0.115152
0.347962 0.100555 0.115672
0.381378 0.104289 0.116192
0.414794 0.108023 0.116712
0.445610 0.112608 0.118626
0.473827 0.118043 0.121935
0.502044 0.123479 0.125243
0.530261 0.128914 0.128552
0.558478 0.134350 0.131860
0.582646 0.140210 0.136130
0.598716 0.146922 0.142321
0.614786 0.153633 0.148513
0.630856 0.160345 0.154705
0.646926 0.167057 0.160896
0.661846 0.174146 0.167513
0.671015 0.183127 0.176257
0.680184 0.192107 0.185001
0.689354 0.201087 0.193745
0.698523 0.210067 0.202489
0.707692 0.219048 0.211233
0.095144 0.083942 0.108472
0.101849 0.084753 0.109649
0.108555 0.085564 0.110826
0.115260 0.086375 0.112003
0.121965 0.087186 0.113180
0.128671 0.087997 0.114357
0.150918 0.089628 0.114472
0.176273 0.091423 0.114375
0.201628 0.093217 0.114277
0.226983 0.095012 0.114179
0.252338 0.096806 0.114082
0.283391 0.099997 0.114152
0.317292 0.103887 0.114306
0.351192 0.107776 0.114460
0.385093 0.111666 0.114614
0.418994 0.115555 0.114768
0.450209 0.120131 0.116513
0.478737 0.125392 0.119849
0.507265 0.130654 0.123185
0.535793 0.135915 0.126521
0.564321 0.141177 0.129857
0.588720 0.146852 0.134328
0.604863 0.153353 0.141068
0.621007 0.159854 0.147809
0.637150 0.166355 0.154549
0.653293 0.172856 0.161290
0.668188 0.179736 0.168468
0.676845 0.188506 0.177834
0.685502 0.197275 0.187200
0.694159 0.206045 0.196566
0.702816 0.214815 0.205932
0.711473 0.223585 0.215298
0.096514 0.085832 0.111450
0.102835 0.087266 0.112481
0.109157 0.088699 0.113511
0.115478 0.090132 0.114542
0.121799 0.091565 0.115573
0.128121 0.092998 0.116603
0.150715 0.095007 0.116297
0.176564 0.097131 0.115724
0.202413 0.099255 0.115151
0.228262 0.101379 0.114577
0.254112 0.103503 0.114004
0.285652 0.106907 0.113672
0.320038 0.110952 0.113460
0.354423 0.114997 0.113248
0.388809 0.119042 0.113036
0.423195 0.123087 0.112824
0.454807 0.127653 0.114400
0.483646 0.132741 0.117763
0.512485 0.137829 0.121127
0.541324 0.142917 0.124490
0.570163 0.148004 0.127853
0.594795 0.153493 0.132526
0.611011 0.159784 0.139815
0.627227 0.166075 0.147104
0.643444 0.172365 0.154394
0.659660 0.178656 0.161683
0.674531 0.185325 0.169422
0.682676 0.193885 0.179410
0.690820 0.202444 0.189399
0.698965 0.211003 0.199387
0.707110 0.219563 0.209375
0.715255 0.228122 0.219363
0.097885 0.087723 0.114428
0.103822 0.089778 0.115312
0.109759 0.091834 0.116196
0.115696 0.093889 0.117080
0.121633 0.095944 0.117965
0.127570 0.097999 0.118849
0.150512 0.100386 0.118122
0.176855 0.102839 0.117073
0.203198 0.105292 0.116024
0.229542 0.107746 0.114975
0.255885 0.110199 0.113926
0.287913 0.113817 0.113192
0.322783 0.118017 0.112614
0.357654 0.122218 0.112036
0.392525 0.126418 0.111458
0.427395 0.130619 0.110880
0.459405 0.135176 0.112287
0.488555 0.140090 0.115677
0.517706 0.145004 0.119068
0.546856 0.149918 0.122459
0.576006 0.154832 0.125850
0.600869 0.160135 0.130723
0.617158 0.166215 0.138562
0.633448 0.172295 0.146400
0.649737 0.178376 0.154238
0.666027 0.184456 0.162077
0.680873 0.190915 0.170377
0.688506 0.199264 0.180987
0.696138 0.207613 0.191597
0.703771 0.215962 0.202207
0.711403 0.224311 0.212817
0.719036 0.232660 0.223427
0.099256 0.089614 0.117405
0.104808 0.092291 0.118143
0.110361 0.094968 0.118881
0.115914 0.097646 0.119619
0.121467 0.100323 0.120357
0.127020 0.103000 0.121095
0.150309 0.105765 0.119947
0.177147 0.108548 0.118423
0.203984 0.111330 0.116898
0.230821 0.114113 0.115373
0.257658 0.116895 0.113849
0.290174 0.120727 0.112711
0.325529 0.125083 0.111767
0.360885 0.129439 0.110824
0.396240 0.133795 0.109880
0.431596 0.138151 0.108936
0.464004 0.142699 0.110173
0.493465 0.147439 0.113592
0.522926 0.152179 0.117010
0.552387 0.156919 0.120428
0.581848 0.161659 0.123847
0.606943 0.166776 0.128921
0.623306 0.172646 0.137308
0.639668 0.178516 0.145696
0.656031 0.184386 0.154083
0.672394 0.190256 0.162470
0.687216 0.196504 0.171331
0.694336 0.204643 0.182563
0.701456 0.212781 0.193796
0.708577 0.220920 0.205028
0.715697 0.229059 0.216260
0.722817 0.237197 0.227492
0.100626 0.091504 0.120383
0.105795 0.094804 0.120974
0.110963 0.098103 0.121566
0.116132 0.101402 0.122158
0.121301 0.104702 0.122749
0.126469 0.108001 0.123341
0.150107 0.111144 0.121772
0.177438 0.114256 0.119772
0.204769 0.117368 0.117772
0.232100 0.120480 0.115771
0.259431 0.123591 0.113771
0.292435 0.127636 0.112231
0.328275 0.132148 0.110921
0.364116 0.136659 0.109612
0.399956 0.141171 0.108302
0.435796 0.145682 0.106992
0.468602 0.150221 0.108060
0.498374 0.154788 0.111506
0.528146 0.159354 0.114952
0.557919 0.163920 0.118397
0.587691 0.168487 0.121843
0.613017 0.173417 0.127119
0.629453 0.179077 0.136055
0.645889 0.184737 0.144991
0.662325 0.190396 0.153927
0.678761 0.196056 0.162863
0.693559 0.202093 0.172286
0.700167 0.210022 0.184140
0.706774 0.217950 0.195994
0.713382 0.225878 0.207848
0.719990 0.233806 0.219703
0.726598 0.241735 0.231557
0.103572 0.095522 0.126118
0.108662 0.099138 0.126875
0.113751 0.102755 0.127633
0.118840 0.106371 0.128391
0.123930 0.109988 0.129149
0.129019 0.113604 0.129906
0.151733 0.117964 0.128420
0.177973 0.122472 0.126486
0.204212 0.126981 0.124551
0.230452 0.131489 0.122616
0.256691 0.135998 0.120681
0.289863 0.140698 0.118909
0.326501 0.145495 0.117218
0.363138 0.150291 0.115527
0.399776 0.155088 0.113836
0.436414 0.159885 0.112146
0.469987 0.164529 0.112991
0.500497 0.169020 0.116373
0.531007 0.173512 0.119754
0.561517 0.178004 0.123136
0.592028 0.182495 0.126518
0.618048 0.187276 0.131896
0.635091 0.192633 0.141266
0.652134 0.197991 0.150637
0.669177 0.203349 0.160008
0.686219 0.208706 0.169378
0.701544 0.214479 0.179288
0.708280 0.222326 0.191894
0.715016 0.230174 0.204500
0.721752 0.238021 0.217106
0.728488 0.245869 0.229712
0.735224 0.253716 0.242318
0.106834 0.099965 0.132404
0.111905 0.103837 0.133390
0.116976 0.107710 0.134377
0.122047 0.111582 0.135363
0.127118 0.115455 0.136350
0.132189 0.119328 0.137336
0.153726 0.125072 0.136033
0.178557 0.131190 0.134272
0.203388 0.137309 0.132511
0.228218 0.143427 0.130750
0.253049 0.149546 0.128989
0.286324 0.154990 0.127019
0.323822 0.160098 0.124944
0.361319 0.165206 0.122869
0.398817 0.170313 0.120793
0.436314 0.175421 0.118718
0.470730 0.180193 0.119331
0.502063 0.184630 0.122630
0.533397 0.189067 0.125929
0.564730 0.193503 0.129229
0.596063 0.197940 0.132528
0.622871 0.202577 0.137988
0.640627 0.207615 0.147771
0.658383 0.212652 0.157553
0.676140 0.217690 0.167335
0.693896 0.222727 0.177117
0.709858 0.228224 0.187500
0.716850 0.236016 0.200883
0.723842 0.243809 0.214267
0.730834 0.251601 0.227650
0.737827 0.259394 0.241034
0.744819 0.267187 0.254417
0.110095 0.104407 0.138690
0.115148 0.108536 0.139905
0.120200 0.112665 0.141120
0.125253 0.116794 0.142335
0.130306 0.120923 0.143551
0.135359 0.125051 0.144766
0.155719 0.132180 0.143646
0.179141 0.139908 0.142058
0.202563 0.147637 0.140471
0.225985 0.155365 0.138884
0.249406 0.163094 0.137297
0.282785 0.169283 0.135128
0.321143 0.174701 0.132669
0.359500 0.180120 0.130210
0.397858 0.185539 0.127751
0.436215 0.190957 0.125291
0.471472 0.195857 0.125670
0.503629 0.200239 0.128887
0.535786 0.204621 0.132104
0.567942 0.209003 0.135321
0.600099 0.213385 0.138538
0.627693 0.217879 0.144081
0.646163 0.222596 0.154275
0.664633 0.227313 0.164469
0.683103 0.232031 0.174663
0.701573 0.236748 0.184857
0.718172 0.241969 0.195712
0.725420 0.249706 0.209873
0.732669 0.257444 0.224034
0.739917 0.265182 0.238195
0.747165 0.272919 0.252356
0.754413 0.280657 0.266517
0.113356 0.108850 0.144976
0.118391 0.113235 0.146420
0.123425 0.117620 0.147864
0.128459 0.122005 0.149308
0.133494 0.126390 0.150752
0.138528 0.130775 0.152195
0.157712 0.139288 0.151258
0.179725 0.148626 0.149845
0.201738 0.157965 0.148432
0.223751 0.167304 0.147018
0.245764 0.176642 0.145605
0.279247 0.183575 0.143238
0.318464 0.189304 0.140395
0.357681 0.195034 0.137551
0.396899 0.200764 0.134708
0.436116 0.206494 0.131864
0.472215 0.211522 0.132010
0.505195 0.215849 0.135144
0.538175 0.220176 0.138279
0.571155 0.224503 0.141414
0.604135 0.228830 0.144549
0.632516 0.233180 0.150173
0.651699 0.237577 0.160779
0.670883 0.241974 0.171385
0.690066 0.246372 0.181990
0.709249 0.250769 0.192596
0.726486 0.255713 0.203923
0.733990 0.263396 0.218862
0.741495 0.271079 0.233801
0.748999 0.278762 0.248739
0.756504 0.286445 0.263678
0.764008 0.294127 0.278617
0.116617 0.113293 0.151262
0.121634 0.117934 0.152935
0.126650 0.122575 0.154607
0.131666 0.127216 0.156280
0.136682 0.131857 0.157953
0.141698 0.136499 0.159625
0.159704 0.146396 0.158871
0.180309 0.157344 0.157631
0.200913 0.168293 0.156392
0.221517 0.179242 0.155152
0.242122 0.190190 0.153913
0.275708 0.197867 0.151348
0.315785 0.203908 0.148120
0.355863 0.209948 0.144892
0.395940 0.215989 0.141665
0.436017 0.222030 0.138437
0.472957 0.227186 0.138349
0.506761 0.231458 0.141402
0.540564 0.235730 0.144454
0.574367 0.240003 0.147506
0.608171 0.244275 0.150559
0.637338 0.248482 0.156266
0.657235 0.252559 0.167283
0.677132 0.256636 0.178300
0.697029 0.260713 0.189318
0.716926 0.264790 0.200335
0.734800 0.269458 0.212135
0.742561 0.277086 0.227852
0.750321 0.284714 0.243568
0.758082 0.292342 0.259284
0.765842 0.299970 0.275000
0.773603 0.307598 0.290716
0.120887 0.119501 0.159817
0.125879 0.124197 0.161773
0.130870 0.128892 0.163730
0.135862 0.133588 0.165686
0.140854 0.138284 0.167642
0.145846 0.142980 0.169598
0.163182 0.153639 0.169585
0.182988 0.165490 0.169178
0.202793 0.177341 0.168771
0.222598 0.189193 0.168363
0.242404 0.201044 0.167956
0.275402 0.209566 0.165754
0.314998 0.216424 0.162655
0.354593 0.223282 0.159555
0.394189 0.230140 0.156455
0.433785 0.236998 0.153356
0.471054 0.242642 0.153138
0.505998 0.247073 0.155804
0.540942 0.251504 0.158469
0.575885 0.255934 0.161134
0.610829 0.260365 0.163799
0.641020 0.264634 0.169275
0.661703 0.268580 0.180375
0.682387 0.272526 0.191475
0.703070 0.276472 0.202574
0.723754 0.280417 0.213674
0.742370 0.284996 0.225609
0.750649 0.292740 0.241725
0.758928 0.300484 0.257841
0.767207 0.308227 0.273956
0.775486 0.315971 0.290072
0.783765 0.323715 0.306188
0.125661 0.126590 0.169506
0.130625 0.131240 0.171774
0.135589 0.135891 0.174041
0.140554 0.140541 0.176308
0.145518 0.145191 0.178575
0.150482 0.149841 0.180842
0.167402 0.160950 0.181849
0.186714 0.173350 0.182604
0.206025 0.185750 0.183359
0.225337 0.198150 0.184113
0.244648 0.210550 0.184868
0.276714 0.219969 0.183309
0.315157 0.227897 0.180594
0.353599 0.235826 0.177878
0.392042 0.243754 0.175163
0.430485 0.251682 0.172448
0.467828 0.257994 0.172153
0.504071 0.262690 0.174278
0.540313 0.267386 0.176403
0.576556 0.272082 0.178529
0.612799 0.276778 0.180654
0.644130 0.281212 0.185743
0.665637 0.285121 0.196761
0.687144 0.289030 0.207778
0.708651 0.292939 0.218795
0.730157 0.296849 0.229812
0.749568 0.301431 0.241714
0.758496 0.309376 0.258040
0.767425 0.317321 0.274366
0.776353 0.325266 0.290693
0.785282 0.333211 0.307019
0.794210 0.341156 0.323345
0.130434 0.133680 0.179196
0.135371 0.138284 0.181774
0.140308 0.142889 0.184352
0.145245 0.147493 0.186930
0.150182 0.152098 0.189509
0.155119 0.156702 0.192087
0.171623 0.168261 0.194114
0.190440 0.181210 0.196030
0.209258 0.194159 0.197947
0.228075 0.207107 0.199863
0.246892 0.220056 0.201780
0.278025 0.230372 0.200864
0.315315 0.239370 0.198533
0.352605 0.248369 0.196202
0.389896 0.257367 0.193871
0.427186 0.266366 0.191539
0.464602 0.273346 0.191167
0.502144 0.278307 0.192752
0.539685 0.283268 0.194338
0.577227 0.288230 0.195924
0.614769 0.293191 0.197509
0.647240 0.297789 0.202211
0.669570 0.301662 0.213146
0.691901 0.305535 0.224081
0.714231 0.309407 0.235016
0.736561 0.313280 0.245951
0.756766 0.317865 0.257819
0.766344 0.326011 0.274356
0.775922 0.334157 0.290892
0.785500 0.342304 0.307429
0.795078 0.350450 0.323965
0.804656 0.358596 0.340502
0.135208 0.140770 0.188885
0.140118 0.145328 0.191774
0.145027 0.149887 0.194663
0.149936 0.154446 0.197553
0.154846 0.159005 0.200442
0.159755 0.163563 0.203331
0.175843 0.175571 0.206378
0.194166 0.189069 0.209456
0.212490 0.202567 0.212535
0.230813 0.216065 0.215613
0.249137 0.229563 0.218691
0.279336 0.240775 0.218419
0.315474 0.250843 0.216472
0.351611 0.260912 0.214525
0.387749 0.270981 0.212578
0.423886 0.281050 0.210631
0.461376 0.288698 0.210181
0.500216 0.293924 0.211227
0.539057 0.299151 0.212273
0.577898 0.304377 0.213318
0.616739 0.309604 0.214364
0.650350 0.314367 0.218679
0.673504 0.318203 0.229532
0.696658 0.322039 0.240384
0.719811 0.325875 0.251237
0.742965 0.329711 0.262089
0.763964 0.334299 0.273924
0.774191 0.342647 0.290671
0.784419 0.350994 0.307418
0.794646 0.359342 0.324165
0.804874 0.367689 0.340912
0.815101 0.376037 0.357659
0.139982 0.147859 0.198574
0.144864 0.152372 0.201774
0.149746 0.156885 0.204975
0.154628 0.161398 0.208175
0.159510 0.165911 0.211375
0.164392 0.170424 0.214576
0.180063 0.182882 0.218642
0.197893 0.196929 0.222882
0.215722 0.210976 0.227122
0.233551 0.225022 0.231363
0.251381 0.239069 0.235603
0.280647 0.251177 0.235974
0.315632 0.262317 0.234411
0.350617 0.273456 0.232849
0.385602 0.284595 0.231286
0.420587 0.295734 0.229723
0.458149 0.304050 0.229195
0.498289 0.309541 0.229701
0.538429 0.315033 0.230207
0.578569 0.320525 0.230713
0.618709 0.326017 0.231220
0.653461 0.330945 0.235147
0.677438 0.334744 0.245917
0.701415 0.338544 0.256687
0.725391 0.342343 0.267458
0.749368 0.346143 0.278228
0.771162 0.350734 0.290029
0.782039 0.359282 0.306987
0.792916 0.367831 0.323944
0.803793 0.376380 0.340901
0.814670 0.384929 0.357859
0.825546 0.393477 0.374816
0.145654 0.156343 0.209138
0.150568 0.160861 0.212640
0.155482 0.165378 0.216142
0.160396 0.169896 0.219644
0.165310 0.174414 0.223146
0.170224 0.178931 0.226649
0.185576 0.191573 0.231791
0.203017 0.205839 0.237262
0.220458 0.220105 0.242732
0.237898 0.234372 0.248202
0.255339 0.248638 0.253673
0.283802 0.261490 0.255324
0.317776 0.273636 0.255064
0.351750 0.285781 0.254805
0.385724 0.297927 0.254546
0.419698 0.310072 0.254287
0.457167 0.319069 0.254170
0.498130 0.324918 0.254196
0.539093 0.330766 0.254222
0.580056 0.336615 0.254248
0.621019 0.342464 0.254274
0.656610 0.347685 0.257668
0.681456 0.351654 0.267798
0.706302 0.355623 0.277928
0.731148 0.359592 0.288057
0.755994 0.363560 0.298187
0.778605 0.368329 0.309429
0.790045 0.377097 0.326231
0.801484 0.385866 0.343033
0.812924 0.394634 0.359835
0.824363 0.403402 0.376636
0.835803 0.412171 0.393438
0.152223 0.166222 0.220576
0.157229 0.170794 0.224371
0.162234 0.175367 0.228166
0.167240 0.179939 0.231961
0.172245 0.184511 0.235755
0.177251 0.189084 0.239550
0.192383 0.201643 0.245824
0.209540 0.215800 0.252594
0.226697 0.229956 0.259363
0.243854 0.244113 0.266133
0.261011 0.258269 0.272902
0.288800 0.271713 0.276468
0.321905 0.284801 0.278431
0.355010 0.297888 0.280395
0.388115 0.310976 0.282359
0.421220 0.324064 0.284323
0.458428 0.333756 0.285107
0.499738 0.340053 0.284712
0.541049 0.346350 0.284317
0.582360 0.352647 0.283923
0.623671 0.358944 0.283528
0.659798 0.364589 0.286242
0.685559 0.368933 0.295173
0.711319 0.373277 0.304105
0.737080 0.377621 0.313036
0.762841 0.381965 0.321967
0.786294 0.387085 0.332124
0.798209 0.396092 0.348404
0.810125 0.405098 0.364684
0.822040 0.414104 0.380965
0.833955 0.423110 0.397245
0.845870 0.432116 0.413526
0.158793 0.176100 0.232014
0.163890 0.180727 0.236101
0.168987 0.185355 0.240189
0.174084 0.189982 0.244277
0.179181 0.194609 0.248364
0.184278 0.199237 0.252452
0.199189 0.211713 0.259857
0.216062 0.225760 0.267926
0.232936 0.239807 0.275994
0.249809 0.253854 0.284063
0.266682 0.267900 0.292131
0.293798 0.281936 0.297612
0.326033 0.295966 0.301798
0.358269 0.309996 0.305985
0.390505 0.324026 0.310172
0.422741 0.338056 0.314359
0.459689 0.348443 0.316044
0.501347 0.355188 0.315228
0.543005 0.361933 0.314413
0.584664 0.368679 0.313597
0.626322 0.375424 0.312781
0.662986 0.381493 0.314815
0.689662 0.386212 0.322548
0.716337 0.390931 0.330281
0.743013 0.395650 0.338015
0.769688 0.400369 0.345748
0.793983 0.405842 0.354818
0.806374 0.415086 0.370577
0.818765 0.424330 0.386336
0.831156 0.433574 0.402095
0.843547 0.442818 0.417854
0.855938 0.452062 0.433613
0.165363 0.185978 0.243452
0.170551 0.190660 0.247832
0.175740 0.195343 0.252213
0.180928 0.200025 0.256593
0.186117 0.204707 0.260973
0.191305 0.209389 0.265354
0.205995 0.221784 0.273890
0.222585 0.235721 0.283258
0.239174 0.249658 0.292625
0.255764 0.263595 0.301993
0.272354 0.277532 0.311360
0.298795 0.292159 0.318756
0.330162 0.307131 0.325165
0.361529 0.322103 0.331575
0.392896 0.337075 0.337985
0.424263 0.352048 0.344395
0.460949 0.363130 0.346981
0.502955 0.370324 0.345745
0.544961 0.377517 0.344508
0.586967 0.384710 0.343272
0.628973 0.391904 0.342035
0.666174 0.398397 0.343389
0.693765 0.403491 0.349924
0.721355 0.408585 0.356458
0.748945 0.413679 0.362993
0.776535 0.418773 0.369528
0.801672 0.424598 0.377513
0.814538 0.434080 0.392750
0.827405 0.443562 0.407988
0.840272 0.453044 0.423225
0.853138 0.462526 0.438463
0.866005 0.472008 0.453700
0.171933 0.195856 0.254890
0.177213 0.200594 0.259563
0.182493 0.205331 0.264236
0.187772 0.210068 0.268909
0.193052 0.214805 0.273582
0.198332 0.219542 0.278255
0.212801 0.231854 0.287923
0.229107 0.245681 0.298590
0.245413 0.259509 0.309256
0.261720 0.273336 0.319923
0.278026 0.287163 0.330589
0.303793 0.302382 0.339900
0.334291 0.318296 0.348532
0.364789 0.334211 0.357165
0.395287 0.350125 0.365798
0.425785 0.366039 0.374430
0.462210 0.377817 0.377918
0.504564 0.385459 0.376261
0.546918 0.393101 0.374603
0.589271 0.400742 0.372946
0.631625 0.408384 0.371289
0.669362 0.415301 0.371963
0.697867 0.420770 0.377299
0.726372 0.426239 0.382635
0.754878 0.431708 0.387972
0.783383 0.437177 0.393308
0.809361 0.443355 0.400208
0.822703 0.453074 0.414924
0.836045 0.462794 0.429640
0.849388 0.472514 0.444356
0.862730 0.482233 0.459072
0.876072 0.491953 0.473788
0.179322 0.206444 0.266785
0.184708 0.211275 0.271729
0.190095 0.216107 0.276674
0.195482 0.220939 0.281618
0.200868 0.225770 0.286563
0.206255 0.230602 0.291507
0.220662 0.242960 0.302150
0.236874 0.256824 0.313933
0.253086 0.270688 0.325715
0.269298 0.284552 0.337498
0.285509 0.298415 0.349281
0.310749 0.314136 0.360213
0.340503 0.330786 0.370721
0.370257 0.347435 0.381229
0.400011 0.364084 0.391737
0.429764 0.380734 0.402245
0.465730 0.393253 0.406922
0.507907 0.401641 0.405768
0.550083 0.410030 0.404614
0.592260 0.418419 0.403460
0.634437 0.426807 0.402306
0.672402 0.434284 0.402836
0.701944 0.439936 0.406736
0.731486 0.445588 0.410636
0.761028 0.451240 0.414536
0.790569 0.456892 0.418436
0.817466 0.463240 0.424005
0.831134 0.473069 0.437913
0.844803 0.482899 0.451821
0.858472 0.492728 0.465728
0.872140 0.502558 0.479636
0.885809 0.512387 0.493544
0.188349 0.218449 0.279594
0.193873 0.223454 0.284767
0.199397 0.228460 0.289940
0.204921 0.233465 0.295113
0.210445 0.238471 0.300286
0.215969 0.243476 0.305459
0.230635 0.256138 0.316766
0.247131 0.270331 0.329298
0.263626 0.284524 0.341831
0.280121 0.298717 0.354364
0.296617 0.312910 0.366897
0.321622 0.328955 0.378866
0.350881 0.345924 0.390554
0.380141 0.362894 0.402242
0.409401 0.379863 0.413930
0.438661 0.396833 0.425618
0.473766 0.410184 0.432061
0.514717 0.419917 0.433258
0.555668 0.429651 0.434455
0.596619 0.439384 0.435651
0.637570 0.449118 0.436848
0.675145 0.457424 0.438309
0.705967 0.462874 0.440297
0.736790 0.468325 0.442285
0.767613 0.473776 0.444273
0.798435 0.479226 0.446262
0.826403 0.485382 0.450006
0.840099 0.495066 0.462533
0.853795 0.504749 0.475059
0.867492 0.514432 0.487586
0.881188 0.524115 0.500113
0.894884 0.533798 0.512639
0.197377 0.230454 0.292402
0.203038 0.235633 0.297804
0.208699 0.240813 0.303206
0.214360 0.245992 0.308608
0.220021 0.251171 0.314010
0.225682 0.256351 0.319412
0.240608 0.269316 0.331381
0.257387 0.283838 0.344664
0.274166 0.298361 0.357947
0.290945 0.312883 0.371230
0.307724 0.327405 0.384512
0.332494 0.343773 0.397519
0.361260 0.361062 0.410387
0.390026 0.378352 0.423255
0.418791 0.395642 0.436123
0.447557 0.412931 0.448991
0.481803 0.427115 0.457200
0.521528 0.438194 0.460747
0.561253 0.449272 0.464295
0.600978 0.460350 0.467843
0.640703 0.471428 0.471391
0.677888 0.480563 0.473782
0.709991 0.485813 0.473858
0.742094 0.491062 0.473934
0.774198 0.496312 0.474010
0.806301 0.501561 0.474087
0.835341 0.507525 0.476008
0.849064 0.517062 0.487153
0.862788 0.526599 0.498298
0.876511 0.536135 0.509444
0.890235 0.545672 0.520589
0.903958 0.555209 0.531734
0.206404 0.242459 0.305211
0.212203 0.247812 0.310841
0.218001 0.253166 0.316472
0.223799 0.258519 0.322103
0.229598 0.263872 0.327733
0.235396 0.269225 0.333364
0.250581 0.282493 0.345996
0.267643 0.297345 0.360029
0.284706 0.312197 0.374062
0.301768 0.327049 0.388095
0.318831 0.341900 0.402128
0.343366 0.358591 0.416172
0.371638 0.376201 0.430220
0.399910 0.393811 0.444268
0.428182 0.411420 0.458316
0.456454 0.429030 0.472365
0.489839 0.444047 0.482338
0.528339 0.456470 0.488237
0.566838 0.468893 0.494136
0.605337 0.481316 0.500035
0.643836 0.493739 0.505934
0.680631 0.503703 0.509255
0.714015 0.508751 0.507419
0.747399 0.513800 0.505583
0.780783 0.518848 0.503747
0.814167 0.523896 0.501912
0.844279 0.529668 0.502009
0.858029 0.539058 0.511773
0.871780 0.548449 0.521537
0.885531 0.557839 0.531301
0.899282 0.567229 0.541065
0.913033 0.576620 0.550829
0.215432 0.254465 0.318020
0.221367 0.259991 0.323879
0.227303 0.265518 0.329738
0.233238 0.271045 0.335597
0.239174 0.276572 0.341457
0.245109 0.282099 0.347316
0.260554 0.295671 0.360612
0.277900 0.310852 0.375395
0.295246 0.326033 0.390178
0.312592 0.341214 0.404961
0.329938 0.356395 0.419744
0.354239 0.373409 0.434824
0.382017 0.391339 0.450053
0.409794 0.409269 0.465281
0.437572 0.427199 0.480509
0.465350 0.445129 0.495738
0.497876 0.460978 0.507477
0.535149 0.474746 0.515727
0.572423 0.488514 0.523977
0.609696 0.502281 0.532227
0.646970 0.516049 0.540477
0.683373 0.526843 0.544727
0.718038 0.531690 0.540980
0.752703 0.536537 0.537232
0.787368 0.541384 0.533485
0.822032 0.546231 0.529737
0.853216 0.551810 0.528011
0.866994 0.561055 0.536394
0.880773 0.570299 0.544776
0.894551 0.579543 0.553159
0.908330 0.588787 0.561541
0.922108 0.598031 0.569924
0.224971 0.266281 0.331206
0.231066 0.272003 0.337287
0.237160 0.277725 0.343367
0.243254 0.283447 0.349448
0.249348 0.289169 0.355528
0.255442 0.294891 0.361608
0.271140 0.308789 0.375499
0.288759 0.324322 0.390951
0.306378 0.339856 0.406404
0.323997 0.355389 0.421856
0.341616 0.370922 0.437309
0.365696 0.388260 0.453276
0.393005 0.406499 0.469502
0.420315 0.424739 0.485727
0.447625 0.442978 0.501953
0.474935 0.461218 0.518178
0.506636 0.477809 0.531433
0.542730 0.492752 0.541717
0.578823 0.507696 0.552001
0.614916 0.522639 0.562284
0.651010 0.537582 0.572568
0.686924 0.549163 0.577742
0.722479 0.554019 0.572697
0.758034 0.558875 0.567652
0.793589 0.563731 0.562607
0.829144 0.568587 0.557562
0.861094 0.574140 0.554516
0.875017 0.583180 0.561465
0.888940 0.592220 0.568415
0.902864 0.601260 0.575364
0.916787 0.610299 0.582314
0.930710 0.619339 0.589263
0.237071 0.277152 0.346284
0.243431 0.283175 0.352547
0.249790 0.289199 0.358810
0.256149 0.295223 0.365074
0.262509 0.301247 0.371337
0.268868 0.307271 0.377600
0.284793 0.321608 0.391742
0.302632 0.337608 0.407460
0.320471 0.353608 0.423178
0.338309 0.369608 0.438896
0.356148 0.385608 0.454613
0.380075 0.403271 0.470725
0.407046 0.421767 0.487032
0.434017 0.440263 0.503340
0.460989 0.458758 0.519648
0.487960 0.477254 0.535956
0.519016 0.494138 0.549476
0.554158 0.509411 0.560208
0.589300 0.524683 0.570940
0.624442 0.539956 0.581672
0.659584 0.555229 0.592404
0.694510 0.567383 0.598469
