filter/Red and Blue/lut/Spotlight 02.cube
# LUT by SparkleStock. Enhanced with VOXCOLOR algorithms.
LUT_3D_SIZE 8
DOMAIN_MIN 0.000000 0.000000 0.000000
DOMAIN_MAX 0.903226 0.903226 0.903226
0.054701 0.070330 0.168254
0.078522 0.070897 0.171468
0.156580 0.069723 0.166781
0.283044 0.069566 0.156241
0.441995 0.073654 0.143338
0.572823 0.090480 0.139367
0.643783 0.118177 0.146426
0.687920 0.152042 0.161322
0.059805 0.084131 0.176383
0.074552 0.092163 0.186038
0.149133 0.091922 0.183644
0.277720 0.090618 0.172530
0.443367 0.094414 0.157541
0.580635 0.110947 0.152254
0.655108 0.138961 0.159702
0.700190 0.172235 0.174934
0.069195 0.110119 0.196565
0.081813 0.122298 0.209446
0.140257 0.132965 0.218836
0.260123 0.138488 0.214571
0.436315 0.139646 0.194489
0.589770 0.154539 0.183426
0.674131 0.182472 0.190090
0.724289 0.217193 0.208059
0.082871 0.146087 0.228800
0.096464 0.160986 0.243339
0.142483 0.184145 0.264894
0.249113 0.201350 0.272845
0.422304 0.206229 0.256900
0.598274 0.216487 0.235299
0.696807 0.242348 0.237767
0.754901 0.278540 0.257823
0.100949 0.189783 0.271929
0.116098 0.207225 0.287785
0.162726 0.239083 0.316321
0.257470 0.270305 0.339554
0.408106 0.290061 0.342866
0.605483 0.293952 0.309847
0.720147 0.314497 0.303414
0.787886 0.350014 0.322129
0.125149 0.238938 0.321840
0.143518 0.258283 0.339014
0.194506 0.297020 0.372806
0.287311 0.343208 0.410115
0.426823 0.384132 0.435949
0.615125 0.393439 0.414055
0.743401 0.403909 0.394473
0.821362 0.431724 0.403906
0.157541 0.289354 0.372382
0.181447 0.311455 0.391239
0.241965 0.356197 0.428840
0.338309 0.411548 0.473862
0.468267 0.465499 0.514061
0.630174 0.497053 0.523416
0.766126 0.503201 0.498512
0.852433 0.520112 0.495374
0.197306 0.338895 0.418236
0.228958 0.365192 0.440515
0.302007 0.415629 0.482008
0.404585 0.476781 0.531693
0.526334 0.536798 0.579155
0.659968 0.581282 0.608325
0.785099 0.595227 0.596644
0.873190 0.609076 0.589660
0.058482 0.081484 0.190374
0.078937 0.089223 0.188465
0.160367 0.088483 0.180521
0.291759 0.086715 0.167798
0.453491 0.090309 0.153303
0.584026 0.107282 0.148894
0.655791 0.136711 0.157708
0.700636 0.173101 0.175434
0.063587 0.099969 0.198211
0.079046 0.115173 0.208861
0.151287 0.119941 0.210052
0.278172 0.121172 0.201439
0.445269 0.124899 0.185467
0.587457 0.138632 0.175888
0.665303 0.163732 0.180296
0.711721 0.196325 0.194967
0.075361 0.128774 0.219137
0.090925 0.147162 0.234397
0.146860 0.166108 0.250955
0.262603 0.177270 0.252965
0.436656 0.178582 0.234185
0.595668 0.189495 0.217707
0.684072 0.212370 0.218392
0.735698 0.243853 0.232488
0.092220 0.166426 0.251505
0.110233 0.185891 0.268093
0.155758 0.217471 0.296788
0.257473 0.242298 0.313134
0.423894 0.250413 0.302989
0.603608 0.256615 0.277247
0.706133 0.276130 0.272052
0.765738 0.306843 0.285463
0.113244 0.211055 0.293244
0.134314 0.231250 0.311121
0.182281 0.268251 0.343797
0.271476 0.307451 0.375165
0.411146 0.336137 0.389404
0.608640 0.337502 0.356282
0.727164 0.350706 0.341690
0.796704 0.378874 0.351966
0.140517 0.259478 0.341252
0.166507 0.281349 0.360220
0.220374 0.323398 0.396643
0.309102 0.373277 0.437686
0.437591 0.418315 0.469064
0.615246 0.434161 0.457944
0.746060 0.440028 0.433245
0.826756 0.460740 0.434300
0.177081 0.310138 0.390623
0.208514 0.334161 0.410764
0.271320 0.380674 0.449870
0.364093 0.437332 0.496382
0.485002 0.492329 0.538478
0.635790 0.527023 0.553622
0.767985 0.533557 0.530765
0.854180 0.547320 0.524055
0.225835 0.363686 0.439575
0.260386 0.388095 0.459134
0.332666 0.437994 0.500430
0.430998 0.498958 0.550589
0.545548 0.558560 0.598121
0.670570 0.603053 0.628113
0.789103 0.618730 0.619838
0.874580 0.631892 0.612629
0.064004 0.097460 0.237536
0.079019 0.110919 0.237451
0.158443 0.121865 0.222621
0.295152 0.127758 0.201503
0.469306 0.129912 0.181774
0.604111 0.145268 0.173919
0.678046 0.175272 0.183557
0.724268 0.214161 0.205673
0.069834 0.119073 0.247776
0.084656 0.139677 0.257620
0.153425 0.159077 0.256897
0.281820 0.169913 0.244900
0.458483 0.170899 0.224064
0.606381 0.181997 0.209192
0.687334 0.206089 0.212235
0.735422 0.239830 0.229330
0.085600 0.157660 0.267368
0.104165 0.180731 0.281961
0.158490 0.211245 0.299623
0.270411 0.232619 0.305270
0.441461 0.237500 0.291465
0.606288 0.246523 0.271658
0.701024 0.265045 0.266802
0.756587 0.293583 0.277709
0.108001 0.203491 0.297425
0.131471 0.226679 0.313859
0.179167 0.265687 0.344726
0.274111 0.300519 0.369105
0.425567 0.318639 0.372195
0.607344 0.324535 0.348097
0.717800 0.337470 0.334806
0.783030 0.361453 0.339862
0.135289 0.250285 0.337644
0.163136 0.273132 0.354856
0.217306 0.315338 0.389083
0.301156 0.363379 0.427497
0.421379 0.403244 0.454609
0.611571 0.406825 0.430239
0.735750 0.414023 0.408880
0.810628 0.433849 0.408696
0.171856 0.301294 0.384164
0.204878 0.324788 0.402321
0.265384 0.369521 0.439034
0.351318 0.422976 0.482308
0.463062 0.472984 0.519542
0.617191 0.499068 0.525083
0.749422 0.501026 0.498234
0.834983 0.512904 0.489075
0.220540 0.354565 0.432174
0.257733 0.379272 0.451676
0.324047 0.425902 0.489711
0.412771 0.482360 0.535415
0.519344 0.537610 0.578334
0.648768 0.576562 0.601381
0.771117 0.585841 0.585151
0.856380 0.595002 0.573781
0.286017 0.412219 0.482004
0.321925 0.435478 0.500332
0.391047 0.482308 0.538447
0.480746 0.539652 0.585121
0.581362 0.596313 0.630337
0.690782 0.640260 0.661331
0.796193 0.659896 0.660205
0.876418 0.671876 0.652326
0.072212 0.113923 0.301548
0.082702 0.131530 0.306024
0.147709 0.157950 0.294228
0.283892 0.178186 0.265764
0.481072 0.185448 0.226953
0.627696 0.198036 0.213378
0.706019 0.226643 0.221910
0.754417 0.267204 0.247905
0.078823 0.137415 0.314142
0.092708 0.161760 0.323543
0.151049 0.196683 0.325329
0.277644 0.223024 0.310351
0.469534 0.231114 0.277713
0.628996 0.238224 0.255015
0.714814 0.260315 0.255302
0.765569 0.294874 0.274756
0.097660 0.185405 0.334360
0.117290 0.211451 0.347057
0.168287 0.253389 0.364970
0.276664 0.289862 0.372143
0.447715 0.307737 0.359505
0.621743 0.313120 0.334488
0.723310 0.327018 0.323601
0.783245 0.353055 0.332114
0.125913 0.242057 0.362376
0.151929 0.267559 0.376844
0.203645 0.313576 0.406024
0.294675 0.360384 0.433650
0.432331 0.392762 0.445879
0.614796 0.399157 0.424926
0.732476 0.406591 0.405051
0.803837 0.424851 0.403096
0.161814 0.296752 0.398101
0.193772 0.321555 0.413212
0.257140 0.368310 0.445241
0.338918 0.422514 0.484559
0.439106 0.469457 0.518188
0.614492 0.481162 0.508839
0.742777 0.485530 0.485212
0.824466 0.498223 0.475979
0.208285 0.351713 0.442145
0.246306 0.376417 0.458371
0.316115 0.423307 0.492213
0.401931 0.478575 0.533506
0.496441 0.530427 0.572369
0.623195 0.565805 0.592298
0.753267 0.567190 0.568334
0.843104 0.572323 0.551768
0.271477 0.408671 0.488218
0.312826 0.433575 0.505778
0.384437 0.479681 0.540082
0.470074 0.534386 0.581849
0.560178 0.587322 0.622645
0.666225 0.629183 0.651067
0.775388 0.642737 0.643659
0.858698 0.648510 0.629201
0.354108 0.469537 0.536621
0.391300 0.492130 0.553409
0.458301 0.535326 0.586439
0.538982 0.587556 0.627139
0.622770 0.639232 0.667756
0.714556 0.681628 0.698146
0.804495 0.705491 0.704692
0.878387 0.716826 0.696806
0.083839 0.128292 0.375210
0.092628 0.148314 0.383821
0.131543 0.187840 0.389858
0.253973 0.226127 0.363050
0.470458 0.249602 0.296967
0.648441 0.260232 0.267437
0.735895 0.285493 0.271145
0.787381 0.326109 0.298962
0.090999 0.152534 0.388261
0.104415 0.178911 0.398723
0.144860 0.224000 0.411647
0.259239 0.269131 0.400183
0.459713 0.299760 0.354210
0.647361 0.303979 0.315615
0.742689 0.321860 0.309034
0.797531 0.355294 0.328489
0.110760 0.204851 0.412462
0.128936 0.232095 0.423517
0.174056 0.282434 0.443834
0.276243 0.336870 0.452383
0.446087 0.378206 0.436322
0.639019 0.380885 0.400681
0.748337 0.389747 0.382085
0.812203 0.413173 0.388236
0.143501 0.271221 0.440453
0.167563 0.297456 0.451993
0.223331 0.349856 0.477223
0.313829 0.409129 0.502129
0.442653 0.457450 0.514177
0.627348 0.467341 0.494638
0.749877 0.471065 0.469943
0.825839 0.485186 0.463283
0.188453 0.339845 0.468905
0.219983 0.365665 0.481563
0.291683 0.415925 0.507990
0.375310 0.472530 0.540580
0.462371 0.520783 0.570571
0.618678 0.547005 0.577534
0.747960 0.551879 0.556302
0.835899 0.559537 0.541103
0.242536 0.399820 0.508431
0.282111 0.425625 0.522628
0.360890 0.474329 0.550571
0.449703 0.529457 0.584812
0.532644 0.579054 0.618798
0.634342 0.619360 0.644727
0.757462 0.624717 0.628970
0.849319 0.627523 0.610350
0.317807 0.460907 0.551646
0.361040 0.485923 0.566469
0.438643 0.531663 0.594739
0.523569 0.583779 0.629371
0.600176 0.631940 0.664213
0.685469 0.673543 0.692430
0.780443 0.691924 0.693695
0.860978 0.697198 0.679174
0.411942 0.523554 0.596415
0.450550 0.545693 0.610299
0.518227 0.586228 0.637225
0.593133 0.633713 0.670629
0.662246 0.679461 0.704627
0.737251 0.719195 0.731939
0.812521 0.745990 0.743996
0.880352 0.757839 0.737288
0.100098 0.142660 0.452346
0.109618 0.162536 0.463299
0.140660 0.206892 0.478935
0.215570 0.261085 0.481425
0.360316 0.310521 0.451769
0.650856 0.329055 0.344810
0.764387 0.351975 0.332808
0.820216 0.389309 0.359321
0.108576 0.165731 0.463933
0.122269 0.191282 0.475151
0.156154 0.239157 0.494081
0.230813 0.296784 0.503907
0.370652 0.350755 0.486188
0.648647 0.373642 0.396001
0.767674 0.389277 0.374144
0.828137 0.418617 0.389796
0.129757 0.218640 0.488018
0.148000 0.245261 0.498965
0.189875 0.297509 0.520654
0.265846 0.360544 0.539550
0.393115 0.420002 0.540078
0.640699 0.452115 0.482775
0.768552 0.458556 0.451291
0.838982 0.475451 0.450275
0.163901 0.287364 0.517607
0.187208 0.313684 0.528330
0.239886 0.368173 0.551570
0.318033 0.433626 0.577399
0.428343 0.495321 0.594162
0.632721 0.536912 0.572584
0.766322 0.537972 0.538829
0.847824 0.544126 0.523524
0.211341 0.360874 0.547944
0.240232 0.387558 0.558921
0.304490 0.440664 0.582192
0.386168 0.503050 0.610433
0.479995 0.561520 0.635856
0.630871 0.608267 0.642464
0.761822 0.611282 0.617754
0.851972 0.612685 0.596220
0.276109 0.433289 0.580005
0.310665 0.459845 0.591954
0.385161 0.510560 0.614329
0.477700 0.568731 0.641237
0.570452 0.621434 0.667481
0.649042 0.660282 0.686711
0.762197 0.671541 0.679071
0.854678 0.675481 0.660953
0.355112 0.500597 0.618804
0.392930 0.524929 0.630342
0.468782 0.570990 0.652098
0.558262 0.623812 0.678600
0.641730 0.671958 0.705231
0.703047 0.708816 0.727485
0.784967 0.730442 0.733355
0.863659 0.737666 0.720128
0.448181 0.564178 0.658103
0.483644 0.585589 0.668549
0.551771 0.625591 0.688901
0.629683 0.671698 0.714144
0.700355 0.714755 0.740148
0.756271 0.751670 0.763527
0.819195 0.778700 0.775936
0.882802 0.791916 0.770408
0.120926 0.163015 0.523179
0.131300 0.181281 0.534523
0.160552 0.225289 0.554523
0.218434 0.284256 0.571543
0.320487 0.347671 0.571819
0.527329 0.399479 0.519041
0.734044 0.419915 0.437132
0.848518 0.449450 0.419145
0.130477 0.183818 0.533303
0.145232 0.208118 0.545213
0.177896 0.254972 0.566804
0.237795 0.315713 0.587125
0.339342 0.381172 0.593160
0.537775 0.434594 0.550694
0.740428 0.453222 0.472239
0.854557 0.478456 0.450424
0.154132 0.233974 0.556322
0.173550 0.259983 0.567982
0.215020 0.311295 0.590622
0.280554 0.376018 0.614970
0.378526 0.443279 0.629876
0.556730 0.498975 0.606223
0.748314 0.516929 0.538698
0.861469 0.534066 0.510728
0.191111 0.301393 0.585710
0.215394 0.327566 0.596989
0.267095 0.381684 0.620015
0.338753 0.448242 0.646920
0.430940 0.514765 0.668810
0.581902 0.571881 0.664982
0.755258 0.591001 0.614303
0.865724 0.600603 0.582189
0.241253 0.376342 0.616681
0.270321 0.402902 0.627870
0.330721 0.456310 0.650491
0.407278 0.520180 0.677183
0.493151 0.582279 0.701132
0.612334 0.637802 0.712116
0.760433 0.660095 0.682158
0.865607 0.665962 0.650991
0.309875 0.453270 0.648351
0.342324 0.479495 0.659474
0.408522 0.530251 0.680454
0.491205 0.589708 0.704907
0.576310 0.645504 0.727472
0.653028 0.689369 0.742559
0.768517 0.715441 0.732644
0.864446 0.723350 0.708976
0.392692 0.526290 0.684118
0.426054 0.550807 0.694812
0.491627 0.596725 0.712989
0.572270 0.649806 0.733694
0.653271 0.699000 0.753003
0.719056 0.737164 0.767947
0.792754 0.764659 0.771904
0.868545 0.775078 0.757730
0.481598 0.592705 0.719445
0.511851 0.614062 0.728276
0.571647 0.653758 0.743577
0.644352 0.699491 0.761350
0.716288 0.742041 0.778561
0.775543 0.777165 0.793742
0.827607 0.806197 0.805044
0.885569 0.822480 0.800851
0.146560 0.192249 0.583024
0.156939 0.208770 0.593496
0.186150 0.250765 0.615829
0.238342 0.309415 0.641081
0.319803 0.377365 0.660575
0.456895 0.450000 0.659044
0.665905 0.489382 0.584538
0.823282 0.514476 0.525240
0.155945 0.210087 0.591764
0.172029 0.233086 0.603972
0.205575 0.277801 0.627321
0.260537 0.337570 0.653904
0.342595 0.406243 0.675634
0.474913 0.477325 0.676653
0.675939 0.515743 0.608379
0.829593 0.540143 0.551166
0.181600 0.255672 0.614167
0.203160 0.281551 0.626946
0.246293 0.331062 0.651038
0.308456 0.394419 0.679408
0.390399 0.463284 0.704469
0.511382 0.530371 0.710108
0.694127 0.568175 0.654763
0.838591 0.588710 0.599964
0.222151 0.319429 0.644163
0.248684 0.346229 0.656933
0.301526 0.399199 0.681156
0.370715 0.464532 0.710031
0.451345 0.531453 0.736569
0.558015 0.593924 0.747367
0.715901 0.631340 0.708327
0.847463 0.647625 0.657746
0.276990 0.393364 0.677074
0.307482 0.420263 0.689605
0.366391 0.473164 0.713023
0.439269 0.536417 0.740103
0.517251 0.598537 0.764647
0.608718 0.656173 0.779484
0.738346 0.693136 0.757141
0.854665 0.706955 0.713645
0.351509 0.472427 0.711117
0.382870 0.498335 0.722756
0.442373 0.547963 0.743733
0.515163 0.606497 0.767305
0.590026 0.662601 0.788162
0.662758 0.710124 0.802263
0.763263 0.745354 0.793301
0.862257 0.760194 0.760631
0.436742 0.549274 0.744814
0.465981 0.572825 0.755242
0.521299 0.616895 0.772250
0.590162 0.668469 0.790523
0.662190 0.717453 0.806080
0.728865 0.757597 0.816776
0.795301 0.789534 0.818393
0.871544 0.806306 0.799058
0.519390 0.617436 0.777240
0.544120 0.637032 0.784975
0.593664 0.674926 0.797777
0.656688 0.719407 0.811491
0.723472 0.761516 0.823097
0.784607 0.796326 0.831460
0.833881 0.826930 0.838326
0.890230 0.848187 0.831438
