filter/Red and Blue/lut/Spotlight 01_S.cube
# LUT by SparkleStock. Enhanced with VOXCOLOR algorithms.
LUT_3D_SIZE 8
DOMAIN_MIN 0.000000 0.000000 0.000000
DOMAIN_MAX 0.903226 0.903226 0.903226
0.093773 0.082051 0.105495
0.122132 0.082808 0.110788
0.200843 0.087179 0.113403
0.314546 0.096821 0.115152
0.445610 0.112608 0.118626
0.558478 0.134350 0.131860
0.630856 0.160345 0.154705
0.680184 0.192107 0.185001
0.099256 0.089614 0.117405
0.121467 0.100323 0.120357
0.203984 0.111330 0.116898
0.325529 0.125083 0.111767
0.464004 0.142699 0.110173
0.581848 0.161659 0.123847
0.656031 0.184386 0.154083
0.701456 0.212781 0.193796
0.110095 0.104407 0.138690
0.130306 0.120923 0.143551
0.202563 0.147637 0.140471
0.321143 0.174701 0.132669
0.471472 0.195857 0.125670
0.600099 0.213385 0.138538
0.683103 0.232031 0.174663
0.732669 0.257444 0.224034
0.125661 0.126590 0.169506
0.145518 0.145191 0.178575
0.206025 0.185750 0.183359
0.315157 0.227897 0.180594
0.467828 0.257994 0.172153
0.612799 0.276778 0.180654
0.708651 0.292939 0.218795
0.767425 0.317321 0.274366
0.145654 0.156343 0.209138
0.165310 0.174414 0.223146
0.220458 0.220105 0.242732
0.317776 0.273636 0.255064
0.457167 0.319069 0.254170
0.621019 0.342464 0.254274
0.731148 0.359592 0.288057
0.801484 0.385866 0.343033
0.171933 0.195856 0.254890
0.193052 0.214805 0.273582
0.245413 0.259509 0.309256
0.334291 0.318296 0.348532
0.462210 0.377817 0.377918
0.631625 0.408384 0.371289
0.754878 0.431708 0.387972
0.836045 0.462794 0.429640
0.206404 0.242459 0.305211
0.229598 0.263872 0.327733
0.284706 0.312197 0.374062
0.371638 0.376201 0.430220
0.489839 0.444047 0.482338
0.643836 0.493739 0.505934
0.780783 0.518848 0.503747
0.871780 0.548449 0.521537
0.249171 0.288022 0.361361
0.275670 0.313326 0.387146
0.334563 0.367361 0.439952
0.421087 0.437035 0.504563
0.531397 0.510467 0.567519
0.668159 0.572875 0.612240
0.802396 0.606538 0.614708
0.897027 0.636777 0.619689
0.097176 0.087345 0.131395
0.124803 0.091321 0.129956
0.208070 0.093626 0.132681
0.328018 0.099572 0.136870
0.464095 0.112962 0.141679
0.578134 0.136021 0.153303
0.650219 0.169310 0.174416
0.698011 0.207579 0.203749
0.103976 0.098713 0.139061
0.129421 0.117288 0.150125
0.213798 0.130312 0.156403
0.336527 0.142569 0.159444
0.476360 0.157292 0.161622
0.597868 0.174398 0.170172
0.676896 0.197846 0.189970
0.722951 0.228995 0.219342
0.117273 0.116172 0.159730
0.141795 0.144477 0.174062
0.218001 0.180038 0.183401
0.336804 0.210074 0.186318
0.483242 0.227671 0.184333
0.614253 0.241615 0.190813
0.703466 0.257326 0.213184
0.755839 0.280777 0.248423
0.136132 0.140550 0.191120
0.159951 0.172820 0.205987
0.226158 0.227703 0.219949
0.335909 0.278330 0.226615
0.481840 0.307755 0.224258
0.625371 0.321728 0.226598
0.726644 0.332602 0.250062
0.790118 0.350611 0.290232
0.159876 0.172352 0.231044
0.182856 0.203001 0.248160
0.242184 0.264374 0.269899
0.339949 0.331217 0.286505
0.473898 0.383231 0.291875
0.631141 0.401828 0.287559
0.745015 0.411925 0.306308
0.821460 0.428871 0.344902
0.189521 0.212890 0.278114
0.213625 0.239657 0.299006
0.268381 0.296889 0.333278
0.356790 0.368054 0.369349
0.479650 0.436450 0.395835
0.637582 0.471852 0.391585
0.762541 0.489655 0.395121
0.850676 0.511729 0.419290
0.226384 0.260761 0.329752
0.253071 0.287122 0.353662
0.308703 0.341626 0.398540
0.393424 0.412257 0.451048
0.506689 0.486480 0.498373
0.651507 0.541385 0.519249
0.783886 0.567945 0.508071
0.878395 0.593674 0.511677
0.273566 0.310892 0.387774
0.300187 0.337178 0.411883
0.358752 0.392713 0.463227
0.443289 0.464505 0.525638
0.549149 0.540582 0.585079
0.678630 0.605379 0.625188
0.805681 0.641938 0.622720
0.899454 0.670795 0.618865
0.103525 0.096656 0.180464
0.125547 0.103852 0.180068
0.208938 0.111654 0.177386
0.335675 0.120522 0.177819
0.483608 0.132396 0.184353
0.602758 0.157291 0.193848
0.677453 0.196319 0.212365
0.726909 0.241653 0.241486
0.111850 0.110067 0.188862
0.135817 0.131050 0.202890
0.218578 0.149846 0.215532
0.343416 0.164864 0.224717
0.490367 0.176723 0.229711
0.616991 0.194659 0.233663
0.701277 0.223052 0.245142
0.751676 0.261144 0.267122
0.129648 0.135552 0.207429
0.154782 0.166834 0.226125
0.228720 0.206807 0.248299
0.345328 0.239091 0.264118
0.491868 0.255255 0.268671
0.626729 0.268989 0.270672
0.723573 0.287069 0.281321
0.783810 0.314236 0.303575
0.153952 0.168087 0.237232
0.179732 0.204364 0.256261
0.244336 0.263293 0.283377
0.349307 0.317372 0.304253
0.489060 0.348911 0.310700
0.633358 0.361627 0.309946
0.742871 0.372291 0.320162
0.816564 0.389865 0.344197
0.183079 0.204880 0.278097
0.209299 0.240171 0.297265
0.268784 0.307260 0.326894
0.361519 0.380773 0.352760
0.485673 0.439133 0.364824
0.638151 0.456770 0.359367
0.758286 0.465183 0.364803
0.845019 0.478086 0.386666
0.220445 0.251108 0.327313
0.247610 0.281450 0.348389
0.303457 0.343969 0.385122
0.387585 0.420890 0.422432
0.499267 0.495118 0.447712
0.642425 0.539190 0.446310
0.769745 0.554414 0.437687
0.867041 0.569176 0.444857
0.265349 0.303963 0.381271
0.294362 0.332713 0.404325
0.350434 0.390049 0.447824
0.430430 0.463041 0.497019
0.532286 0.539377 0.538754
0.661906 0.601056 0.554971
0.787075 0.631396 0.537405
0.885449 0.653143 0.527626
0.320553 0.360390 0.441079
0.348170 0.387383 0.463405
0.404585 0.441980 0.509863
0.482912 0.511862 0.566046
0.578310 0.586238 0.619014
0.694679 0.653648 0.651546
0.810207 0.695156 0.644847
0.901966 0.722620 0.631467
0.112742 0.109118 0.249785
0.129165 0.119474 0.253695
0.201030 0.136387 0.250956
0.329257 0.154226 0.243644
0.498724 0.170940 0.236054
0.628266 0.197152 0.244488
0.708139 0.238971 0.261130
0.761294 0.289141 0.291122
0.122372 0.123907 0.260049
0.143422 0.145132 0.274417
0.216115 0.170884 0.291731
0.339765 0.193547 0.302292
0.501218 0.209709 0.301856
0.636317 0.228895 0.302519
0.726272 0.262186 0.308030
0.782667 0.306770 0.325841
0.144343 0.157484 0.278789
0.168024 0.186898 0.297638
0.234477 0.229426 0.327582
0.346869 0.266949 0.352050
0.497619 0.288743 0.360991
0.639265 0.302385 0.359668
0.743149 0.323950 0.361056
0.812030 0.356116 0.373695
0.174799 0.200199 0.307112
0.200326 0.234284 0.326613
0.261019 0.292543 0.361829
0.359537 0.349127 0.394213
0.492782 0.385953 0.411006
0.640322 0.398427 0.409849
0.757286 0.410541 0.409748
0.841318 0.430110 0.420392
0.211225 0.245977 0.345579
0.238664 0.280735 0.364039
0.298325 0.347076 0.398920
0.384036 0.420791 0.433466
0.493282 0.480885 0.454893
0.642007 0.500796 0.454007
0.767811 0.509740 0.450860
0.864774 0.521301 0.458553
0.256093 0.299450 0.395331
0.285543 0.330563 0.414331
0.344032 0.393710 0.451749
0.423078 0.470383 0.490920
0.518698 0.544218 0.518347
0.646024 0.594909 0.520714
0.774829 0.609428 0.506113
0.880388 0.619305 0.501316
0.309961 0.359265 0.449765
0.340880 0.388673 0.469955
0.399122 0.446275 0.510016
0.474335 0.517708 0.555385
0.561152 0.591027 0.593140
0.673124 0.655768 0.605752
0.789605 0.689612 0.586734
0.890752 0.708035 0.568516
0.373393 0.421558 0.508445
0.402741 0.448777 0.527993
0.458680 0.501443 0.567967
0.530611 0.567039 0.616459
0.612269 0.635773 0.662222
0.712591 0.702437 0.687817
0.814829 0.748135 0.679268
0.903606 0.774437 0.659776
0.125692 0.124526 0.335972
0.139646 0.137846 0.344181
0.188267 0.164216 0.351807
0.306406 0.195359 0.338322
0.496683 0.225372 0.300870
0.650540 0.253340 0.300175
0.739161 0.294705 0.315265
0.796990 0.345773 0.347271
0.136200 0.140761 0.346785
0.155149 0.162315 0.360764
0.209080 0.194407 0.381988
0.323123 0.228925 0.390024
0.498257 0.259457 0.376293
0.653096 0.280839 0.368676
0.750341 0.316227 0.369860
0.812753 0.363440 0.386832
0.160709 0.179217 0.369417
0.182235 0.205273 0.385487
0.237710 0.250191 0.415404
0.342015 0.297214 0.441214
0.495549 0.333277 0.450911
0.652119 0.348109 0.443964
0.762186 0.371298 0.438327
0.837530 0.405897 0.445910
0.196626 0.230963 0.397994
0.219955 0.259970 0.413789
0.277028 0.316634 0.447126
0.368504 0.377067 0.483300
0.493062 0.422468 0.509573
0.648215 0.437316 0.509514
0.770224 0.449885 0.502453
0.861030 0.470341 0.504392
0.241121 0.288827 0.430102
0.266825 0.320245 0.444649
0.327534 0.382184 0.477032
0.406442 0.451227 0.515123
0.498289 0.508204 0.547646
0.643628 0.534249 0.557211
0.772770 0.543307 0.551238
0.876839 0.553593 0.549079
0.290343 0.348960 0.476379
0.320283 0.379141 0.491180
0.383157 0.440294 0.523882
0.458872 0.512324 0.562247
0.538066 0.579465 0.594729
0.648677 0.630765 0.602745
0.776887 0.645504 0.591151
0.887699 0.653059 0.581769
0.350014 0.415862 0.527260
0.382289 0.444692 0.542899
0.444572 0.500770 0.576228
0.517411 0.567895 0.616425
0.590597 0.634011 0.652683
0.683869 0.694758 0.665445
0.790984 0.729858 0.651119
0.892832 0.746018 0.631672
0.418765 0.481988 0.580023
0.449979 0.508679 0.595365
0.508746 0.559469 0.628450
0.577619 0.620208 0.669444
0.646741 0.680943 0.708828
0.729751 0.741396 0.731023
0.818818 0.788221 0.724174
0.903748 0.813571 0.704503
0.148568 0.145890 0.435228
0.162229 0.161405 0.447096
0.201848 0.194739 0.463357
0.283005 0.236946 0.468791
0.421779 0.280754 0.448208
0.661554 0.320724 0.369352
0.770472 0.361528 0.374587
0.832777 0.409998 0.409050
0.159954 0.163442 0.446334
0.177591 0.185152 0.459778
0.220697 0.222811 0.482556
0.302262 0.267967 0.499303
0.436191 0.313229 0.494168
0.662557 0.350126 0.432640
0.776094 0.385539 0.426500
0.843450 0.429662 0.446265
0.187000 0.205289 0.470606
0.206756 0.229461 0.484036
0.252875 0.275933 0.510682
0.332050 0.330046 0.537154
0.454224 0.380188 0.549404
0.659823 0.417660 0.517130
0.781630 0.439920 0.504211
0.860913 0.469327 0.510243
0.225284 0.262255 0.501805
0.246426 0.287716 0.514234
0.295073 0.341089 0.541392
0.369994 0.403749 0.573097
0.476117 0.460869 0.598671
0.654132 0.500832 0.596195
0.783441 0.511082 0.582734
0.877177 0.524812 0.578921
0.271059 0.326651 0.535176
0.293827 0.353759 0.546172
0.345278 0.408831 0.570817
0.416358 0.475677 0.602303
0.505889 0.539854 0.633651
0.647970 0.582812 0.652059
0.780083 0.588964 0.644149
0.886827 0.593274 0.635840
0.322330 0.392931 0.569011
0.348087 0.420615 0.578789
0.407119 0.477838 0.601958
0.484204 0.546585 0.632689
0.567584 0.611634 0.664549
0.652387 0.657070 0.684241
0.776693 0.672001 0.681947
0.889324 0.678231 0.672397
0.379416 0.463420 0.610256
0.408621 0.489676 0.620154
0.470759 0.543342 0.644183
0.548483 0.608096 0.676141
0.627340 0.670772 0.709319
0.694256 0.720820 0.730358
0.791112 0.753543 0.725851
0.891274 0.767961 0.710424
0.445685 0.530320 0.651804
0.476030 0.554844 0.662250
0.537008 0.604009 0.687476
0.610952 0.662938 0.720417
0.683840 0.720258 0.754406
0.745882 0.770055 0.779741
0.822428 0.812294 0.778958
0.902292 0.835874 0.764416
0.180897 0.174501 0.530387
0.195363 0.191845 0.544207
0.232694 0.230137 0.566878
0.297991 0.279453 0.585486
0.400691 0.332253 0.586895
0.583431 0.385933 0.543436
0.761292 0.427375 0.477646
0.865621 0.471768 0.469325
0.194015 0.193004 0.542273
0.211532 0.215637 0.556405
0.250020 0.257186 0.581170
0.315066 0.309105 0.604338
0.415807 0.364212 0.613159
0.590766 0.416348 0.580115
0.767149 0.453992 0.515632
0.873294 0.494846 0.501235
0.223934 0.236926 0.567465
0.242604 0.261181 0.580731
0.282899 0.308307 0.606048
0.346437 0.366091 0.632994
0.439728 0.424835 0.650673
0.600806 0.478140 0.636146
0.773853 0.509620 0.582580
0.884175 0.538640 0.563448
0.264502 0.296744 0.599152
0.283427 0.321224 0.610941
0.325048 0.371990 0.634805
0.386321 0.434345 0.662854
0.470237 0.496659 0.687007
0.611630 0.551167 0.691592
0.777501 0.577571 0.656036
0.892563 0.593674 0.635776
0.310491 0.364424 0.632032
0.329641 0.389231 0.642074
0.372135 0.439666 0.662623
0.431847 0.502701 0.688435
0.507891 0.567106 0.714449
0.623716 0.621023 0.732694
0.776574 0.645950 0.718627
0.894803 0.653695 0.701770
0.357835 0.433925 0.663306
0.378161 0.458666 0.670940
0.425726 0.509325 0.688569
0.491104 0.571648 0.711833
0.566553 0.633818 0.736621
0.647878 0.685190 0.757189
0.777005 0.713620 0.758260
0.891390 0.722062 0.746593
0.401174 0.501819 0.693919
0.426756 0.526065 0.701396
0.481815 0.575288 0.717838
0.554670 0.635825 0.740200
0.634489 0.696288 0.765100
0.707608 0.746146 0.785914
0.794523 0.779762 0.790750
0.888649 0.793274 0.780390
0.456265 0.565768 0.723326
0.484392 0.588546 0.730879
0.542486 0.634929 0.748224
0.617005 0.691692 0.771671
0.695917 0.748032 0.797435
0.765548 0.794935 0.819142
0.828936 0.831932 0.827076
0.899684 0.852626 0.819963
0.219111 0.211013 0.610186
0.234205 0.229955 0.625615
0.271935 0.273037 0.654363
0.330266 0.328241 0.683505
0.410722 0.386794 0.702063
0.535506 0.447390 0.696416
0.718096 0.496648 0.628288
0.856323 0.534824 0.574735
0.233101 0.229443 0.623664
0.250646 0.252380 0.638050
0.287669 0.297496 0.666152
0.344019 0.354452 0.695975
0.422459 0.415126 0.716941
0.544737 0.475311 0.714396
0.724131 0.521746 0.650983
0.862372 0.558331 0.597873
0.265097 0.274898 0.651747
0.283252 0.299679 0.665428
0.319651 0.346748 0.691066
0.372513 0.405674 0.719778
0.444071 0.468017 0.743091
0.558784 0.528006 0.746768
0.731311 0.571796 0.696269
0.869291 0.602119 0.645907
0.307372 0.336963 0.685893
0.324508 0.361746 0.698358
0.359465 0.409357 0.720460
0.408760 0.468700 0.746291
0.473360 0.530871 0.769923
0.576488 0.589997 0.780511
0.737753 0.632107 0.748393
0.874194 0.655582 0.704343
0.352816 0.406634 0.719438
0.367987 0.430082 0.729670
0.400886 0.476216 0.747791
0.448220 0.533609 0.769367
0.509536 0.593317 0.790518
0.598789 0.650410 0.806661
0.743566 0.692034 0.794922
0.875699 0.711110 0.761030
0.392341 0.475835 0.748303
0.407499 0.497962 0.755546
0.442373 0.541950 0.769752
0.493667 0.596973 0.787551
0.558514 0.654386 0.806271
0.636884 0.708628 0.824311
0.756829 0.749402 0.826424
0.876699 0.768132 0.804006
0.421433 0.538419 0.769763
0.441664 0.559987 0.775985
0.485859 0.603152 0.788042
0.548251 0.657396 0.804156
0.622953 0.713879 0.822484
0.702197 0.764611 0.840098
0.786292 0.803100 0.848130
0.881398 0.823393 0.834834
0.458966 0.596796 0.788450
0.482781 0.616253 0.794121
0.534897 0.657869 0.806492
0.605843 0.710589 0.823360
0.686613 0.765022 0.842294
0.765807 0.812052 0.858662
0.830285 0.848342 0.867935
0.898573 0.870925 0.861789
