filter/Red and Blue/lut/Spotlight 04.cube
# LUT by SparkleStock. Enhanced with VOXCOLOR algorithms.
LUT_3D_SIZE 32
0.066422 0.070330 0.093773
0.074268 0.070897 0.093584
0.082114 0.071464 0.093395
0.089960 0.072031 0.093206
0.097806 0.072598 0.093017
0.105652 0.073166 0.092828
0.130198 0.073811 0.090275
0.158084 0.074473 0.087250
0.185970 0.075135 0.084225
0.213856 0.075797 0.081201
0.241742 0.076458 0.078176
0.277191 0.078538 0.075214
0.316420 0.081327 0.072283
0.355650 0.084115 0.069353
0.394880 0.086904 0.066422
0.434109 0.089692 0.063492
0.469180 0.093214 0.061885
0.500091 0.097467 0.061601
0.531002 0.101721 0.061318
0.561913 0.105975 0.061034
0.592824 0.110229 0.060751
0.618693 0.114814 0.061271
0.634479 0.120060 0.063398
0.650266 0.125306 0.065524
0.666052 0.130553 0.067651
0.681839 0.135799 0.069778
0.696286 0.141581 0.072268
0.704037 0.150041 0.076569
0.711789 0.158502 0.080870
0.719540 0.166962 0.085171
0.727291 0.175422 0.089472
0.735043 0.183883 0.093773
0.067935 0.073071 0.095758
0.075095 0.073894 0.095981
0.082255 0.074718 0.096203
0.089414 0.075541 0.096426
0.096574 0.076364 0.096648
0.103734 0.077188 0.096871
0.128311 0.077823 0.094380
0.156370 0.078421 0.091346
0.184430 0.079018 0.088312
0.212490 0.079616 0.085277
0.240550 0.080214 0.082243
0.276380 0.082272 0.079156
0.316094 0.085060 0.076043
0.355809 0.087849 0.072930
0.395523 0.090638 0.069816
0.435238 0.093426 0.066703
0.470697 0.096966 0.064936
0.501900 0.101256 0.064515
0.533104 0.105547 0.064094
0.564308 0.109837 0.063673
0.595512 0.114127 0.063253
0.621588 0.118770 0.063654
0.637411 0.124117 0.065698
0.653234 0.129464 0.067743
0.669057 0.134811 0.069787
0.684880 0.140158 0.071832
0.699353 0.146001 0.074225
0.707077 0.154324 0.078362
0.714801 0.162647 0.082498
0.722525 0.170970 0.086634
0.730249 0.179294 0.090771
0.737973 0.187617 0.094907
0.069447 0.075812 0.097743
0.075921 0.076892 0.098377
0.082395 0.077971 0.099012
0.088869 0.079051 0.099646
0.095342 0.080130 0.100280
0.101816 0.081210 0.100914
0.126423 0.081834 0.098484
0.154657 0.082368 0.095441
0.182890 0.082902 0.092398
0.211124 0.083435 0.089354
0.239358 0.083969 0.086311
0.275569 0.086006 0.083099
0.315768 0.088794 0.079803
0.355967 0.091583 0.076507
0.396166 0.094372 0.073210
0.436366 0.097160 0.069914
0.472214 0.100718 0.067987
0.503710 0.105045 0.067429
0.535207 0.109372 0.066871
0.566703 0.113699 0.066313
0.598200 0.118026 0.065755
0.624484 0.122727 0.066037
0.640343 0.128174 0.067999
0.656203 0.133622 0.069961
0.672062 0.139069 0.071923
0.687922 0.144517 0.073886
0.702421 0.150421 0.076183
0.710118 0.158607 0.080155
0.717814 0.166793 0.084126
0.725511 0.174979 0.088098
0.733207 0.183165 0.092070
0.740904 0.191351 0.096042
0.070960 0.078554 0.099728
0.076747 0.079889 0.100774
0.082535 0.081225 0.101820
0.088323 0.082561 0.102866
0.094110 0.083896 0.103912
0.099898 0.085232 0.104958
0.124536 0.085846 0.102588
0.152943 0.086315 0.099536
0.181351 0.086785 0.096484
0.209758 0.087254 0.093431
0.238166 0.087724 0.090379
0.274758 0.089740 0.087042
0.315442 0.092528 0.083563
0.356126 0.095317 0.080083
0.396810 0.098105 0.076604
0.437494 0.100894 0.073125
0.473731 0.104470 0.071038
0.505520 0.108834 0.070342
0.537309 0.113197 0.069647
0.569098 0.117561 0.068952
0.600888 0.121925 0.068257
0.627379 0.126683 0.068420
0.643275 0.132231 0.070300
0.659171 0.137780 0.072180
0.675068 0.143328 0.074060
0.690964 0.148876 0.075939
0.705489 0.154841 0.078141
0.713158 0.162890 0.081948
0.720827 0.170938 0.085755
0.728496 0.178987 0.089562
0.736165 0.187036 0.093369
0.743834 0.195084 0.097176
0.072472 0.081295 0.101713
0.077574 0.082887 0.103171
0.082675 0.084479 0.104628
0.087777 0.086070 0.106086
0.092878 0.087662 0.107544
0.097980 0.089254 0.109001
0.122648 0.089857 0.106693
0.151229 0.090263 0.103631
0.179811 0.090668 0.100570
0.208392 0.091074 0.097508
0.236973 0.091479 0.094447
0.273946 0.093474 0.090985
0.315115 0.096262 0.087323
0.356284 0.099051 0.083660
0.397453 0.101839 0.079998
0.438622 0.104628 0.076336
0.475248 0.108222 0.074088
0.507330 0.112623 0.073256
0.539412 0.117023 0.072424
0.571494 0.121423 0.071591
0.603576 0.125823 0.070759
0.630274 0.130640 0.070803
0.646207 0.136288 0.072600
0.662140 0.141937 0.074398
0.678073 0.147586 0.076196
0.694005 0.153235 0.077993
0.708556 0.159261 0.080098
0.716198 0.167172 0.083741
0.723840 0.175084 0.087383
0.731481 0.182995 0.091025
0.739123 0.190907 0.094668
0.746764 0.198818 0.098310
0.073985 0.084036 0.103698
0.078400 0.085884 0.105568
0.082816 0.087732 0.107437
0.087231 0.089580 0.109306
0.091646 0.091428 0.111175
0.096062 0.093276 0.113045
0.120760 0.093868 0.110797
0.149516 0.094210 0.107727
0.178271 0.094551 0.104656
0.207026 0.094893 0.101585
0.235781 0.095235 0.098515
0.273135 0.097207 0.094928
0.314789 0.099996 0.091082
0.356443 0.102785 0.087237
0.398097 0.105573 0.083392
0.439751 0.108362 0.079547
0.476765 0.111975 0.077139
0.509139 0.116411 0.076170
0.541514 0.120848 0.075200
0.573889 0.125285 0.074230
0.606264 0.129722 0.073261
0.633170 0.134596 0.073186
0.649139 0.140346 0.074901
0.665108 0.146095 0.076616
0.681078 0.151845 0.078332
0.697047 0.157594 0.080047
0.711624 0.163681 0.082056
0.719238 0.171455 0.085534
0.726852 0.179230 0.089011
0.734466 0.187004 0.092489
0.742081 0.194778 0.095967
0.749695 0.202552 0.099445
0.076955 0.088590 0.108480
0.081240 0.090648 0.110593
0.085526 0.092706 0.112706
0.089812 0.094764 0.114820
0.094098 0.096823 0.116933
0.098384 0.098881 0.119046
0.121509 0.100167 0.117785
0.148403 0.101298 0.115848
0.175296 0.102429 0.113912
0.202190 0.103561 0.111976
0.229083 0.104692 0.110039
0.266471 0.106847 0.106409
0.309105 0.109514 0.101931
0.351739 0.112180 0.097453
0.394373 0.114847 0.092975
0.437007 0.117513 0.088497
0.475047 0.121068 0.085540
0.508492 0.125511 0.084106
0.541937 0.129954 0.082671
0.575382 0.134397 0.081236
0.608827 0.138840 0.079802
0.636622 0.143787 0.079415
0.653115 0.149744 0.081124
0.669609 0.155701 0.082833
0.686103 0.161658 0.084542
0.702597 0.167615 0.086251
0.717639 0.173924 0.088309
0.725424 0.181996 0.092110
0.733209 0.190067 0.095911
0.740994 0.198139 0.099712
0.748779 0.206210 0.103513
0.756564 0.214282 0.107314
0.080216 0.093505 0.113821
0.084483 0.095765 0.116145
0.088751 0.098024 0.118468
0.093018 0.100284 0.120792
0.097286 0.102543 0.123115
0.101554 0.104803 0.125439
0.122785 0.106923 0.125348
0.147410 0.109014 0.124775
0.172035 0.111106 0.124202
0.196660 0.113198 0.123629
0.221285 0.115290 0.123055
0.258636 0.117667 0.119397
0.302349 0.120188 0.114197
0.346063 0.122708 0.108996
0.389776 0.125228 0.103795
0.433490 0.127748 0.098595
0.472682 0.131230 0.095012
0.507353 0.135673 0.093046
0.542024 0.140116 0.091081
0.576695 0.144559 0.089116
0.611366 0.149002 0.087151
0.640185 0.154025 0.086413
0.657301 0.160211 0.088131
0.674417 0.166396 0.089850
0.691532 0.172582 0.091568
0.708648 0.178768 0.093286
0.724244 0.185331 0.095422
0.732239 0.193787 0.099644
0.740235 0.202243 0.103865
0.748230 0.210699 0.108087
0.756225 0.219155 0.112309
0.764221 0.227610 0.116531
0.083477 0.098421 0.119162
0.087726 0.100881 0.121696
0.091976 0.103342 0.124230
0.096225 0.105803 0.126764
0.100474 0.108264 0.129298
0.104723 0.110725 0.131832
0.124062 0.113678 0.132912
0.146418 0.116731 0.133702
0.168774 0.119783 0.134492
0.191130 0.122836 0.135282
0.213486 0.125888 0.136071
0.250800 0.128488 0.132386
0.295593 0.130862 0.126462
0.340386 0.133236 0.120539
0.385180 0.135610 0.114616
0.429973 0.137984 0.108692
0.470317 0.141392 0.104483
0.506214 0.145835 0.101987
0.542111 0.150278 0.099491
0.578007 0.154721 0.096995
0.613904 0.159163 0.094499
0.643748 0.164263 0.093411
0.661486 0.170678 0.095139
0.679224 0.177092 0.096866
0.696962 0.183506 0.098594
0.714700 0.189920 0.100321
0.730849 0.196739 0.102534
0.739055 0.205579 0.107177
0.747260 0.214419 0.111820
0.755466 0.223259 0.116462
0.763672 0.232099 0.121105
0.771878 0.240939 0.125747
0.086738 0.103336 0.124503
0.090969 0.105998 0.127247
0.095200 0.108660 0.129992
0.099431 0.111322 0.132736
0.103662 0.113984 0.135480
0.107893 0.116646 0.138225
0.125338 0.120434 0.140476
0.145425 0.124447 0.142629
0.165513 0.128460 0.144782
0.185600 0.132473 0.146935
0.205688 0.136486 0.149087
0.242965 0.139308 0.145374
0.288838 0.141536 0.138728
0.334710 0.143764 0.132082
0.380583 0.145991 0.125436
0.426455 0.148219 0.118790
0.467953 0.151554 0.113954
0.505075 0.155997 0.110928
0.542198 0.160440 0.107901
0.579320 0.164882 0.104875
0.616443 0.169325 0.101848
0.647311 0.174502 0.100409
0.665671 0.181144 0.102146
0.684031 0.187787 0.103883
0.702391 0.194430 0.105619
0.720751 0.201073 0.107356
0.737454 0.208147 0.109647
0.745870 0.217371 0.114710
0.754286 0.226595 0.119774
0.762702 0.235819 0.124837
0.771118 0.245043 0.129901
0.779534 0.254268 0.134964
0.090000 0.108252 0.129844
0.094212 0.111115 0.132798
0.098425 0.113978 0.135753
0.102638 0.116842 0.138708
0.106850 0.119705 0.141663
0.111063 0.122568 0.144618
0.126614 0.127190 0.148040
0.144433 0.132163 0.151556
0.162251 0.137137 0.155072
0.180070 0.142110 0.158588
0.197889 0.147084 0.162103
0.235130 0.150129 0.158363
0.282082 0.152210 0.150994
0.329034 0.154291 0.143626
0.375986 0.156373 0.136257
0.422938 0.158454 0.128888
0.465588 0.161716 0.123425
0.503936 0.166159 0.119868
0.542285 0.170601 0.116311
0.580633 0.175044 0.112754
0.618981 0.179487 0.109197
0.650874 0.184740 0.107408
0.669856 0.191611 0.109153
0.688838 0.198483 0.110899
0.707820 0.205355 0.112645
0.726802 0.212226 0.114391
0.744059 0.219554 0.116759
0.752685 0.229162 0.122244
0.761312 0.238771 0.127728
0.769938 0.248379 0.133212
0.778565 0.257988 0.138696
0.787191 0.267596 0.144181
0.094143 0.114963 0.137894
0.098307 0.118022 0.141029
0.102471 0.121080 0.144164
0.106635 0.124139 0.147298
0.110799 0.127197 0.150433
0.114962 0.130256 0.153568
0.129672 0.135563 0.157851
0.146490 0.141320 0.162364
0.163309 0.147077 0.166877
0.180128 0.152834 0.171390
0.196946 0.158591 0.175903
0.233175 0.162296 0.173054
0.279108 0.164975 0.166524
0.325042 0.167654 0.159994
0.370975 0.170333 0.153464
0.416909 0.173012 0.146934
0.459907 0.176518 0.141362
0.499969 0.180851 0.136750
0.540031 0.185184 0.132138
0.580093 0.189517 0.127526
0.620155 0.193850 0.122914
0.653487 0.199055 0.120355
0.673359 0.206003 0.121903
0.693232 0.212950 0.123450
0.713104 0.219898 0.124998
0.732977 0.226846 0.126545
0.751036 0.234311 0.128870
0.760032 0.244358 0.135080
0.769027 0.254406 0.141290
0.778023 0.264453 0.147500
0.787019 0.274501 0.153710
0.796014 0.284548 0.159920
0.098728 0.122573 0.147300
0.102828 0.125823 0.150599
0.106927 0.129074 0.153899
0.111027 0.132325 0.157198
0.115127 0.135575 0.160497
0.119227 0.138826 0.163797
0.133621 0.144744 0.168786
0.150073 0.151197 0.174113
0.166526 0.157649 0.179440
0.182979 0.164102 0.184768
0.199431 0.170554 0.190095
0.234160 0.175137 0.188597
0.278026 0.178786 0.183686
0.321892 0.182434 0.178775
0.365758 0.186083 0.173864
0.409624 0.189731 0.168953
0.452567 0.193640 0.163533
0.494587 0.197808 0.157603
0.536606 0.201976 0.151674
0.578626 0.206145 0.145744
0.620646 0.210313 0.139815
0.655625 0.215408 0.136277
0.676522 0.222356 0.137523
0.697419 0.229304 0.138769
0.718316 0.236252 0.140014
0.739213 0.243200 0.141260
0.758201 0.250742 0.143479
0.767645 0.261256 0.150567
0.777088 0.271770 0.157656
0.786532 0.282284 0.164744
0.795976 0.292798 0.171832
0.805420 0.303312 0.178920
0.103312 0.130182 0.156706
0.107348 0.133625 0.160170
0.111384 0.137068 0.163634
0.115420 0.140510 0.167098
0.119456 0.143953 0.170562
0.123491 0.147396 0.174026
0.137570 0.153926 0.179721
0.153656 0.161074 0.185862
0.169743 0.168221 0.192004
0.185830 0.175369 0.198145
0.201917 0.182516 0.204286
0.235145 0.187978 0.204139
0.276943 0.192596 0.200847
0.318742 0.197214 0.197555
0.360540 0.201832 0.194264
0.402339 0.206451 0.190972
0.445227 0.210762 0.185703
0.489204 0.214765 0.178456
0.533182 0.218769 0.171209
0.577159 0.222773 0.163963
0.621137 0.226777 0.156716
0.657762 0.231762 0.152199
0.679684 0.238710 0.153143
0.701605 0.245658 0.154087
0.723527 0.252605 0.155031
0.745449 0.259553 0.155974
0.765365 0.267173 0.158089
0.775257 0.278154 0.166055
0.785149 0.289135 0.174021
0.795041 0.300115 0.181988
0.804933 0.311096 0.189954
0.814825 0.322076 0.197920
0.107897 0.137792 0.166111
0.111869 0.141427 0.169740
0.115841 0.145062 0.173369
0.119812 0.148696 0.176997
0.123784 0.152331 0.180626
0.127756 0.155966 0.184255
0.141518 0.163107 0.190656
0.157239 0.170950 0.197611
0.172960 0.178793 0.204567
0.188681 0.186636 0.211522
0.204402 0.194479 0.218478
0.236129 0.200818 0.219681
0.275861 0.206406 0.218009
0.315592 0.211994 0.216336
0.355323 0.217582 0.214664
0.395054 0.223170 0.212991
0.437887 0.227884 0.207873
0.483822 0.231723 0.199309
0.529757 0.235562 0.190745
0.575693 0.239401 0.182181
0.621628 0.243240 0.173617
0.659900 0.248115 0.168121
0.682846 0.255063 0.168763
0.705792 0.262011 0.169405
0.728738 0.268959 0.170047
0.751684 0.275907 0.170689
0.772530 0.283605 0.172698
0.782870 0.295052 0.181542
0.793210 0.306499 0.190387
0.803550 0.317946 0.199232
0.813891 0.329393 0.208076
0.824231 0.340841 0.216921
0.112482 0.145402 0.175517
0.116389 0.149228 0.179310
0.120297 0.153055 0.183104
0.124205 0.156882 0.186897
0.128113 0.160709 0.190690
0.132020 0.164536 0.194484
0.145467 0.172289 0.201591
0.160822 0.180827 0.209360
0.176177 0.189365 0.217130
0.191532 0.197903 0.224900
0.206887 0.206441 0.232669
0.237114 0.213659 0.235224
0.274778 0.220217 0.235170
0.312442 0.226774 0.235117
0.350106 0.233332 0.235064
0.387769 0.239890 0.235010
0.430548 0.245006 0.230043
0.478440 0.248680 0.220162
0.526333 0.252354 0.210280
0.574226 0.256029 0.200399
0.622119 0.259703 0.190518
0.662037 0.264469 0.184043
0.686008 0.271417 0.184383
0.709979 0.278365 0.184723
0.733950 0.285313 0.185063
0.757920 0.292260 0.185403
0.779694 0.300036 0.187307
0.790483 0.311950 0.197030
0.801271 0.323863 0.206753
0.812060 0.335777 0.216476
0.822848 0.347691 0.226198
0.833637 0.359605 0.235921
0.117515 0.154382 0.186341
0.121423 0.158387 0.190299
0.125331 0.162392 0.194257
0.129239 0.166398 0.198215
0.133146 0.170403 0.202173
0.137054 0.174408 0.206131
0.150352 0.182709 0.213848
0.165529 0.191869 0.222318
0.180705 0.201030 0.230787
0.195882 0.210190 0.239257
0.211058 0.219350 0.247726
0.240232 0.227531 0.251654
0.276405 0.235223 0.253312
0.312578 0.242915 0.254969
0.348750 0.250607 0.256626
0.384923 0.258299 0.258284
0.427436 0.264124 0.254130
0.476289 0.268082 0.244167
0.525142 0.272040 0.234203
0.573996 0.275998 0.224239
0.622849 0.279956 0.214276
0.663801 0.284833 0.207497
0.688952 0.291548 0.207086
0.714103 0.298262 0.206676
0.739254 0.304977 0.206266
0.764405 0.311691 0.205856
0.787237 0.319308 0.207222
0.798479 0.331437 0.217471
0.809720 0.343566 0.227720
0.820961 0.355695 0.237969
0.832203 0.367823 0.248217
0.843444 0.379952 0.258466
0.122998 0.164733 0.198582
0.126970 0.168903 0.202705
0.130942 0.173073 0.206827
0.134913 0.177243 0.210950
0.138885 0.181413 0.215073
0.142857 0.185583 0.219196
0.156174 0.194368 0.227428
0.171359 0.204077 0.236483
0.186545 0.213787 0.245538
0.201730 0.223496 0.254593
0.216916 0.233205 0.263648
0.245483 0.242435 0.268973
0.280741 0.251426 0.272432
0.315999 0.260417 0.275892
0.351257 0.269408 0.279351
0.386515 0.278399 0.282811
0.428552 0.285239 0.280135
0.477369 0.289929 0.271324
0.526185 0.294619 0.262513
0.575002 0.299309 0.253702
0.623819 0.303999 0.244891
0.665192 0.309208 0.238481
0.691678 0.315456 0.236872
0.718165 0.321704 0.235264
0.744651 0.327952 0.233655
0.771138 0.334200 0.232047
0.795159 0.341422 0.232443
0.806858 0.353514 0.242866
0.818557 0.365606 0.253289
0.830256 0.377698 0.263711
0.841954 0.389791 0.274134
0.853653 0.401883 0.284556
0.128481 0.175084 0.210824
0.132517 0.179418 0.215111
0.136552 0.183753 0.219398
0.140588 0.188088 0.223686
0.144624 0.192422 0.227973
0.148660 0.196757 0.232260
0.161995 0.206028 0.241009
0.177190 0.216285 0.250649
0.192384 0.226543 0.260290
0.207579 0.236801 0.269930
0.222774 0.247059 0.279570
0.250734 0.257339 0.286292
0.285077 0.267628 0.291553
0.319420 0.277918 0.296815
0.353763 0.288208 0.302076
0.388106 0.298498 0.307338
0.429668 0.306354 0.306140
0.478448 0.311776 0.298481
0.527228 0.317198 0.290823
0.576008 0.322619 0.283165
0.624788 0.328041 0.275506
0.666582 0.333583 0.269465
0.694404 0.339364 0.266658
0.722226 0.345146 0.263851
0.750048 0.350927 0.261044
0.777871 0.356709 0.258237
0.803082 0.363536 0.257664
0.815238 0.375591 0.268261
0.827394 0.387647 0.278857
0.839550 0.399702 0.289454
0.851706 0.411758 0.300050
0.863862 0.423813 0.310646
0.133964 0.185435 0.223065
0.138063 0.189934 0.227517
0.142163 0.194433 0.231969
0.146263 0.198932 0.236421
0.150363 0.203432 0.240873
0.154463 0.207931 0.245325
0.167816 0.217687 0.254589
0.183020 0.228493 0.264815
0.198224 0.239300 0.275041
0.213428 0.250107 0.285267
0.228632 0.260914 0.295492
0.255985 0.272242 0.303610
0.289413 0.283831 0.310674
0.322842 0.295420 0.317738
0.356270 0.307009 0.324802
0.389698 0.318598 0.331865
0.430784 0.327469 0.332144
0.479527 0.333623 0.325639
0.528271 0.339776 0.319133
0.577014 0.345930 0.312627
0.625758 0.352083 0.306121
0.667973 0.357957 0.300449
0.697130 0.363272 0.296444
0.726288 0.368587 0.292439
0.755446 0.373902 0.288433
0.784603 0.379217 0.284428
0.811004 0.385650 0.282885
0.823617 0.397669 0.293655
0.836231 0.409687 0.304426
0.848844 0.421706 0.315196
0.861458 0.433725 0.325966
0.874071 0.445744 0.336736
0.139446 0.195786 0.235307
0.143610 0.200450 0.239923
0.147774 0.205113 0.244540
0.151938 0.209777 0.249157
0.156102 0.214441 0.253773
0.160265 0.219105 0.258390
0.173637 0.229346 0.268169
0.188850 0.240701 0.278980
0.204063 0.252057 0.289792
0.219276 0.263413 0.300603
0.234489 0.274768 0.311415
0.261236 0.287146 0.320929
0.293750 0.300034 0.329795
0.326263 0.312922 0.338661
0.358776 0.325810 0.347527
0.391290 0.338698 0.356393
0.431900 0.348584 0.358149
0.480607 0.355470 0.352796
0.529314 0.362355 0.347443
0.578021 0.369240 0.342090
0.626728 0.376126 0.336737
0.669363 0.382332 0.331433
0.699857 0.387181 0.326230
0.730350 0.392029 0.321026
0.760843 0.396877 0.315822
0.791336 0.401726 0.310619
0.818926 0.407763 0.308106
0.831997 0.419746 0.319050
0.845068 0.431728 0.329994
0.858139 0.443710 0.340938
0.871210 0.455693 0.351882
0.884281 0.467675 0.362826
0.145449 0.206719 0.247958
0.149735 0.211548 0.252751
0.154020 0.216377 0.257545
0.158306 0.221205 0.262338
0.162592 0.226034 0.267132
0.166878 0.230862 0.271925
0.180407 0.241555 0.282153
0.195785 0.253420 0.293468
0.211163 0.265285 0.304782
0.226540 0.277149 0.316097
0.241918 0.289014 0.327411
0.268222 0.302275 0.338055
0.299988 0.316233 0.348363
0.331754 0.330192 0.358671
0.363521 0.344150 0.368980
0.395287 0.358108 0.379288
0.435240 0.369042 0.382604
0.483380 0.376952 0.378928
0.531519 0.384862 0.375252
0.579659 0.392772 0.371576
0.627799 0.400682 0.367900
0.670540 0.407468 0.363413
0.702485 0.412005 0.357304
0.734430 0.416543 0.351195
0.766375 0.421080 0.345085
0.798319 0.425617 0.338976
0.827178 0.431350 0.335669
0.840609 0.443058 0.346372
0.854040 0.454766 0.357075
0.867471 0.466474 0.367778
0.880901 0.478181 0.378481
0.894332 0.489889 0.389184
0.152491 0.218819 0.261428
0.157015 0.223812 0.266423
0.161539 0.228806 0.271418
0.166062 0.233799 0.276413
0.170586 0.238792 0.281407
0.175110 0.243786 0.286402
0.189075 0.254863 0.296945
0.204928 0.267158 0.308598
0.220782 0.279453 0.320251
0.236635 0.291748 0.331904
0.252489 0.304043 0.343557
0.278676 0.317855 0.354796
0.310031 0.332427 0.365827
0.341386 0.346998 0.376858
0.372740 0.361569 0.387889
0.404095 0.376140 0.398920
0.443028 0.388186 0.403960
0.489539 0.397706 0.403010
0.536051 0.407226 0.402060
0.582562 0.416746 0.401110
0.629074 0.426266 0.400161
0.671290 0.434125 0.397384
0.704918 0.438662 0.390955
0.738546 0.443200 0.384525
0.772174 0.447737 0.378096
0.805802 0.452275 0.371666
0.836092 0.457882 0.367914
0.849687 0.468840 0.377547
0.863282 0.479798 0.387179
0.876878 0.490755 0.396812
0.890473 0.501713 0.406445
0.904069 0.512671 0.416078
0.159534 0.230919 0.274899
0.164295 0.236077 0.280095
0.169057 0.241235 0.285291
0.173818 0.246393 0.290487
0.178580 0.251551 0.295683
0.183341 0.256709 0.300879
0.197742 0.268172 0.311738
0.214072 0.280897 0.323729
0.230401 0.293622 0.335721
0.246730 0.306347 0.347712
0.263059 0.319072 0.359704
0.289131 0.333436 0.371537
0.320074 0.348620 0.383290
0.351017 0.363804 0.395044
0.381960 0.378988 0.406797
0.412903 0.394172 0.418551
0.450816 0.407330 0.425316
0.495699 0.418460 0.427092
0.540582 0.429590 0.428868
0.585465 0.440720 0.430645
0.630348 0.451850 0.432421
0.672041 0.460782 0.431355
0.707352 0.465320 0.424606
0.742663 0.469857 0.417856
0.777974 0.474394 0.411106
0.813285 0.478932 0.404356
0.845005 0.484414 0.400159
0.858765 0.494622 0.408721
0.872525 0.504829 0.417284
0.886285 0.515037 0.425846
0.900045 0.525245 0.434409
0.913805 0.535452 0.442971
0.166576 0.243019 0.288369
0.171575 0.248341 0.293766
0.176575 0.253664 0.299164
0.181574 0.258986 0.304561
0.186574 0.264309 0.309958
0.191573 0.269632 0.315356
0.206410 0.281481 0.326530
0.223215 0.294636 0.338860
0.240020 0.307791 0.351190
0.256825 0.320945 0.363520
0.273630 0.334100 0.375850
0.299585 0.349017 0.388277
0.330117 0.364814 0.400754
0.360648 0.380611 0.413230
0.391180 0.396408 0.425706
0.421711 0.412205 0.438183
0.458604 0.426473 0.446672
0.501859 0.439213 0.451174
0.545113 0.451953 0.455677
0.588368 0.464693 0.460179
0.631623 0.477434 0.464681
0.672791 0.487439 0.465326
0.709785 0.491977 0.458256
0.746780 0.496514 0.451187
0.783774 0.501052 0.444117
0.820768 0.505589 0.437047
0.853918 0.510946 0.432404
0.867843 0.520404 0.439896
0.881767 0.529861 0.447388
0.895692 0.539319 0.454881
0.909617 0.548776 0.462373
0.923542 0.558234 0.469865
0.173618 0.255118 0.301839
0.178856 0.260606 0.307438
0.184093 0.266093 0.313037
0.189330 0.271580 0.318635
0.194567 0.277067 0.324234
0.199805 0.282555 0.329832
0.215078 0.294790 0.341322
0.232358 0.308375 0.353991
0.249639 0.321959 0.366659
0.266920 0.335544 0.379328
0.284200 0.349129 0.391996
0.310040 0.364597 0.405018
0.340160 0.381007 0.418217
0.370279 0.397417 0.431416
0.400399 0.413827 0.444615
0.430519 0.430237 0.457814
0.466392 0.445617 0.468028
0.508018 0.459967 0.475256
0.549645 0.474317 0.482485
0.591271 0.488667 0.489713
0.632897 0.503017 0.496942
0.673541 0.514097 0.499297
0.712219 0.518634 0.491907
0.750896 0.523171 0.484517
0.789574 0.527709 0.477127
0.828252 0.532246 0.469737
0.862831 0.537479 0.464649
0.876921 0.546186 0.471071
0.891010 0.554893 0.477493
0.905099 0.563601 0.483915
0.919189 0.572308 0.490337
0.933278 0.581015 0.496758
0.181015 0.267242 0.315452
0.186536 0.272898 0.321224
0.192057 0.278555 0.326996
0.197578 0.284211 0.332769
0.203099 0.289868 0.338541
0.208619 0.295524 0.344313
0.224357 0.308127 0.356071
0.242137 0.322119 0.369026
0.259918 0.336111 0.381982
0.277699 0.350102 0.394937
0.295479 0.364094 0.407892
0.321239 0.380064 0.421425
0.350988 0.397023 0.435248
0.380737 0.413982 0.449070
0.410487 0.430941 0.462893
0.440236 0.447899 0.476715
0.475153 0.464254 0.488421
0.515238 0.480006 0.498010
0.555323 0.495757 0.507598
0.595408 0.511508 0.517187
0.635493 0.527260 0.526776
0.675501 0.539351 0.530747
0.715356 0.544123 0.523483
0.755210 0.548896 0.516220
0.795065 0.553668 0.508956
0.834920 0.558440 0.501693
0.870537 0.563745 0.496522
0.884966 0.571716 0.501814
0.899396 0.579687 0.507106
0.913825 0.587658 0.512398
0.928254 0.595629 0.517690
0.942684 0.603600 0.522982
0.190185 0.279483 0.329773
0.196218 0.285332 0.335582
0.202251 0.291180 0.341391
0.208284 0.297029 0.347200
0.214317 0.302878 0.353009
0.220350 0.308726 0.358818
0.236691 0.321605 0.370604
0.255094 0.335889 0.383587
0.273497 0.350174 0.396570
0.291899 0.364459 0.409552
0.310302 0.378743 0.422535
0.336159 0.394963 0.436162
0.365744 0.412151 0.450113
0.395328 0.429338 0.464064
0.424913 0.446526 0.478014
0.454498 0.463713 0.491965
0.488779 0.480361 0.504000
0.527757 0.496469 0.514119
0.566735 0.512577 0.524238
0.605713 0.528685 0.534358
0.644691 0.544793 0.544477
0.683510 0.557592 0.549589
