filter/Red and Blue/lut/Spotlight 01.cube
# LUT by SparkleStock. Enhanced with VOXCOLOR algorithms.
LUT_3D_SIZE 32
0.093773 0.082051 0.105495
0.100815 0.082240 0.106865
0.107858 0.082429 0.108236
0.114900 0.082618 0.109607
0.121943 0.082808 0.110977
0.128985 0.082997 0.112348
0.150837 0.084525 0.113128
0.175651 0.086321 0.113789
0.200465 0.088117 0.114451
0.225279 0.089913 0.115113
0.250093 0.091709 0.115775
0.280452 0.095049 0.116562
0.313585 0.099161 0.117413
0.346717 0.103273 0.118264
0.379850 0.107385 0.119115
0.412982 0.111497 0.119965
0.443562 0.116271 0.122021
0.471590 0.121706 0.125283
0.499618 0.127142 0.128544
0.527646 0.132577 0.131805
0.555674 0.138013 0.135066
0.579857 0.143700 0.139163
0.596353 0.149892 0.144929
0.612848 0.156083 0.150695
0.629343 0.162275 0.156461
0.645839 0.168467 0.162228
0.661137 0.175092 0.168459
0.670448 0.183883 0.177014
0.679759 0.192674 0.185569
0.689070 0.201465 0.194123
0.698381 0.210256 0.202678
0.707692 0.219048 0.211233
0.095144 0.083942 0.108472
0.101564 0.084424 0.110026
0.107984 0.084905 0.111579
0.114405 0.085387 0.113133
0.120825 0.085869 0.114687
0.127245 0.086351 0.116240
0.149154 0.087874 0.117119
0.174160 0.089606 0.117863
0.199166 0.091339 0.118607
0.224172 0.093071 0.119351
0.249178 0.094803 0.120095
0.279937 0.098201 0.120911
0.313572 0.102431 0.121761
0.347208 0.106662 0.122612
0.380844 0.110893 0.123463
0.414479 0.115124 0.124314
0.445480 0.120021 0.126370
0.473847 0.125585 0.129631
0.502213 0.131148 0.132892
0.530579 0.136712 0.136153
0.558946 0.142275 0.139415
0.583392 0.148097 0.143529
0.599997 0.154435 0.149350
0.616602 0.160773 0.155172
0.633207 0.167111 0.160993
0.649812 0.173449 0.166814
0.665189 0.180176 0.173082
0.674427 0.188849 0.181582
0.683665 0.197521 0.190082
0.692903 0.206193 0.198582
0.702141 0.214865 0.207082
0.711379 0.223538 0.215582
0.096514 0.085832 0.111450
0.102313 0.086607 0.113186
0.108111 0.087382 0.114923
0.113909 0.088156 0.116660
0.119707 0.088931 0.118396
0.125506 0.089705 0.120133
0.147471 0.091224 0.121111
0.172669 0.092892 0.121937
0.197867 0.094560 0.122764
0.223065 0.096228 0.123590
0.248263 0.097896 0.124416
0.279421 0.101352 0.125259
0.313560 0.105702 0.126110
0.347699 0.110052 0.126960
0.381838 0.114402 0.127811
0.415976 0.118751 0.128662
0.447398 0.123772 0.130718
0.476103 0.129464 0.133979
0.504808 0.135155 0.137241
0.533513 0.140847 0.140502
0.562218 0.146538 0.143763
0.586926 0.152494 0.147896
0.603641 0.158979 0.153772
0.620356 0.165463 0.159648
0.637070 0.171947 0.165524
0.653785 0.178432 0.171400
0.669242 0.185261 0.177704
0.678407 0.193814 0.186149
0.687571 0.202368 0.194595
0.696736 0.210921 0.203040
0.705901 0.219475 0.211485
0.715066 0.228028 0.219930
0.097885 0.087723 0.114428
0.103061 0.088790 0.116347
0.108237 0.089858 0.118267
0.113414 0.090925 0.120186
0.118590 0.091992 0.122106
0.123766 0.093059 0.124025
0.145787 0.094574 0.125102
0.171178 0.096178 0.126011
0.196568 0.097782 0.126920
0.221958 0.099386 0.127829
0.247348 0.100990 0.128737
0.278906 0.104503 0.129607
0.313548 0.108972 0.130458
0.348190 0.113441 0.131309
0.382832 0.117910 0.132160
0.417474 0.122379 0.133010
0.449316 0.127523 0.135066
0.478360 0.133342 0.138328
0.507403 0.139162 0.141589
0.536446 0.144982 0.144850
0.565489 0.150801 0.148111
0.590460 0.156891 0.152263
0.607285 0.163522 0.158193
0.624109 0.170153 0.164124
0.640934 0.176784 0.170055
0.657759 0.183414 0.175986
0.673294 0.190346 0.182327
0.682386 0.198780 0.190717
0.691478 0.207215 0.199108
0.700569 0.215649 0.207498
0.709661 0.224084 0.215888
0.718752 0.232518 0.224278
0.099256 0.089614 0.117405
0.103810 0.090974 0.119508
0.108364 0.092334 0.121610
0.112918 0.093694 0.123713
0.117472 0.095054 0.125815
0.122026 0.096414 0.127918
0.144104 0.097924 0.129094
0.169686 0.099463 0.130085
0.195269 0.101003 0.131076
0.220851 0.102543 0.132067
0.246433 0.104083 0.133058
0.278391 0.107655 0.133956
0.313536 0.112243 0.134806
0.348681 0.116830 0.135657
0.383826 0.121418 0.136508
0.418971 0.126006 0.137359
0.451234 0.131274 0.139415
0.480616 0.137221 0.142676
0.509998 0.143169 0.145937
0.539380 0.149117 0.149198
0.568761 0.155064 0.152460
0.593994 0.161289 0.156629
0.610929 0.168066 0.162615
0.627863 0.174843 0.168601
0.644797 0.181620 0.174587
0.661732 0.188397 0.180572
0.677347 0.195431 0.186950
0.686365 0.203746 0.195285
0.695384 0.212062 0.203621
0.704402 0.220377 0.211956
0.713420 0.228693 0.220291
0.722439 0.237008 0.228627
0.100626 0.091504 0.120383
0.104558 0.093157 0.122668
0.108490 0.094810 0.124954
0.112423 0.096462 0.127239
0.116355 0.098115 0.129525
0.120287 0.099768 0.131810
0.142421 0.101273 0.133086
0.168195 0.102749 0.134159
0.193970 0.104225 0.135232
0.219744 0.105701 0.136306
0.245519 0.107177 0.137379
0.277875 0.110806 0.138304
0.313524 0.115513 0.139155
0.349172 0.120220 0.140006
0.384820 0.124926 0.140856
0.420468 0.129633 0.141707
0.453152 0.135024 0.143763
0.482873 0.141100 0.147024
0.512593 0.147176 0.150286
0.542313 0.153252 0.153547
0.572033 0.159327 0.156808
0.597528 0.165686 0.160996
0.614572 0.172609 0.167037
0.631617 0.179533 0.173077
0.648661 0.186456 0.179118
0.665705 0.193380 0.185159
0.681399 0.200515 0.191573
0.690345 0.208712 0.199853
0.699290 0.216909 0.208134
0.708235 0.225105 0.216414
0.717180 0.233302 0.224694
0.726125 0.241498 0.232975
0.103572 0.095443 0.126157
0.107439 0.097312 0.128679
0.111306 0.099181 0.131201
0.115172 0.101051 0.133722
0.119039 0.102920 0.136244
0.122905 0.104789 0.138766
0.143683 0.106766 0.140727
0.167843 0.108765 0.142577
0.192002 0.110764 0.144426
0.216162 0.112763 0.146276
0.240322 0.114762 0.148125
0.272781 0.118548 0.149222
0.309390 0.123229 0.149944
0.345998 0.127910 0.150665
0.382607 0.132591 0.151386
0.419216 0.137271 0.152107
0.452866 0.142752 0.154026
0.483557 0.149032 0.157142
0.514249 0.155312 0.160259
0.544940 0.161592 0.163375
0.575632 0.167872 0.166491
0.601966 0.174464 0.170624
0.619585 0.181678 0.176788
0.637204 0.188893 0.182952
0.654823 0.196108 0.189116
0.672442 0.203322 0.195281
0.688650 0.210747 0.201834
0.697804 0.219221 0.210334
0.706958 0.227695 0.218834
0.716112 0.236169 0.227334
0.725266 0.244643 0.235834
0.734420 0.253117 0.244334
0.106834 0.099791 0.132490
0.110746 0.101862 0.135259
0.114658 0.103932 0.138028
0.118571 0.106003 0.140797
0.122483 0.108073 0.143566
0.126395 0.110144 0.146334
0.145534 0.112688 0.149099
0.167718 0.115327 0.151864
0.189901 0.117967 0.154628
0.212085 0.120606 0.157392
0.234269 0.123245 0.160156
0.266771 0.127209 0.161455
0.304432 0.131834 0.162020
0.342092 0.136460 0.162586
0.379753 0.141086 0.163152
0.417414 0.145712 0.163717
0.452139 0.151275 0.165471
0.483928 0.157774 0.168414
0.515717 0.164274 0.171357
0.547506 0.170773 0.174299
0.579296 0.177273 0.177242
0.606584 0.184118 0.181304
0.624871 0.191653 0.187606
0.643158 0.199188 0.193907
0.661444 0.206722 0.200208
0.679731 0.214257 0.206510
0.696540 0.222008 0.213223
0.705960 0.230839 0.221998
0.715379 0.239670 0.230772
0.724798 0.248501 0.239547
0.734218 0.257332 0.248321
0.743637 0.266163 0.257096
0.110095 0.104140 0.138824
0.114053 0.106411 0.141840
0.118011 0.108683 0.144855
0.121969 0.110955 0.147871
0.125927 0.113227 0.150887
0.129885 0.115498 0.153903
0.147385 0.118610 0.157471
0.167593 0.121889 0.161150
0.187800 0.125169 0.164829
0.208008 0.128449 0.168508
0.228216 0.131728 0.172187
0.260761 0.135869 0.173687
0.299473 0.140440 0.174097
0.338186 0.145010 0.174507
0.376899 0.149581 0.174918
0.415612 0.154152 0.175328
0.451411 0.159797 0.176917
0.484298 0.166517 0.179686
0.517185 0.173236 0.182455
0.550072 0.179955 0.185223
0.582959 0.186674 0.187992
0.611202 0.193772 0.191984
0.630157 0.201627 0.198423
0.649111 0.209482 0.204862
0.668066 0.217337 0.211300
0.687021 0.225192 0.217739
0.704430 0.233269 0.224613
0.714115 0.242457 0.233662
0.723800 0.251645 0.242710
0.733484 0.260832 0.251759
0.743169 0.270020 0.260808
0.752854 0.279208 0.269857
0.113356 0.108488 0.145157
0.117360 0.110961 0.148420
0.121364 0.113434 0.151683
0.125367 0.115907 0.154946
0.129371 0.118380 0.158208
0.133375 0.120853 0.161471
0.149236 0.124532 0.165843
0.167467 0.128452 0.170437
0.185699 0.132372 0.175031
0.203931 0.136291 0.179625
0.222163 0.140211 0.184218
0.254750 0.144529 0.185919
0.294515 0.149045 0.186174
0.334280 0.153561 0.186429
0.374045 0.158077 0.186683
0.413809 0.162593 0.186938
0.450684 0.168320 0.188363
0.484669 0.175259 0.190958
0.518654 0.182198 0.193553
0.552638 0.189137 0.196148
0.586623 0.196075 0.198743
0.615820 0.203426 0.202665
0.635443 0.211601 0.209240
0.655065 0.219777 0.215816
0.674688 0.227952 0.222392
0.694310 0.236127 0.228968
0.712320 0.244531 0.236002
0.722270 0.254075 0.245325
0.732220 0.263619 0.254649
0.742170 0.273164 0.263972
0.752120 0.282708 0.273295
0.762070 0.292253 0.282618
0.116617 0.112836 0.151491
0.120667 0.115511 0.155001
0.124716 0.118185 0.158510
0.128766 0.120859 0.162020
0.132815 0.123533 0.165530
0.136865 0.126208 0.169040
0.151087 0.130453 0.174215
0.167342 0.135014 0.179724
0.183598 0.139574 0.185232
0.199854 0.144134 0.190741
0.216110 0.148695 0.196250
0.248740 0.153189 0.198152
0.289557 0.157650 0.198251
0.330374 0.162111 0.198350
0.371190 0.166572 0.198449
0.412007 0.171033 0.198548
0.449957 0.176843 0.199808
0.485039 0.184001 0.202230
0.520122 0.191160 0.204651
0.555204 0.198318 0.207072
0.590287 0.205476 0.209493
0.620439 0.213080 0.213345
0.640729 0.221576 0.220058
0.661019 0.230071 0.226771
0.681309 0.238567 0.233484
0.701599 0.247062 0.240197
0.720211 0.255792 0.247391
0.730426 0.265693 0.256989
0.740641 0.275594 0.266587
0.750856 0.285495 0.276184
0.761072 0.295396 0.285782
0.771287 0.305298 0.295380
0.120982 0.118823 0.160124
0.125089 0.121680 0.163790
0.129196 0.124538 0.167455
0.133304 0.127395 0.171120
0.137411 0.130252 0.174786
0.141519 0.133109 0.178451
0.155125 0.138006 0.184379
0.170631 0.143310 0.190760
0.186136 0.148614 0.197140
0.201642 0.153919 0.203521
0.217148 0.159223 0.209902
0.248940 0.164103 0.212459
0.288876 0.168772 0.213104
0.328811 0.173440 0.213749
0.368747 0.178109 0.214394
0.408682 0.182777 0.215039
0.446932 0.188758 0.216378
0.483497 0.196050 0.218412
0.520061 0.203343 0.220446
0.556626 0.210635 0.222480
0.593190 0.217928 0.224514
0.624606 0.225706 0.228074
0.645722 0.234454 0.234686
0.666839 0.243203 0.241299
0.687955 0.251951 0.247911
0.709072 0.260700 0.254523
0.728430 0.269704 0.261684
0.738996 0.279986 0.271587
0.749562 0.290268 0.281490
0.760128 0.300551 0.291392
0.770694 0.310833 0.301295
0.781260 0.321115 0.311198
0.125897 0.125629 0.169908
0.130069 0.128660 0.173683
0.134240 0.131691 0.177458
0.138411 0.134722 0.181233
0.142583 0.137753 0.185008
0.146754 0.140784 0.188784
0.160257 0.146373 0.195439
0.175625 0.152473 0.202670
0.190994 0.158573 0.209902
0.206363 0.164674 0.217133
0.221731 0.170774 0.224365
0.252246 0.176145 0.227803
0.290334 0.181152 0.229344
0.328421 0.186159 0.230886
0.366509 0.191166 0.232427
0.404596 0.196173 0.233969
0.442759 0.202369 0.235509
0.480998 0.209753 0.237049
0.519237 0.217136 0.238589
0.557475 0.224520 0.240129
0.595714 0.231904 0.241669
0.628547 0.239816 0.244827
0.650569 0.248784 0.251220
0.672591 0.257752 0.257612
0.694613 0.266721 0.264005
0.716636 0.275689 0.270398
0.736814 0.284941 0.277430
0.747773 0.295617 0.287652
0.758733 0.306293 0.297875
0.769692 0.316968 0.308098
0.780651 0.327644 0.318321
0.791611 0.338320 0.328544
0.130813 0.132435 0.179692
0.135048 0.135640 0.183577
0.139284 0.138845 0.187462
0.143519 0.142050 0.191347
0.147755 0.145255 0.195231
0.151990 0.148460 0.199116
0.165389 0.154740 0.206499
0.180620 0.161636 0.214581
0.195852 0.168532 0.222663
0.211083 0.175429 0.230746
0.226314 0.182325 0.238828
0.255551 0.188187 0.243147
0.291791 0.193532 0.245585
0.328031 0.198878 0.248023
0.364271 0.204223 0.250461
0.400510 0.209569 0.252899
0.438586 0.215979 0.254641
0.478499 0.223455 0.255687
0.518412 0.230930 0.256733
0.558324 0.238406 0.257779
0.598237 0.245881 0.258825
0.632488 0.253927 0.261580
0.655416 0.263115 0.267753
0.678344 0.272302 0.273926
0.701272 0.281490 0.280100
0.724200 0.290678 0.286273
0.745198 0.300179 0.293175
0.756551 0.311248 0.303718
0.767904 0.322317 0.314261
0.779256 0.333386 0.324804
0.790609 0.344455 0.335347
0.801961 0.355524 0.345890
0.135728 0.139241 0.189476
0.140028 0.142620 0.193470
0.144327 0.145999 0.197465
0.148627 0.149377 0.201460
0.152926 0.152756 0.205454
0.157226 0.156135 0.209449
0.170521 0.163108 0.217559
0.185615 0.170800 0.226492
0.200709 0.178492 0.235425
0.215803 0.186184 0.244358
0.230898 0.193875 0.253291
0.258857 0.200229 0.258491
0.293249 0.205913 0.261826
0.327640 0.211597 0.265160
0.362032 0.217281 0.268495
0.396424 0.222964 0.271829
0.434413 0.229590 0.273772
0.476000 0.237157 0.274324
0.517587 0.244724 0.274876
0.559174 0.252291 0.275428
0.600760 0.259858 0.275980
0.636429 0.268038 0.278333
0.660263 0.277445 0.284286
0.684096 0.286852 0.290240
0.707930 0.296259 0.296194
0.731763 0.305667 0.302148
0.753582 0.315416 0.308920
0.765328 0.326879 0.319783
0.777074 0.338341 0.330646
0.788820 0.349804 0.341510
0.800566 0.361266 0.352373
0.812312 0.372728 0.363236
0.140644 0.146048 0.199260
0.145007 0.149600 0.203364
0.149371 0.153152 0.207468
0.153734 0.156705 0.211573
0.158098 0.160257 0.215677
0.162462 0.163810 0.219781
0.175653 0.171475 0.228619
0.190610 0.179963 0.238402
0.205567 0.188451 0.248186
0.220524 0.196938 0.257970
0.235481 0.205426 0.267754
0.262162 0.212270 0.273836
0.294706 0.218293 0.278067
0.327250 0.224315 0.282298
0.359794 0.230338 0.286528
0.392338 0.236360 0.290759
0.430240 0.243201 0.292904
0.473501 0.250859 0.292962
0.516762 0.258517 0.293020
0.560023 0.266176 0.293078
0.603284 0.273834 0.293136
0.640371 0.282149 0.295086
0.665110 0.291775 0.300820
0.689849 0.301402 0.306554
0.714588 0.311029 0.312288
0.739327 0.320656 0.318023
0.761967 0.330654 0.324665
0.774106 0.342510 0.335849
0.786245 0.354365 0.347032
0.798385 0.366221 0.358215
0.810524 0.378077 0.369399
0.822663 0.389933 0.380582
0.146457 0.154012 0.210083
0.150917 0.157761 0.214325
0.155376 0.161510 0.218566
0.159836 0.165259 0.222808
0.164296 0.169008 0.227050
0.168755 0.172757 0.231291
0.181947 0.181065 0.240738
0.196886 0.190285 0.251226
0.211825 0.199504 0.261715
0.226763 0.208724 0.272203
0.241702 0.217944 0.282691
0.267570 0.225648 0.289861
0.298901 0.232594 0.295373
0.330233 0.239541 0.300885
0.361565 0.246487 0.306396
0.392897 0.253433 0.311908
0.430529 0.260701 0.314567
0.474463 0.268291 0.314373
0.518396 0.275881 0.314180
0.562329 0.283471 0.313986
0.606262 0.291061 0.313792
0.644128 0.299340 0.315416
0.669860 0.308999 0.320675
0.695592 0.318657 0.325933
0.721323 0.328316 0.331192
0.747055 0.337975 0.336451
0.770580 0.348043 0.342715
0.783072 0.360154 0.354008
0.795563 0.372266 0.365301
0.808055 0.384378 0.376594
0.820546 0.396490 0.387888
0.833038 0.408602 0.399181
0.153169 0.163134 0.221947
0.157756 0.167102 0.226353
0.162344 0.171071 0.230759
0.166932 0.175040 0.235165
0.171520 0.179008 0.239572
0.176107 0.182977 0.243978
0.189405 0.191878 0.253917
0.204444 0.201766 0.264964
0.219483 0.211653 0.276010
0.234522 0.221540 0.287056
0.249562 0.231428 0.298102
0.275078 0.240361 0.306569
0.305834 0.248817 0.313745
0.336590 0.257272 0.320922
0.367345 0.265728 0.328098
0.398101 0.274184 0.335275
0.435280 0.282092 0.338762
0.478884 0.289454 0.338559
0.522488 0.296815 0.338356
0.566092 0.304176 0.338154
0.609696 0.311537 0.337951
0.647702 0.319612 0.339324
0.674513 0.329115 0.343851
0.701324 0.338618 0.348378
0.728136 0.348122 0.352905
0.754947 0.357625 0.357431
0.779423 0.367583 0.363069
0.792226 0.379813 0.374262
0.805028 0.392044 0.385454
0.817831 0.404275 0.396647
0.830634 0.416506 0.407839
0.843436 0.428737 0.419032
0.159880 0.172256 0.233810
0.164596 0.176444 0.238381
0.169312 0.180632 0.242952
0.174028 0.184820 0.247523
0.178743 0.189009 0.252094
0.183459 0.193197 0.256665
0.196862 0.202691 0.267097
0.212002 0.213246 0.278701
0.227142 0.223802 0.290305
0.242281 0.234357 0.301909
0.257421 0.244912 0.313513
0.282587 0.255074 0.323276
0.312767 0.265039 0.332117
0.342946 0.275004 0.340959
0.373125 0.284969 0.349800
0.403304 0.294935 0.358642
0.440031 0.303483 0.362957
0.483306 0.310616 0.362745
0.526580 0.317748 0.362533
0.569855 0.324881 0.362321
0.613129 0.332013 0.362109
0.651276 0.339884 0.363233
0.679166 0.349232 0.367028
0.707057 0.358579 0.370823
0.734948 0.367927 0.374617
0.762838 0.377275 0.378412
0.788266 0.387123 0.383423
0.801380 0.399472 0.394515
0.814493 0.411822 0.405607
0.827607 0.424172 0.416699
0.840721 0.436522 0.427791
0.853834 0.448872 0.438883
0.166592 0.181378 0.245673
0.171436 0.185786 0.250409
0.176280 0.190193 0.255145
0.181123 0.194601 0.259880
0.185967 0.199009 0.264616
0.190811 0.203417 0.269351
0.204319 0.213504 0.280276
0.219559 0.224727 0.292438
0.234800 0.235950 0.304600
0.250040 0.247173 0.316763
0.265281 0.258396 0.328925
0.290096 0.269787 0.339983
0.319699 0.281262 0.350490
0.349302 0.292736 0.360996
0.378905 0.304211 0.371503
0.408508 0.315685 0.382009
0.444782 0.324875 0.387152
0.487727 0.331778 0.386931
0.530672 0.338682 0.386710
0.573617 0.345586 0.386488
0.616563 0.352489 0.386267
0.654850 0.360156 0.387141
0.683820 0.369348 0.390204
0.712790 0.378540 0.393267
0.741760 0.387732 0.396330
0.770730 0.396924 0.399393
0.797109 0.406663 0.403778
0.810534 0.419131 0.414769
0.823959 0.431600 0.425760
0.837383 0.444069 0.436752
0.850808 0.456538 0.447743
0.864233 0.469006 0.458734
0.173303 0.190500 0.257537
0.178275 0.195127 0.262437
0.183247 0.199755 0.267337
0.188219 0.204382 0.272238
0.193191 0.209009 0.277138
0.198163 0.213637 0.282038
0.211776 0.224317 0.293455
0.227117 0.236208 0.306175
0.242458 0.248099 0.318896
0.257799 0.259989 0.331616
0.273141 0.271880 0.344336
0.297605 0.284500 0.356690
0.326632 0.297484 0.368862
0.355658 0.310468 0.381033
0.384685 0.323452 0.393205
0.413712 0.336436 0.405376
0.449533 0.346266 0.411347
0.492149 0.352941 0.411116
0.534764 0.359615 0.410886
0.577380 0.366290 0.410656
0.619996 0.372965 0.410426
0.658423 0.380428 0.411049
0.688473 0.389464 0.413380
0.718522 0.398501 0.415712
0.748572 0.407538 0.418043
0.778622 0.416574 0.420374
0.805952 0.426203 0.424132
0.819688 0.438790 0.435023
0.833424 0.451378 0.445913
0.847159 0.463966 0.456804
0.860895 0.476553 0.467695
0.874631 0.489141 0.478585
0.180834 0.200362 0.269810
0.185940 0.205206 0.274893
0.191046 0.210050 0.279976
0.196153 0.214894 0.285059
0.201259 0.219738 0.290143
0.206365 0.224582 0.295226
0.220163 0.235849 0.307123
0.235699 0.248402 0.320383
0.251235 0.260955 0.333643
0.266772 0.273507 0.346903
0.282308 0.286060 0.360163
0.306521 0.299754 0.373586
0.335071 0.314018 0.387090
0.363622 0.328283 0.400594
0.392173 0.342548 0.414098
0.420724 0.356813 0.427601
0.455995 0.367472 0.434591
0.497986 0.374525 0.435065
0.539976 0.381578 0.435539
0.581967 0.388631 0.436013
0.623958 0.395684 0.436487
0.662318 0.403273 0.437262
0.693416 0.411935 0.438639
0.724515 0.420596 0.440016
0.755613 0.429258 0.441393
0.786712 0.437920 0.442769
0.814951 0.447217 0.445673
0.828891 0.459695 0.456213
0.842831 0.472173 0.466753
0.856771 0.484651 0.477293
0.870711 0.497129 0.487833
0.884651 0.509607 0.498373
0.190004 0.211706 0.282902
0.195256 0.216760 0.288205
0.200508 0.221814 0.293508
0.205761 0.226869 0.298810
0.211013 0.231923 0.304113
0.216266 0.236977 0.309416
0.230408 0.248821 0.321769
0.246329 0.262023 0.335532
0.262249 0.275225 0.349295
0.278170 0.288427 0.363058
0.294091 0.301629 0.376822
0.318248 0.316089 0.390857
0.346525 0.331177 0.405029
0.374801 0.346265 0.419201
0.403078 0.361353 0.433372
0.431354 0.376441 0.447544
0.465879 0.388308 0.455933
0.506653 0.396952 0.458538
0.547427 0.405597 0.461144
0.588201 0.414242 0.463750
0.628975 0.422887 0.466355
0.666854 0.431266 0.468085
0.698940 0.439113 0.468062
0.731027 0.446961 0.468039
0.763113 0.454808 0.468016
0.795200 0.462656 0.467993
0.824260 0.471180 0.469589
0.838191 0.483091 0.479278
0.852122 0.495002 0.488968
0.866053 0.506912 0.498657
0.879984 0.518823 0.508346
0.893915 0.530734 0.518035
0.199173 0.223049 0.295994
0.204572 0.228314 0.301517
0.209971 0.233579 0.307039
0.215369 0.238843 0.312561
0.220768 0.244108 0.318084
0.226167 0.249373 0.323606
0.240654 0.261793 0.336415
0.256959 0.275645 0.350681
0.273264 0.289496 0.364947
0.289568 0.303348 0.379214
0.305873 0.317199 0.393480
0.329976 0.332424 0.408128
0.357978 0.348336 0.422968
0.385980 0.364247 0.437808
0.413982 0.380158 0.452647
0.441984 0.396070 0.467487
0.475764 0.409144 0.477275
0.515321 0.419380 0.482012
0.554878 0.429617 0.486749
0.594436 0.439853 0.491486
0.633993 0.450090 0.496224
0.671390 0.459259 0.498907
0.704464 0.466292 0.497485
0.737539 0.473325 0.496062
0.770613 0.480359 0.494640
0.803688 0.487392 0.493217
0.833570 0.495144 0.493505
0.847492 0.506487 0.502344
0.861413 0.517831 0.511182
0.875335 0.529174 0.520020
0.889257 0.540518 0.528859
0.903179 0.551861 0.537697
0.208342 0.234393 0.309087
0.213887 0.239868 0.314828
0.219433 0.245343 0.320570
0.224978 0.250818 0.326312
0.230523 0.256293 0.332054
0.236068 0.261768 0.337796
0.250900 0.274765 0.351061
0.267589 0.289266 0.365830
0.284278 0.303767 0.380600
0.300967 0.318268 0.395369
0.317656 0.332769 0.410139
0.341704 0.348759 0.425400
0.369431 0.365494 0.440907
0.397159 0.382229 0.456415
0.424886 0.398963 0.471922
0.452614 0.415698 0.487429
0.485648 0.429980 0.498617
0.523989 0.441808 0.505486
0.562329 0.453636 0.512354
0.600670 0.465465 0.519223
0.639011 0.477293 0.526092
0.675925 0.487252 0.529730
0.709988 0.493471 0.526908
0.744050 0.499690 0.524086
0.778113 0.505909 0.521264
0.812175 0.512128 0.518441
0.842880 0.519107 0.517421
0.856792 0.529883 0.525409
0.870705 0.540659 0.533396
0.884617 0.551436 0.541384
0.898530 0.562212 0.549372
0.912442 0.572988 0.557359
0.217512 0.245736 0.322179
0.223203 0.251422 0.328140
0.228895 0.257107 0.334102
0.234586 0.262793 0.340063
0.240278 0.268478 0.346025
0.245969 0.274164 0.351986
0.261146 0.287737 0.365707
0.278219 0.302887 0.380979
0.295292 0.318038 0.396252
0.312365 0.333188 0.411524
0.329438 0.348339 0.426797
0.353431 0.365095 0.442671
0.380885 0.382653 0.458846
0.408338 0.400211 0.475022
0.435791 0.417769 0.491197
0.463244 0.435327 0.507372
0.495532 0.450816 0.519959
0.532656 0.464236 0.528960
0.569780 0.477656 0.537960
0.606904 0.491076 0.546960
0.644028 0.504496 0.555960
0.680461 0.515244 0.560553
0.715512 0.520649 0.556331
0.750562 0.526054 0.552109
0.785613 0.531459 0.547887
0.820663 0.536864 0.543665
0.852189 0.543070 0.541337
0.866093 0.553279 0.548474
0.879996 0.563488 0.555611
0.893899 0.573697 0.562748
0.907803 0.583906 0.569885
0.921706 0.594116 0.577022
0.227098 0.257300 0.335460
0.232964 0.263205 0.341632
0.238829 0.269110 0.347804
0.244694 0.275015 0.353976
0.250560 0.280920 0.360148
0.256425 0.286826 0.366319
0.271933 0.300945 0.380454
0.289369 0.316707 0.396181
0.306805 0.332469 0.411908
0.324241 0.348231 0.427635
0.341677 0.363993 0.443361
0.365604 0.381437 0.459756
0.392777 0.399722 0.476485
0.419949 0.418007 0.493213
0.447122 0.436293 0.509942
0.474294 0.454578 0.526671
0.505859 0.471124 0.540451
0.541815 0.485930 0.551284
0.577771 0.500736 0.562117
0.613727 0.515542 0.572949
0.649683 0.530348 0.583782
0.685551 0.541852 0.589307
0.721244 0.546754 0.584216
0.756936 0.551656 0.579125
0.792629 0.556558 0.574034
0.828321 0.561459 0.568944
0.860400 0.567150 0.565730
0.874415 0.576784 0.571902
0.888430 0.586419 0.578074
0.902444 0.596053 0.584245
0.916459 0.605687 0.590417
0.930474 0.615322 0.596589
0.238773 0.269967 0.349687
0.244949 0.276138 0.356023
0.251126 0.282308 0.362360
0.257302 0.288478 0.368696
0.263478 0.294649 0.375033
0.269655 0.300819 0.381369
0.285428 0.315333 0.395707
0.303120 0.331516 0.411644
0.320812 0.347698 0.427581
0.338504 0.363881 0.443518
0.356196 0.380064 0.459456
0.380001 0.397813 0.475908
0.406863 0.416345 0.492619
0.433725 0.434878 0.509329
0.460586 0.453410 0.526039
0.487448 0.471942 0.542750
0.518394 0.488790 0.556690
0.553427 0.503953 0.567862
0.588459 0.519115 0.579033
0.623491 0.534278 0.590204
0.658523 0.549441 0.601375
0.693413 0.561534 0.607720
