filter/Red and Blue/lut/Spotlight 02_S.cube
# LUT by SparkleStock. Enhanced with VOXCOLOR algorithms.
LUT_3D_SIZE 8
DOMAIN_MIN 0.000000 0.000000 0.000000
DOMAIN_MAX 0.903226 0.903226 0.903226
0.054701 0.070330 0.168254
0.078711 0.070897 0.171279
0.157359 0.069455 0.165599
0.284344 0.068605 0.153421
0.443413 0.071606 0.138698
0.573863 0.087676 0.134728
0.644444 0.116507 0.143991
0.688204 0.151475 0.160613
0.059805 0.084131 0.176383
0.079864 0.096847 0.178384
0.161507 0.103199 0.166081
0.293370 0.107374 0.146133
0.456079 0.113083 0.126214
0.591067 0.125201 0.123707
0.664844 0.146665 0.140168
0.705902 0.174930 0.166083
0.069195 0.110119 0.196565
0.087790 0.129073 0.200341
0.160669 0.153981 0.188694
0.288555 0.173332 0.165909
0.458664 0.181477 0.139511
0.604306 0.189643 0.134736
0.687569 0.203654 0.156129
0.732754 0.225787 0.191672
0.082792 0.146402 0.228564
0.100704 0.167455 0.236059
0.163058 0.208024 0.232487
0.281827 0.244466 0.215067
0.452573 0.262017 0.186921
0.613645 0.266536 0.174742
0.709511 0.274074 0.196081
0.763208 0.292162 0.237339
0.100611 0.191067 0.270983
0.117937 0.211809 0.283163
0.174691 0.256940 0.294007
0.282538 0.306209 0.292175
0.441877 0.342465 0.272789
0.620037 0.345502 0.249358
0.729150 0.348539 0.263180
0.793461 0.365269 0.302624
0.124054 0.242680 0.319193
0.143868 0.262982 0.335032
0.199274 0.306742 0.361354
0.298218 0.361207 0.386210
0.443267 0.411861 0.397580
0.628014 0.425583 0.371221
0.749690 0.427962 0.365039
0.823954 0.443984 0.389627
0.155847 0.295081 0.368506
0.181077 0.317383 0.386540
0.243333 0.363247 0.421434
0.341809 0.420865 0.461797
0.473911 0.478021 0.496009
0.635849 0.511819 0.501607
0.769051 0.515918 0.481846
0.854203 0.528707 0.485570
0.196172 0.342723 0.415684
0.228592 0.369021 0.437523
0.302099 0.419302 0.478422
0.405005 0.480371 0.527219
0.527085 0.540526 0.573474
0.661048 0.585339 0.601437
0.786000 0.599720 0.590601
0.874920 0.613920 0.585924
0.058482 0.081484 0.190374
0.080443 0.087906 0.189300
0.164403 0.083921 0.182944
0.297474 0.078411 0.171741
0.459031 0.079071 0.157988
0.588896 0.095872 0.152554
0.659746 0.129217 0.159866
0.702676 0.170009 0.176262
0.063587 0.099969 0.198211
0.090208 0.119106 0.205518
0.176223 0.127816 0.201542
0.308639 0.131940 0.190039
0.468412 0.136426 0.175679
0.604627 0.146330 0.169556
0.683885 0.166622 0.176529
0.725955 0.195891 0.193239
0.075361 0.128878 0.219137
0.102308 0.156506 0.228393
0.182315 0.188766 0.227235
0.310270 0.212012 0.215643
0.472319 0.219672 0.196935
0.617229 0.225246 0.188637
0.707011 0.235236 0.197864
0.755709 0.253659 0.220163
0.092141 0.166686 0.251391
0.117716 0.197517 0.261355
0.189332 0.249099 0.264684
0.309042 0.293345 0.256698
0.469029 0.312986 0.237415
0.625431 0.316018 0.223158
0.726909 0.318516 0.232193
0.786521 0.329316 0.258926
0.112924 0.211699 0.292786
0.137771 0.240519 0.305579
0.202782 0.297913 0.316321
0.311321 0.358543 0.318354
0.460462 0.401634 0.307607
0.629320 0.405549 0.284478
0.742671 0.403905 0.286924
0.814653 0.411900 0.311660
0.139587 0.261994 0.339971
0.167376 0.287089 0.356650
0.229085 0.340948 0.380689
0.327709 0.405547 0.402271
0.463382 0.463419 0.411770
0.633501 0.485045 0.390473
0.757016 0.486274 0.375974
0.839778 0.496334 0.386302
0.175332 0.314663 0.388260
0.208140 0.339417 0.407360
0.273961 0.390282 0.441536
0.370430 0.453257 0.479174
0.494414 0.514991 0.509291
0.643859 0.554749 0.513662
0.772630 0.563983 0.488061
0.862350 0.576430 0.480661
0.224591 0.366856 0.437901
0.259911 0.391179 0.457106
0.332889 0.441681 0.497410
0.431864 0.504012 0.545221
0.546963 0.565770 0.588618
0.672121 0.613232 0.612685
0.790109 0.632854 0.598116
0.878696 0.648462 0.586742
0.064004 0.097460 0.237536
0.080495 0.109632 0.238274
0.163996 0.115338 0.227309
0.302980 0.114534 0.211691
0.475449 0.111077 0.197067
0.608979 0.126744 0.187785
0.682534 0.163081 0.191798
0.726820 0.209088 0.208737
0.069834 0.119177 0.247776
0.095424 0.141421 0.257551
0.181438 0.157760 0.259456
0.316387 0.165432 0.253361
0.481356 0.165655 0.240824
0.620722 0.174850 0.229823
0.704767 0.197961 0.228356
0.750831 0.232695 0.237755
0.085527 0.157854 0.267368
0.115027 0.187744 0.280126
0.195572 0.223362 0.290210
0.322041 0.248071 0.290649
0.481525 0.254112 0.279179
0.628028 0.259468 0.268075
0.725035 0.270828 0.266776
0.781539 0.292301 0.276894
0.107789 0.203865 0.297390
0.138411 0.237120 0.310520
0.211950 0.289674 0.325140
0.327594 0.335104 0.330646
0.478018 0.356846 0.321809
0.632463 0.360471 0.307916
0.742050 0.363197 0.306348
0.812421 0.373737 0.318868
0.134801 0.251118 0.337463
0.166040 0.282719 0.351113
0.235287 0.342401 0.368693
0.339724 0.406580 0.379851
0.475076 0.454889 0.377285
0.635359 0.461371 0.357411
0.755005 0.460107 0.350426
0.838611 0.465018 0.361276
0.170490 0.303621 0.383416
0.205204 0.330619 0.399815
0.272004 0.386614 0.426065
0.367609 0.454209 0.449286
0.488961 0.516869 0.459003
0.637714 0.548328 0.443633
0.763481 0.550967 0.422282
0.857297 0.556534 0.419752
0.218153 0.358269 0.430645
0.256700 0.383921 0.449331
0.325345 0.435039 0.482998
0.417374 0.498520 0.518769
0.527476 0.562217 0.545358
0.656377 0.609033 0.547481
0.776608 0.626015 0.519230
0.871179 0.638033 0.502324
0.284352 0.414730 0.480897
0.321028 0.438000 0.498956
0.390706 0.485603 0.536152
0.480821 0.544946 0.579787
0.581719 0.605289 0.618511
0.690984 0.655761 0.636990
0.796780 0.683631 0.620615
0.883715 0.701461 0.602715
0.072212 0.113923 0.301548
0.083592 0.130768 0.306470
0.152548 0.152369 0.298591
0.291296 0.165326 0.277034
0.487119 0.165192 0.246199
0.630821 0.177310 0.232818
0.709233 0.212893 0.233861
0.756467 0.261473 0.252443
0.078823 0.137543 0.314142
0.100133 0.161579 0.325154
0.174827 0.188899 0.334055
0.308854 0.206809 0.330514
0.490254 0.210168 0.311125
0.637234 0.217154 0.294232
0.726000 0.242356 0.285750
0.777386 0.282147 0.291110
0.097353 0.185744 0.334533
0.124776 0.214819 0.348378
0.198261 0.254239 0.367388
0.321731 0.284637 0.377171
0.486737 0.295395 0.369940
0.638508 0.298820 0.354868
0.741731 0.311988 0.344506
0.806476 0.337736 0.345718
0.125427 0.242622 0.362589
0.156641 0.274135 0.376973
0.228481 0.325233 0.400287
0.339377 0.371884 0.417916
0.483138 0.397769 0.420253
0.638131 0.400896 0.407293
0.754591 0.404860 0.397334
0.835416 0.417484 0.398400
0.161333 0.297657 0.398053
0.195578 0.328745 0.411928
0.268940 0.385973 0.435766
0.368462 0.448040 0.456601
0.486856 0.496291 0.464514
0.638835 0.505918 0.451578
0.763462 0.506662 0.439548
0.858101 0.511365 0.439479
0.206610 0.353942 0.441713
0.245935 0.381389 0.457109
0.319230 0.435786 0.484958
0.411999 0.500921 0.511288
0.515746 0.562233 0.525079
0.642549 0.600331 0.516242
0.768355 0.605316 0.493273
0.871431 0.608315 0.482558
0.268251 0.412158 0.487198
0.310858 0.437869 0.504283
0.383827 0.487031 0.535837
0.471392 0.547257 0.569628
0.563979 0.608015 0.594786
0.671191 0.658691 0.595969
0.780770 0.682369 0.569594
0.878471 0.694019 0.547784
0.351803 0.471893 0.535862
0.389763 0.494525 0.552466
0.457219 0.538231 0.584817
0.537934 0.592274 0.622818
0.621323 0.647995 0.656790
0.712527 0.699205 0.670732
0.804330 0.734202 0.655304
0.888452 0.754053 0.634000
0.083839 0.128292 0.375210
0.092969 0.147972 0.383992
0.133703 0.185666 0.391301
0.258662 0.219414 0.368676
0.476856 0.236023 0.309727
0.649814 0.244025 0.283905
0.737081 0.274378 0.281975
0.788277 0.321420 0.303253
0.090999 0.152552 0.388279
0.108132 0.178149 0.400277
0.159631 0.217288 0.418279
0.282270 0.252703 0.416933
0.480688 0.272825 0.385379
0.651072 0.277040 0.356229
0.746834 0.300624 0.341629
0.803567 0.341301 0.346866
0.110104 0.205397 0.413021
0.132627 0.233064 0.425719
0.192503 0.278865 0.449317
0.308327 0.322298 0.464493
0.480375 0.348393 0.459044
0.648417 0.349510 0.435752
0.757305 0.361573 0.417330
0.828122 0.388268 0.414117
0.142606 0.272023 0.441207
0.169909 0.300394 0.453807
0.238301 0.352463 0.479164
0.344347 0.404587 0.503984
0.482694 0.438710 0.517000
0.643934 0.441924 0.504135
0.764632 0.444994 0.487833
0.852155 0.457805 0.481508
0.188055 0.340419 0.469123
0.221039 0.369474 0.482057
0.298642 0.423687 0.506931
0.394323 0.481311 0.534249
0.495806 0.524981 0.554801
0.640799 0.539088 0.552204
0.767324 0.540463 0.539912
0.869110 0.544816 0.532856
0.241034 0.401515 0.508502
0.281449 0.428970 0.522446
0.362130 0.481368 0.548193
0.454252 0.541179 0.576213
0.541970 0.594817 0.597420
0.649223 0.633273 0.596301
0.771280 0.640091 0.578699
0.879012 0.642275 0.565938
0.313915 0.464665 0.551109
0.358241 0.490051 0.565689
0.436939 0.537112 0.592621
0.522354 0.592140 0.623398
0.598935 0.645174 0.649282
0.686556 0.693633 0.653084
0.784844 0.720337 0.633645
0.882672 0.731667 0.612977
0.408978 0.526335 0.595916
0.448333 0.548364 0.609690
0.516602 0.588923 0.636148
0.591327 0.637368 0.668120
0.659267 0.686068 0.698055
0.733099 0.734045 0.710886
0.811530 0.772050 0.699667
0.891759 0.792962 0.679828
0.100098 0.142660 0.452346
0.109667 0.162487 0.463323
0.141198 0.206237 0.479256
0.217064 0.259025 0.482843
0.362824 0.306225 0.455381
0.651997 0.322276 0.351545
0.764854 0.346653 0.337954
0.820344 0.386816 0.361635
0.108576 0.165896 0.464098
0.123428 0.190959 0.475911
0.161881 0.236196 0.496947
0.241743 0.288961 0.511028
0.383988 0.336459 0.500041
0.652344 0.354730 0.418940
0.768861 0.373999 0.394757
0.830129 0.408344 0.402868
0.129205 0.219272 0.488766
0.149056 0.245644 0.500345
0.197326 0.295403 0.523912
0.281520 0.352080 0.546534
0.414198 0.401172 0.553248
0.648885 0.423715 0.506235
0.772315 0.431748 0.479064
0.847088 0.451341 0.474968
0.162463 0.288654 0.519099
0.187472 0.315221 0.530193
0.246047 0.368524 0.554215
0.332985 0.428789 0.581479
0.451088 0.479875 0.600994
0.644855 0.506357 0.586636
0.773552 0.504964 0.563472
0.863981 0.510067 0.552460
0.209083 0.362758 0.549906
0.239546 0.390067 0.560923
0.307267 0.443563 0.583950
0.395254 0.504373 0.611225
0.496712 0.556969 0.635158
0.644216 0.586057 0.642529
0.772250 0.582898 0.628293
0.875695 0.580532 0.616051
0.274504 0.434686 0.580649
0.309791 0.461640 0.592563
0.385448 0.513685 0.614424
0.479555 0.572811 0.639614
0.574515 0.624808 0.662277
0.657537 0.658754 0.674751
0.772679 0.664967 0.666009
0.880747 0.665668 0.654039
0.351410 0.503666 0.619011
0.390079 0.528003 0.630409
0.466676 0.574418 0.651714
0.556547 0.627928 0.676821
0.639999 0.677240 0.700251
0.701482 0.716713 0.714662
0.788098 0.741610 0.706073
0.883044 0.752034 0.690336
0.445326 0.566519 0.658153
0.481367 0.587821 0.668490
0.549916 0.627666 0.688614
0.627927 0.673957 0.713190
0.698124 0.718085 0.737531
0.752069 0.758734 0.756112
0.817998 0.794042 0.752758
0.892811 0.814544 0.738542
0.120926 0.163015 0.523179
0.131300 0.181281 0.534523
0.160647 0.225146 0.554571
0.218775 0.283801 0.571797
0.321162 0.346680 0.572575
0.527857 0.397494 0.520992
0.734222 0.418211 0.438881
0.848518 0.448604 0.420033
0.130477 0.183885 0.533492
0.145492 0.208029 0.545558
0.179527 0.254010 0.567787
0.241438 0.313044 0.589405
0.344636 0.376016 0.597626
0.540411 0.426745 0.559051
0.740927 0.446173 0.481032
0.855016 0.473346 0.456738
0.153683 0.234376 0.556929
0.173710 0.260191 0.568754
0.217282 0.310548 0.592015
0.286022 0.372721 0.617760
0.386989 0.435474 0.635195
0.561893 0.485523 0.616260
0.749897 0.502007 0.552783
0.864960 0.518968 0.525745
0.189893 0.302347 0.586857
0.215094 0.328413 0.598267
0.268953 0.381807 0.621621
0.344024 0.445925 0.649347
0.439848 0.507408 0.672995
0.588732 0.555634 0.673423
0.758281 0.569315 0.630609
0.873913 0.575334 0.604918
0.239163 0.377906 0.618299
0.269295 0.404534 0.629598
0.331263 0.457541 0.652225
0.410291 0.520081 0.678856
0.499246 0.578795 0.703078
0.618950 0.623738 0.716911
0.764762 0.636483 0.696276
0.878973 0.635844 0.676201
0.307511 0.454810 0.649676
0.340807 0.481103 0.660815
0.407817 0.531995 0.681566
0.491391 0.591144 0.705514
0.577644 0.645632 0.727413
0.656360 0.685858 0.742421
0.772784 0.702696 0.736744
0.880381 0.704337 0.722978
0.388482 0.529255 0.685440
0.422742 0.553437 0.696012
0.489107 0.599103 0.713830
0.570359 0.652018 0.733881
0.651729 0.701118 0.752203
0.717574 0.739169 0.765770
0.794033 0.765239 0.767140
0.881778 0.774891 0.756285
0.478579 0.594882 0.720227
0.509381 0.615917 0.728948
0.569670 0.655314 0.744012
0.642722 0.700941 0.761380
0.714717 0.743732 0.777967
0.773225 0.779681 0.792089
0.827087 0.811803 0.798785
0.892831 0.831234 0.792242
0.146560 0.192249 0.583024
0.156939 0.208770 0.593496
0.186150 0.250765 0.615829
0.238342 0.309415 0.641081
0.319817 0.377351 0.660589
0.457018 0.449876 0.659168
0.665955 0.489240 0.584771
0.823282 0.514393 0.525405
0.155787 0.210166 0.592190
0.171993 0.233043 0.604399
0.205739 0.277601 0.627765
0.261074 0.337104 0.654407
0.343666 0.405330 0.676309
0.476264 0.475645 0.677948
0.676325 0.513673 0.610455
0.829678 0.538442 0.553035
0.180881 0.256323 0.615491
0.202910 0.281766 0.628314
0.246509 0.330809 0.652336
0.309360 0.393451 0.680760
0.392269 0.461177 0.706202
0.513935 0.526453 0.712823
0.695113 0.562339 0.659444
0.839842 0.582169 0.606026
0.220760 0.320735 0.646216
0.247977 0.346957 0.659076
0.301514 0.399233 0.683192
0.371557 0.463562 0.712049
0.453263 0.528899 0.738945
0.561060 0.588325 0.751079
0.717362 0.621432 0.715591
0.850625 0.635100 0.669217
0.274977 0.395095 0.679277
0.306085 0.421620 0.691908
0.365803 0.473846 0.715289
0.439505 0.536167 0.742232
0.518296 0.596820 0.766804
0.611117 0.650567 0.783253
0.739851 0.680670 0.765979
0.860003 0.689841 0.729852
0.348710 0.474139 0.712985
0.380833 0.499858 0.724637
0.441041 0.549072 0.745476
0.514513 0.606992 0.768880
0.590052 0.662210 0.789736
0.663396 0.708006 0.804684
0.764057 0.736524 0.799955
0.868681 0.746442 0.774965
0.432897 0.551517 0.746585
0.462923 0.574728 0.756891
0.518992 0.618398 0.773621
0.588517 0.669576 0.791590
0.661064 0.718149 0.806974
0.728015 0.757473 0.818048
0.795497 0.787217 0.821669
0.877480 0.801910 0.806353
0.516865 0.618909 0.778255
0.542052 0.638250 0.785881
0.592053 0.675902 0.798483
0.655462 0.720205 0.811978
0.722505 0.762202 0.823431
0.783731 0.796758 0.831903
0.833765 0.827646 0.839266
0.893668 0.849205 0.832927
