filter/Red and Blue/lut/Spotlight 04.cube
# LUT by SparkleStock. Enhanced with VOXCOLOR algorithms.
LUT_3D_SIZE 8
DOMAIN_MIN 0.000000 0.000000 0.000000
DOMAIN_MAX 0.903226 0.903226 0.903226
0.066422 0.070330 0.093773
0.097806 0.072598 0.093017
0.185970 0.075135 0.084225
0.316420 0.081327 0.072283
0.469180 0.093214 0.061885
0.592824 0.110229 0.060751
0.666052 0.130553 0.067651
0.711789 0.158502 0.080870
0.072472 0.081295 0.101713
0.092878 0.087662 0.107544
0.179811 0.090668 0.100570
0.315115 0.096262 0.087323
0.475248 0.108222 0.074088
0.603576 0.125823 0.070759
0.678073 0.147586 0.076196
0.723840 0.175084 0.087383
0.083477 0.098421 0.119162
0.100474 0.108264 0.129298
0.168774 0.119783 0.134492
0.295593 0.130862 0.126462
0.470317 0.141392 0.104483
0.613904 0.159163 0.094499
0.696962 0.183506 0.098594
0.747260 0.214419 0.111820
0.098728 0.122573 0.147300
0.115127 0.135575 0.160497
0.166526 0.157649 0.179440
0.278026 0.178786 0.183686
0.452567 0.193640 0.163533
0.620646 0.210313 0.139815
0.718316 0.236252 0.140014
0.777088 0.271770 0.157656
0.117515 0.154382 0.186341
0.133146 0.170403 0.202173
0.180705 0.201030 0.230787
0.276405 0.235223 0.253312
0.427436 0.264124 0.254130
0.622849 0.279956 0.214276
0.739254 0.304977 0.206266
0.809720 0.343566 0.227720
0.139446 0.195786 0.235307
0.156102 0.214441 0.253773
0.204063 0.252057 0.289792
0.293750 0.300034 0.329795
0.431900 0.348584 0.358149
0.626728 0.376126 0.336737
0.760843 0.396877 0.315822
0.845068 0.431728 0.329994
0.166576 0.243019 0.288369
0.186574 0.264309 0.309958
0.240020 0.307791 0.351190
0.330117 0.364814 0.400754
0.458604 0.426473 0.446672
0.631623 0.477434 0.464681
0.783774 0.501052 0.444117
0.881767 0.529861 0.447388
0.199354 0.291725 0.344094
0.225536 0.315888 0.367476
0.287075 0.364237 0.411157
0.380500 0.427278 0.464979
0.502405 0.496467 0.519579
0.653889 0.562327 0.562178
0.802960 0.598603 0.560801
0.907598 0.626894 0.561421
0.067935 0.079026 0.116082
0.098294 0.085686 0.110203
0.190514 0.088156 0.097014
0.326258 0.093176 0.082011
0.482456 0.104954 0.070039
0.604929 0.122115 0.067587
0.677353 0.145025 0.074756
0.723547 0.175017 0.088243
0.076473 0.091163 0.120363
0.095175 0.104414 0.129796
0.177938 0.112254 0.127070
0.311595 0.120728 0.115738
0.475323 0.133641 0.100364
0.609279 0.149575 0.091977
0.687126 0.170127 0.094793
0.734092 0.197317 0.105739
0.090899 0.111844 0.138714
0.106796 0.128094 0.154275
0.169501 0.147288 0.168075
0.291619 0.163980 0.166736
0.466502 0.175963 0.145792
0.617379 0.191379 0.128859
0.705279 0.212642 0.127683
0.757829 0.241460 0.138729
0.108736 0.139619 0.168779
0.126018 0.157659 0.186335
0.173979 0.187423 0.213887
0.279586 0.215718 0.227907
0.448941 0.234584 0.214929
0.623384 0.249148 0.185913
0.726294 0.270812 0.178796
0.787978 0.302318 0.191115
0.128603 0.173586 0.208424
0.148119 0.193767 0.227481
0.195294 0.229440 0.261253
0.284657 0.270862 0.293591
0.425429 0.308272 0.307894
0.624204 0.323765 0.269384
0.746185 0.343578 0.253207
0.819649 0.376053 0.265712
0.153022 0.215868 0.257097
0.175376 0.238004 0.277655
0.224605 0.278782 0.316575
0.310156 0.330049 0.360886
0.439109 0.382732 0.396279
0.624381 0.417753 0.390490
0.763997 0.435356 0.363976
0.852362 0.464263 0.368260
0.184104 0.263614 0.310233
0.209630 0.287137 0.332025
0.265017 0.332735 0.374483
0.352572 0.391433 0.425714
0.473881 0.454489 0.474103
0.636701 0.508754 0.500012
0.785937 0.533376 0.482428
0.884216 0.559020 0.481065
0.224298 0.314741 0.366738
0.252188 0.338182 0.386872
0.315196 0.387826 0.430897
0.407322 0.452074 0.485826
0.523668 0.521065 0.540638
0.665908 0.585867 0.584167
0.807051 0.623021 0.587155
0.907996 0.650258 0.586669
0.070385 0.090267 0.162897
0.094017 0.100178 0.158738
0.185912 0.111868 0.137347
0.329032 0.123251 0.111350
0.498519 0.134077 0.090885
0.626042 0.151177 0.084731
0.699562 0.176724 0.091944
0.746912 0.210829 0.108658
0.080063 0.104715 0.168600
0.097057 0.122104 0.177963
0.175434 0.141949 0.173067
0.310952 0.158610 0.157063
0.486218 0.169937 0.134786
0.627448 0.185040 0.119921
0.708579 0.207150 0.121054
0.757737 0.237499 0.134487
0.099207 0.132883 0.184708
0.116629 0.154089 0.200547
0.175018 0.184239 0.217929
0.291833 0.210761 0.222009
0.464924 0.227014 0.205806
0.624710 0.243033 0.184193
0.720916 0.263089 0.177652
0.778811 0.291053 0.186664
0.122446 0.168540 0.213193
0.143230 0.191283 0.231572
0.189812 0.229677 0.265140
0.286303 0.268492 0.290819
0.441472 0.297243 0.292618
0.622401 0.314589 0.265860
0.736629 0.333036 0.251087
0.806065 0.359842 0.256162
0.146956 0.207764 0.254167
0.171212 0.231048 0.273586
0.221286 0.273426 0.311264
0.303631 0.324335 0.353342
0.426714 0.372280 0.383173
0.622911 0.392938 0.357859
0.754494 0.409766 0.335544
0.835757 0.435810 0.337331
0.178425 0.253931 0.303273
0.206689 0.278329 0.323382
0.261080 0.323768 0.363646
0.343605 0.380056 0.411596
0.457668 0.437683 0.454608
0.622226 0.483280 0.469068
0.767756 0.499622 0.443066
0.863293 0.521217 0.436772
0.219490 0.304849 0.356257
0.251251 0.330365 0.376968
0.310475 0.378329 0.418686
0.395192 0.438537 0.469813
0.504653 0.502169 0.519830
0.648325 0.560361 0.554651
0.789394 0.588085 0.545992
0.887631 0.609540 0.539820
0.272750 0.360035 0.411893
0.304908 0.384673 0.430678
0.367861 0.433902 0.472355
0.454859 0.496556 0.524776
0.560805 0.563307 0.577705
0.688021 0.626402 0.621288
0.814718 0.665644 0.632032
0.909122 0.690883 0.630670
0.074639 0.100823 0.229178
0.091209 0.113149 0.229983
0.167566 0.136179 0.210955
0.311712 0.159650 0.174110
0.508295 0.177447 0.128320
0.648856 0.194401 0.114495
0.726937 0.221744 0.121465
0.776811 0.260271 0.144379
0.084537 0.117198 0.237356
0.100040 0.136851 0.245895
0.165594 0.168233 0.242932
0.299271 0.198454 0.222372
0.493773 0.219270 0.185517
0.648428 0.232943 0.160648
0.735233 0.256217 0.159278
0.788021 0.290355 0.176898
0.106492 0.152537 0.252606
0.124877 0.176077 0.265953
0.177784 0.216570 0.284891
0.289576 0.257787 0.291951
0.463740 0.288179 0.277346
0.636750 0.304132 0.250065
0.742379 0.323055 0.237702
0.806365 0.351321 0.246040
0.134981 0.197230 0.277929
0.158112 0.222673 0.294059
0.206771 0.269932 0.328714
0.297316 0.321915 0.361055
0.438321 0.364879 0.374507
0.625066 0.386471 0.353161
0.750543 0.403014 0.332455
0.828474 0.426613 0.331835
0.166868 0.244755 0.314935
0.195055 0.271218 0.332625
0.251986 0.321265 0.370646
0.330914 0.380470 0.416750
0.435586 0.435437 0.456016
0.620889 0.466186 0.450241
0.760844 0.483369 0.427279
0.851591 0.504525 0.420462
0.207144 0.296959 0.363554
0.240245 0.323819 0.382244
0.303335 0.374872 0.421357
0.385719 0.435853 0.469266
0.483822 0.495929 0.515448
0.623906 0.549992 0.545737
0.771509 0.568488 0.526432
0.873634 0.584988 0.513520
0.260348 0.353468 0.415684
0.297476 0.381059 0.434911
0.363615 0.432008 0.473945
0.447225 0.493337 0.522197
0.542387 0.555377 0.570687
0.664272 0.614936 0.610440
0.793516 0.646742 0.612804
0.890607 0.665276 0.604237
0.327215 0.413666 0.469349
0.364252 0.440170 0.487296
0.429669 0.489308 0.525009
0.511873 0.549499 0.572417
0.603780 0.611736 0.620981
0.713630 0.671315 0.662377
0.823312 0.712411 0.680672
0.910101 0.736038 0.679738
0.081539 0.108716 0.309386
0.094157 0.122853 0.315552
0.138842 0.154148 0.314909
0.268725 0.192674 0.276816
0.492292 0.229051 0.196631
0.666097 0.248768 0.161363
0.755192 0.277059 0.165857
0.809395 0.318827 0.196946
0.091090 0.125732 0.318534
0.105417 0.146474 0.327377
0.148266 0.183933 0.335174
0.268619 0.230697 0.316840
0.477723 0.276543 0.263807
0.663640 0.292228 0.219747
0.761788 0.315098 0.212841
0.819937 0.351449 0.234883
0.112477 0.165171 0.336477
0.129563 0.188205 0.346676
0.174907 0.235341 0.366929
0.279357 0.293661 0.375276
0.453566 0.348635 0.358339
0.650877 0.367836 0.321655
0.767177 0.385266 0.302278
0.836886 0.414066 0.310942
0.143982 0.217410 0.358944
0.166173 0.242740 0.370777
0.219365 0.297490 0.400889
0.308653 0.362992 0.431695
0.439639 0.422373 0.448301
0.633850 0.452258 0.432441
0.767979 0.468471 0.408091
0.852804 0.490716 0.404362
0.184004 0.274899 0.385305
0.213761 0.304486 0.399894
0.279180 0.361604 0.433623
0.360009 0.426368 0.475559
0.452588 0.484218 0.514333
0.620307 0.529815 0.527768
0.764893 0.550588 0.510033
0.864274 0.569057 0.498621
0.232238 0.334202 0.430081
0.268058 0.364299 0.447215
0.341385 0.421442 0.482546
0.427678 0.486300 0.525623
0.514727 0.545946 0.568055
0.631364 0.602648 0.603488
0.774688 0.626984 0.595719
0.880579 0.642763 0.582480
0.296390 0.398115 0.479924
0.336639 0.427947 0.497699
0.412182 0.482863 0.532599
0.498321 0.545575 0.575210
0.581477 0.604380 0.618022
0.682337 0.660636 0.655770
0.797590 0.696274 0.667747
0.892204 0.714536 0.660388
0.373632 0.463875 0.530890
0.414314 0.492016 0.547569
0.486325 0.542807 0.580778
0.567653 0.601580 0.621848
0.645909 0.658078 0.663635
0.737784 0.711829 0.700099
0.830861 0.753288 0.722820
0.910385 0.776429 0.723911
0.093072 0.114955 0.395218
0.103787 0.130263 0.405336
0.135268 0.165010 0.416318
0.214484 0.213659 0.410754
0.368709 0.268808 0.369705
0.663999 0.311651 0.245884
0.782978 0.343430 0.234156
0.843590 0.385474 0.270069
0.101890 0.131971 0.404952
0.115108 0.152864 0.414574
0.147874 0.191711 0.428815
0.224944 0.244643 0.432473
0.372838 0.305535 0.408037
0.661202 0.356584 0.309306
0.786722 0.383093 0.287481
0.852257 0.418435 0.309932
0.122960 0.172965 0.424206
0.139008 0.195451 0.433055
0.178829 0.242574 0.452489
0.254523 0.304209 0.469052
0.385635 0.371507 0.468016
0.649019 0.435662 0.414636
0.787757 0.455906 0.383998
0.865784 0.480553 0.387229
0.154685 0.228192 0.447308
0.174808 0.252031 0.456327
0.224183 0.306132 0.480343
0.300939 0.375209 0.508824
0.414421 0.447721 0.530368
0.634686 0.519633 0.520099
0.784488 0.537928 0.489837
0.877251 0.554377 0.478204
0.195750 0.289963 0.471107
0.221909 0.317279 0.481947
0.281741 0.374543 0.508807
0.363630 0.446512 0.544895
0.465425 0.520850 0.581692
0.626265 0.588530 0.597657
0.777567 0.611768 0.580667
0.882524 0.626571 0.564855
0.247204 0.354828 0.500514
0.282259 0.386733 0.514353
0.357648 0.450029 0.545676
0.452414 0.523223 0.583735
0.550252 0.590024 0.619942
0.642445 0.641726 0.647706
0.776336 0.671850 0.649369
0.884216 0.690300 0.638241
0.317138 0.425888 0.544015
0.356150 0.457359 0.559325
0.436024 0.518043 0.591048
0.531974 0.587125 0.628654
0.624376 0.649109 0.664272
0.699281 0.696984 0.694542
0.800049 0.733567 0.709686
0.892374 0.753556 0.704382
0.399643 0.498320 0.591316
0.439673 0.527693 0.606375
0.516364 0.582248 0.636292
0.605518 0.644118 0.671675
0.688965 0.700370 0.705679
0.758242 0.747223 0.736440
0.836426 0.785777 0.757392
0.910196 0.808751 0.759859
0.108858 0.126708 0.473804
0.118647 0.141235 0.485312
0.144984 0.175668 0.502591
0.201129 0.226168 0.513945
0.305985 0.289202 0.505902
0.526506 0.362855 0.443434
0.749894 0.407738 0.359965
0.875168 0.452196 0.350480
0.117555 0.142138 0.483269
0.130450 0.162364 0.493658
0.158931 0.200302 0.512103
0.215467 0.253598 0.527609
0.318192 0.319795 0.527658
0.532202 0.397273 0.480818
0.754992 0.442451 0.403602
0.882146 0.483782 0.389306
0.138831 0.181720 0.503153
0.154840 0.203973 0.512454
0.191225 0.249495 0.532314
0.251714 0.310041 0.553400
0.348336 0.379981 0.565545
0.543922 0.462330 0.545711
0.761686 0.509756 0.484584
0.891347 0.544231 0.463507
0.171264 0.236805 0.526940
0.190813 0.260481 0.535946
0.236447 0.312651 0.557304
0.303462 0.380291 0.584051
0.396000 0.454402 0.608474
0.562934 0.537190 0.613659
0.767211 0.587177 0.574095
0.897323 0.615143 0.549037
0.213645 0.300523 0.550510
0.237572 0.326969 0.560403
0.291545 0.382376 0.583487
0.367008 0.453985 0.614812
0.460543 0.531310 0.648122
0.591223 0.606731 0.667806
0.770753 0.657930 0.651001
0.896924 0.682469 0.627793
0.267100 0.370219 0.576381
0.297089 0.399951 0.587742
0.363118 0.460339 0.614362
0.449632 0.533568 0.647655
0.543922 0.605542 0.680504
0.637305 0.666609 0.706416
0.778290 0.714389 0.706785
0.892474 0.738629 0.690852
0.331939 0.442410 0.610428
0.367853 0.473866 0.623998
0.442664 0.535818 0.652457
0.536351 0.608103 0.685839
0.632023 0.675093 0.716513
0.713581 0.726812 0.740068
0.804606 0.767010 0.751809
0.893758 0.789134 0.744359
0.411591 0.517478 0.650608
0.449333 0.547745 0.664543
0.524526 0.605706 0.692275
0.615740 0.671792 0.723711
0.705489 0.731290 0.751481
0.779114 0.776797 0.772974
0.842590 0.813047 0.790576
0.908886 0.836321 0.792678
0.129899 0.147552 0.541620
0.138955 0.160353 0.552976
0.163559 0.192434 0.573278
0.208586 0.240684 0.593684
0.283123 0.303827 0.606321
0.426807 0.390562 0.599667
0.660218 0.461862 0.525085
0.841574 0.514916 0.474741
0.137485 0.159573 0.549457
0.150768 0.178965 0.560992
0.177908 0.214540 0.582002
0.224266 0.265035 0.604160
0.298895 0.330164 0.619942
0.439023 0.416823 0.618090
0.668202 0.489103 0.552893
0.848654 0.541610 0.505031
0.159367 0.195080 0.569770
0.176119 0.217452 0.580762
0.210799 0.260862 0.601817
0.262880 0.318448 0.626224
0.337079 0.386242 0.647484
0.467924 0.471475 0.654464
0.683880 0.545085 0.607340
0.858601 0.593673 0.562424
0.193146 0.247394 0.595176
0.213128 0.271494 0.605759
0.256065 0.321870 0.627049
0.316082 0.386863 0.654029
0.392683 0.458617 0.681215
0.510607 0.540476 0.697293
0.704537 0.613333 0.670454
0.868092 0.656653 0.629778
0.236979 0.311009 0.620620
0.260297 0.337154 0.631437
0.309780 0.390761 0.653759
0.378205 0.460354 0.683295
0.461035 0.536499 0.715031
0.564652 0.612668 0.737884
0.728579 0.680909 0.728436
0.875194 0.719096 0.693917
0.292270 0.383803 0.646746
0.318973 0.411898 0.658088
0.376199 0.468635 0.682459
0.452376 0.539628 0.713287
0.538360 0.613247 0.744977
0.630471 0.681138 0.771990
0.758576 0.739568 0.773051
0.881603 0.773164 0.747310
0.354807 0.458431 0.675714
0.386473 0.488441 0.688611
0.452051 0.547799 0.715170
0.536421 0.619171 0.746570
0.626888 0.688686 0.775748
0.712697 0.745924 0.797056
0.797611 0.790310 0.805863
0.890087 0.818567 0.791529
0.429445 0.534966 0.711084
0.462428 0.564087 0.723841
0.530556 0.621634 0.750497
0.616221 0.688766 0.780326
0.704711 0.750798 0.805176
0.782952 0.797904 0.820162
0.843772 0.833995 0.831747
0.908783 0.860071 0.828996
