filter/Red and Blue/lut/Spotlight 02.cube
# LUT by SparkleStock. Enhanced with VOXCOLOR algorithms.
LUT_3D_SIZE 32
0.054701 0.070330 0.168254
0.060656 0.070471 0.169057
0.066612 0.070613 0.169861
0.072567 0.070755 0.170664
0.078522 0.070897 0.171468
0.084478 0.071039 0.172271
0.106385 0.070668 0.170751
0.131482 0.070196 0.168766
0.156580 0.069723 0.166781
0.181677 0.069250 0.164796
0.206775 0.068778 0.162811
0.242302 0.068998 0.159786
0.283044 0.069566 0.156241
0.323786 0.070133 0.152696
0.364528 0.070700 0.149151
0.405270 0.071267 0.145606
0.441995 0.073654 0.143338
0.474702 0.077860 0.142345
0.507409 0.082067 0.141353
0.540116 0.086274 0.140360
0.572823 0.090480 0.139367
0.599543 0.095774 0.139478
0.614290 0.103242 0.141794
0.629036 0.110709 0.144110
0.643783 0.118177 0.146426
0.658529 0.125645 0.148742
0.672134 0.133420 0.151491
0.680027 0.142731 0.156406
0.687920 0.152042 0.161322
0.695813 0.161353 0.166237
0.703706 0.170664 0.171153
0.711600 0.179976 0.176068
0.055977 0.073780 0.170286
0.061365 0.074388 0.171492
0.066753 0.074997 0.172698
0.072141 0.075605 0.173904
0.077530 0.076213 0.175110
0.082918 0.076822 0.176316
0.104669 0.076438 0.174894
0.129694 0.075855 0.172945
0.154718 0.075273 0.170997
0.179742 0.074690 0.169048
0.204767 0.074108 0.167100
0.240550 0.074280 0.163995
0.281713 0.074829 0.160313
0.322876 0.075378 0.156631
0.364039 0.075926 0.152949
0.405201 0.076475 0.149267
0.442338 0.078844 0.146889
0.475447 0.083032 0.145814
0.508557 0.087220 0.144739
0.541666 0.091409 0.143664
0.574776 0.095597 0.142589
0.601826 0.100887 0.142660
0.616755 0.108383 0.145021
0.631685 0.115878 0.147383
0.646614 0.123373 0.149745
0.661544 0.130868 0.152107
0.675293 0.138651 0.154894
0.683140 0.147871 0.159809
0.690988 0.157090 0.164725
0.698835 0.166310 0.169640
0.706682 0.175530 0.174556
0.714530 0.184749 0.179471
0.057253 0.077230 0.172319
0.062074 0.078305 0.173927
0.066895 0.079380 0.175536
0.071716 0.080455 0.177144
0.076537 0.081530 0.178753
0.081358 0.082605 0.180361
0.102954 0.082207 0.179036
0.127905 0.081515 0.177124
0.152856 0.080823 0.175212
0.177808 0.080130 0.173300
0.202759 0.079438 0.171388
0.238798 0.079561 0.168205
0.280382 0.080092 0.164386
0.321965 0.080622 0.160566
0.363549 0.081153 0.156747
0.405133 0.081684 0.152928
0.442681 0.084034 0.150440
0.476193 0.088204 0.149282
0.509705 0.092374 0.148125
0.543217 0.096544 0.146968
0.576729 0.100714 0.145811
0.604108 0.106001 0.145842
0.619220 0.113524 0.148249
0.634333 0.121047 0.150657
0.649445 0.128569 0.153064
0.664558 0.136092 0.155471
0.678452 0.143882 0.158297
0.686254 0.153010 0.163212
0.694055 0.162139 0.168128
0.701857 0.171267 0.173043
0.709659 0.180395 0.177959
0.717460 0.189523 0.182874
0.058529 0.080681 0.174351
0.062783 0.082222 0.176362
0.067037 0.083763 0.178373
0.071291 0.085305 0.180384
0.075545 0.086846 0.182395
0.079798 0.088388 0.184406
0.101239 0.087976 0.183179
0.126117 0.087174 0.181303
0.150995 0.086372 0.179428
0.175873 0.085570 0.177553
0.200751 0.084768 0.175677
0.237046 0.084843 0.172415
0.279051 0.085355 0.168458
0.321055 0.085867 0.164502
0.363060 0.086380 0.160545
0.405064 0.086892 0.156589
0.443024 0.089224 0.153990
0.476938 0.093375 0.152751
0.510853 0.097527 0.151511
0.544768 0.101679 0.150272
0.578682 0.105830 0.149032
0.606390 0.111115 0.149024
0.621686 0.118665 0.151477
0.636981 0.126215 0.153930
0.652277 0.133765 0.156383
0.667572 0.141315 0.158836
0.681611 0.149113 0.161700
0.689367 0.158150 0.166615
0.697123 0.167187 0.171531
0.704879 0.176223 0.176446
0.712635 0.185260 0.181362
0.720391 0.194297 0.186278
0.059805 0.084131 0.176383
0.063492 0.086139 0.178797
0.067179 0.088147 0.181211
0.070865 0.090155 0.183624
0.074552 0.092163 0.186038
0.078239 0.094171 0.188451
0.099524 0.093746 0.187321
0.124328 0.092834 0.185482
0.149133 0.091922 0.183644
0.173938 0.091010 0.181805
0.198743 0.090099 0.179966
0.235294 0.090124 0.176624
0.277720 0.090618 0.172530
0.320145 0.091112 0.168437
0.362570 0.091606 0.164343
0.404996 0.092100 0.160249
0.443367 0.094414 0.157541
0.477684 0.098547 0.156220
0.512001 0.102680 0.154898
0.546318 0.106814 0.153576
0.580635 0.110947 0.152254
0.608673 0.116229 0.152206
0.624151 0.123806 0.154705
0.639630 0.131384 0.157203
0.655108 0.138961 0.159702
0.670586 0.146539 0.162201
0.684770 0.154344 0.165103
0.692480 0.163290 0.170019
0.700190 0.172235 0.174934
0.707901 0.181180 0.179850
0.715611 0.190125 0.184765
0.723321 0.199070 0.189681
0.061082 0.087581 0.178416
0.064201 0.090056 0.181232
0.067320 0.092530 0.184048
0.070440 0.095005 0.186864
0.073559 0.097479 0.189680
0.076679 0.099954 0.192496
0.097808 0.099515 0.191464
0.122540 0.098494 0.189662
0.147272 0.097472 0.187859
0.172003 0.096450 0.186057
0.196735 0.095429 0.184255
0.233543 0.095406 0.180834
0.276389 0.095881 0.176603
0.319235 0.096357 0.172372
0.362081 0.096833 0.168141
0.404927 0.097308 0.163910
0.443710 0.099604 0.161092
0.478429 0.103719 0.159688
0.513149 0.107834 0.158284
0.547869 0.111949 0.156880
0.582588 0.116064 0.155476
0.610955 0.121342 0.155388
0.626617 0.128947 0.157932
0.642278 0.136552 0.160477
0.657939 0.144157 0.163022
0.673601 0.151762 0.165566
0.687929 0.159576 0.168506
0.695594 0.168429 0.173422
0.703258 0.177283 0.178337
0.710923 0.186137 0.183253
0.718587 0.194990 0.188168
0.726252 0.203844 0.193084
0.063618 0.094616 0.183993
0.066681 0.097313 0.186975
0.069744 0.100010 0.189958
0.072807 0.102707 0.192940
0.075870 0.105404 0.195922
0.078933 0.108101 0.198904
0.098722 0.108555 0.198832
0.121856 0.108559 0.198149
0.144989 0.108564 0.197466
0.168123 0.108568 0.196783
0.191257 0.108573 0.196100
0.227960 0.108758 0.192823
0.271448 0.109032 0.188249
0.314936 0.109306 0.183675
0.358424 0.109581 0.179101
0.401912 0.109855 0.174527
0.441575 0.111991 0.171333
0.477414 0.115989 0.169518
0.513253 0.119987 0.167704
0.549091 0.123984 0.165890
0.584930 0.127982 0.164075
0.614244 0.133186 0.163717
0.630507 0.140803 0.166269
0.646771 0.148421 0.168821
0.663035 0.156038 0.171373
0.679298 0.163655 0.173926
0.694155 0.171511 0.176932
0.701980 0.180563 0.182205
0.709804 0.189615 0.187479
0.717629 0.198667 0.192753
0.725454 0.207719 0.198027
0.733278 0.216771 0.203301
0.066407 0.102367 0.190279
0.069516 0.105238 0.193380
0.072624 0.108109 0.196482
0.075733 0.110980 0.199583
0.078842 0.113851 0.202684
0.081951 0.116722 0.205785
0.100161 0.118249 0.206846
0.121392 0.119506 0.207498
0.142623 0.120764 0.208151
0.163854 0.122022 0.208803
0.185085 0.123280 0.209456
0.221611 0.123724 0.206368
0.265785 0.123760 0.201410
0.309959 0.123797 0.196452
0.354134 0.123833 0.191493
0.398308 0.123870 0.186535
0.438945 0.125819 0.182911
0.476046 0.129679 0.180621
0.513148 0.133539 0.178331
0.550249 0.137400 0.176041
0.587350 0.141260 0.173751
0.617734 0.146376 0.173075
0.634684 0.154002 0.175627
0.651633 0.161629 0.178180
0.668583 0.169255 0.180732
0.685533 0.176882 0.183284
0.700995 0.184788 0.186362
0.709021 0.194096 0.192065
0.717047 0.203404 0.197769
0.725072 0.212712 0.203473
0.733098 0.222020 0.209177
0.741124 0.231329 0.214880
0.069195 0.110119 0.196565
0.072350 0.113163 0.199786
0.075504 0.116208 0.203006
0.078659 0.119253 0.206226
0.081813 0.122298 0.209446
0.084968 0.125342 0.212666
0.101601 0.127942 0.214859
0.120929 0.130453 0.216848
0.140257 0.132965 0.218836
0.159585 0.135476 0.220824
0.178913 0.137987 0.222812
0.215263 0.138690 0.219913
0.260123 0.138488 0.214571
0.304983 0.138287 0.209228
0.349843 0.138086 0.203886
0.394703 0.137885 0.198543
0.436315 0.139646 0.194489
0.474679 0.143369 0.191724
0.513042 0.147092 0.188958
0.551406 0.150815 0.186192
0.589770 0.154539 0.183426
0.621224 0.159566 0.182433
0.638860 0.167201 0.184986
0.656495 0.174837 0.187538
0.674131 0.182472 0.190090
0.691767 0.190108 0.192642
0.707835 0.198065 0.195792
0.716062 0.207629 0.201925
0.724289 0.217193 0.208059
0.732516 0.226758 0.214193
0.740743 0.236322 0.220327
0.748970 0.245886 0.226460
0.071984 0.117870 0.202852
0.075184 0.121089 0.206191
0.078384 0.124307 0.209530
0.081585 0.127526 0.212869
0.084785 0.130744 0.216208
0.087985 0.133963 0.219547
0.103040 0.137636 0.222873
0.120465 0.141401 0.226197
0.137891 0.145165 0.229521
0.155316 0.148929 0.232844
0.172741 0.152694 0.236168
0.208914 0.153656 0.233458
0.254460 0.153217 0.227732
0.300006 0.152778 0.222005
0.345553 0.152339 0.216278
0.391099 0.151899 0.210552
0.433685 0.153473 0.206068
0.473311 0.157059 0.202826
0.512937 0.160645 0.199585
0.552563 0.164231 0.196343
0.592189 0.167817 0.193102
0.624714 0.172756 0.191792
0.643036 0.180400 0.194344
0.661358 0.188045 0.196896
0.679679 0.195690 0.199449
0.698001 0.203334 0.202001
0.714674 0.211342 0.205222
0.723103 0.221162 0.211785
0.731531 0.230982 0.218349
0.739959 0.240803 0.224913
0.748388 0.250623 0.231476
0.756816 0.260443 0.238040
0.074773 0.125621 0.209138
0.078019 0.129014 0.212596
0.081265 0.132406 0.216054
0.084511 0.135798 0.219512
0.087757 0.139191 0.222970
0.091003 0.142583 0.226427
0.104479 0.147330 0.230887
0.120002 0.152348 0.235546
0.135524 0.157365 0.240205
0.151047 0.162383 0.244865
0.166569 0.167401 0.249524
0.202565 0.168622 0.247003
0.248798 0.167945 0.240892
0.295030 0.167268 0.234782
0.341262 0.166591 0.228671
0.387495 0.165914 0.222560
0.431055 0.167300 0.217646
0.471944 0.170749 0.213929
0.512832 0.174198 0.210212
0.553720 0.177646 0.206495
0.594609 0.181095 0.202777
0.628204 0.185946 0.201150
0.647212 0.193599 0.203702
0.666220 0.201253 0.206255
0.685228 0.208907 0.208807
0.704236 0.216561 0.211359
0.721514 0.224618 0.214652
0.730143 0.234695 0.221645
0.738773 0.244771 0.228639
0.747403 0.254848 0.235633
0.756032 0.264924 0.242626
0.764662 0.275001 0.249620
0.078569 0.135358 0.218260
0.081886 0.138918 0.221812
0.085202 0.142478 0.225365
0.088518 0.146038 0.228917
0.091834 0.149598 0.232470
0.095150 0.153158 0.236022
0.108095 0.158683 0.241204
0.122965 0.164600 0.246711
0.137835 0.170517 0.252218
0.152705 0.176434 0.257725
0.167575 0.182352 0.263232
0.202635 0.184295 0.261563
0.247791 0.184253 0.256306
0.292947 0.184210 0.251049
0.338103 0.184167 0.245792
0.383259 0.184125 0.240535
0.427028 0.185637 0.235663
0.469411 0.188705 0.231178
0.511794 0.191772 0.226692
0.554176 0.194840 0.222207
0.596559 0.197908 0.217721
0.631429 0.202450 0.215484
0.651276 0.209942 0.217744
0.671122 0.217435 0.220003
0.690969 0.224927 0.222263
0.710816 0.232419 0.224522
0.728840 0.240384 0.227633
0.737757 0.250710 0.235002
0.746673 0.261037 0.242371
0.755589 0.271363 0.249739
0.764505 0.281690 0.257108
0.773422 0.292016 0.264477
0.082871 0.146087 0.228800
0.086269 0.149812 0.232435
0.089667 0.153536 0.236069
0.093066 0.157261 0.239704
0.096464 0.160986 0.243339
0.099863 0.164711 0.246974
0.112798 0.170865 0.252672
0.127641 0.177505 0.258783
0.142483 0.184145 0.264894
0.157326 0.190784 0.271005
0.172169 0.197424 0.277115
0.205915 0.200323 0.276630
0.249113 0.201350 0.272845
0.292312 0.202378 0.269061
0.335510 0.203406 0.265277
0.378708 0.204433 0.261493
0.422304 0.206229 0.256900
0.466296 0.208794 0.251500
0.510289 0.211358 0.246100
0.554281 0.213923 0.240699
0.598274 0.216487 0.235299
0.634523 0.220612 0.232306
0.655284 0.227857 0.234126
0.676046 0.235102 0.235946
0.696807 0.242348 0.237767
0.717568 0.249593 0.239587
0.736410 0.257393 0.242390
0.745656 0.267966 0.250107
0.754901 0.278540 0.257823
0.764147 0.289113 0.265539
0.773393 0.299687 0.273256
0.782638 0.310260 0.280972
0.087172 0.156816 0.239340
0.090652 0.160705 0.243057
0.094133 0.164595 0.246774
0.097614 0.168484 0.250491
0.101095 0.172374 0.254208
0.104576 0.176263 0.257926
0.117502 0.183047 0.264141
0.132317 0.190409 0.270855
0.147132 0.197772 0.277570
0.161947 0.205135 0.284284
0.176762 0.212497 0.290999
0.209194 0.216350 0.291696
0.250435 0.218448 0.289385
0.291676 0.220546 0.287074
0.332916 0.222644 0.284762
0.374157 0.224742 0.282451
0.417579 0.226821 0.278137
0.463181 0.228883 0.271822
0.508784 0.230944 0.265507
0.554387 0.233005 0.259192
0.599989 0.235067 0.252877
0.637616 0.238774 0.249127
0.659293 0.245772 0.250509
0.680969 0.252770 0.251890
0.702645 0.259768 0.253271
0.724321 0.266767 0.254653
0.743980 0.274402 0.257148
0.753555 0.285222 0.265212
0.763130 0.296043 0.273276
0.772705 0.306863 0.281340
0.782280 0.317684 0.289403
0.791855 0.328504 0.297467
0.091473 0.167545 0.249880
0.095036 0.171599 0.253679
0.098599 0.175653 0.257479
0.102162 0.179707 0.261278
0.105725 0.183761 0.265078
0.109288 0.187815 0.268877
0.122205 0.195229 0.275609
0.136993 0.203314 0.282927
0.151781 0.211399 0.290246
0.166568 0.219485 0.297564
0.181356 0.227570 0.304883
0.212474 0.232377 0.306763
0.251757 0.235545 0.305924
0.291040 0.238714 0.305086
0.330323 0.241882 0.304247
0.369606 0.245050 0.303409
0.412854 0.247413 0.299375
0.460066 0.248972 0.292145
0.507279 0.250530 0.284915
0.554492 0.252088 0.277685
0.601705 0.253646 0.270455
0.640710 0.256936 0.265949
0.663301 0.263687 0.266891
0.685892 0.270438 0.267833
0.708483 0.277189 0.268776
0.731074 0.283940 0.269718
0.751550 0.291411 0.271905
0.761454 0.302478 0.280316
0.771359 0.313546 0.288728
0.781263 0.324614 0.297140
0.791167 0.335681 0.305551
0.801071 0.346749 0.313963
0.095774 0.178274 0.260420
0.099419 0.182493 0.264302
0.103065 0.186712 0.268183
0.106710 0.190930 0.272065
0.110356 0.195149 0.275947
0.114001 0.199368 0.279829
0.126909 0.207411 0.287078
0.141669 0.216219 0.295000
0.156429 0.225027 0.302922
0.171190 0.233835 0.310844
0.185950 0.242643 0.318766
0.215754 0.248405 0.321830
0.253079 0.252643 0.322464
0.290404 0.256882 0.323098
0.327729 0.261120 0.323733
0.365055 0.265359 0.324367
0.408129 0.268006 0.320612
0.456952 0.269061 0.312467
0.505774 0.270116 0.304322
0.554597 0.271171 0.296177
0.603420 0.272226 0.288033
0.643804 0.275097 0.282770
0.667309 0.281602 0.283274
0.690815 0.288106 0.283777
0.714321 0.294610 0.284280
0.737827 0.301114 0.284783
0.759120 0.308420 0.286662
0.769354 0.319735 0.295421
0.779587 0.331049 0.304180
0.789821 0.342364 0.312940
0.800054 0.353678 0.321699
0.810288 0.364993 0.330458
0.100949 0.189783 0.271929
0.104736 0.194144 0.275893
0.108524 0.198504 0.279857
0.112311 0.202865 0.283821
0.116098 0.207225 0.287785
0.119886 0.211586 0.291749
0.132931 0.220186 0.299443
0.147829 0.229634 0.307882
0.162726 0.239083 0.316321
0.177624 0.248531 0.324760
0.192521 0.257979 0.333199
0.221480 0.264799 0.337429
0.257470 0.270305 0.339554
0.293460 0.275810 0.341679
0.329449 0.281316 0.343805
0.365439 0.286821 0.345930
0.408106 0.290061 0.342866
0.457450 0.291033 0.334611
0.506794 0.292006 0.326356
0.556138 0.292979 0.318102
0.605483 0.293952 0.309847
0.646556 0.296590 0.304251
0.671086 0.302559 0.303972
0.695616 0.308528 0.303693
0.720147 0.314497 0.303414
0.744677 0.320466 0.303135
0.766870 0.327330 0.304382
0.777378 0.338672 0.313255
0.787886 0.350014 0.322129
0.798394 0.361356 0.331002
0.808902 0.372698 0.339876
0.819410 0.384040 0.348749
0.106999 0.202072 0.284407
0.110988 0.206551 0.288453
0.114976 0.211031 0.292500
0.118965 0.215510 0.296546
0.122953 0.219990 0.300592
0.126942 0.224469 0.304639
0.140273 0.233554 0.312704
0.155472 0.243561 0.321573
0.170671 0.253567 0.330442
0.185871 0.263573 0.339311
0.201070 0.273580 0.348180
0.229654 0.281561 0.353560
0.264930 0.288531 0.357194
0.300206 0.295500 0.360829
0.335482 0.302469 0.364464
0.370758 0.309438 0.368099
0.412785 0.313579 0.366136
0.461562 0.314890 0.358577
0.510339 0.316201 0.351018
0.559116 0.317512 0.343459
0.607893 0.318823 0.335899
0.648966 0.321413 0.330392
0.674631 0.326558 0.328988
0.700295 0.331704 0.327583
0.725960 0.336850 0.326179
0.751625 0.341996 0.324775
0.774800 0.348142 0.325064
0.785527 0.359292 0.333818
0.796255 0.370442 0.342573
0.806982 0.381592 0.351328
0.817710 0.392742 0.360082
0.828438 0.403891 0.368837
0.113049 0.214361 0.296884
0.117239 0.218959 0.301013
0.121429 0.223557 0.305142
0.125618 0.228156 0.309271
0.129808 0.232754 0.313400
0.133998 0.237352 0.317528
0.147614 0.246923 0.325966
0.163115 0.257487 0.335265
0.178616 0.268051 0.344563
0.194118 0.278616 0.353862
0.209619 0.289180 0.363161
0.237828 0.298324 0.369690
0.272390 0.306756 0.374835
0.306953 0.315189 0.379979
0.341515 0.323622 0.385123
0.376078 0.332055 0.390267
0.417464 0.337096 0.389407
0.465674 0.338746 0.382543
0.513884 0.340396 0.375679
0.562094 0.342046 0.368815
0.610304 0.343695 0.361951
0.651377 0.346236 0.356532
0.678176 0.350558 0.354003
0.704975 0.354881 0.351473
0.731774 0.359203 0.348944
0.758573 0.363525 0.346414
0.782730 0.368954 0.345746
0.793677 0.379912 0.354382
0.804624 0.390869 0.363017
0.815571 0.401827 0.371653
0.826518 0.412785 0.380289
0.837465 0.423743 0.388924
0.119099 0.226649 0.309362
0.123490 0.231367 0.313573
0.127881 0.236084 0.317785
0.132272 0.240801 0.321996
0.136663 0.245519 0.326207
0.141054 0.250236 0.330418
0.154955 0.260291 0.339227
0.170758 0.271413 0.348956
0.186561 0.282536 0.358685
0.202364 0.293658 0.368414
0.218168 0.304780 0.378143
0.246001 0.315086 0.385821
0.279850 0.324982 0.392475
0.313699 0.334879 0.399129
0.347549 0.344775 0.405782
0.381398 0.354672 0.412436
0.422143 0.360614 0.412678
0.469786 0.362603 0.406510
0.517429 0.364591 0.400341
0.565071 0.366579 0.394172
0.612714 0.368567 0.388003
0.653787 0.371059 0.382672
0.681720 0.374558 0.379018
0.709654 0.378057 0.375363
0.737587 0.381556 0.371709
0.765521 0.385055 0.368054
0.790659 0.389765 0.366428
0.801826 0.400531 0.374945
0.812993 0.411297 0.383461
0.824159 0.422062 0.391978
0.835326 0.432828 0.400495
0.846493 0.443594 0.409012
0.125149 0.238938 0.321840
0.129741 0.243774 0.326134
0.134333 0.248611 0.330427
0.138926 0.253447 0.334721
0.143518 0.258283 0.339014
0.148110 0.263119 0.343307
0.162296 0.273659 0.352489
0.178401 0.285339 0.362648
0.194506 0.297020 0.372806
0.210611 0.308700 0.382965
0.226716 0.320381 0.393124
0.254175 0.331848 0.401952
0.287311 0.343208 0.410115
0.320446 0.354568 0.418278
0.353582 0.365929 0.426441
0.386717 0.377289 0.434605
0.426823 0.384132 0.435949
0.473898 0.386459 0.430476
0.520974 0.388786 0.425002
0.568049 0.391112 0.419529
0.615125 0.393439 0.414055
0.656198 0.395882 0.408813
0.685265 0.398558 0.404033
0.714333 0.401233 0.399253
0.743401 0.403909 0.394473
0.772468 0.406585 0.389694
0.798589 0.410577 0.387110
0.809975 0.421151 0.395508
0.821362 0.431724 0.403906
0.832748 0.442298 0.412304
0.844134 0.452871 0.420701
0.855520 0.463445 0.429099
0.132018 0.251353 0.334381
0.136869 0.256329 0.338766
0.141721 0.261306 0.343151
0.146572 0.266282 0.347536
0.151424 0.271259 0.351921
0.156275 0.276235 0.356306
0.170888 0.287231 0.365815
0.187454 0.299429 0.376349
0.204019 0.311628 0.386883
0.220585 0.323827 0.397416
0.237150 0.336026 0.407950
0.264358 0.348446 0.417707
0.296887 0.360978 0.427074
0.329415 0.373509 0.436442
0.361944 0.386040 0.445809
0.394473 0.398571 0.455177
0.433775 0.406380 0.457723
0.479850 0.409466 0.453448
0.525925 0.412552 0.449173
0.572001 0.415637 0.444898
0.618076 0.418723 0.440622
0.658830 0.421428 0.435849
0.688940 0.423369 0.430078
0.719051 0.425309 0.424307
0.749161 0.427250 0.418536
0.779272 0.429191 0.412765
0.806297 0.432502 0.409292
0.817893 0.442661 0.417305
0.829490 0.452819 0.425319
0.841087 0.462978 0.433333
0.852683 0.473137 0.441346
0.864280 0.483296 0.449360
0.140525 0.264020 0.347048
0.145752 0.269179 0.351543
0.150979 0.274339 0.356037
0.156205 0.279498 0.360532
0.161432 0.284658 0.365027
0.166658 0.289817 0.369521
0.181982 0.301209 0.379270
0.199325 0.313847 0.390069
0.216668 0.326485 0.400868
0.234011 0.339122 0.411667
0.251354 0.351760 0.422467
0.278559 0.364718 0.432708
0.310694 0.377834 0.442670
0.342829 0.390951 0.452632
0.374965 0.404068 0.462594
0.407100 0.417184 0.472556
0.445272 0.426086 0.476502
0.489481 0.430773 0.474432
0.533690 0.435460 0.472361
0.577899 0.440146 0.470291
0.622109 0.444833 0.468220
0.661905 0.448419 0.464675
0.692875 0.449802 0.458182
0.723846 0.451184 0.451688
0.754816 0.452567 0.445195
0.785787 0.453950 0.438701
0.813560 0.456652 0.434473
0.825349 0.465951 0.441572
0.837138 0.475250 0.448671
0.848926 0.484549 0.455770
0.860715 0.493848 0.462868
0.872504 0.503147 0.469967
0.149033 0.276687 0.359715
0.154635 0.282029 0.364319
0.160236 0.287372 0.368924
0.165838 0.292714 0.373528
0.171439 0.298056 0.378133
0.177041 0.303399 0.382737
0.193075 0.315187 0.392725
0.211196 0.328264 0.403790
0.229316 0.341341 0.414854
0.247437 0.354418 0.425919
0.265558 0.367495 0.436983
0.292759 0.380989 0.447709
0.324501 0.394691 0.458266
0.356243 0.408393 0.468823
0.387985 0.422095 0.479379
0.419727 0.435797 0.489936
0.456770 0.445792 0.495282
0.499113 0.452080 0.495416
0.541455 0.458368 0.495550
0.583798 0.464655 0.495684
0.626141 0.470943 0.495818
0.664980 0.475410 0.493502
0.696811 0.476235 0.486286
0.728641 0.477060 0.479070
0.760471 0.477884 0.471854
0.792302 0.478709 0.464637
0.820824 0.480803 0.459654
0.832805 0.489242 0.465839
0.844785 0.497681 0.472023
0.856766 0.506120 0.478207
0.868747 0.514559 0.484391
0.880728 0.522998 0.490575
0.157541 0.289354 0.372382
0.163517 0.294879 0.377096
0.169494 0.300404 0.381810
0.175471 0.305930 0.386525
0.181447 0.311455 0.391239
0.187424 0.316981 0.395953
0.204169 0.329165 0.406180
0.223067 0.342681 0.417510
0.241965 0.356197 0.428840
0.260863 0.369713 0.440170
0.279761 0.383229 0.451499
0.306960 0.397260 0.462710
0.338309 0.411548 0.473862
0.369657 0.425835 0.485013
0.401006 0.440123 0.496164
0.432354 0.454410 0.507316
0.468267 0.465499 0.514061
0.508744 0.473387 0.516400
0.549221 0.481276 0.518738
0.589697 0.489164 0.521077
0.630174 0.497053 0.523416
0.668055 0.502401 0.522329
0.700746 0.502668 0.514390
0.733436 0.502935 0.506451
0.766126 0.503201 0.498512
0.798817 0.503468 0.490573
0.828087 0.504954 0.484836
0.840260 0.512533 0.490105
0.852433 0.520112 0.495374
0.864606 0.527691 0.500644
0.876779 0.535270 0.505913
0.888952 0.542849 0.511182
0.166048 0.302021 0.385049
0.172400 0.307729 0.389873
0.178752 0.313437 0.394697
0.185104 0.319146 0.399521
0.191455 0.324854 0.404345
0.197807 0.330562 0.409169
0.215262 0.343143 0.419635
0.234938 0.357098 0.431230
0.254614 0.371054 0.442826
0.274289 0.385009 0.454421
0.293965 0.398964 0.466016
0.321161 0.413531 0.477711
0.352116 0.428404 0.489457
0.383071 0.443277 0.501203
0.414026 0.458150 0.512949
0.444982 0.473023 0.524695
0.479765 0.485205 0.532840
0.518375 0.494694 0.537384
0.556986 0.504184 0.541927
0.595596 0.513673 0.546471
0.634207 0.523163 0.551014
0.671131 0.529392 0.551156
0.704681 0.529101 0.542494
0.738231 0.528810 0.533833
0.771781 0.528518 0.525171
0.805331 0.528227 0.516509
0.835351 0.529104 0.510017
0.847716 0.535824 0.514372
0.860081 0.542543 0.518726
0.872446 0.549262 0.523080
0.884811 0.555981 0.527435
0.897176 0.562700 0.531789
0.174997 0.314601 0.397345
0.181757 0.320517 0.402311
0.188518 0.326432 0.407277
0.195278 0.332348 0.412243
0.202038 0.338264 0.417209
0.208799 0.344179 0.422174
0.227003 0.357149 0.432883
0.247496 0.371530 0.444740
0.267989 0.385910 0.456598
0.288482 0.400291 0.468455
0.308975 0.414672 0.480312
0.336193 0.429716 0.492440
0.366773 0.445092 0.504703
0.397353 0.460468 0.516966
0.427933 0.475845 0.529229
0.458514 0.491221 0.541492
0.492191 0.504332 0.550848
0.528966 0.515179 0.557299
0.565741 0.526025 0.563750
0.602516 0.536872 0.570201
0.639291 0.547718 0.576652
0.675142 0.554767 0.577975
0.709147 0.554219 0.569042
0.743151 0.553672 0.560109
0.777156 0.553124 0.551176
0.811160 0.552577 0.542243
0.841611 0.553105 0.535364
0.854291 0.559010 0.538755
0.866972 0.564915 0.542145
0.879653 0.570820 0.545536
0.892333 0.576725 0.548927
0.905014 0.582630 0.552318
0.186151 0.326748 0.407791
0.193488 0.332993 0.413058
0.200825 0.339238 0.418326
0.208162 0.345483 0.423594
0.215498 0.351728 0.428862
0.222835 0.357973 0.434129
0.241981 0.371295 0.445094
0.263490 0.386032 0.457199
0.284998 0.400770 0.469303
0.306507 0.415507 0.481407
0.328015 0.430244 0.493511
0.355382 0.445469 0.505807
0.385679 0.460936 0.518198
0.415975 0.476404 0.530589
0.446272 0.491872 0.542980
0.476569 0.507340 0.555371
0.509263 0.520565 0.565002
0.544354 0.531549 0.571874
0.579446 0.542533 0.578745
0.614538 0.553516 0.585617
0.649629 0.564500 0.592488
0.683834 0.572058 0.594754
