filter/Red and Blue/lut/Spotlight 01_S.cube
# LUT by SparkleStock. Enhanced with VOXCOLOR algorithms.
LUT_3D_SIZE 5
DOMAIN_MIN 0.000000 0.000000 0.000000
DOMAIN_MAX 0.903226 0.903226 0.903226
0.093773 0.082051 0.105495
0.175982 0.085714 0.113025
0.381378 0.104289 0.116192
0.582646 0.140210 0.136130
0.680184 0.192107 0.185001
0.106834 0.099965 0.132404
0.178557 0.131190 0.134272
0.398817 0.170313 0.120793
0.622871 0.202577 0.137988
0.723842 0.243809 0.214267
0.135208 0.140770 0.188885
0.194166 0.189069 0.209456
0.387749 0.270981 0.212578
0.650350 0.314367 0.218679
0.784419 0.350994 0.307418
0.179322 0.206444 0.266785
0.236874 0.256824 0.313933
0.400011 0.364084 0.391737
0.672402 0.434284 0.402836
0.844803 0.482899 0.451821
0.249171 0.288022 0.361361
0.316505 0.350894 0.423969
0.474352 0.474539 0.537343
0.702097 0.585602 0.619195
0.897027 0.636777 0.619689
0.101635 0.093915 0.165812
0.182256 0.104619 0.163711
0.408406 0.118619 0.168346
0.621085 0.157388 0.185183
0.718545 0.231220 0.230097
0.121024 0.123178 0.186760
0.199406 0.176518 0.218148
0.417894 0.218730 0.235420
0.650096 0.244371 0.241906
0.767421 0.288079 0.277061
0.162020 0.176778 0.242890
0.230575 0.257577 0.279205
0.416358 0.365015 0.309501
0.668061 0.401662 0.309175
0.824534 0.422069 0.348214
0.220821 0.251144 0.324956
0.285989 0.322405 0.373517
0.440359 0.457219 0.441338
0.678327 0.548865 0.453454
0.868460 0.575544 0.452787
0.306480 0.345274 0.424985
0.373540 0.410524 0.481192
0.518985 0.536208 0.582839
0.720015 0.653974 0.648214
0.901329 0.707831 0.626935
0.118508 0.116397 0.291945
0.173411 0.143632 0.300339
0.413799 0.186208 0.273021
0.669144 0.232560 0.274334
0.779135 0.316915 0.318794
0.144651 0.156889 0.317078
0.209124 0.211444 0.354161
0.422390 0.274976 0.386610
0.678335 0.306625 0.385084
0.817216 0.365737 0.395212
0.205250 0.241322 0.368007
0.272265 0.317111 0.408784
0.433372 0.428338 0.469323
0.678002 0.469900 0.482695
0.861623 0.492195 0.483883
0.286198 0.339487 0.447635
0.359716 0.412610 0.489674
0.493456 0.542420 0.558048
0.680902 0.644646 0.576756
0.887234 0.660914 0.552142
0.397397 0.452637 0.544219
0.468150 0.515956 0.587196
0.590940 0.626611 0.665709
0.744594 0.736901 0.711740
0.903791 0.795206 0.681055
0.155233 0.151956 0.459632
0.194954 0.192199 0.485317
0.336177 0.271082 0.497188
0.704323 0.347902 0.383746
0.841429 0.425808 0.424345
0.186059 0.199178 0.487940
0.235144 0.254117 0.519083
0.374757 0.346852 0.559780
0.700791 0.422497 0.508583
0.862192 0.473866 0.506176
0.256127 0.303120 0.543995
0.310247 0.365619 0.572061
0.436294 0.478965 0.625318
0.685185 0.563049 0.648673
0.885654 0.571446 0.627166
0.343889 0.420832 0.600966
0.409996 0.486860 0.623993
0.547547 0.604704 0.675549
0.680387 0.689370 0.715694
0.889973 0.707298 0.702688
0.450781 0.541114 0.669724
0.523346 0.599087 0.695165
0.654614 0.701207 0.749861
0.766552 0.788131 0.794905
0.901813 0.840895 0.778957
0.219111 0.211013 0.610186
0.260172 0.259782 0.645805
0.367328 0.357372 0.694513
0.572483 0.461405 0.688756
0.856323 0.534824 0.574735
0.255244 0.260752 0.643223
0.298957 0.317966 0.675577
0.397666 0.421419 0.725522
0.589808 0.525727 0.732006
0.867472 0.589084 0.631335
0.330517 0.371832 0.703000
0.369946 0.428789 0.728586
0.456905 0.531926 0.769998
0.616269 0.633275 0.794091
0.874982 0.683239 0.733666
0.401179 0.492474 0.754778
0.441815 0.544799 0.770833
0.538376 0.641259 0.801099
0.671917 0.735020 0.831758
0.877319 0.782211 0.813536
0.458966 0.596796 0.788450
0.518955 0.645183 0.802710
0.646340 0.738334 0.833010
0.784134 0.822736 0.862045
0.898573 0.870925 0.861789
