filter/Red and Blue/lut/Spotlight 01.cube
# LUT by SparkleStock. Enhanced with VOXCOLOR algorithms.
LUT_3D_SIZE 5
DOMAIN_MIN 0.000000 0.000000 0.000000
DOMAIN_MAX 0.903226 0.903226 0.903226
0.093773 0.082051 0.105495
0.175651 0.086321 0.113789
0.379850 0.107385 0.119115
0.579857 0.143700 0.139163
0.679759 0.192674 0.185569
0.106834 0.099791 0.132490
0.167718 0.115327 0.151864
0.379753 0.141086 0.163152
0.606584 0.184118 0.181304
0.715379 0.239670 0.230772
0.135728 0.139241 0.189476
0.185615 0.170800 0.226492
0.362032 0.217281 0.268495
0.636429 0.268038 0.278333
0.777074 0.338341 0.330646
0.180834 0.200362 0.269810
0.235699 0.248402 0.320383
0.392173 0.342548 0.414098
0.662318 0.403273 0.437262
0.842831 0.472173 0.466753
0.250447 0.282634 0.363914
0.316871 0.346325 0.427107
0.474050 0.470527 0.542137
0.701274 0.581216 0.626134
0.896721 0.633296 0.625484
0.101635 0.093915 0.165812
0.179536 0.109667 0.159038
0.402228 0.137492 0.155676
0.613955 0.178955 0.175270
0.715526 0.236896 0.228290
0.121167 0.123035 0.186760
0.179256 0.158792 0.215607
0.384496 0.198091 0.236644
0.626566 0.239329 0.245945
0.745092 0.294010 0.285138
0.162438 0.176126 0.242890
0.217573 0.225820 0.289102
0.374717 0.300195 0.359201
0.648233 0.346626 0.369729
0.800818 0.402216 0.395636
0.222451 0.248088 0.325490
0.284396 0.307562 0.380213
0.427176 0.413483 0.479940
0.663814 0.493986 0.532773
0.855581 0.536954 0.530681
0.307958 0.341839 0.425817
0.374273 0.406946 0.482873
0.518709 0.528637 0.590803
0.720546 0.638747 0.674506
0.898765 0.684820 0.674275
0.118508 0.116397 0.291945
0.171811 0.145965 0.297707
0.409069 0.199863 0.258517
0.666694 0.253723 0.256423
0.777507 0.322939 0.315048
0.145264 0.156449 0.316659
0.197401 0.206998 0.343017
0.396993 0.285004 0.357611
0.670476 0.332207 0.351105
0.802562 0.389422 0.382832
0.205969 0.240798 0.367510
0.266265 0.301713 0.404714
0.402441 0.405768 0.477015
0.662275 0.468372 0.508172
0.836873 0.510299 0.507062
0.288721 0.336975 0.447644
0.360695 0.403075 0.491358
0.489469 0.515204 0.577648
0.668601 0.614541 0.652047
0.871460 0.640517 0.633526
0.400146 0.449458 0.544302
0.469831 0.512793 0.588064
0.592698 0.620300 0.671327
0.748923 0.719951 0.745240
0.899263 0.765401 0.751020
0.155233 0.151956 0.459632
0.194792 0.192361 0.485236
0.335072 0.272674 0.495825
0.703255 0.352842 0.378195
0.841429 0.427816 0.422602
0.186812 0.198848 0.487447
0.233128 0.253964 0.516081
0.364471 0.353555 0.548705
0.697999 0.443966 0.485319
0.859212 0.495024 0.490247
0.259320 0.300849 0.542195
0.310033 0.362250 0.568671
0.427952 0.478893 0.619040
0.677596 0.589941 0.639422
0.876073 0.613930 0.610486
0.345768 0.419564 0.600414
0.411104 0.483896 0.622776
0.547650 0.598926 0.675706
0.673138 0.689076 0.728206
0.876688 0.727201 0.722599
0.454033 0.538589 0.669527
0.525212 0.596952 0.695255
0.656380 0.698842 0.751098
0.769947 0.782066 0.804308
0.897214 0.828454 0.812999
0.219111 0.211013 0.610186
0.260172 0.259782 0.645805
0.367328 0.357372 0.694513
0.572483 0.461556 0.688605
0.856323 0.534989 0.574570
0.256330 0.260702 0.642330
0.299292 0.318385 0.674755
0.396752 0.422664 0.724236
0.588398 0.528996 0.729540
0.867165 0.594598 0.627237
0.333410 0.371215 0.701303
0.371115 0.428435 0.727046
0.456514 0.532926 0.768153
0.613850 0.639982 0.790404
0.873190 0.701047 0.722522
0.405224 0.490637 0.753178
0.443820 0.543383 0.769332
0.538943 0.640805 0.799893
0.671652 0.737561 0.830366
0.873765 0.797837 0.805555
0.461609 0.595324 0.787577
0.520391 0.643975 0.801974
0.647251 0.737674 0.832701
0.784907 0.822563 0.862175
0.896004 0.871820 0.862742
