filter/Red and Blue 2/lut/Hope 04_S.cube
# LUT by SparkleStock. Enhanced with VOXCOLOR algorithms.
LUT_3D_SIZE 8
DOMAIN_MIN 0.000000 0.000000 0.000000
DOMAIN_MAX 0.903226 0.903226 0.903226
0.039072 0.058608 0.054701
0.084446 0.057285 0.054134
0.147497 0.056631 0.052093
0.231927 0.059404 0.049447
0.338769 0.068100 0.047343
0.464303 0.087384 0.049045
0.584324 0.115176 0.054370
0.685730 0.145283 0.062673
0.040963 0.080917 0.075686
0.114000 0.094084 0.057262
0.192792 0.106780 0.050428
0.287870 0.118530 0.049038
0.403878 0.129532 0.049112
0.529998 0.142669 0.052863
0.641090 0.160532 0.062067
0.727146 0.181698 0.075882
0.044058 0.102690 0.096940
0.139057 0.122572 0.068123
0.232954 0.156484 0.056691
0.334517 0.188106 0.054664
0.448546 0.207155 0.056591
0.570275 0.217254 0.064154
0.676447 0.225534 0.078567
0.758406 0.236935 0.098466
0.050014 0.125897 0.118933
0.165906 0.148072 0.083714
0.274676 0.196969 0.069108
0.380214 0.249255 0.068005
0.486196 0.287427 0.074831
0.598192 0.301441 0.088028
0.699327 0.305495 0.109957
0.782010 0.310460 0.137537
0.059774 0.151798 0.141904
0.198848 0.175016 0.101781
0.322918 0.225306 0.086251
0.431991 0.290830 0.089597
0.528779 0.356764 0.106044
0.626010 0.385525 0.128463
0.718464 0.394903 0.160878
0.800838 0.400215 0.198325
0.073008 0.180346 0.165536
0.238721 0.207808 0.122047
0.380825 0.257159 0.108127
0.498107 0.320158 0.117693
0.592169 0.388928 0.145667
0.671689 0.452671 0.191651
0.747286 0.483126 0.238117
0.820268 0.500313 0.287396
0.089235 0.207476 0.186805
0.283295 0.245281 0.143974
0.442203 0.299792 0.134048
0.566118 0.363620 0.150831
0.658124 0.430911 0.189310
0.727863 0.498533 0.250687
0.788534 0.551691 0.317669
0.846447 0.588726 0.381366
0.108724 0.229304 0.209138
0.333216 0.281210 0.170070
0.505259 0.343457 0.165004
0.631198 0.410517 0.189434
0.719123 0.478191 0.239105
0.781140 0.544740 0.313606
0.830391 0.606867 0.392712
0.873042 0.655563 0.463413
0.037371 0.080539 0.083627
0.096210 0.064725 0.068862
0.173868 0.059430 0.068590
0.272703 0.062654 0.074042
0.391803 0.073546 0.078690
0.521143 0.097075 0.080099
0.633016 0.130941 0.081716
0.718571 0.167330 0.087610
0.040578 0.103433 0.106808
0.095126 0.121147 0.111354
0.190200 0.131303 0.112313
0.310581 0.139340 0.113026
0.442955 0.149549 0.115276
0.574807 0.165230 0.116241
0.684116 0.188223 0.117827
0.763231 0.216658 0.122586
0.046858 0.127658 0.129531
0.104013 0.161572 0.138860
0.216304 0.197093 0.135115
0.349792 0.225352 0.131068
0.480813 0.241822 0.134328
0.609317 0.253409 0.138939
0.717449 0.266450 0.145893
0.797102 0.284016 0.157023
0.055728 0.153719 0.153244
0.118763 0.193024 0.161534
0.247366 0.249242 0.151766
0.390339 0.301873 0.144325
0.514919 0.336774 0.151142
0.634512 0.350964 0.162088
0.739545 0.358655 0.177979
0.822234 0.367783 0.199386
0.067007 0.181925 0.178648
0.137189 0.221465 0.186624
0.281694 0.284971 0.173016
0.434636 0.356509 0.164514
0.554472 0.420192 0.176715
0.659796 0.446876 0.196698
0.757056 0.457285 0.223576
0.841049 0.464682 0.256110
0.082144 0.212522 0.204330
0.164120 0.252227 0.215511
0.329713 0.314888 0.202299
0.497465 0.388595 0.195599
0.615269 0.462281 0.214780
0.699709 0.520208 0.252889
0.780907 0.548426 0.291873
0.857769 0.565445 0.333518
0.101372 0.244385 0.230209
0.201005 0.291865 0.248527
0.387201 0.356207 0.240075
0.568194 0.428393 0.239123
0.685534 0.500733 0.267272
0.757586 0.565314 0.317601
0.817585 0.614762 0.370497
0.877189 0.649204 0.421020
0.126221 0.274495 0.259885
0.244280 0.331967 0.286522
0.447801 0.402969 0.285840
0.637480 0.476817 0.293069
0.751197 0.545918 0.330279
0.813710 0.608472 0.389601
0.858397 0.665396 0.451555
0.899624 0.709659 0.507394
0.035267 0.105550 0.115767
0.084349 0.094322 0.104533
0.184013 0.078420 0.094751
0.307586 0.072989 0.095532
0.435640 0.086842 0.108888
0.564846 0.114200 0.112596
0.670074 0.153467 0.112666
0.747313 0.195973 0.118673
0.040518 0.129755 0.141143
0.086021 0.150625 0.157252
0.185821 0.156084 0.169026
0.319116 0.159054 0.177580
0.466558 0.168673 0.183260
0.603894 0.187046 0.182908
0.713137 0.215458 0.178649
0.790233 0.251389 0.177198
0.048136 0.156497 0.166878
0.096258 0.193898 0.191831
0.200724 0.228207 0.211587
0.340104 0.253338 0.222986
0.493680 0.267312 0.225573
0.631836 0.280640 0.227407
0.744049 0.298576 0.227782
0.825341 0.322907 0.230438
0.058790 0.185420 0.193322
0.110960 0.229858 0.219175
0.221905 0.287775 0.238895
0.367109 0.339132 0.249156
0.522904 0.371029 0.250551
0.654287 0.385400 0.257820
0.765532 0.396637 0.267308
0.851832 0.410453 0.280249
0.072741 0.216424 0.220927
0.128314 0.263300 0.247703
0.246349 0.331625 0.264615
0.399589 0.404548 0.271450
0.559955 0.466222 0.271809
0.677235 0.490634 0.285773
0.781360 0.502184 0.305211
0.870075 0.511411 0.329747
0.089573 0.250833 0.251145
0.155019 0.298209 0.282242
0.284933 0.366105 0.300725
0.449624 0.443689 0.307250
0.615906 0.519804 0.307533
0.712661 0.573485 0.330411
0.800967 0.598935 0.357910
0.883493 0.614147 0.389333
0.111422 0.287635 0.283605
0.193413 0.342158 0.323394
0.338753 0.410793 0.347766
0.515174 0.486314 0.358498
0.686217 0.561437 0.362668
0.770639 0.623239 0.392359
0.833790 0.668405 0.426381
0.897603 0.698640 0.461422
0.140150 0.324688 0.320636
0.239861 0.388453 0.370267
0.400112 0.461650 0.402228
0.584385 0.536681 0.419253
0.753896 0.607184 0.429186
0.828972 0.666078 0.464552
0.874570 0.718040 0.504465
0.917468 0.757559 0.542951
0.034180 0.132774 0.149072
0.068211 0.133439 0.148182
0.170370 0.116323 0.134211
0.315176 0.103549 0.124978
0.475689 0.110606 0.130611
0.603139 0.142173 0.141101
0.702088 0.185383 0.144486
0.774600 0.232448 0.154807
0.041468 0.158407 0.176035
0.081268 0.182585 0.198143
0.174264 0.189029 0.219424
0.313091 0.190677 0.235569
0.481915 0.197833 0.243937
0.626240 0.218989 0.244871
0.735823 0.251988 0.239077
0.812525 0.293397 0.237019
0.050570 0.187854 0.205541
0.097896 0.225030 0.236036
0.188147 0.259252 0.275741
0.323332 0.284346 0.306498
0.493928 0.298426 0.317763
0.645261 0.312943 0.317441
0.762045 0.334577 0.313891
0.845969 0.363927 0.312440
0.063309 0.220406 0.236576
0.117612 0.264809 0.268794
0.208857 0.321485 0.314705
0.343023 0.371803 0.350188
0.513033 0.403554 0.361838
0.662404 0.417169 0.364106
0.781037 0.430254 0.367896
0.871857 0.447368 0.374034
0.080422 0.255661 0.268815
0.140797 0.304971 0.302217
0.234830 0.372760 0.347262
0.370671 0.443478 0.379981
0.541244 0.502303 0.388238
0.681042 0.523754 0.393056
0.794636 0.534687 0.404210
0.888841 0.544389 0.419651
0.099840 0.294790 0.304778
0.172401 0.346895 0.341934
0.271029 0.415613 0.388432
0.411140 0.491953 0.419380
0.587038 0.565889 0.423061
0.712090 0.615363 0.425982
0.811017 0.636652 0.440789
0.899459 0.648607 0.461532
0.124874 0.337563 0.344915
0.216200 0.396928 0.389951
0.325232 0.466519 0.441358
0.471762 0.541004 0.474283
0.651442 0.614254 0.477574
0.767116 0.672143 0.480265
0.840231 0.711718 0.494309
0.910043 0.736397 0.514466
0.157608 0.381345 0.389248
0.269724 0.449724 0.443498
0.390170 0.521840 0.500045
0.540469 0.593985 0.535905
0.717793 0.662074 0.541358
0.825359 0.716550 0.545966
0.880542 0.762899 0.562241
0.928309 0.796944 0.583838
0.035291 0.161322 0.181756
0.060924 0.172909 0.190636
0.135971 0.171187 0.186914
0.286607 0.160501 0.170533
0.503203 0.150993 0.149022
0.640148 0.183877 0.164818
0.734398 0.228694 0.176802
0.802573 0.277929 0.196520
0.044225 0.188217 0.209706
0.077809 0.217057 0.236825
0.154985 0.233989 0.263777
0.293775 0.241915 0.284064
0.488630 0.246652 0.294176
0.648045 0.269252 0.297724
0.758501 0.304754 0.295997
0.833939 0.347946 0.300406
0.056089 0.220715 0.243207
0.097794 0.259082 0.278268
0.179650 0.296884 0.323131
0.310537 0.327083 0.367002
0.486089 0.346397 0.399266
0.655810 0.361754 0.399539
0.776974 0.384756 0.396053
0.862202 0.415351 0.397088
0.072025 0.258069 0.280847
0.122652 0.302632 0.318832
0.212006 0.357549 0.371183
0.337051 0.408573 0.425836
0.492148 0.444878 0.469298
0.664117 0.458089 0.469829
0.790320 0.470361 0.469924
0.884397 0.487575 0.473404
0.092524 0.299446 0.321346
0.153466 0.349843 0.361401
0.252439 0.414405 0.413804
0.372773 0.480708 0.468384
0.506187 0.536111 0.512477
0.675287 0.555309 0.511658
0.800224 0.562912 0.515413
0.899030 0.570707 0.522621
0.116882 0.344009 0.363714
0.190732 0.399170 0.407465
0.296838 0.466841 0.458505
0.416106 0.538553 0.509711
0.540354 0.605495 0.549567
0.700644 0.649910 0.537756
0.813568 0.665112 0.541619
0.907663 0.672434 0.552674
0.146673 0.394014 0.411839
0.240129 0.456115 0.461904
0.356828 0.524723 0.513944
0.477278 0.594732 0.564018
0.594797 0.660927 0.602079
0.748857 0.712949 0.583282
0.838886 0.745123 0.579861
0.916528 0.763139 0.587417
0.185060 0.444845 0.463211
0.300590 0.514336 0.520304
0.427244 0.584055 0.573749
0.547247 0.650660 0.622826
0.656829 0.711110 0.659638
0.803531 0.759914 0.638671
0.877108 0.799192 0.633086
0.933591 0.826705 0.639811
0.040206 0.189870 0.211627
0.062180 0.210971 0.231045
0.123926 0.224776 0.240973
0.248631 0.232581 0.238362
0.442960 0.236813 0.222670
0.668165 0.245400 0.199971
0.771270 0.287021 0.218590
0.833054 0.336330 0.252304
0.051044 0.218667 0.242358
0.080175 0.254528 0.276050
0.144782 0.284093 0.306825
0.266885 0.309340 0.332705
0.453199 0.331117 0.350307
0.668692 0.345511 0.346182
0.786700 0.378232 0.352639
0.858717 0.418042 0.369623
0.065743 0.255038 0.280196
0.103567 0.298334 0.320913
0.174609 0.342979 0.366007
0.294288 0.384939 0.411428
0.467038 0.420210 0.451207
0.668682 0.440401 0.465961
0.796630 0.460731 0.468020
0.880052 0.485684 0.476049
0.085143 0.297929 0.324397
0.133494 0.346251 0.368993
0.214349 0.401917 0.421298
0.331662 0.457002 0.476079
0.485457 0.503847 0.526766
0.668499 0.528343 0.555639
0.801331 0.537428 0.557664
0.895490 0.548090 0.561943
0.110454 0.346277 0.373734
0.171131 0.400121 0.421730
0.264168 0.461187 0.474837
0.379862 0.524118 0.529471
0.512270 0.581307 0.580853
0.670218 0.609183 0.615148
0.802389 0.612115 0.618279
0.904589 0.613570 0.621614
0.146668 0.399476 0.425322
0.220480 0.456384 0.474976
0.323605 0.520544 0.527329
0.443068 0.586590 0.578919
0.567486 0.647952 0.625101
0.684781 0.687335 0.651804
0.806997 0.694446 0.652588
0.909644 0.695113 0.654977
0.185144 0.456288 0.480839
0.275766 0.517303 0.533256
0.388416 0.581721 0.584369
0.508787 0.645735 0.632034
0.624701 0.705112 0.672920
0.722622 0.749721 0.694903
0.826882 0.772353 0.683083
0.917794 0.782674 0.678829
0.233483 0.513083 0.537968
0.343579 0.578551 0.593192
0.462932 0.642305 0.642707
0.579318 0.702029 0.686038
0.683571 0.755608 0.721881
0.769333 0.798728 0.742874
0.860047 0.828072 0.723775
0.933340 0.847566 0.715153
0.048115 0.219205 0.241813
0.069235 0.249211 0.271526
0.124287 0.277155 0.296413
0.236112 0.303573 0.313439
0.414837 0.328483 0.319878
0.642433 0.349487 0.309791
0.785821 0.372585 0.307276
0.865380 0.407858 0.331065
0.061953 0.252223 0.277155
0.091798 0.295817 0.319441
0.149994 0.336411 0.358353
0.260954 0.376834 0.393999
0.435759 0.417336 0.424167
0.654794 0.447962 0.434392
0.801678 0.468870 0.433020
0.885111 0.495930 0.446972
0.080586 0.293056 0.320035
0.119849 0.343516 0.369092
0.185332 0.394995 0.417901
0.295201 0.446836 0.466059
0.458159 0.496786 0.510822
0.663561 0.534041 0.537208
0.810695 0.550924 0.540089
0.899652 0.567044 0.548695
0.105158 0.341007 0.369823
0.155876 0.395943 0.422846
0.232001 0.454570 0.476849
0.340349 0.513609 0.530481
0.484982 0.568885 0.581048
0.670353 0.608686 0.617750
0.813506 0.620651 0.626071
0.908205 0.626048 0.632552
0.137172 0.395304 0.425572
0.201755 0.454767 0.481463
0.290364 0.516030 0.536097
0.397412 0.577405 0.588553
0.521132 0.635183 0.637394
0.677799 0.673964 0.677211
0.811908 0.681533 0.690124
0.911014 0.679090 0.696307
0.182436 0.455797 0.485772
0.260570 0.516435 0.540902
0.358399 0.578249 0.593676
0.469006 0.638877 0.642727
0.585191 0.694974 0.686407
0.694672 0.735705 0.719482
0.812669 0.743862 0.731968
0.911356 0.740657 0.737202
0.237870 0.520106 0.547156
0.328634 0.579547 0.600413
0.431693 0.638803 0.649513
0.540110 0.695559 0.693329
0.646633 0.747246 0.730722
0.737020 0.787189 0.758163
0.829115 0.806371 0.765259
0.914439 0.811043 0.767140
0.305793 0.581849 0.607607
0.406358 0.640647 0.658376
0.509432 0.696316 0.703138
0.610062 0.747623 0.741571
0.703538 0.793341 0.773530
0.781004 0.830067 0.797960
0.855615 0.855605 0.802368
0.925228 0.869030 0.799842
0.059695 0.253204 0.276364
0.082187 0.289375 0.313468
0.134654 0.328678 0.351397
0.239757 0.371276 0.387758
0.408324 0.416100 0.419404
0.626290 0.456864 0.436748
0.791274 0.476937 0.433286
0.885159 0.496933 0.440813
0.076595 0.289400 0.315572
0.110281 0.340524 0.366827
0.167472 0.390028 0.414729
0.272703 0.441906 0.460919
0.438105 0.496872 0.504365
0.648762 0.543646 0.531866
0.808345 0.563250 0.532528
0.901006 0.578439 0.537312
0.099615 0.334766 0.364716
0.144339 0.392807 0.422486
0.209463 0.449731 0.476114
0.313577 0.507996 0.528016
0.466829 0.567335 0.577620
0.664244 0.616548 0.611340
0.817337 0.635964 0.617154
0.910647 0.646126 0.620213
0.130691 0.388402 0.421249
0.188170 0.449900 0.481704
0.263413 0.510716 0.537499
0.364899 0.571307 0.590378
0.499063 0.630428 0.640008
0.676457 0.678700 0.676671
0.820390 0.696959 0.687649
0.914975 0.702070 0.690264
0.171807 0.449118 0.482887
0.244358 0.513334 0.544443
0.330326 0.574367 0.599476
0.428238 0.632995 0.648955
0.540373 0.688539 0.693316
0.689162 0.733211 0.729946
0.819980 0.748967 0.744947
0.915217 0.749649 0.748275
0.228970 0.515367 0.547929
0.315341 0.578587 0.606232
0.407798 0.637483 0.657737
0.505299 0.692240 0.702979
0.606543 0.742408 0.742320
0.709127 0.783557 0.774328
0.820944 0.798045 0.789385
0.913876 0.798002 0.793044
0.305038 0.583467 0.611294
0.396585 0.641339 0.663534
0.487779 0.695059 0.709704
0.578525 0.744355 0.749734
0.668092 0.788682 0.783578
0.752347 0.824837 0.809775
0.834475 0.845062 0.826611
0.913588 0.850074 0.830843
0.394970 0.648643 0.670971
0.481705 0.699609 0.716410
0.564723 0.746865 0.756756
0.644620 0.789989 0.791666
0.721639 0.828463 0.820849
0.794114 0.859916 0.842660
0.857263 0.883420 0.859910
0.921635 0.894897 0.863284
