filter/Red and Blue 2/lut/Hope 04_S.cube
# LUT by SparkleStock. Enhanced with VOXCOLOR algorithms.
LUT_3D_SIZE 5
DOMAIN_MIN 0.000000 0.000000 0.000000
DOMAIN_MAX 0.903226 0.903226 0.903226
0.039072 0.058608 0.054701
0.129915 0.056725 0.052755
0.284013 0.062996 0.048123
0.495136 0.093056 0.049833
0.685730 0.145283 0.062673
0.043160 0.097302 0.091599
0.200886 0.136249 0.055167
0.381100 0.178281 0.053033
0.592022 0.199266 0.062823
0.751636 0.221189 0.091855
0.054646 0.138658 0.130371
0.270184 0.195637 0.078834
0.455261 0.300254 0.083709
0.636286 0.348244 0.111829
0.791381 0.354599 0.165911
0.076616 0.187341 0.171208
0.361708 0.251649 0.114165
0.562803 0.363404 0.139148
0.702699 0.481325 0.219754
0.825800 0.524169 0.310154
0.108724 0.229304 0.209138
0.467648 0.326831 0.162770
0.677011 0.444435 0.212496
0.795368 0.560935 0.332692
0.873042 0.655563 0.463413
0.035834 0.098980 0.107401
0.155732 0.074990 0.087984
0.362300 0.075235 0.096548
0.585392 0.116919 0.104777
0.740550 0.188133 0.110277
0.045816 0.142125 0.150846
0.165968 0.198243 0.184471
0.412436 0.229347 0.194223
0.653359 0.253335 0.196990
0.811542 0.294484 0.199076
0.064646 0.192007 0.196123
0.201864 0.283230 0.227998
0.468570 0.391155 0.231013
0.690740 0.435297 0.248608
0.855044 0.451292 0.282959
0.092479 0.249170 0.246001
0.261245 0.344219 0.285716
0.562106 0.481080 0.287783
0.743681 0.590472 0.330710
0.881949 0.627355 0.391769
0.137035 0.311625 0.304419
0.357739 0.427581 0.371185
0.685850 0.558197 0.392812
0.842023 0.666591 0.456853
0.913907 0.746222 0.534929
0.034464 0.147048 0.165615
0.123686 0.147815 0.164079
0.403466 0.126575 0.139120
0.650835 0.171153 0.155366
0.788408 0.254266 0.174658
0.050169 0.195968 0.216125
0.152183 0.254282 0.276944
0.402265 0.287831 0.333414
0.682682 0.315737 0.340185
0.846597 0.370753 0.334148
0.076512 0.257968 0.276738
0.199412 0.349667 0.348041
0.432086 0.452005 0.424312
0.705769 0.490512 0.436801
0.886698 0.510202 0.448817
0.113373 0.329838 0.344317
0.266418 0.435079 0.422298
0.497031 0.566084 0.491439
0.748272 0.662576 0.490290
0.906432 0.685206 0.515870
0.169836 0.412757 0.426173
0.376642 0.535245 0.523570
0.611885 0.655707 0.595383
0.841918 0.750605 0.590022
0.931345 0.812460 0.610441
0.041735 0.197085 0.219126
0.103500 0.234270 0.252139
0.332879 0.254828 0.250784
0.716443 0.269894 0.213894
0.840859 0.352243 0.268548
0.064374 0.253826 0.279220
0.146190 0.329900 0.352487
0.368594 0.400945 0.425847
0.714906 0.444166 0.457696
0.880258 0.489019 0.469516
0.101593 0.332837 0.360943
0.217182 0.428477 0.448618
0.424395 0.531859 0.544344
0.708145 0.590325 0.613535
0.902502 0.594691 0.615039
0.164695 0.427570 0.454405
0.318211 0.533108 0.544966
0.528704 0.645888 0.632355
0.716179 0.721880 0.690456
0.911473 0.723084 0.686019
0.247977 0.530195 0.556145
0.442923 0.641152 0.647604
0.640290 0.740899 0.719276
0.785906 0.816676 0.766281
0.932491 0.852841 0.734923
0.059695 0.253204 0.276364
0.118452 0.318530 0.341830
0.320512 0.393978 0.404602
0.675483 0.464985 0.439004
0.885159 0.496933 0.440813
0.093230 0.322481 0.351407
0.180174 0.421320 0.448252
0.377998 0.522066 0.537337
0.706776 0.609040 0.598410
0.908876 0.630627 0.600888
0.150103 0.418365 0.451825
0.274262 0.527515 0.555437
0.453766 0.631841 0.644195
0.720723 0.714915 0.710817
0.915209 0.725804 0.720215
0.245151 0.532115 0.564022
0.403644 0.638655 0.659759
0.573732 0.731345 0.735299
0.741116 0.802742 0.790664
0.913646 0.810462 0.803539
0.394970 0.648643 0.670971
0.544352 0.735433 0.747194
0.683454 0.809727 0.806784
0.811300 0.866984 0.847656
0.921635 0.894897 0.863284
