filter/Red and Blue 2/lut/Hope 03.cube
# LUT by SparkleStock. Enhanced with VOXCOLOR algorithms.
LUT_3D_SIZE 8
DOMAIN_MIN 0.000000 0.000000 0.000000
DOMAIN_MAX 0.903226 0.903226 0.903226
0.035165 0.023443 0.023443
0.106062 0.020418 0.018528
0.199323 0.020206 0.017764
0.309827 0.024144 0.019260
0.431250 0.033148 0.021813
0.550356 0.048273 0.026350
0.637638 0.064343 0.031202
0.701658 0.089204 0.042365
0.038379 0.050479 0.048021
0.135036 0.062969 0.024809
0.231249 0.075368 0.020679
0.340985 0.086820 0.024834
0.468208 0.096080 0.029765
0.583509 0.098910 0.035913
0.667229 0.107198 0.044693
0.728132 0.125814 0.058105
0.043334 0.076576 0.074205
0.168759 0.098672 0.037363
0.278567 0.128863 0.030052
0.385945 0.156667 0.036590
0.497597 0.173959 0.045792
0.599969 0.173721 0.057074
0.681804 0.171877 0.070369
0.745954 0.180088 0.087212
0.054362 0.106463 0.103100
0.209975 0.134633 0.055158
0.336477 0.177473 0.043625
0.440171 0.220964 0.052940
0.528017 0.253408 0.070781
0.610959 0.261343 0.090907
0.689515 0.258177 0.113655
0.758175 0.258372 0.138110
0.073930 0.142148 0.135240
0.259585 0.175514 0.077309
0.399721 0.220932 0.060645
0.498746 0.273005 0.073800
0.565647 0.324134 0.105333
0.626908 0.352066 0.139840
0.698008 0.362159 0.178020
0.767925 0.361768 0.214233
0.100776 0.177502 0.170026
0.313656 0.220674 0.103899
0.458622 0.269471 0.086711
0.552646 0.322581 0.106159
0.613107 0.378723 0.151561
0.663830 0.436514 0.217097
0.718658 0.466099 0.266548
0.780354 0.476941 0.307305
0.134712 0.217425 0.209067
0.365546 0.267964 0.140353
0.511170 0.320811 0.127820
0.599492 0.375689 0.155666
0.655464 0.432469 0.209859
0.702723 0.491943 0.279469
0.749371 0.536119 0.335901
0.799248 0.562906 0.380058
0.176210 0.263382 0.251723
0.415534 0.318422 0.186461
0.558143 0.372344 0.178749
0.641237 0.426653 0.211635
0.695509 0.482174 0.269273
0.741036 0.537854 0.334553
0.782827 0.585495 0.389404
0.821846 0.622628 0.432815
0.034976 0.049344 0.058041
0.121095 0.030951 0.033805
0.228126 0.025737 0.027820
0.349914 0.030530 0.030634
0.477996 0.042937 0.035583
0.589931 0.063770 0.042902
0.668943 0.087133 0.052731
0.725583 0.116355 0.065820
0.041263 0.076233 0.085253
0.099771 0.090919 0.082495
0.214415 0.102316 0.069816
0.358370 0.112847 0.059405
0.506021 0.123669 0.059084
0.618796 0.131754 0.067106
0.697004 0.146505 0.079106
0.752846 0.168698 0.095220
0.051988 0.106539 0.116353
0.111816 0.136033 0.121198
0.246706 0.168345 0.101320
0.401067 0.196436 0.084171
0.534835 0.214853 0.086632
0.636517 0.218293 0.099845
0.714192 0.222563 0.118176
0.773693 0.234891 0.140675
0.068737 0.141329 0.150126
0.142313 0.177861 0.157281
0.297515 0.224427 0.131265
0.455465 0.269327 0.111565
0.566384 0.302914 0.121731
0.650543 0.314139 0.145232
0.725249 0.315205 0.173280
0.788954 0.319499 0.203829
0.092860 0.181058 0.186383
0.181067 0.224542 0.196508
0.348259 0.273536 0.166715
0.506505 0.326172 0.146871
0.602353 0.377847 0.166592
0.667792 0.409353 0.204686
0.735170 0.419876 0.244295
0.800107 0.422074 0.282558
0.127464 0.225194 0.229513
0.231450 0.277464 0.243113
0.402703 0.328738 0.213631
0.557544 0.380663 0.195652
0.645648 0.433668 0.222116
0.698850 0.483815 0.273110
0.753356 0.513565 0.320778
0.811360 0.525854 0.361640
0.173548 0.274264 0.275798
0.289710 0.333166 0.293668
0.458356 0.386334 0.269142
0.606030 0.437266 0.255415
0.689287 0.488205 0.284383
0.738929 0.537976 0.335296
0.782784 0.578545 0.383162
0.828673 0.603838 0.423102
0.228311 0.328253 0.323578
0.349114 0.388091 0.343242
0.511345 0.441736 0.324919
0.651080 0.491512 0.315754
0.730825 0.539100 0.343737
0.778287 0.584298 0.388714
0.816187 0.627139 0.432832
0.851568 0.660803 0.471113
0.035724 0.080736 0.100138
0.099534 0.067813 0.081256
0.234726 0.047153 0.054850
0.386674 0.040142 0.041399
0.516971 0.057766 0.050741
0.619556 0.082856 0.062292
0.691577 0.113099 0.078289
0.744437 0.147597 0.099276
0.045293 0.111003 0.131747
0.090406 0.131065 0.139202
0.199977 0.140079 0.129601
0.353005 0.146830 0.113945
0.522417 0.156743 0.102120
0.640763 0.166384 0.107609
0.718188 0.185271 0.124583
0.772829 0.211632 0.147433
0.060084 0.145664 0.168203
0.108041 0.180587 0.186350
0.215344 0.216201 0.187588
0.368035 0.244086 0.173879
0.541897 0.259233 0.152805
0.658646 0.263759 0.158421
0.740144 0.272688 0.180010
0.798107 0.288685 0.206373
0.081362 0.184978 0.207486
0.140907 0.227099 0.230650
0.256758 0.278912 0.237212
0.409374 0.325001 0.225668
0.572453 0.354847 0.203292
0.675687 0.366182 0.215524
0.756058 0.371058 0.243332
0.817369 0.377880 0.274027
0.110935 0.229190 0.248728
0.181830 0.278244 0.277960
0.306894 0.333061 0.285374
0.459850 0.387453 0.273954
0.611017 0.435155 0.254779
0.694899 0.463443 0.277864
0.766860 0.473290 0.311624
0.829532 0.475714 0.346418
0.156095 0.279827 0.295535
0.237907 0.335925 0.330683
0.365054 0.390914 0.337633
0.512957 0.442729 0.326645
0.653733 0.489874 0.312407
0.724159 0.530962 0.337403
0.782314 0.556722 0.374193
0.838392 0.567576 0.410072
0.211253 0.333259 0.344228
0.300356 0.393927 0.383612
0.424548 0.448801 0.392613
0.565195 0.498139 0.382912
0.698885 0.542453 0.369766
0.764200 0.582472 0.393189
0.809870 0.616517 0.427069
0.853216 0.638377 0.460845
0.272053 0.388645 0.392369
0.362144 0.449239 0.433035
0.480510 0.502823 0.444458
0.613905 0.549817 0.436432
0.742398 0.590953 0.422780
0.803412 0.627356 0.442341
0.842277 0.663653 0.472900
0.875366 0.693608 0.505752
0.039694 0.115885 0.146583
0.077756 0.118355 0.143888
0.212134 0.095445 0.110823
0.387541 0.075546 0.078026
0.554395 0.078415 0.067265
0.647954 0.108749 0.085597
0.713510 0.144746 0.110206
0.763530 0.185052 0.142674
0.052447 0.150312 0.181974
0.095796 0.178920 0.198504
0.190895 0.192865 0.199702
0.340767 0.198121 0.185384
0.529114 0.200669 0.161467
0.658812 0.210229 0.160545
0.737922 0.230975 0.181036
0.792326 0.260248 0.210761
0.071674 0.189581 0.223187
0.126730 0.230432 0.246964
0.206748 0.271819 0.271706
0.340455 0.302704 0.274459
0.528469 0.316793 0.247987
0.671216 0.318387 0.236309
0.760823 0.327611 0.254246
0.819524 0.344690 0.280901
0.099515 0.234064 0.268097
0.167578 0.280597 0.294558
0.247474 0.336965 0.331800
0.372195 0.386517 0.344923
0.547549 0.417318 0.319747
0.685816 0.423363 0.306360
0.778607 0.426953 0.323815
0.840957 0.433534 0.348942
0.137871 0.283651 0.314849
0.216797 0.334820 0.344733
0.302624 0.393562 0.384655
0.422616 0.450096 0.399252
0.581333 0.495579 0.374876
0.704164 0.515908 0.366376
0.790405 0.521496 0.385003
0.854347 0.522258 0.410899
0.191570 0.337411 0.361766
0.279495 0.394104 0.396631
0.364666 0.451116 0.435441
0.477171 0.502990 0.449249
0.624150 0.546109 0.427241
0.733449 0.579577 0.415441
0.804344 0.597915 0.432813
0.861488 0.604314 0.459123
0.253192 0.392115 0.410446
0.343935 0.451252 0.447416
0.424949 0.506054 0.485192
0.530280 0.554464 0.498088
0.669934 0.595215 0.476730
0.772283 0.627514 0.462645
0.829444 0.653952 0.476256
0.873904 0.670828 0.501027
0.315615 0.446137 0.457534
0.404104 0.504718 0.495190
0.480029 0.556462 0.531501
0.579405 0.601650 0.543248
0.713566 0.640312 0.522203
0.810708 0.669962 0.506926
0.860218 0.699552 0.518750
0.894423 0.724960 0.543233
0.048131 0.153271 0.194202
0.078856 0.172976 0.208833
0.168599 0.172757 0.197942
0.342851 0.150191 0.157188
0.581283 0.116774 0.100001
0.678959 0.146011 0.117437
0.740124 0.185103 0.151579
0.786578 0.230929 0.196180
0.064433 0.191101 0.231825
0.108562 0.230783 0.261546
0.191081 0.260333 0.277600
0.333941 0.270933 0.270432
0.531875 0.262841 0.241050
0.678905 0.268740 0.228623
0.761021 0.288423 0.248001
0.814286 0.317811 0.280996
0.090281 0.235471 0.276787
0.148063 0.283742 0.311344
0.230904 0.333039 0.343247
0.350232 0.371640 0.363655
0.508097 0.391223 0.364736
0.679284 0.386642 0.332488
0.778089 0.390580 0.337872
0.838811 0.404675 0.359548
0.128378 0.286082 0.326618
0.197344 0.336748 0.360967
0.283511 0.395144 0.399096
0.385254 0.450314 0.435072
0.506779 0.490517 0.456873
0.683557 0.488785 0.415816
0.791863 0.484491 0.412663
0.858647 0.487157 0.426644
0.179222 0.341473 0.378209
0.255573 0.392870 0.411842
0.344062 0.450905 0.449113
0.432680 0.508380 0.486655
0.525476 0.556231 0.512902
0.695247 0.568974 0.472113
0.803468 0.566254 0.467413
0.872780 0.563341 0.479027
0.237787 0.395562 0.424010
0.320106 0.450798 0.461434
0.404918 0.506120 0.497778
0.485063 0.557255 0.532302
0.567571 0.600565 0.555280
0.722437 0.630456 0.510922
0.816736 0.639089 0.503223
0.880090 0.638307 0.515397
0.302980 0.449697 0.471971
0.383681 0.505761 0.510286
0.460964 0.556965 0.544327
0.533803 0.603905 0.576446
0.612098 0.645787 0.598431
0.758368 0.674445 0.551070
0.838718 0.693509 0.539286
0.890936 0.704167 0.550744
0.364206 0.502037 0.518458
0.440107 0.556420 0.556279
0.511350 0.603759 0.588014
0.578575 0.647448 0.617842
0.652639 0.688058 0.638781
0.795154 0.714463 0.591638
0.867095 0.738043 0.578999
0.908924 0.757660 0.589456
0.060042 0.191650 0.237686
0.094572 0.228333 0.271051
0.174954 0.253906 0.287915
0.317590 0.259784 0.278204
0.518259 0.242431 0.238435
0.700097 0.210633 0.182101
0.771386 0.243577 0.213096
0.814504 0.291378 0.263363
0.084247 0.234164 0.279846
0.132862 0.284365 0.321389
0.213362 0.326987 0.351945
0.340546 0.356871 0.365715
0.515717 0.368526 0.357817
0.697956 0.346817 0.318420
0.787231 0.357898 0.325643
0.839157 0.382515 0.351559
0.121525 0.285188 0.329138
0.182304 0.338482 0.371173
0.263241 0.391197 0.408372
0.373756 0.437100 0.436610
0.518170 0.468644 0.450387
0.691345 0.464106 0.431227
0.797167 0.460571 0.422283
0.859135 0.466781 0.429863
0.170977 0.340763 0.380348
0.240987 0.393949 0.421580
0.321107 0.449603 0.460523
0.414944 0.502345 0.494869
0.528164 0.545331 0.520249
0.683444 0.558523 0.518702
0.801116 0.548380 0.499895
0.872817 0.542208 0.495725
0.231170 0.398020 0.430438
0.305732 0.451939 0.472838
0.382683 0.504491 0.510530
0.461937 0.555554 0.544237
0.549056 0.602449 0.572393
0.678307 0.629267 0.581752
0.800904 0.620556 0.558001
0.880584 0.608851 0.548573
0.299981 0.456792 0.482679
0.367366 0.506618 0.521732
0.438251 0.555829 0.556735
0.512771 0.603310 0.588160
0.592493 0.647392 0.614861
0.687121 0.682180 0.627223
0.806390 0.681970 0.601852
0.889772 0.672895 0.592342
0.361637 0.508414 0.529152
0.422852 0.556330 0.567056
0.487730 0.602244 0.600085
0.557204 0.646893 0.629786
0.632108 0.689600 0.655619
0.714760 0.723041 0.667301
0.823956 0.735225 0.633951
0.900463 0.738375 0.621903
0.416014 0.557120 0.572882
0.471499 0.602882 0.610439
0.532239 0.646138 0.641813
0.597481 0.687998 0.669561
0.667211 0.728490 0.694205
0.745443 0.762973 0.707701
0.847031 0.780002 0.669795
0.914102 0.792373 0.654266
0.084241 0.237906 0.285580
0.125017 0.283518 0.327313
0.204697 0.325622 0.360355
0.332123 0.355269 0.375913
0.505229 0.364988 0.367176
0.687189 0.343142 0.324650
0.789561 0.339588 0.313832
0.844742 0.360087 0.332939
0.117326 0.285348 0.329350
0.175699 0.340757 0.377259
0.254168 0.389996 0.415985
0.366863 0.430712 0.443141
0.518990 0.458106 0.454346
0.692814 0.450883 0.430230
0.803485 0.441645 0.412994
0.863964 0.448128 0.417753
0.166836 0.338604 0.378576
0.232766 0.394482 0.425537
0.308390 0.447669 0.466974
0.405430 0.495572 0.501187
0.531858 0.533460 0.524312
0.693246 0.542161 0.518307
0.811506 0.531438 0.499806
0.878847 0.527760 0.494750
0.227105 0.394427 0.429061
0.294936 0.448695 0.474615
0.365717 0.501866 0.516240
0.446886 0.551811 0.552509
0.547132 0.594909 0.580781
0.691023 0.617282 0.589686
0.813208 0.608698 0.572424
0.887645 0.598824 0.561277
0.292912 0.450760 0.478611
0.359216 0.504934 0.525235
0.423282 0.554365 0.565087
0.490218 0.601375 0.599150
0.568445 0.645859 0.627584
0.688578 0.677254 0.646016
0.809590 0.673939 0.630706
0.890476 0.662012 0.616641
0.358308 0.508972 0.531316
0.414016 0.556408 0.572080
0.471260 0.602007 0.609167
0.533810 0.646013 0.641881
0.604862 0.687890 0.669563
0.689635 0.723081 0.690017
0.806835 0.728374 0.677927
0.893659 0.720081 0.664916
0.412929 0.558528 0.577134
0.460561 0.602591 0.615954
0.512330 0.644457 0.650586
0.571620 0.685484 0.681019
0.640376 0.725844 0.707074
0.718386 0.760880 0.726731
0.818543 0.778022 0.717052
0.897563 0.778569 0.706302
0.459324 0.603863 0.619576
0.500398 0.644596 0.657125
0.548379 0.683676 0.689513
0.605124 0.722407 0.717849
0.671312 0.761097 0.742802
0.745586 0.796282 0.762969
0.834185 0.819486 0.755308
0.903801 0.828623 0.742705
0.116633 0.288605 0.334562
0.168740 0.339474 0.380686
0.250118 0.389816 0.421812
0.365159 0.433026 0.452723
0.513011 0.462327 0.467763
0.678760 0.462016 0.451645
0.798779 0.445320 0.424620
0.864947 0.442557 0.416687
0.162044 0.337773 0.378643
0.229137 0.396064 0.429739
0.304940 0.448203 0.472971
0.403362 0.493593 0.508014
0.532556 0.529341 0.531912
0.690637 0.538908 0.526303
0.810996 0.524189 0.500754
0.878754 0.516739 0.487977
0.222198 0.391878 0.426210
0.290839 0.449605 0.476924
0.358323 0.501062 0.520730
0.440006 0.547843 0.558516
0.547860 0.588565 0.588219
0.695066 0.607400 0.592462
0.817063 0.597664 0.572423
0.889726 0.587907 0.557361
0.289140 0.447937 0.476189
0.352449 0.502448 0.524779
0.411026 0.551550 0.567555
0.476854 0.597537 0.605315
0.562315 0.640062 0.636775
0.695051 0.667044 0.649804
0.817308 0.663971 0.636521
0.896185 0.653785 0.620638
0.355849 0.503759 0.527354
0.411517 0.555390 0.574001
0.462032 0.601079 0.614360
0.514529 0.643709 0.649279
0.579648 0.684439 0.678854
0.692915 0.717874 0.698957
0.812577 0.722168 0.691660
0.897590 0.713280 0.675768
0.413908 0.558696 0.577266
0.458981 0.603537 0.618676
0.502021 0.644815 0.656478
0.549725 0.684372 0.690372
0.608339 0.723247 0.719930
0.689429 0.759822 0.742875
0.805258 0.772051 0.740282
0.896428 0.767783 0.726000
0.459211 0.604678 0.620535
0.496557 0.645141 0.659617
0.535105 0.683159 0.695378
0.580435 0.720432 0.727512
0.637539 0.757928 0.755466
0.715441 0.794432 0.776284
0.810728 0.816637 0.781425
0.893457 0.819160 0.772694
0.498309 0.646913 0.662584
0.528740 0.683100 0.698512
0.563385 0.718069 0.731665
0.607522 0.753471 0.761686
0.665498 0.790021 0.787709
0.744347 0.825452 0.805219
0.825548 0.851572 0.814380
0.895843 0.860275 0.807900
