filter/Red and Blue 2/lut/Hope 03.cube
# LUT by SparkleStock. Enhanced with VOXCOLOR algorithms.
LUT_3D_SIZE 32
0.035165 0.023443 0.023443
0.052889 0.022687 0.022214
0.070613 0.021931 0.020985
0.088337 0.021175 0.019757
0.106062 0.020418 0.018528
0.123786 0.019662 0.017299
0.148088 0.019733 0.017291
0.173705 0.019969 0.017527
0.199323 0.020206 0.017764
0.224940 0.020442 0.018000
0.250557 0.020678 0.018236
0.279389 0.022112 0.018693
0.309827 0.024144 0.019260
0.340265 0.026177 0.019827
0.370704 0.028209 0.020395
0.401142 0.030241 0.020962
0.431250 0.033148 0.021813
0.461026 0.036929 0.022947
0.490803 0.040711 0.024081
0.520580 0.044492 0.025216
0.550356 0.048273 0.026350
0.576951 0.052149 0.027516
0.597180 0.056213 0.028745
0.617409 0.060278 0.029974
0.637638 0.064343 0.031202
0.657868 0.068408 0.032431
0.676797 0.073134 0.034141
0.689228 0.081169 0.038253
0.701658 0.089204 0.042365
0.714089 0.097239 0.046477
0.726519 0.105274 0.050589
0.738950 0.113309 0.054701
0.035968 0.030202 0.029588
0.055303 0.030416 0.027215
0.074637 0.030629 0.024843
0.093971 0.030842 0.022470
0.113305 0.031056 0.020098
0.132640 0.031269 0.017726
0.156874 0.032096 0.017672
0.182089 0.033046 0.018082
0.207304 0.033996 0.018492
0.232519 0.034946 0.018903
0.257734 0.035896 0.019313
0.286730 0.037653 0.019931
0.317617 0.039813 0.020654
0.348503 0.041974 0.021377
0.379390 0.044134 0.022099
0.410276 0.046295 0.022822
0.440489 0.048881 0.023801
0.470028 0.051894 0.025036
0.499567 0.054907 0.026271
0.529106 0.057919 0.027506
0.558645 0.060932 0.028741
0.585007 0.064152 0.030065
0.605017 0.067787 0.031568
0.625026 0.071422 0.033072
0.645036 0.075057 0.034575
0.665046 0.078691 0.036078
0.683763 0.083000 0.038021
0.696020 0.090678 0.042160
0.708277 0.098357 0.046300
0.720534 0.106035 0.050439
0.732790 0.113713 0.054579
0.745047 0.121391 0.058718
0.036772 0.036961 0.035732
0.057716 0.038144 0.032216
0.078660 0.039327 0.028700
0.099605 0.040510 0.025184
0.120549 0.041693 0.021669
0.141493 0.042877 0.018153
0.165661 0.044460 0.018053
0.190473 0.046123 0.018637
0.215286 0.047787 0.019221
0.240098 0.049450 0.019805
0.264911 0.051114 0.020389
0.294071 0.053194 0.021169
0.325406 0.055482 0.022047
0.356741 0.057771 0.022926
0.388076 0.060059 0.023804
0.419411 0.062348 0.024682
0.449729 0.064614 0.025789
0.479030 0.066859 0.027125
0.508331 0.069103 0.028460
0.537632 0.071347 0.029796
0.566933 0.073591 0.031131
0.593063 0.076156 0.032614
0.612853 0.079361 0.034392
0.632644 0.082566 0.036170
0.652434 0.085770 0.037948
0.672224 0.088975 0.039725
0.690729 0.092866 0.041901
0.702812 0.100188 0.046068
0.714895 0.107509 0.050235
0.726978 0.114831 0.054402
0.739061 0.122152 0.058569
0.751144 0.129473 0.062736
0.037575 0.043720 0.041876
0.060130 0.045873 0.037217
0.082684 0.048025 0.032558
0.105238 0.050178 0.027898
0.127793 0.052331 0.023239
0.150347 0.054484 0.018580
0.174448 0.056823 0.018434
0.198858 0.059200 0.019192
0.223267 0.061577 0.019950
0.247677 0.063954 0.020708
0.272087 0.066331 0.021465
0.301412 0.068735 0.022407
0.333196 0.071151 0.023441
0.364979 0.073568 0.024475
0.396762 0.075984 0.025508
0.428545 0.078401 0.026542
0.458968 0.080347 0.027777
0.488031 0.081823 0.029213
0.517094 0.083299 0.030650
0.546158 0.084775 0.032086
0.575221 0.086251 0.033522
0.601120 0.088160 0.035164
0.620690 0.090934 0.037216
0.640261 0.093709 0.039268
0.659831 0.096484 0.041320
0.679402 0.099259 0.043372
0.697696 0.102732 0.045782
0.709605 0.109697 0.049976
0.721514 0.116662 0.054170
0.733423 0.123626 0.058365
0.745332 0.130591 0.062559
0.757241 0.137556 0.066753
0.038379 0.050479 0.048021
0.062543 0.053601 0.042218
0.086708 0.056724 0.036415
0.110872 0.059846 0.030612
0.135036 0.062969 0.024809
0.159201 0.066091 0.019006
0.183234 0.069187 0.018816
0.207242 0.072277 0.019747
0.231249 0.075368 0.020679
0.255256 0.078458 0.021610
0.279264 0.081549 0.022542
0.308754 0.084276 0.023645
0.340985 0.086820 0.024834
0.373216 0.089365 0.026024
0.405448 0.091910 0.027213
0.437679 0.094454 0.028402
0.468208 0.096080 0.029765
0.497033 0.096788 0.031302
0.525858 0.097495 0.032839
0.554683 0.098203 0.034376
0.583509 0.098910 0.035913
0.609176 0.100163 0.037713
0.628527 0.102508 0.040039
0.647878 0.104853 0.042366
0.667229 0.107198 0.044693
0.686580 0.109543 0.047019
0.704662 0.112598 0.049662
0.716397 0.119206 0.053884
0.728132 0.125814 0.058105
0.739868 0.132422 0.062327
0.751603 0.139030 0.066549
0.763338 0.145638 0.070771
0.039182 0.057237 0.054165
0.064957 0.061330 0.047219
0.090731 0.065422 0.040272
0.116506 0.069514 0.033326
0.142280 0.073606 0.026380
0.168054 0.077698 0.019433
0.192021 0.081550 0.019197
0.215626 0.085354 0.020302
0.239231 0.089159 0.021408
0.262835 0.092963 0.022513
0.286440 0.096767 0.023618
0.316095 0.099816 0.024883
0.348775 0.102489 0.026228
0.381454 0.105162 0.027573
0.414134 0.107835 0.028918
0.446814 0.110507 0.030262
0.477447 0.111813 0.031753
0.506034 0.111752 0.033391
0.534622 0.111691 0.035028
0.563209 0.111630 0.036666
0.591797 0.111569 0.038303
0.617232 0.112167 0.040262
0.636364 0.114082 0.042863
0.655495 0.115997 0.045464
0.674627 0.117912 0.048065
0.693758 0.119827 0.050666
0.711628 0.122465 0.053542
0.723189 0.128716 0.057791
0.734751 0.134967 0.062041
0.746313 0.141218 0.066290
0.757874 0.147469 0.070539
0.769436 0.153720 0.074788
0.040498 0.063721 0.060782
0.068103 0.068348 0.053035
0.095709 0.072975 0.045289
0.123315 0.077603 0.037542
0.150920 0.082230 0.029795
0.178526 0.086857 0.022048
0.203307 0.091990 0.021721
0.227523 0.097224 0.022879
0.251739 0.102459 0.024036
0.275955 0.107693 0.025193
0.300172 0.112927 0.026350
0.329196 0.116910 0.027817
0.360624 0.120267 0.029440
0.392051 0.123625 0.031062
0.423479 0.126982 0.032684
0.454907 0.130339 0.034306
0.484461 0.131942 0.036116
0.512139 0.131791 0.038114
0.539818 0.131640 0.040111
0.567497 0.131490 0.042108
0.595175 0.131339 0.044105
0.620026 0.131619 0.046396
0.639220 0.132761 0.049271
0.658414 0.133903 0.052147
0.677608 0.135045 0.055022
0.696802 0.136186 0.057898
0.714799 0.138075 0.061033
0.726812 0.143695 0.065470
0.738825 0.149315 0.069907
0.750837 0.154935 0.074344
0.762850 0.160554 0.078780
0.774863 0.166174 0.083217
0.041916 0.070148 0.067494
0.071397 0.075224 0.059015
0.100878 0.080300 0.050536
0.130358 0.085375 0.042058
0.159839 0.090451 0.033579
0.189320 0.095527 0.025101
0.215092 0.102045 0.024675
0.240123 0.108853 0.025859
0.265153 0.115661 0.027044
0.290184 0.122468 0.028229
0.315214 0.129276 0.029413
0.343448 0.134314 0.031091
0.373284 0.138467 0.033015
0.403120 0.142620 0.034939
0.432957 0.146773 0.036863
0.462793 0.150927 0.038787
0.491029 0.152951 0.040954
0.517665 0.152845 0.043363
0.544300 0.152740 0.045772
0.570936 0.152635 0.048181
0.597572 0.152530 0.050590
0.621767 0.152560 0.053246
0.641080 0.152860 0.056396
0.660393 0.153161 0.059546
0.679706 0.153461 0.062696
0.699019 0.153761 0.065846
0.717211 0.154834 0.069247
0.729800 0.159768 0.073903
0.742389 0.164702 0.078559
0.754978 0.169635 0.083216
0.767568 0.174569 0.087872
0.780157 0.179503 0.092528
0.043334 0.076576 0.074205
0.074690 0.082100 0.064995
0.106046 0.087624 0.055784
0.137402 0.093148 0.046574
0.168759 0.098672 0.037363
0.200115 0.104196 0.028153
0.226878 0.112101 0.027628
0.252723 0.120482 0.028840
0.278567 0.128863 0.030052
0.304412 0.137244 0.031264
0.330256 0.145625 0.032476
0.357701 0.151718 0.034364
0.385945 0.156667 0.036590
0.414190 0.161616 0.038816
0.442434 0.166565 0.041042
0.470678 0.171514 0.043268
0.497597 0.173959 0.045792
0.523190 0.173900 0.048612
0.548783 0.173840 0.051433
0.574376 0.173781 0.054254
0.599969 0.173721 0.057074
0.623508 0.173501 0.060096
0.642940 0.172960 0.063521
0.662372 0.172419 0.066945
0.681804 0.171877 0.070369
0.701236 0.171336 0.073794
0.719623 0.171593 0.077460
0.732789 0.175841 0.082336
0.745954 0.180088 0.087212
0.759119 0.184336 0.092088
0.772285 0.188584 0.096964
0.785450 0.192832 0.101839
0.044752 0.083004 0.080917
0.077983 0.088977 0.070975
0.111215 0.094949 0.061032
0.144446 0.100921 0.051090
0.177678 0.106893 0.041148
0.210909 0.112865 0.031205
0.238664 0.122156 0.030581
0.265322 0.132110 0.031821
0.291981 0.142065 0.033060
0.318640 0.152019 0.034300
0.345299 0.161974 0.035539
0.371953 0.169122 0.037638
0.398606 0.174867 0.040166
0.425259 0.180612 0.042694
0.451911 0.186357 0.045222
0.478564 0.192102 0.047749
0.504165 0.194967 0.050629
0.528715 0.194954 0.053862
0.553266 0.194940 0.057094
0.577816 0.194926 0.060326
0.602366 0.194912 0.063559
0.625249 0.194442 0.066946
0.644800 0.193059 0.070645
0.664351 0.191677 0.074344
0.683902 0.190294 0.078043
0.703452 0.188911 0.081742
0.722035 0.188352 0.085673
0.735777 0.191914 0.090769
0.749519 0.195475 0.095864
0.763260 0.199037 0.100960
0.777002 0.202599 0.106055
0.790744 0.206160 0.111150
0.046170 0.089432 0.087629
0.081276 0.095853 0.076954
0.116383 0.102273 0.066280
0.151490 0.108694 0.055606
0.186597 0.115114 0.044932
0.221704 0.121534 0.034258
0.250449 0.132211 0.033534
0.277922 0.143739 0.034801
0.305395 0.155267 0.036068
0.332868 0.166795 0.037335
0.360341 0.178323 0.038602
0.386206 0.186526 0.040911
0.411267 0.193067 0.043741
0.436328 0.199608 0.046571
0.461389 0.206148 0.049401
0.486449 0.212689 0.052230
0.510734 0.215976 0.055467
0.534241 0.216008 0.059111
0.557748 0.216040 0.062755
0.581255 0.216072 0.066399
0.604763 0.216104 0.070043
0.626991 0.215384 0.073797
0.646660 0.213159 0.077770
0.666330 0.210935 0.081743
0.686000 0.208710 0.085717
0.705669 0.206486 0.089690
0.724447 0.205111 0.093887
0.738765 0.207987 0.099202
0.753083 0.210862 0.104517
0.767401 0.213738 0.109832
0.781720 0.216613 0.115147
0.796038 0.219489 0.120462
0.049730 0.097530 0.095159
0.086731 0.104289 0.083814
0.123731 0.111048 0.072469
0.160732 0.117807 0.061124
0.197732 0.124566 0.049779
0.234733 0.131325 0.038434
0.264315 0.142551 0.037470
0.292413 0.154670 0.038581
0.320511 0.166790 0.039693
0.348609 0.178909 0.040804
0.376707 0.191029 0.041916
0.401788 0.200188 0.044626
0.425361 0.207866 0.048136
0.448934 0.215544 0.051645
0.472506 0.223222 0.055155
0.496079 0.230900 0.058665
0.518961 0.235150 0.062560
0.541151 0.235972 0.066842
0.563340 0.236794 0.071123
0.585530 0.237616 0.075404
0.607720 0.238438 0.079686
0.629045 0.238305 0.084128
0.648638 0.236263 0.088894
0.668232 0.234222 0.093661
0.687825 0.232180 0.098427
0.707419 0.230139 0.103193
0.726215 0.228784 0.108128
0.741024 0.230864 0.113906
0.755833 0.232943 0.119685
0.770642 0.235023 0.125463
0.785451 0.237103 0.131241
0.800260 0.239182 0.137020
0.054362 0.106463 0.103100
0.093265 0.113506 0.091114
0.132169 0.120548 0.079129
0.171072 0.127591 0.067144
0.209975 0.134633 0.055158
0.248879 0.141676 0.043173
0.279220 0.153033 0.041896
0.307848 0.165253 0.042760
0.336477 0.177473 0.043625
0.365106 0.189693 0.044489
0.393734 0.201913 0.045354
0.418035 0.211978 0.048561
0.440171 0.220964 0.052940
0.462308 0.229950 0.057319
0.484444 0.238937 0.061698
0.506581 0.247923 0.066076
0.528017 0.253408 0.070781
0.548753 0.255392 0.075813
0.569488 0.257375 0.080844
0.590223 0.259359 0.085876
0.610959 0.261343 0.090907
0.631256 0.262216 0.096201
0.650675 0.260870 0.102019
0.670095 0.259524 0.107837
0.689515 0.258177 0.113655
0.708934 0.256831 0.119473
0.727660 0.255914 0.125382
0.742917 0.257143 0.131746
0.758175 0.258372 0.138110
0.773432 0.259601 0.144474
0.788689 0.260829 0.150838
0.803947 0.262058 0.157202
0.058994 0.115396 0.111040
0.099800 0.122722 0.098414
0.140606 0.130048 0.085789
0.181412 0.137374 0.073163
0.222218 0.144700 0.060537
0.263025 0.152026 0.047912
0.294125 0.163515 0.046322
0.323284 0.175836 0.046939
0.352443 0.188156 0.047557
0.381602 0.200477 0.048174
0.410762 0.212798 0.048792
0.434282 0.223768 0.052496
0.454982 0.234063 0.057744
0.475682 0.244357 0.062992
0.496383 0.254652 0.068240
0.517083 0.264946 0.073488
0.537074 0.271666 0.079002
0.556354 0.274811 0.084784
0.575635 0.277957 0.090566
0.594916 0.281102 0.096347
0.614197 0.284248 0.102129
0.633466 0.286127 0.108273
0.652712 0.285476 0.115143
0.671958 0.284825 0.122013
0.691204 0.284174 0.128883
0.710450 0.283523 0.135753
0.729105 0.283044 0.142637
0.744811 0.283422 0.149586
0.760517 0.283800 0.156536
0.776222 0.284178 0.163485
0.791928 0.284556 0.170434
0.807633 0.284934 0.177384
0.063626 0.124329 0.118981
0.106335 0.131939 0.105715
0.149044 0.139549 0.092448
0.191753 0.147158 0.079182
0.234461 0.154768 0.065916
0.277170 0.162377 0.052650
0.309030 0.173997 0.050748
0.338720 0.186418 0.051118
0.368409 0.198840 0.051489
0.398099 0.211261 0.051859
0.427789 0.223683 0.052230
0.450528 0.235558 0.056431
0.469792 0.247161 0.062548
0.489057 0.258764 0.068665
0.508321 0.270366 0.074782
0.527585 0.281969 0.080899
0.546130 0.289924 0.087223
0.563956 0.294231 0.093755
0.581783 0.298538 0.100287
0.599609 0.302845 0.106818
0.617436 0.307153 0.113350
0.635677 0.310039 0.120345
0.654749 0.310083 0.128267
0.673821 0.310127 0.136190
0.692893 0.310171 0.144112
0.711965 0.310216 0.152034
0.730551 0.310174 0.159891
0.746705 0.309701 0.167426
0.762858 0.309228 0.174961
0.779012 0.308756 0.182496
0.795166 0.308283 0.190031
0.811320 0.307810 0.197566
0.068258 0.133262 0.126921
0.112870 0.141156 0.113015
0.157481 0.149049 0.099108
0.202093 0.156942 0.085202
0.246705 0.164835 0.071295
0.291316 0.172728 0.057389
0.323935 0.184479 0.055174
0.354155 0.197001 0.055298
0.384376 0.209523 0.055421
0.414596 0.222045 0.055545
0.444816 0.234567 0.055668
0.466775 0.247348 0.060367
0.484603 0.260259 0.067353
0.502431 0.273170 0.074339
0.520259 0.286081 0.081325
0.538087 0.298992 0.088311
0.555187 0.308182 0.095444
0.571558 0.313651 0.102726
0.587930 0.319120 0.110008
0.604302 0.324589 0.117290
0.620674 0.330058 0.124572
0.637888 0.333950 0.132418
0.656786 0.334690 0.141392
0.675684 0.335429 0.150366
0.694582 0.336168 0.159340
0.713481 0.336908 0.168314
0.731996 0.337304 0.177146
0.748598 0.335980 0.185266
0.765200 0.334657 0.193387
0.781802 0.333333 0.201507
0.798404 0.332010 0.209627
0.815006 0.330687 0.217748
0.073930 0.142148 0.135240
0.120343 0.150490 0.120757
0.166757 0.158831 0.106274
0.213171 0.167172 0.091791
0.259585 0.175514 0.077309
0.305999 0.183855 0.062826
0.339025 0.195742 0.060481
0.369373 0.208337 0.060563
0.399721 0.220932 0.060645
0.430070 0.233527 0.060728
0.460418 0.246123 0.060810
0.481819 0.259395 0.066022
0.498746 0.273005 0.073800
0.515673 0.286616 0.081577
0.532599 0.300227 0.089354
0.549526 0.313837 0.097131
0.565647 0.324134 0.105333
0.580963 0.331117 0.113960
0.596278 0.338100 0.122586
0.611593 0.345083 0.131213
0.626908 0.352066 0.139840
0.643207 0.357265 0.148834
0.661474 0.358897 0.158562
0.679741 0.360528 0.168291
0.698008 0.362159 0.178020
0.716275 0.363791 0.187749
0.734300 0.364890 0.197270
0.751112 0.363329 0.205752
0.767925 0.361768 0.214233
0.784737 0.360206 0.222715
0.801550 0.358645 0.231197
0.818362 0.357084 0.239679
0.080641 0.150987 0.143936
0.128757 0.159941 0.128941
0.176872 0.168895 0.113946
0.224987 0.177850 0.098951
0.273103 0.186804 0.083956
0.321218 0.195758 0.068961
0.354299 0.207785 0.066668
0.384373 0.220426 0.066915
0.414447 0.233067 0.067162
0.444521 0.245708 0.067409
0.474595 0.258349 0.067656
0.495660 0.271697 0.073399
0.512221 0.285399 0.081889
0.528782 0.299102 0.090380
0.545343 0.312804 0.098871
0.561903 0.326506 0.107362
0.577512 0.337782 0.116890
0.592169 0.346631 0.127456
0.606825 0.355480 0.138022
0.621482 0.364329 0.148588
0.636139 0.373178 0.159154
0.651636 0.379984 0.169593
0.668814 0.382704 0.179780
0.685993 0.385424 0.189966
0.703171 0.388144 0.200152
0.720349 0.390864 0.210338
0.737462 0.392933 0.220264
0.754247 0.391747 0.228882
0.771032 0.390561 0.237501
0.787817 0.389375 0.246120
0.804602 0.388188 0.254739
0.821387 0.387002 0.263358
0.087353 0.159825 0.152633
0.137170 0.169392 0.137126
0.186986 0.178960 0.121618
0.236803 0.188527 0.106111
0.286620 0.198094 0.090604
0.336437 0.207661 0.075096
0.369573 0.219828 0.072855
0.399372 0.232515 0.073266
0.429172 0.245202 0.073678
0.458971 0.257888 0.074090
0.488771 0.270575 0.074501
0.509501 0.284000 0.080775
0.525696 0.297793 0.089979
0.541891 0.311587 0.099184
0.558086 0.325381 0.108388
0.574281 0.339174 0.117592
0.589377 0.351429 0.128447
0.603375 0.362144 0.140953
0.617373 0.372859 0.153458
0.631371 0.383575 0.165963
0.645369 0.394290 0.178468
0.660064 0.402703 0.190353
0.676154 0.406512 0.200997
0.692244 0.410320 0.211641
0.708333 0.414129 0.222284
0.724423 0.417938 0.232928
0.740624 0.420976 0.243257
0.757382 0.420165 0.252013
0.774139 0.419354 0.260769
0.790897 0.418543 0.269525
0.807655 0.417732 0.278282
0.824412 0.416921 0.287038
0.094064 0.168664 0.161330
0.145583 0.178844 0.145310
0.197101 0.189024 0.129290
0.248619 0.199204 0.113271
0.300138 0.209384 0.097251
0.351656 0.219564 0.081232
0.384847 0.231872 0.079042
0.414372 0.244604 0.079618
0.443897 0.257336 0.080194
0.473422 0.270069 0.080771
0.502947 0.282801 0.081347
0.523342 0.296302 0.088151
0.539171 0.310187 0.098069
0.555000 0.324073 0.107987
0.570829 0.337958 0.117905
0.586658 0.351843 0.127823
0.601242 0.365076 0.140004
0.614581 0.377658 0.154449
0.627921 0.390239 0.168894
0.641260 0.402821 0.183338
0.654599 0.415402 0.197783
0.668492 0.425422 0.211113
0.683494 0.430319 0.222214
0.698495 0.435217 0.233315
0.713496 0.440114 0.244416
0.728497 0.445011 0.255517
0.743786 0.449019 0.266250
0.760517 0.448583 0.275144
0.777247 0.448147 0.284037
0.793977 0.447711 0.292931
0.810707 0.447275 0.301824
0.827437 0.446839 0.310717
0.100776 0.177502 0.170026
0.153996 0.188295 0.153494
0.207216 0.199088 0.136963
0.260436 0.209881 0.120431
0.313656 0.220674 0.103899
0.366875 0.231468 0.087367
0.400121 0.243915 0.085229
0.429372 0.256693 0.085970
0.458622 0.269471 0.086711
0.487873 0.282249 0.087452
0.517124 0.295028 0.088193
0.537183 0.308605 0.095528
0.552646 0.322581 0.106159
0.568109 0.336558 0.116790
0.583572 0.350535 0.127422
0.599035 0.364511 0.138053
0.613107 0.378723 0.151561
0.625788 0.393171 0.167945
0.638468 0.407619 0.184329
0.651149 0.422066 0.200713
0.663830 0.436514 0.217097
0.676921 0.448141 0.231873
0.690833 0.454127 0.243431
0.704746 0.460113 0.254990
0.718658 0.466099 0.266548
0.732571 0.472085 0.278107
0.746949 0.477063 0.289244
0.763651 0.477002 0.298274
0.780354 0.476941 0.307305
0.797057 0.476880 0.316336
0.813759 0.476819 0.325366
0.830462 0.476758 0.334397
0.108196 0.186797 0.179148
0.162886 0.198142 0.162245
0.217576 0.209487 0.145341
0.272265 0.220832 0.128437
0.326955 0.232178 0.111533
0.381645 0.243523 0.094629
0.414863 0.256141 0.092670
0.443788 0.269013 0.093701
0.472712 0.281886 0.094732
0.501637 0.294759 0.095762
0.530561 0.307632 0.096793
0.550288 0.321285 0.104667
0.565415 0.335329 0.115964
0.580543 0.349372 0.127260
0.595671 0.363416 0.138556
0.610798 0.377460 0.149852
0.624462 0.392286 0.164325
0.636661 0.407896 0.181975
0.648859 0.423505 0.199624
0.661058 0.439115 0.217274
0.673257 0.454724 0.234923
0.685733 0.467487 0.250697
0.698765 0.474555 0.262719
0.711796 0.481623 0.274741
0.724827 0.488692 0.286763
0.737859 0.495760 0.298785
0.751440 0.501740 0.310321
0.767774 0.502276 0.319431
0.784108 0.502813 0.328541
0.800441 0.503350 0.337651
0.816775 0.503886 0.346761
0.833109 0.504423 0.355871
0.117035 0.197007 0.189121
0.172731 0.208782 0.172126
0.228427 0.220557 0.155130
0.284123 0.232332 0.138135
0.339819 0.244106 0.121140
0.395515 0.255881 0.104144
0.428543 0.268731 0.102620
0.457037 0.281796 0.104191
0.485532 0.294861 0.105761
0.514026 0.307926 0.107331
0.542520 0.320991 0.108902
0.561921 0.334720 0.117334
0.576774 0.348782 0.129198
0.591627 0.362844 0.141061
0.606481 0.376906 0.152924
0.621334 0.390968 0.164788
0.634796 0.405680 0.179503
0.646867 0.421043 0.197070
0.658937 0.436405 0.214638
0.671008 0.451768 0.232205
0.683079 0.467130 0.249772
0.695314 0.480085 0.265649
0.707879 0.488224 0.278147
0.720444 0.496362 0.290645
0.733009 0.504501 0.303142
0.745573 0.512640 0.315640
0.758591 0.519685 0.327567
0.773873 0.521265 0.336640
0.789154 0.522844 0.345713
0.804436 0.524424 0.354787
0.819718 0.526003 0.363860
0.834999 0.527583 0.372933
0.125873 0.207216 0.199094
0.182576 0.219421 0.182007
0.239278 0.231626 0.164920
0.295980 0.243831 0.147833
0.352682 0.256035 0.130746
0.409385 0.268240 0.113660
0.442222 0.281322 0.112570
0.470286 0.294579 0.114680
0.498351 0.307836 0.116790
0.526415 0.321093 0.118901
0.554480 0.334350 0.121011
0.573554 0.348156 0.130001
0.588133 0.362236 0.142432
0.602712 0.376316 0.154862
0.617290 0.390396 0.167293
0.631869 0.404477 0.179724
0.645130 0.419075 0.194681
0.657073 0.434190 0.212166
0.669015 0.449306 0.229651
0.680958 0.464421 0.247136
0.692901 0.479537 0.264621
0.704895 0.492683 0.280602
0.716994 0.501892 0.293575
0.729092 0.511101 0.306548
0.741190 0.520310 0.319522
0.753288 0.529519 0.332495
0.765742 0.537630 0.344812
0.779971 0.540253 0.353849
0.794201 0.542875 0.362886
0.808431 0.545498 0.371922
0.822660 0.548120 0.380959
0.836890 0.550742 0.389996
0.134712 0.217425 0.209067
0.192420 0.230060 0.191889
0.250129 0.242695 0.174710
0.307837 0.255330 0.157532
0.365546 0.267964 0.140353
0.423254 0.280599 0.123175
0.455901 0.293913 0.122520
0.483536 0.307362 0.125170
0.511170 0.320811 0.127820
0.538805 0.334260 0.130470
0.566439 0.347709 0.133120
0.585187 0.361591 0.142668
0.599492 0.375689 0.155666
0.613796 0.389788 0.168664
0.628100 0.403887 0.181661
0.642405 0.417985 0.194659
0.655464 0.432469 0.209859
0.667279 0.447337 0.227262
0.679093 0.462206 0.244664
0.690908 0.477074 0.262067
0.702723 0.491943 0.279469
0.714476 0.505282 0.295554
0.726108 0.515561 0.309003
0.737740 0.525840 0.322452
0.749371 0.536119 0.335901
0.761003 0.546399 0.349350
0.772892 0.555576 0.362058
0.786070 0.559241 0.371058
0.799248 0.562906 0.380058
0.812425 0.566572 0.389058
0.825603 0.570237 0.398058
0.838781 0.573902 0.407058
0.143550 0.227634 0.219040
0.202265 0.240699 0.201770
0.260980 0.253764 0.184500
0.319695 0.266829 0.167230
0.378409 0.279893 0.149960
0.437124 0.292958 0.132690
0.469581 0.306503 0.132470
0.496785 0.320144 0.135660
0.523990 0.333786 0.138849
0.551194 0.347427 0.142039
0.578399 0.361068 0.145229
0.596820 0.375026 0.155335
0.610850 0.389143 0.168900
0.624880 0.403260 0.182465
0.638910 0.417377 0.196030
0.652940 0.431494 0.209595
0.665798 0.445863 0.225037
0.677485 0.460484 0.242357
0.689171 0.475106 0.259678
0.700858 0.489727 0.276998
0.712545 0.504349 0.294318
0.724057 0.517880 0.310506
0.735222 0.529229 0.324431
0.746388 0.540579 0.338356
0.757553 0.551929 0.352281
0.768718 0.563278 0.366205
0.780043 0.573521 0.379303
0.792169 0.578229 0.388267
0.804294 0.582937 0.397230
0.816420 0.587645 0.406194
0.828546 0.592354 0.415157
0.840671 0.597062 0.424121
0.152861 0.238237 0.229225
0.212436 0.251686 0.211958
0.272011 0.265135 0.194692
0.331586 0.278584 0.177425
0.391160 0.292033 0.160158
0.450735 0.305482 0.142891
0.482962 0.319197 0.143069
0.509720 0.332965 0.146736
0.536478 0.346732 0.150403
0.563236 0.360500 0.154070
0.589994 0.374268 0.157736
0.608118 0.388265 0.168322
0.621925 0.402377 0.182367
0.635733 0.416490 0.196412
0.649540 0.430602 0.210458
0.663347 0.444714 0.224503
0.676033 0.458959 0.240115
0.687598 0.473337 0.257295
0.699162 0.487714 0.274475
0.710727 0.502092 0.291655
0.722291 0.516470 0.308835
0.733580 0.530116 0.325033
0.744317 0.542301 0.339267
0.755053 0.554487 0.353502
0.765790 0.566672 0.367736
0.776527 0.578857 0.381970
0.787324 0.589964 0.395320
0.798425 0.595681 0.404248
0.809526 0.601399 0.413177
0.820627 0.607116 0.422105
0.831728 0.612834 0.431034
0.842830 0.618551 0.439962
0.164536 0.250809 0.240474
0.224239 0.264414 0.223683
0.283941 0.278019 0.206892
0.343644 0.291623 0.190101
0.403347 0.305228 0.173310
0.463050 0.318832 0.156519
0.494856 0.332405 0.156913
0.521083 0.345972 0.160744
0.547311 0.359538 0.164576
0.573538 0.373104 0.168407
0.599765 0.386671 0.172239
0.617737 0.400522 0.182910
0.631581 0.414515 0.197001
0.645425 0.428509 0.211092
0.659269 0.442502 0.225183
0.673113 0.456495 0.239274
0.685771 0.470567 0.254694
0.697244 0.484715 0.271444
0.708717 0.498864 0.288194
0.720190 0.513013 0.304944
0.731664 0.527162 0.321694
0.742812 0.540543 0.337432
