filter/Red and Blue 2/lut/Hope 05_S.cube
# LUT by SparkleStock. Enhanced with VOXCOLOR algorithms.
LUT_3D_SIZE 8
DOMAIN_MIN 0.000000 0.000000 0.000000
DOMAIN_MAX 0.903226 0.903226 0.903226
0.027350 0.019536 0.015629
0.101083 0.021048 0.016196
0.201733 0.027114 0.018772
0.321738 0.038048 0.023908
0.451644 0.053952 0.032014
0.569806 0.075316 0.043925
0.657088 0.099358 0.058671
0.722833 0.126496 0.077467
0.031510 0.044492 0.044177
0.120465 0.067667 0.024106
0.222962 0.086997 0.021596
0.341382 0.103834 0.027744
0.472862 0.119098 0.036765
0.594389 0.132265 0.051895
0.686136 0.146647 0.073765
0.752600 0.165576 0.102130
0.036874 0.070117 0.071787
0.145613 0.102720 0.041550
0.251216 0.144011 0.034657
0.362891 0.179573 0.040315
0.484541 0.200431 0.051274
0.603836 0.209548 0.070558
0.700409 0.214788 0.100225
0.773810 0.223448 0.138050
0.045728 0.097751 0.099799
0.176130 0.134075 0.064683
0.289286 0.191077 0.055927
0.394417 0.246700 0.063956
0.498970 0.284766 0.081232
0.608544 0.296909 0.105114
0.706232 0.298180 0.142662
0.787280 0.299148 0.188504
0.059577 0.128213 0.129339
0.211641 0.167702 0.091095
0.337867 0.226250 0.083966
0.440714 0.294155 0.099271
0.526598 0.358602 0.128270
0.618609 0.384046 0.158849
0.710365 0.390309 0.203413
0.794876 0.389948 0.254413
0.079050 0.161487 0.161857
0.252776 0.206831 0.123174
0.392164 0.264080 0.120272
0.499792 0.328472 0.143065
0.581175 0.394822 0.182859
0.651523 0.452906 0.234222
0.725886 0.478270 0.281641
0.802657 0.487563 0.331512
0.103880 0.196495 0.196896
0.297927 0.250986 0.161189
0.446973 0.310748 0.163250
0.557634 0.373213 0.192201
0.637917 0.436236 0.238688
0.700142 0.497930 0.296808
0.757640 0.543859 0.351859
0.819115 0.571690 0.402467
0.132750 0.228469 0.236945
0.348356 0.294432 0.205769
0.503656 0.358011 0.211847
0.613387 0.419837 0.244820
0.691197 0.480489 0.295357
0.748799 0.540463 0.355605
0.796277 0.594445 0.412992
0.842087 0.634689 0.462385
0.027729 0.046382 0.054953
0.118294 0.030916 0.035614
0.230385 0.032652 0.039330
0.356378 0.044708 0.053480
0.487126 0.062259 0.068740
0.601775 0.086550 0.082553
0.686276 0.117178 0.097373
0.748276 0.150762 0.117382
0.034815 0.071631 0.082769
0.099808 0.093691 0.088006
0.212203 0.110750 0.091475
0.349529 0.125650 0.097261
0.492120 0.140493 0.107571
0.618521 0.155907 0.119732
0.714738 0.175723 0.135386
0.782950 0.202307 0.157532
0.044559 0.099519 0.112758
0.106602 0.139167 0.124708
0.224631 0.181863 0.122929
0.364372 0.215612 0.122325
0.500900 0.233980 0.131930
0.628076 0.244665 0.146101
0.731263 0.254789 0.167463
0.807583 0.270470 0.197525
0.057718 0.129799 0.145100
0.127165 0.176454 0.157761
0.254582 0.239914 0.150178
0.394092 0.296328 0.145275
0.516603 0.330150 0.156757
0.635559 0.342708 0.174979
0.740015 0.347735 0.203510
0.823789 0.354021 0.241844
0.075135 0.162475 0.179983
0.153878 0.212691 0.195649
0.293297 0.283030 0.185050
0.434915 0.355929 0.178149
0.543811 0.415656 0.192836
0.646959 0.439306 0.216436
0.745860 0.446974 0.250832
0.833601 0.449836 0.293612
0.099584 0.199116 0.218355
0.190698 0.252014 0.239815
0.345143 0.321413 0.231006
0.495215 0.394736 0.225683
0.598987 0.461791 0.244691
0.677074 0.513095 0.277744
0.759336 0.537050 0.314238
0.840741 0.547739 0.354488
0.130976 0.239929 0.258883
0.236423 0.299086 0.287757
0.403022 0.367826 0.284029
0.559958 0.437353 0.282902
0.662915 0.501384 0.306309
0.729479 0.557922 0.344419
0.789494 0.601044 0.383257
0.853066 0.628310 0.420897
0.170214 0.280338 0.304110
0.288457 0.346783 0.338586
0.462928 0.417157 0.339670
0.622489 0.484144 0.342329
0.722949 0.543409 0.368527
0.782718 0.597675 0.409299
0.828150 0.647408 0.450519
0.872847 0.685540 0.488408
0.029312 0.075639 0.096152
0.099696 0.064448 0.080649
0.236741 0.054393 0.071574
0.388051 0.056884 0.079117
0.518202 0.077365 0.105224
0.629442 0.105412 0.124362
0.711611 0.141902 0.141812
0.772575 0.181625 0.164858
0.039222 0.101699 0.126657
0.092043 0.125919 0.144503
0.206490 0.137326 0.156512
0.353041 0.146578 0.167678
0.505876 0.160727 0.180804
0.636771 0.178576 0.192373
0.736157 0.204131 0.204663
0.806382 0.237602 0.222541
0.052727 0.132000 0.161418
0.104217 0.174449 0.190067
0.210462 0.214087 0.208962
0.351337 0.243375 0.219604
0.506464 0.259196 0.224940
0.642935 0.270823 0.234649
0.752570 0.285811 0.248939
0.832926 0.308155 0.270199
0.069924 0.165274 0.198505
0.127241 0.216409 0.229235
0.234004 0.278931 0.247614
0.371113 0.332073 0.254576
0.519638 0.362773 0.254246
0.650213 0.374272 0.264917
0.762614 0.382325 0.283695
0.851558 0.393745 0.310917
0.091440 0.201031 0.237058
0.155741 0.256988 0.271006
0.267358 0.329515 0.287329
0.404621 0.401870 0.289165
0.546690 0.459130 0.283425
0.662020 0.479270 0.295478
0.769159 0.487162 0.317569
0.862586 0.492332 0.348538
0.121488 0.242179 0.280249
0.196252 0.300053 0.319882
0.315713 0.372132 0.338598
0.458154 0.447411 0.339392
0.599674 0.515850 0.330155
0.689914 0.562350 0.341934
0.780795 0.583393 0.363629
0.868642 0.593353 0.392040
0.160150 0.287692 0.325574
0.247167 0.350540 0.372324
0.374580 0.420964 0.396098
0.522254 0.492211 0.399553
0.665682 0.558392 0.390875
0.743836 0.611630 0.403671
0.808853 0.651326 0.423313
0.877347 0.676137 0.447069
0.207955 0.333240 0.374009
0.304171 0.401724 0.426280
0.436679 0.472465 0.454171
0.586319 0.539935 0.460169
0.728853 0.600148 0.452729
0.800204 0.650723 0.467417
0.847702 0.697031 0.489071
0.894401 0.732518 0.513660
0.032888 0.105967 0.137886
0.077793 0.107864 0.136972
0.213998 0.096140 0.123002
0.386862 0.089925 0.118360
0.550411 0.102139 0.135848
0.657918 0.134407 0.164158
0.737117 0.175208 0.188036
0.797345 0.219420 0.216684
0.045945 0.133600 0.172551
0.092795 0.162428 0.198327
0.198153 0.174469 0.219694
0.347358 0.181084 0.236618
0.519060 0.191131 0.249813
0.654636 0.210623 0.262650
0.755594 0.240587 0.274251
0.826907 0.278698 0.290756
0.063193 0.166711 0.212568
0.116851 0.210411 0.247547
0.207582 0.248879 0.285433
0.340079 0.276354 0.312569
0.506868 0.290951 0.322303
0.653999 0.302038 0.327310
0.768701 0.319993 0.335850
0.852222 0.346351 0.350124
0.085619 0.203896 0.255186
0.147607 0.255781 0.291748
0.233891 0.315252 0.334173
0.355729 0.365389 0.362420
0.511803 0.395097 0.366929
0.657154 0.403904 0.367892
0.777107 0.412725 0.377277
0.870891 0.426917 0.393874
0.113899 0.244298 0.298726
0.184009 0.301621 0.336619
0.270888 0.371551 0.378093
0.387188 0.440197 0.401635
0.533180 0.494263 0.398099
0.666378 0.509733 0.395180
0.782683 0.515926 0.405003
0.881872 0.521973 0.423925
0.149314 0.289386 0.344844
0.230784 0.349797 0.386410
0.319247 0.420269 0.429965
0.434634 0.493078 0.451468
0.579112 0.559864 0.440774
0.691602 0.602205 0.428846
0.792852 0.618408 0.435157
0.887032 0.625700 0.451825
0.195102 0.339530 0.394235
0.287762 0.404252 0.440592
0.379503 0.473041 0.487368
0.495677 0.542367 0.509919
0.640587 0.607893 0.497715
0.743475 0.657962 0.481343
0.818134 0.692798 0.481371
0.893144 0.713421 0.492102
0.250470 0.389067 0.445153
0.350302 0.458478 0.495803
0.443454 0.526447 0.544568
0.558588 0.591409 0.567851
0.701885 0.651201 0.555849
0.799943 0.698434 0.538960
0.856357 0.740825 0.539182
0.908083 0.772572 0.550081
0.039340 0.136500 0.179456
0.073834 0.151314 0.194275
0.168927 0.156421 0.194887
0.342247 0.151572 0.182792
0.573558 0.144019 0.167963
0.688713 0.175940 0.201176
0.765710 0.218375 0.234135
0.823729 0.264598 0.270816
0.056056 0.166621 0.218182
0.099323 0.201653 0.252540
0.185868 0.225305 0.282639
0.331879 0.237494 0.303200
0.528960 0.242097 0.313260
0.675399 0.260008 0.326099
0.777135 0.291272 0.338976
0.847651 0.330425 0.357354
0.077650 0.203140 0.262650
0.130619 0.248617 0.303953
0.214641 0.291451 0.348809
0.340356 0.323459 0.388404
0.505783 0.340666 0.414946
0.665909 0.349713 0.416008
0.783752 0.367164 0.420285
0.868015 0.393026 0.431083
0.107091 0.245272 0.311334
0.169264 0.296457 0.353619
0.254839 0.354412 0.402386
0.365184 0.404822 0.448528
0.500395 0.437053 0.481622
0.661376 0.443283 0.475261
0.787035 0.449598 0.476718
0.883172 0.462355 0.485703
0.145217 0.291821 0.362172
0.215728 0.347727 0.404659
0.304815 0.413839 0.450860
0.403470 0.477731 0.493956
0.511255 0.527249 0.524267
0.664132 0.539098 0.510501
0.789272 0.541181 0.510015
0.892409 0.545633 0.518767
0.186907 0.340110 0.409937
0.268340 0.400789 0.454794
0.359013 0.468699 0.499937
0.451781 0.536721 0.540243
0.547959 0.597481 0.565809
0.684760 0.635478 0.536760
0.797482 0.644771 0.530181
0.896890 0.647621 0.536518
0.239291 0.395271 0.462560
0.329692 0.459326 0.509701
0.422080 0.525574 0.554090
0.510977 0.590722 0.593394
0.599794 0.651019 0.618173
0.730280 0.696967 0.579985
0.819089 0.724986 0.562751
0.901666 0.739836 0.562076
0.301516 0.448997 0.515808
0.396198 0.516183 0.565023
0.487622 0.580307 0.608326
0.571917 0.640995 0.646299
0.654602 0.696874 0.670765
0.782730 0.740412 0.629057
0.854994 0.777265 0.608276
0.915083 0.803657 0.605564
0.051251 0.167695 0.222183
0.083403 0.193632 0.251200
0.162780 0.215773 0.269120
0.303716 0.231244 0.274333
0.504381 0.238329 0.266968
0.710430 0.236731 0.251295
0.798673 0.274312 0.285010
0.852167 0.320145 0.328967
0.071626 0.201329 0.263690
0.114817 0.242951 0.305786
0.192006 0.279827 0.342560
0.319203 0.310571 0.371383
0.499264 0.332643 0.388964
0.696484 0.334941 0.384306
0.803818 0.359990 0.397505
0.870503 0.393909 0.419981
0.099471 0.242190 0.311872
0.152945 0.291170 0.358227
0.230750 0.340598 0.405172
0.345395 0.384953 0.448223
0.501288 0.418390 0.481751
0.683077 0.426917 0.489158
0.803441 0.438065 0.491597
0.884536 0.456370 0.501493
0.135682 0.288883 0.364349
0.199002 0.342212 0.411640
0.279658 0.400237 0.461618
0.382687 0.454845 0.509687
0.511587 0.497885 0.550116
0.672285 0.512387 0.566636
0.799317 0.512447 0.563902
0.893483 0.516724 0.567084
0.181235 0.340300 0.419012
0.253447 0.398051 0.467381
0.337906 0.459923 0.515312
0.430881 0.520444 0.560667
0.533207 0.572165 0.599846
0.666934 0.592159 0.619244
0.793902 0.587352 0.613178
0.897463 0.583225 0.612739
0.240344 0.396785 0.473802
0.315997 0.455344 0.521256
0.400343 0.517776 0.566447
0.489812 0.580047 0.607379
0.581791 0.636636 0.640595
0.676211 0.670653 0.652415
0.793878 0.671414 0.640502
0.899148 0.667795 0.636524
0.299899 0.455873 0.528206
0.379970 0.515353 0.574940
0.463846 0.575795 0.617646
0.548833 0.635087 0.654967
0.632458 0.690246 0.684040
0.711026 0.731609 0.691878
0.810099 0.750664 0.665904
0.903372 0.758005 0.653039
0.366613 0.513149 0.581869
0.447489 0.573239 0.628100
0.528352 0.630825 0.668084
0.607292 0.685305 0.701678
0.682956 0.735691 0.727386
0.754454 0.777755 0.735306
0.840585 0.805896 0.701117
0.915301 0.824184 0.681898
0.068203 0.200780 0.267273
0.102648 0.236134 0.305975
0.176646 0.272304 0.338763
0.302051 0.306287 0.362850
0.480364 0.334046 0.375254
0.684852 0.342962 0.367289
0.809082 0.355177 0.369621
0.878216 0.383452 0.394222
0.093701 0.239268 0.311318
0.141641 0.287380 0.359756
0.215852 0.334007 0.403413
0.331644 0.378916 0.440819
0.494659 0.419030 0.468795
0.686748 0.436431 0.472733
0.817213 0.444732 0.469805
0.892816 0.463264 0.481737
0.129174 0.284604 0.361501
0.187564 0.338457 0.413424
0.262440 0.392916 0.462783
0.367821 0.446031 0.507883
0.510915 0.493671 0.545301
0.685569 0.518614 0.560333
0.817986 0.522769 0.556943
0.901459 0.530313 0.561419
0.174716 0.335900 0.416115
0.241674 0.392939 0.468768
0.318182 0.451836 0.519458
0.412573 0.509357 0.566595
0.531322 0.560811 0.607322
0.683848 0.590794 0.630090
0.813499 0.591424 0.628737
0.904463 0.589127 0.629504
0.230275 0.392290 0.473549
0.303950 0.452391 0.526236
0.382603 0.512145 0.574917
0.466589 0.570041 0.619202
0.559709 0.622645 0.657744
0.684587 0.655006 0.683028
0.806437 0.653915 0.683911
0.902844 0.645174 0.683113
0.297531 0.453557 0.532071
0.371135 0.512577 0.581689
0.447861 0.570788 0.626951
0.527981 0.627119 0.666909
0.611201 0.679114 0.700183
0.695450 0.715922 0.721061
0.803199 0.718708 0.720467
0.900086 0.711048 0.717434
0.365661 0.516918 0.588114
0.436487 0.572232 0.634277
0.509410 0.626410 0.675176
0.584597 0.678615 0.709976
0.660901 0.727269 0.737626
0.731280 0.765814 0.753729
0.814797 0.782338 0.747555
0.899771 0.784021 0.740076
0.435446 0.576198 0.641028
0.502193 0.628215 0.683846
0.569766 0.677870 0.720526
0.638451 0.725004 0.750639
0.707355 0.769030 0.773774
0.770230 0.806458 0.787636
0.838157 0.831178 0.778917
0.907377 0.843143 0.765045
0.090260 0.237008 0.313246
0.129828 0.280961 0.359065
0.203821 0.327839 0.403053
0.321479 0.375862 0.442355
0.483896 0.421172 0.473242
0.670630 0.448061 0.483750
0.812591 0.452715 0.474870
0.894139 0.463454 0.478648
0.122363 0.280699 0.359620
0.177427 0.334803 0.414297
0.253057 0.388591 0.464105
0.362205 0.442846 0.508521
0.510155 0.495129 0.545162
0.684241 0.527764 0.560580
0.822232 0.532613 0.552825
0.904858 0.538354 0.551560
0.166424 0.330165 0.412651
0.232098 0.389254 0.470306
0.306691 0.447003 0.522190
0.404798 0.504572 0.568717
0.534642 0.560025 0.608249
0.692199 0.597005 0.628046
0.824563 0.602940 0.623312
0.909440 0.604174 0.619293
0.222648 0.386144 0.470154
0.294614 0.447300 0.527433
0.367691 0.506090 0.578509
0.453171 0.563423 0.624105
0.559843 0.617940 0.663221
0.697819 0.657474 0.685659
0.822121 0.664625 0.684672
0.909197 0.661963 0.679641
0.289886 0.448361 0.529981
0.364062 0.509910 0.585219
0.436004 0.567038 0.633411
0.509103 0.620775 0.675414
0.589908 0.670885 0.710979
0.704308 0.710981 0.733700
0.817510 0.719286 0.735938
0.905699 0.713899 0.730874
0.363277 0.513727 0.589119
0.433681 0.571678 0.639792
0.501051 0.624943 0.683729
0.568845 0.674619 0.721201
0.639857 0.720879 0.752136
0.716995 0.759487 0.773516
0.814980 0.770850 0.775869
0.901927 0.766938 0.769768
0.434290 0.577268 0.643786
0.497250 0.628426 0.688905
0.558782 0.676217 0.727678
0.621435 0.721147 0.759960
0.686575 0.763154 0.785484
0.752391 0.799150 0.801722
0.824049 0.818750 0.806275
0.899064 0.821336 0.800166
0.503377 0.635911 0.694429
0.558300 0.680206 0.733258
0.613170 0.722118 0.766721
0.669884 0.761986 0.794131
0.729235 0.799699 0.814914
0.788778 0.832763 0.826984
0.843701 0.856504 0.832665
0.904342 0.866404 0.824529
