filter/Red and Blue 2/lut/Hope 05_S.cube
# LUT by SparkleStock. Enhanced with VOXCOLOR algorithms.
LUT_3D_SIZE 32
0.027350 0.019536 0.015629
0.045784 0.019914 0.015771
0.064217 0.020292 0.015912
0.082650 0.020670 0.016054
0.101083 0.021048 0.016196
0.119516 0.021427 0.016338
0.145866 0.023144 0.017070
0.173800 0.025129 0.017921
0.201733 0.027114 0.018772
0.229666 0.029099 0.019623
0.257600 0.031084 0.020473
0.288842 0.034267 0.022017
0.321738 0.038048 0.023908
0.354634 0.041829 0.025799
0.387530 0.045610 0.027689
0.420426 0.049391 0.029580
0.451644 0.053952 0.032014
0.481185 0.059293 0.034992
0.510725 0.064634 0.037969
0.540265 0.069975 0.040947
0.569806 0.075316 0.043925
0.596258 0.080925 0.047186
0.616535 0.087069 0.051014
0.636811 0.093214 0.054843
0.657088 0.099358 0.058671
0.677364 0.105502 0.062500
0.696459 0.111844 0.066596
0.709646 0.119170 0.072031
0.722833 0.126496 0.077467
0.736020 0.133822 0.082902
0.749206 0.141148 0.088337
0.762393 0.148474 0.093773
0.028390 0.025775 0.022766
0.047775 0.027507 0.021618
0.067159 0.029239 0.020470
0.086544 0.030971 0.019322
0.105929 0.032703 0.018173
0.125313 0.034435 0.017025
0.151631 0.036889 0.017612
0.179336 0.039487 0.018545
0.207040 0.042085 0.019478
0.234745 0.044683 0.020411
0.262450 0.047281 0.021344
0.293670 0.050686 0.022940
0.326649 0.054495 0.024867
0.359627 0.058303 0.026794
0.392606 0.062112 0.028721
0.425584 0.065920 0.030649
0.456949 0.070239 0.033202
0.486699 0.075068 0.036381
0.516450 0.079896 0.039559
0.546201 0.084725 0.042738
0.575952 0.089553 0.045917
0.602642 0.094613 0.049477
0.623211 0.100136 0.053800
0.643780 0.105658 0.058122
0.664350 0.111180 0.062445
0.684919 0.116703 0.066767
0.704230 0.122455 0.071389
0.717252 0.129361 0.077511
0.730275 0.136266 0.083632
0.743297 0.143171 0.089754
0.756319 0.150076 0.095875
0.769341 0.156981 0.101997
0.029430 0.032014 0.029903
0.049766 0.035100 0.027465
0.070102 0.038186 0.025027
0.090438 0.041272 0.022589
0.110774 0.044358 0.020151
0.131110 0.047443 0.017713
0.157396 0.050634 0.018153
0.184872 0.053845 0.019168
0.212348 0.057055 0.020184
0.239824 0.060266 0.021199
0.267300 0.063477 0.022215
0.298499 0.067105 0.023862
0.331560 0.070941 0.025826
0.364620 0.074777 0.027790
0.397681 0.078613 0.029754
0.430742 0.082449 0.031717
0.462253 0.086525 0.034389
0.492214 0.090842 0.037769
0.522175 0.095158 0.041150
0.552136 0.099474 0.044530
0.582098 0.103791 0.047910
0.609026 0.108302 0.051769
0.629888 0.113202 0.056585
0.650750 0.118102 0.061402
0.671612 0.123002 0.066218
0.692474 0.127903 0.071035
0.712002 0.133067 0.076183
0.724859 0.139551 0.082990
0.737716 0.146036 0.089798
0.750574 0.152520 0.096606
0.763431 0.159005 0.103413
0.776289 0.165489 0.110221
0.030470 0.038253 0.037040
0.051757 0.042693 0.033312
0.073045 0.047132 0.029584
0.094332 0.051572 0.025856
0.115619 0.056012 0.022128
0.136907 0.060452 0.018401
0.163161 0.064378 0.018694
0.190408 0.068202 0.019792
0.217655 0.072026 0.020890
0.244902 0.075850 0.021987
0.272150 0.079674 0.023085
0.303327 0.083524 0.024785
0.336471 0.087388 0.026785
0.369614 0.091251 0.028785
0.402757 0.095115 0.030786
0.435900 0.098978 0.032786
0.467557 0.102812 0.035577
0.497729 0.106616 0.039158
0.527900 0.110420 0.042740
0.558072 0.114224 0.046321
0.588244 0.118028 0.049903
0.615410 0.121990 0.054060
0.636564 0.126268 0.059371
0.657719 0.130547 0.064681
0.678874 0.134825 0.069992
0.700028 0.139103 0.075302
0.719773 0.143679 0.080976
0.732466 0.149742 0.088470
0.745158 0.155806 0.095964
0.757851 0.161869 0.103458
0.770544 0.167933 0.110951
0.783237 0.173997 0.118445
0.031510 0.044492 0.044177
0.053748 0.050285 0.039159
0.075987 0.056079 0.034141
0.098226 0.061873 0.029124
0.120465 0.067667 0.024106
0.142703 0.073460 0.019088
0.168925 0.078123 0.019235
0.195944 0.082560 0.020415
0.222962 0.086997 0.021596
0.249981 0.091434 0.022776
0.277000 0.095870 0.023956
0.308156 0.099943 0.025707
0.341382 0.103834 0.027744
0.374607 0.107725 0.029781
0.407832 0.111616 0.031818
0.441058 0.115507 0.033855
0.472862 0.119098 0.036765
0.503244 0.122390 0.040547
0.533626 0.125682 0.044330
0.564008 0.128974 0.048113
0.594389 0.132265 0.051895
0.621793 0.135679 0.056352
0.643241 0.139335 0.062156
0.664688 0.142991 0.067961
0.686136 0.146647 0.073765
0.707583 0.150303 0.079570
0.727544 0.154290 0.085770
0.740072 0.159933 0.093950
0.752600 0.165576 0.102130
0.765128 0.171219 0.110309
0.777657 0.176861 0.118489
0.790185 0.182504 0.126669
0.032550 0.050731 0.051314
0.055740 0.057878 0.045006
0.078930 0.065026 0.038698
0.102120 0.072173 0.032391
0.125310 0.079321 0.026083
0.148500 0.086469 0.019776
0.174690 0.091868 0.019777
0.201480 0.096918 0.021039
0.228270 0.101967 0.022302
0.255060 0.107017 0.023564
0.281850 0.112067 0.024826
0.312985 0.116362 0.026630
0.346292 0.120281 0.028703
0.379600 0.124199 0.030777
0.412908 0.128117 0.032850
0.446216 0.132036 0.034924
0.478166 0.135385 0.037952
0.508758 0.138164 0.041936
0.539351 0.140944 0.045920
0.569943 0.143723 0.049904
0.600535 0.146503 0.053888
0.628177 0.149367 0.058644
0.649917 0.152401 0.064942
0.671657 0.155435 0.071240
0.693398 0.158469 0.077539
0.715138 0.161503 0.083837
0.735315 0.164902 0.090563
0.747679 0.170124 0.099429
0.760042 0.175346 0.108295
0.772406 0.180568 0.117161
0.784769 0.185790 0.126027
0.797133 0.191012 0.134893
0.033944 0.057166 0.058175
0.058421 0.064768 0.051347
0.082898 0.072370 0.044520
0.107375 0.079972 0.037692
0.131852 0.087574 0.030865
0.156329 0.095176 0.024038
0.182536 0.102223 0.023817
0.209090 0.109159 0.024918
0.235643 0.116094 0.026019
0.262197 0.123030 0.027119
0.288750 0.129966 0.028220
0.319262 0.135228 0.030045
0.351752 0.139655 0.032231
0.384243 0.144081 0.034417
0.416733 0.148507 0.036604
0.449224 0.152933 0.038790
0.480665 0.156432 0.042010
0.511056 0.159004 0.046264
0.541447 0.161576 0.050518
0.571838 0.164148 0.054772
0.602229 0.166720 0.059026
0.629872 0.169234 0.064141
0.652020 0.171631 0.070979
0.674167 0.174028 0.077817
0.696314 0.176424 0.084655
0.718462 0.178821 0.091493
0.739075 0.181574 0.098775
0.752021 0.186109 0.108273
0.764967 0.190643 0.117772
0.777913 0.195177 0.127271
0.790859 0.199712 0.136769
0.803805 0.204246 0.146268
0.035409 0.063642 0.064981
0.061240 0.071518 0.057788
0.087071 0.079395 0.050594
0.112902 0.087271 0.043401
0.138732 0.095147 0.036207
0.164563 0.103024 0.029014
0.190798 0.111900 0.028557
0.217114 0.120976 0.029448
0.243430 0.130053 0.030338
0.269745 0.139129 0.031228
0.296061 0.148205 0.032119
0.325828 0.154584 0.033959
0.357322 0.159614 0.036273
0.388815 0.164644 0.038587
0.420309 0.169674 0.040902
0.451802 0.174704 0.043216
0.482603 0.178431 0.046642
0.512710 0.180857 0.051180
0.542818 0.183283 0.055717
0.572925 0.185709 0.060254
0.603033 0.188134 0.064792
0.630630 0.190337 0.070279
0.653207 0.192093 0.077666
0.675785 0.193850 0.085053
0.698362 0.195606 0.092440
0.720939 0.197363 0.099827
0.742033 0.199458 0.107670
0.755711 0.203252 0.117790
0.769389 0.207045 0.127911
0.783066 0.210839 0.138032
0.796744 0.214632 0.148153
0.810422 0.218425 0.158273
0.036874 0.070117 0.071787
0.064059 0.078268 0.064228
0.091244 0.086419 0.056668
0.118428 0.094570 0.049109
0.145613 0.102720 0.041550
0.172798 0.110871 0.033991
0.199060 0.121577 0.033297
0.225138 0.132794 0.033977
0.251216 0.144011 0.034657
0.277294 0.155228 0.035337
0.303372 0.166445 0.036017
0.332395 0.173940 0.037872
0.362891 0.179573 0.040315
0.393388 0.185207 0.042757
0.423884 0.190841 0.045200
0.454380 0.196474 0.047642
0.484541 0.200431 0.051274
0.514364 0.202710 0.056095
0.544188 0.204989 0.060916
0.574012 0.207269 0.065737
0.603836 0.209548 0.070558
0.631388 0.211440 0.076417
0.654395 0.212556 0.084353
0.677402 0.213672 0.092289
0.700409 0.214788 0.100225
0.723417 0.215904 0.108161
0.744991 0.217343 0.116565
0.759401 0.220395 0.127307
0.773810 0.223448 0.138050
0.788220 0.226500 0.148793
0.802629 0.229552 0.159536
0.817039 0.232605 0.170278
0.038339 0.076592 0.078593
0.066878 0.085018 0.070668
0.095417 0.093443 0.062743
0.123955 0.101868 0.054817
0.152494 0.110293 0.046892
0.181033 0.118719 0.038967
0.207322 0.131254 0.038038
0.233162 0.144612 0.038507
0.259002 0.157969 0.038977
0.284842 0.171327 0.039446
0.310682 0.184685 0.039916
0.338962 0.193295 0.041786
0.368461 0.199533 0.044357
0.397960 0.205770 0.046927
0.427459 0.212007 0.049498
0.456959 0.218245 0.052069
0.486478 0.222430 0.055906
0.516019 0.224563 0.061011
0.545559 0.226696 0.066115
0.575099 0.228829 0.071220
0.604640 0.230962 0.076324
0.632146 0.232543 0.082556
0.655583 0.233018 0.091040
0.679020 0.233494 0.099525
0.702457 0.233970 0.108010
0.725894 0.234445 0.116495
0.747949 0.235227 0.125459
0.763090 0.237538 0.136824
0.778232 0.239850 0.148189
0.793373 0.242161 0.159554
0.808514 0.244473 0.170919
0.823656 0.246784 0.182284
0.039805 0.083067 0.085399
0.069697 0.091767 0.077108
0.099590 0.100467 0.068817
0.129482 0.109167 0.060526
0.159375 0.117866 0.052235
0.189267 0.126566 0.043944
0.215585 0.140931 0.042778
0.241187 0.156429 0.043037
0.266789 0.171928 0.043296
0.292391 0.187426 0.043555
0.317993 0.202924 0.043815
0.345529 0.212651 0.045700
0.374031 0.219492 0.048399
0.402533 0.226333 0.051097
0.431035 0.233174 0.053796
0.459537 0.240016 0.056495
0.488416 0.244429 0.060538
0.517673 0.246416 0.065926
0.546930 0.248403 0.071314
0.576187 0.250389 0.076703
0.605443 0.252376 0.082091
0.632904 0.253646 0.088694
0.656771 0.253481 0.097728
0.680638 0.253316 0.106761
0.704505 0.253152 0.115795
0.728372 0.252987 0.124829
0.750907 0.253111 0.134354
0.766780 0.254682 0.146341
0.782653 0.256252 0.158328
0.798526 0.257823 0.170315
0.814400 0.259393 0.182302
0.830273 0.260963 0.194289
0.042467 0.090236 0.092520
0.073714 0.099143 0.083961
0.104960 0.108050 0.075401
0.136207 0.116957 0.066842
0.167453 0.125864 0.058283
0.198699 0.134771 0.049723
0.225507 0.149822 0.048566
0.251426 0.166100 0.048889
0.277345 0.182379 0.049212
0.303264 0.198658 0.049536
0.329184 0.214937 0.049859
0.356014 0.225965 0.052152
0.383299 0.234367 0.055430
0.410584 0.242770 0.058708
0.437870 0.251172 0.061986
0.465155 0.259574 0.065264
0.493025 0.264964 0.069742
0.521480 0.267341 0.075420
0.549935 0.269718 0.081098
0.578390 0.272095 0.086775
0.606844 0.274472 0.092453
0.633793 0.275951 0.099425
0.657731 0.275634 0.108983
0.681668 0.275317 0.118541
0.705605 0.274999 0.128099
0.729542 0.274682 0.137657
0.752251 0.274593 0.147684
0.768820 0.275642 0.160055
0.785388 0.276691 0.172426
0.801957 0.277740 0.184797
0.818525 0.278789 0.197168
0.835094 0.279838 0.209540
0.045728 0.097751 0.099799
0.078329 0.106832 0.091020
0.110929 0.115913 0.082241
0.143530 0.124994 0.073462
0.176130 0.134075 0.064683
0.208730 0.143155 0.055904
0.236259 0.158318 0.054878
0.262772 0.174698 0.055402
0.289286 0.191077 0.055927
0.315800 0.207457 0.056451
0.342314 0.223836 0.056976
0.368458 0.236258 0.059873
0.394417 0.246700 0.063956
0.420376 0.257143 0.068039
0.446335 0.267585 0.072122
0.472294 0.278027 0.076205
0.498970 0.284766 0.081232
0.526364 0.287802 0.087202
0.553757 0.290838 0.093173
0.581151 0.293873 0.099144
0.608544 0.296909 0.105114
0.634749 0.298857 0.112451
0.658577 0.298632 0.122522
0.682404 0.298406 0.132592
0.706232 0.298180 0.142662
0.730059 0.297955 0.152733
0.752790 0.297873 0.163231
0.770035 0.298510 0.175867
0.787280 0.299148 0.188504
0.804526 0.299785 0.201140
0.821771 0.300422 0.213777
0.839017 0.301060 0.226413
0.048990 0.105266 0.107078
0.082944 0.114521 0.098079
0.116898 0.123775 0.089081
0.150852 0.133030 0.080082
0.184807 0.142285 0.071084
0.218761 0.151540 0.062085
0.247010 0.166815 0.061190
0.274119 0.183296 0.061916
0.301227 0.199776 0.062642
0.328336 0.216256 0.063367
0.355445 0.232736 0.064093
0.380902 0.246551 0.067594
0.405535 0.259033 0.072482
0.430167 0.271516 0.077370
0.454800 0.283998 0.082258
0.479432 0.296480 0.087146
0.504915 0.304569 0.092722
0.531247 0.308263 0.098985
0.557580 0.311957 0.105248
0.583912 0.315652 0.111512
0.610244 0.319346 0.117775
0.635705 0.321764 0.125478
0.659423 0.321630 0.136061
0.683141 0.321496 0.146643
0.706858 0.321361 0.157226
0.730576 0.321227 0.167809
0.753328 0.321153 0.178778
0.771250 0.321379 0.191680
0.789173 0.321604 0.204581
0.807095 0.321830 0.217483
0.825017 0.322056 0.230385
0.842940 0.322281 0.243286
0.052251 0.112781 0.114357
0.087559 0.122210 0.105138
0.122867 0.131638 0.095920
0.158175 0.141067 0.086702
0.193484 0.150495 0.077484
0.228792 0.159924 0.068266
0.257762 0.175312 0.067502
0.285466 0.191893 0.068429
0.313169 0.208474 0.069356
0.340872 0.225055 0.070283
0.368575 0.241635 0.071210
0.393347 0.256844 0.075315
0.416653 0.271366 0.081008
0.439959 0.285889 0.086701
0.463265 0.300411 0.092394
0.486571 0.314933 0.098087
0.510859 0.324371 0.104212
0.536131 0.328724 0.110768
0.561402 0.333077 0.117324
0.586673 0.337430 0.123880
0.611944 0.341783 0.130436
0.636661 0.344670 0.138505
0.660269 0.344628 0.149600
0.683877 0.344585 0.160695
0.707485 0.344542 0.171790
0.731093 0.344500 0.182885
0.753866 0.344433 0.194325
0.772465 0.344247 0.207492
0.791065 0.344061 0.220659
0.809664 0.343875 0.233826
0.828263 0.343689 0.246993
0.846863 0.343503 0.260160
0.055512 0.120296 0.121635
0.092174 0.129899 0.112198
0.128836 0.139501 0.102760
0.165498 0.149103 0.093322
0.202160 0.158706 0.083885
0.238823 0.168308 0.074447
0.268514 0.183809 0.073814
0.296812 0.200491 0.074943
0.325110 0.217172 0.076071
0.353408 0.233853 0.077199
0.381705 0.250535 0.078327
0.405791 0.267137 0.083035
0.427770 0.283699 0.089534
0.449750 0.300262 0.096032
0.471730 0.316824 0.102530
0.493709 0.333386 0.109028
0.516804 0.344173 0.115701
0.541014 0.349185 0.122550
0.565224 0.354197 0.129399
0.589434 0.359208 0.136248
0.613644 0.364220 0.143097
0.637617 0.367577 0.151531
0.661115 0.367626 0.163139
0.684613 0.367675 0.174746
0.708112 0.367723 0.186353
0.731610 0.367772 0.197961
0.754404 0.367713 0.209872
0.773680 0.367116 0.223304
0.792957 0.366518 0.236737
0.812233 0.365920 0.250169
0.831509 0.365323 0.263601
0.850786 0.364725 0.277033
0.059577 0.128213 0.129339
0.097593 0.138085 0.119778
0.135609 0.147957 0.110217
0.173625 0.157830 0.100656
0.211641 0.167702 0.091095
0.249657 0.177574 0.081534
0.280074 0.193052 0.081124
0.308970 0.209651 0.082545
0.337867 0.226250 0.083966
0.366764 0.242849 0.085387
0.395661 0.259448 0.086808
0.419462 0.276651 0.092077
0.440714 0.294155 0.099271
0.461966 0.311660 0.106464
0.483219 0.329165 0.113658
0.504471 0.346669 0.120851
0.526598 0.358602 0.128270
0.549601 0.364963 0.135915
0.572604 0.371324 0.143559
0.595606 0.377685 0.151204
0.618609 0.384046 0.158849
0.641586 0.388489 0.167892
0.664512 0.389095 0.179732
0.687439 0.389702 0.191573
0.710365 0.390309 0.203413
0.733291 0.390916 0.215254
0.755664 0.391308 0.227374
0.775270 0.390628 0.240894
0.794876 0.389948 0.254413
0.814481 0.389268 0.267932
0.834087 0.388588 0.281451
0.853693 0.387908 0.294970
0.064445 0.136532 0.137469
0.103815 0.146770 0.127880
0.143185 0.157008 0.118292
0.182555 0.167246 0.108703
0.221925 0.177484 0.099115
0.261295 0.187722 0.089526
0.292440 0.203040 0.089432
0.321941 0.219374 0.091237
0.351442 0.235707 0.093043
0.380942 0.252041 0.094848
0.410443 0.268375 0.096653
0.434359 0.285385 0.102441
0.455484 0.302735 0.110219
0.476608 0.320084 0.117998
0.497732 0.337433 0.125777
0.518856 0.354782 0.133556
0.540243 0.367657 0.141917
0.561891 0.376058 0.150861
0.583540 0.384459 0.159805
0.605189 0.392860 0.168748
0.626837 0.401261 0.177692
0.648567 0.407405 0.187586
0.670460 0.409036 0.199381
0.692353 0.410668 0.211176
0.714245 0.412299 0.222970
0.736138 0.413931 0.234765
0.757646 0.415218 0.246832
0.777234 0.414785 0.260260
0.796821 0.414352 0.273687
0.816408 0.413919 0.287115
0.835996 0.413486 0.300543
0.855583 0.413053 0.313971
0.069313 0.144850 0.145598
0.110037 0.155454 0.135982
0.150761 0.166058 0.126366
0.191485 0.176662 0.116750
0.232209 0.187266 0.107134
0.272932 0.197870 0.097518
0.304807 0.213028 0.097740
0.334911 0.229096 0.099929
0.365016 0.245165 0.102119
0.395120 0.261233 0.104308
0.425225 0.277302 0.106498
0.449257 0.294120 0.112804
0.470253 0.311314 0.121168
0.491249 0.328508 0.129532
0.512245 0.345701 0.137897
0.533241 0.362895 0.146261
0.553887 0.376712 0.155564
0.574182 0.387153 0.165807
0.594476 0.397594 0.176050
0.614771 0.408035 0.186293
0.635066 0.418476 0.196535
0.655549 0.426322 0.207280
0.676408 0.428977 0.219029
0.697267 0.431633 0.230778
0.718126 0.434289 0.242527
0.738984 0.436945 0.254276
0.759628 0.439128 0.266290
0.779197 0.438942 0.279626
0.798767 0.438756 0.292962
0.818336 0.438570 0.306299
0.837905 0.438384 0.319635
0.857474 0.438198 0.332971
0.074182 0.153169 0.153728
0.116259 0.164139 0.144084
0.158337 0.175109 0.134441
0.200415 0.186079 0.124798
0.242492 0.197049 0.115154
0.284570 0.208018 0.105511
0.317173 0.223016 0.106048
0.347881 0.238819 0.108622
0.378590 0.254622 0.111195
0.409298 0.270425 0.113769
0.440006 0.286229 0.116342
0.464154 0.302855 0.123167
0.485022 0.319893 0.132117
0.505890 0.336931 0.141066
0.526758 0.353969 0.150016
0.547627 0.371008 0.158966
0.567531 0.385767 0.169212
0.586472 0.398248 0.180753
0.605413 0.410729 0.192295
0.624354 0.423210 0.203837
0.643295 0.435691 0.215379
0.662530 0.445238 0.226974
0.682355 0.448919 0.238677
0.702181 0.452599 0.250381
0.722006 0.456280 0.262084
0.741831 0.459960 0.273787
0.761611 0.463037 0.285748
0.781161 0.463098 0.298992
0.800712 0.463159 0.312237
0.820263 0.463220 0.325482
0.839814 0.463281 0.338727
0.859364 0.463342 0.351971
0.079050 0.161487 0.161857
0.122482 0.172823 0.152187
0.165913 0.184159 0.142516
0.209345 0.195495 0.132845
0.252776 0.206831 0.123174
0.296208 0.218167 0.113503
0.329540 0.233004 0.114356
0.360852 0.248542 0.117314
0.392164 0.264080 0.120272
0.423476 0.279618 0.123229
0.454788 0.295156 0.126187
0.479052 0.311590 0.133530
0.499792 0.328472 0.143065
0.520532 0.345355 0.152601
0.541272 0.362238 0.162136
0.562012 0.379120 0.171671
0.581175 0.394822 0.182859
0.598762 0.409343 0.195700
0.616349 0.423864 0.208540
0.633936 0.438385 0.221381
0.651523 0.452906 0.234222
0.669512 0.464155 0.246668
0.688303 0.468860 0.258326
0.707095 0.473565 0.269983
0.725886 0.478270 0.281641
0.744678 0.482975 0.293298
0.763593 0.486947 0.305205
0.783125 0.487255 0.318359
0.802657 0.487563 0.331512
0.822190 0.487871 0.344665
0.841722 0.488179 0.357818
0.861255 0.488487 0.370972
0.084454 0.169979 0.170239
0.129206 0.181763 0.160626
0.173958 0.193547 0.151013
0.218710 0.205331 0.141400
0.263462 0.217116 0.131787
0.308213 0.228900 0.122174
0.342177 0.243675 0.123349
0.373983 0.259048 0.126682
0.405789 0.274421 0.130015
0.437595 0.289794 0.133348
0.469401 0.305167 0.136681
0.493777 0.321413 0.144494
0.514438 0.338094 0.154548
0.535098 0.354775 0.164602
0.555759 0.371457 0.174655
0.576420 0.388138 0.184709
0.595036 0.404396 0.196630
0.611608 0.420232 0.210419
0.628179 0.436067 0.224208
0.644751 0.451902 0.237997
0.661322 0.467737 0.251786
0.678272 0.480267 0.264921
0.695978 0.486185 0.276746
0.713684 0.492104 0.288572
0.731390 0.498023 0.300397
0.749096 0.503942 0.312222
0.767052 0.509008 0.324238
0.786261 0.509813 0.337205
0.805470 0.510618 0.350172
0.824680 0.511423 0.363139
0.843889 0.512228 0.376107
0.863098 0.513033 0.389074
0.090929 0.178818 0.179125
0.136934 0.191215 0.169741
0.182940 0.203612 0.160356
0.228945 0.216009 0.150972
0.274950 0.228406 0.141588
0.320955 0.240803 0.132203
0.355356 0.255710 0.133714
0.387437 0.271120 0.137404
0.419517 0.286530 0.141093
0.451598 0.301940 0.144783
0.483678 0.317350 0.148473
0.508158 0.333412 0.156661
0.528837 0.349800 0.167099
0.549516 0.366189 0.177537
0.570195 0.382578 0.187975
0.590874 0.398966 0.198413
0.609330 0.415010 0.210650
0.625563 0.430707 0.224686
0.641796 0.446405 0.238722
0.658029 0.462103 0.252758
0.674262 0.477801 0.266794
0.690590 0.490770 0.280291
0.707106 0.498281 0.292711
0.723623 0.505791 0.305131
0.740140 0.513302 0.317551
0.756656 0.520812 0.329971
0.773466 0.527371 0.342419
0.791742 0.529173 0.355012
0.810019 0.530975 0.367604
0.828295 0.532778 0.380196
0.846571 0.534580 0.392788
0.864847 0.536382 0.405380
0.097404 0.187656 0.188011
0.144663 0.200666 0.178855
0.191921 0.213676 0.169699
0.239180 0.226686 0.160544
0.286438 0.239696 0.151388
0.333697 0.252706 0.142233
0.368536 0.267746 0.144079
0.400890 0.283192 0.148125
0.433245 0.298639 0.152172
0.465600 0.314085 0.156218
0.497955 0.329532 0.160264
0.522538 0.345411 0.168828
0.543236 0.361507 0.179650
0.563933 0.377603 0.190472
0.584630 0.393699 0.201294
0.605327 0.409794 0.212116
0.623623 0.425623 0.224669
0.639518 0.441183 0.238952
0.655413 0.456744 0.253235
0.671307 0.472305 0.267518
0.687202 0.487866 0.281801
0.702907 0.501273 0.295661
0.718235 0.510376 0.308676
0.733562 0.519478 0.321690
0.748890 0.528580 0.334705
0.764217 0.537682 0.347719
0.779881 0.545734 0.360601
0.797224 0.548533 0.372818
0.814567 0.551333 0.385035
0.831910 0.554132 0.397252
0.849253 0.556931 0.409469
0.866596 0.559731 0.421687
0.103880 0.196495 0.196896
0.152391 0.210117 0.187969
0.200903 0.223740 0.179042
0.249415 0.237363 0.170116
0.297927 0.250986 0.161189
0.346438 0.264609 0.152262
0.381715 0.279782 0.154443
0.414344 0.295265 0.158847
0.446973 0.310748 0.163250
0.479603 0.326231 0.167653
0.512232 0.341714 0.172056
0.536919 0.357410 0.180995
0.557634 0.373213 0.192201
0.578350 0.389016 0.203407
0.599066 0.404819 0.214614
0.619781 0.420623 0.225820
0.637917 0.436236 0.238688
0.653473 0.451659 0.253218
0.669029 0.467083 0.267748
0.684586 0.482506 0.282278
0.700142 0.497930 0.296808
0.715225 0.511777 0.311031
0.729363 0.522471 0.324640
0.743502 0.533165 0.338250
0.757640 0.543859 0.351859
0.771778 0.554553 0.365468
0.786295 0.564097 0.378783
0.802705 0.567894 0.390625
0.819115 0.571690 0.402467
0.835525 0.575486 0.414309
0.851935 0.579283 0.426151
0.868345 0.583079 0.437993
0.110355 0.205333 0.205782
0.160120 0.219569 0.197084
0.209885 0.233805 0.188386
0.259650 0.248040 0.179687
0.309415 0.262276 0.170989
0.359180 0.276512 0.162291
0.394894 0.291818 0.164808
0.427798 0.307337 0.169568
0.460701 0.322857 0.174328
0.493605 0.338376 0.179088
0.526509 0.353896 0.183848
0.551299 0.369409 0.193162
0.572033 0.384920 0.204752
0.592767 0.400430 0.216343
0.613501 0.415940 0.227933
0.634235 0.431451 0.239524
0.652211 0.446849 0.252707
0.667428 0.462135 0.267484
0.682646 0.477422 0.282261
0.697864 0.492708 0.297038
0.713081 0.507994 0.311816
0.727543 0.522280 0.326401
0.740492 0.534566 0.340605
0.753441 0.546852 0.354809
0.766390 0.559137 0.369013
0.779339 0.571423 0.383217
0.792709 0.582460 0.396964
0.808186 0.587254 0.408431
0.823663 0.592047 0.419898
0.839140 0.596841 0.431365
0.854616 0.601634 0.442832
0.870093 0.606428 0.454299
0.117059 0.213912 0.215014
0.168106 0.228792 0.206562
0.219153 0.243673 0.198109
0.270200 0.258554 0.189656
0.321248 0.273434 0.181203
0.372295 0.288315 0.172751
0.408380 0.303760 0.175575
0.441473 0.319318 0.180656
0.474566 0.334875 0.185736
0.507659 0.350433 0.190816
0.540751 0.365991 0.195896
0.565586 0.381350 0.205549
0.586290 0.396610 0.217489
0.606995 0.411871 0.229429
0.627700 0.427131 0.241368
0.648405 0.442391 0.253308
0.666205 0.457601 0.266772
0.681099 0.472759 0.281761
0.695994 0.487917 0.296750
0.710888 0.503075 0.311739
0.725783 0.518234 0.326728
0.739683 0.532866 0.341608
0.751595 0.546446 0.356269
0.763507 0.560026 0.370930
0.775420 0.573606 0.385591
0.787332 0.587186 0.400252
0.799668 0.599464 0.414324
0.814123 0.605225 0.425450
0.828579 0.610987 0.436575
0.843034 0.616749 0.447701
0.857489 0.622510 0.458826
0.871945 0.628272 0.469952
0.124904 0.221190 0.225980
0.177379 0.236876 0.217856
0.229853 0.252562 0.209733
0.282328 0.268247 0.201610
0.334802 0.283933 0.193486
0.387276 0.299619 0.185363
0.423401 0.315236 0.188357
0.456256 0.330839 0.193574
0.489111 0.346443 0.198791
0.521966 0.362046 0.204009
0.554821 0.377650 0.209226
0.579399 0.393000 0.219041
0.599839 0.408224 0.231154
0.620278 0.423448 0.243268
0.640718 0.438671 0.255381
0.661158 0.453895 0.267495
0.678701 0.469045 0.281064
0.693349 0.484121 0.296090
0.707996 0.499197 0.311115
0.722643 0.514273 0.326141
0.737291 0.529348 0.341167
0.750935 0.543862 0.355994
