filter/Red and Blue 2/lut/Hope 03.cube
# LUT by SparkleStock. Enhanced with VOXCOLOR algorithms.
LUT_3D_SIZE 5
DOMAIN_MIN 0.000000 0.000000 0.000000
DOMAIN_MAX 0.903226 0.903226 0.903226
0.035165 0.023443 0.023443
0.173705 0.019969 0.017527
0.370704 0.028209 0.020395
0.576951 0.052149 0.027516
0.701658 0.089204 0.042365
0.041916 0.070148 0.067494
0.240123 0.108853 0.025859
0.432957 0.146773 0.036863
0.621767 0.152560 0.053246
0.742389 0.164702 0.078559
0.063626 0.124329 0.118981
0.338720 0.186418 0.051118
0.508321 0.270366 0.074782
0.635677 0.310039 0.120345
0.762858 0.309228 0.174961
0.108196 0.186797 0.179148
0.443788 0.269013 0.093701
0.595671 0.363416 0.138556
0.685733 0.467487 0.250697
0.784108 0.502813 0.328541
0.176210 0.263382 0.251723
0.532447 0.358978 0.174753
0.668998 0.454402 0.239908
0.752044 0.550971 0.349830
0.821846 0.622628 0.432815
0.035441 0.072323 0.088842
0.198195 0.044021 0.050968
0.444716 0.044899 0.042625
0.636310 0.084198 0.060137
0.740245 0.139366 0.089883
0.054093 0.126088 0.144986
0.176314 0.179738 0.157986
0.457165 0.216029 0.127849
0.675719 0.228841 0.133132
0.786756 0.255399 0.173393
0.091437 0.194242 0.211574
0.248682 0.276934 0.236238
0.526169 0.363426 0.206575
0.699910 0.407535 0.234284
0.816653 0.413602 0.293982
0.160393 0.278125 0.290171
0.343871 0.376366 0.326731
0.607941 0.465253 0.300493
0.741933 0.544644 0.344599
0.835035 0.579371 0.414059
0.261978 0.374008 0.375486
0.447756 0.475757 0.421697
0.689099 0.557511 0.401521
0.810656 0.626515 0.436379
0.870027 0.685959 0.497469
0.043665 0.134507 0.170688
0.151600 0.139130 0.162680
0.477645 0.097074 0.090949
0.683879 0.134357 0.105664
0.774705 0.206949 0.168450
0.073705 0.201242 0.238625
0.184914 0.275465 0.286576
0.429622 0.319376 0.290965
0.705858 0.324220 0.259989
0.822841 0.352571 0.302329
0.134597 0.286208 0.322784
0.271202 0.378875 0.381283
0.465995 0.474097 0.423036
0.725071 0.501608 0.387365
0.857700 0.501610 0.417744
0.228291 0.379764 0.404854
0.379341 0.478951 0.469822
0.544809 0.565066 0.508881
0.766284 0.625625 0.467481
0.873644 0.639703 0.495779
0.339681 0.474145 0.488460
0.478836 0.568832 0.551938
0.625678 0.645713 0.586412
0.830541 0.698671 0.541335
0.902339 0.741166 0.565017
0.064248 0.202032 0.248998
0.154710 0.266406 0.304473
0.411219 0.281634 0.291384
0.738739 0.230420 0.198787
0.821716 0.307317 0.280398
0.119254 0.284047 0.328737
0.236422 0.378125 0.402259
0.442831 0.453631 0.448067
0.732543 0.455370 0.425131
0.859959 0.462170 0.428418
0.213498 0.382912 0.417938
0.342956 0.477380 0.491391
0.491100 0.565754 0.549244
0.712424 0.612685 0.573614
0.879402 0.588778 0.539787
0.331686 0.485212 0.508950
0.442533 0.568287 0.573778
0.569231 0.648088 0.626440
0.709334 0.711279 0.662445
0.893942 0.698546 0.620928
0.428116 0.570057 0.585715
0.521803 0.645871 0.647425
0.635482 0.717992 0.694904
0.758703 0.780611 0.730258
0.913848 0.801205 0.672832
0.116633 0.288605 0.334562
0.226761 0.377285 0.412045
0.437807 0.449792 0.462469
0.715624 0.460299 0.446524
0.864947 0.442557 0.416687
0.205642 0.377843 0.413960
0.327642 0.476146 0.498961
0.485110 0.556392 0.562575
0.729409 0.592500 0.574891
0.887275 0.570425 0.540211
0.323112 0.475911 0.501861
0.424224 0.565467 0.581544
0.529476 0.642632 0.643660
0.724771 0.697717 0.676265
0.897071 0.683889 0.648553
0.427148 0.571535 0.589079
0.501088 0.645455 0.657709
0.585501 0.713408 0.715393
0.714219 0.776573 0.756166
0.895956 0.781096 0.738205
0.498309 0.646913 0.662584
0.554290 0.709452 0.723662
0.635019 0.771826 0.775305
0.764295 0.833379 0.808762
0.895843 0.860275 0.807900
