filter/Red and Blue 2/lut/Hope 01_S.cube
# LUT by SparkleStock. Enhanced with VOXCOLOR algorithms.
LUT_3D_SIZE 8
DOMAIN_MIN 0.000000 0.000000 0.000000
DOMAIN_MAX 0.903226 0.903226 0.903226
0.015629 0.015629 0.101587
0.055142 0.018843 0.108015
0.132152 0.022325 0.106140
0.266036 0.029698 0.097538
0.450368 0.043286 0.085817
0.581764 0.063327 0.084682
0.664634 0.077222 0.085281
0.723463 0.097365 0.090732
0.014305 0.044555 0.134294
0.087190 0.062698 0.107643
0.188863 0.080384 0.090522
0.324492 0.096905 0.079322
0.485862 0.111006 0.072467
0.610818 0.117727 0.076455
0.694445 0.121596 0.086080
0.747540 0.135146 0.102686
0.014053 0.078971 0.162448
0.125805 0.103128 0.112464
0.255065 0.145415 0.087565
0.389034 0.185461 0.077836
0.517179 0.208641 0.076392
0.629059 0.208884 0.085503
0.714064 0.201536 0.104327
0.770633 0.201819 0.131845
0.019993 0.123683 0.196762
0.178851 0.148414 0.129531
0.330827 0.208441 0.100923
0.457582 0.270552 0.095068
0.553063 0.310256 0.100532
0.649013 0.315135 0.118121
0.730651 0.303862 0.149975
0.791315 0.293568 0.186995
0.035448 0.178983 0.241593
0.249194 0.203091 0.161993
0.415054 0.263857 0.132254
0.529745 0.334929 0.132233
0.601372 0.394122 0.147374
0.679776 0.417114 0.178593
0.749952 0.415157 0.226319
0.809141 0.404095 0.269739
0.061160 0.229651 0.281295
0.325696 0.262102 0.203159
0.503155 0.313793 0.180585
0.612515 0.374411 0.193006
0.675050 0.435453 0.224723
0.725790 0.489621 0.272774
0.776841 0.513352 0.319403
0.826619 0.516890 0.360358
0.084351 0.273701 0.316586
0.390406 0.323155 0.247598
0.574083 0.373827 0.229593
0.674891 0.426513 0.246964
0.728378 0.481489 0.286033
0.768898 0.537682 0.336036
0.806983 0.579396 0.382237
0.844515 0.602510 0.422330
0.114002 0.312947 0.352019
0.453142 0.378044 0.296411
0.635211 0.427788 0.280883
0.723044 0.474056 0.297947
0.768107 0.524685 0.338598
0.803479 0.577944 0.386704
0.834125 0.625278 0.430155
0.861060 0.659666 0.469464
0.011659 0.044744 0.141100
0.067565 0.028784 0.123524
0.165322 0.026880 0.117655
0.310831 0.035156 0.115432
0.490735 0.050227 0.112071
0.612324 0.069828 0.112254
0.690267 0.094140 0.112829
0.743003 0.125443 0.120366
0.014726 0.079964 0.171905
0.061397 0.102616 0.170882
0.173237 0.113798 0.154209
0.330084 0.122628 0.137537
0.505186 0.134117 0.130870
0.629966 0.140966 0.131077
0.720280 0.153930 0.135956
0.775981 0.178107 0.149510
0.021457 0.125028 0.206554
0.076588 0.164053 0.207751
0.215588 0.197788 0.177706
0.379279 0.223750 0.150581
0.525268 0.239823 0.146741
0.643795 0.241484 0.151225
0.740280 0.243365 0.164768
0.803395 0.254651 0.189489
0.034715 0.176266 0.247528
0.105998 0.219462 0.245227
0.272317 0.273351 0.204407
0.439891 0.320444 0.170054
0.553414 0.348641 0.168773
0.659790 0.354304 0.180186
0.755127 0.351134 0.205573
0.825032 0.351132 0.241290
0.055733 0.229608 0.294188
0.144763 0.273032 0.290085
0.332224 0.336847 0.245507
0.503321 0.399118 0.207495
0.594527 0.443828 0.205176
0.684036 0.463028 0.225021
0.769736 0.465142 0.262109
0.841431 0.461537 0.303574
0.081884 0.276909 0.334183
0.195868 0.322783 0.338343
0.412435 0.386641 0.303315
0.595426 0.450121 0.271134
0.670088 0.501127 0.269980
0.729441 0.541078 0.299972
0.792767 0.562798 0.334186
0.855336 0.570423 0.367116
0.113564 0.325156 0.369522
0.262779 0.380818 0.382453
0.491315 0.441485 0.357368
0.673243 0.497198 0.334364
0.740567 0.543057 0.339740
0.782484 0.588679 0.370002
0.823301 0.627871 0.399465
0.868422 0.652708 0.427844
0.160449 0.369475 0.407413
0.338406 0.435389 0.428167
0.562769 0.494090 0.408701
0.731547 0.542929 0.389863
0.791908 0.582712 0.398243
0.825368 0.626642 0.428691
0.852894 0.670627 0.460236
0.882700 0.705729 0.492178
0.011170 0.086581 0.180212
0.053300 0.077469 0.170564
0.178941 0.054418 0.148349
0.349284 0.044839 0.136522
0.524800 0.062843 0.145722
0.635441 0.085634 0.149607
0.710513 0.120881 0.151763
0.761817 0.163016 0.165084
0.018940 0.128716 0.217822
0.056825 0.155253 0.232703
0.166021 0.156180 0.225976
0.328501 0.152516 0.213808
0.515999 0.157558 0.207104
0.644200 0.165192 0.204790
0.738495 0.186605 0.206142
0.797451 0.221452 0.216971
0.031716 0.177781 0.260185
0.074898 0.219694 0.280283
0.190220 0.245276 0.272508
0.350704 0.259283 0.255123
0.526012 0.265735 0.241991
0.653606 0.266842 0.240336
0.757901 0.276344 0.247260
0.827574 0.297771 0.264297
0.049977 0.229358 0.305218
0.101700 0.276492 0.323119
0.230605 0.323586 0.308958
0.392462 0.359495 0.284096
0.550025 0.377555 0.265678
0.666067 0.380145 0.267858
0.771021 0.382712 0.282724
0.850403 0.391140 0.307903
0.073641 0.280185 0.350532
0.134979 0.329822 0.368279
0.276394 0.391975 0.351761
0.441901 0.447160 0.320466
0.588026 0.482037 0.292964
0.685524 0.493560 0.298579
0.781445 0.496896 0.319376
0.865472 0.498321 0.348641
0.101579 0.329097 0.390820
0.186756 0.379946 0.417448
0.351181 0.445510 0.412370
0.526950 0.507580 0.384415
0.662666 0.553802 0.348277
0.726631 0.582714 0.351091
0.799994 0.599750 0.366264
0.875465 0.607263 0.387349
0.140332 0.377703 0.428714
0.260978 0.437588 0.463641
0.437617 0.501759 0.470329
0.612345 0.557560 0.450677
0.740123 0.598725 0.415354
0.783906 0.636792 0.414511
0.829338 0.671488 0.421749
0.884423 0.693937 0.436277
0.199393 0.424306 0.469373
0.343501 0.493307 0.510603
0.517884 0.555545 0.522367
0.680330 0.603908 0.506374
0.797125 0.637297 0.473510
0.833506 0.674526 0.475664
0.862159 0.715568 0.486961
0.897528 0.748513 0.505758
0.014242 0.136020 0.225617
0.040662 0.145021 0.234607
0.161954 0.118077 0.209689
0.349078 0.090224 0.181778
0.558352 0.086480 0.172327
0.660383 0.115357 0.184615
0.730848 0.158632 0.194414
0.781095 0.208034 0.217338
0.027513 0.182339 0.270571
0.063985 0.214230 0.294957
0.160801 0.214273 0.302704
0.320890 0.202208 0.298348
0.524990 0.193892 0.287434
0.660614 0.201957 0.282069
0.755226 0.230022 0.281457
0.815437 0.271984 0.291478
0.045238 0.232010 0.317753
0.091290 0.273484 0.343322
0.183324 0.296408 0.360875
0.330669 0.304618 0.363674
0.521895 0.302934 0.350757
0.663796 0.301323 0.340069
0.771677 0.314937 0.339815
0.845535 0.341823 0.349312
0.067919 0.282930 0.364600
0.123881 0.328098 0.386446
0.220103 0.370576 0.402898
0.362123 0.400571 0.403185
0.538735 0.412460 0.384960
0.671141 0.409064 0.373787
0.781783 0.412091 0.377165
0.867841 0.423709 0.390452
0.095582 0.333482 0.409068
0.164614 0.381919 0.429638
0.267248 0.440126 0.444562
0.406580 0.489847 0.439404
0.570846 0.518188 0.411405
0.685583 0.519450 0.397541
0.788667 0.518808 0.401762
0.880809 0.520931 0.416787
0.127508 0.382760 0.449161
0.226612 0.435497 0.476308
0.342769 0.498684 0.501370
0.482842 0.557014 0.498772
0.636623 0.599159 0.459960
0.720793 0.617782 0.430321
0.803197 0.627080 0.427212
0.887658 0.631192 0.437291
0.176328 0.433053 0.490204
0.307376 0.494893 0.524054
0.430889 0.557860 0.557714
0.566031 0.611777 0.560084
0.710425 0.651020 0.519268
0.775214 0.680791 0.482054
0.829574 0.707995 0.468328
0.894149 0.725042 0.471031
0.246342 0.482757 0.533267
0.393610 0.551845 0.572154
0.513728 0.611780 0.607591
0.636554 0.658091 0.610857
0.768368 0.690281 0.571981
0.827013 0.720186 0.539443
0.864096 0.756542 0.528429
0.906834 0.784964 0.533343
0.021781 0.188625 0.279995
0.047377 0.215557 0.303695
0.120401 0.217182 0.301587
0.301431 0.186672 0.263221
0.581831 0.136708 0.200002
0.690759 0.163390 0.214011
0.755527 0.208433 0.236995
0.802476 0.259653 0.272077
0.040870 0.234889 0.327181
0.076362 0.274583 0.357821
0.155788 0.289707 0.379801
0.310241 0.281270 0.382816
0.533893 0.257870 0.365009
0.683937 0.261472 0.352341
0.775652 0.291779 0.350981
0.833353 0.334101 0.362849
0.062469 0.284363 0.374379
0.106984 0.327987 0.405291
0.195174 0.356835 0.435427
0.334974 0.368953 0.455932
0.518582 0.365674 0.459850
0.679313 0.358950 0.438906
0.786379 0.370939 0.431679
0.859949 0.395378 0.436883
0.090038 0.336437 0.421359
0.145494 0.380570 0.450159
0.244469 0.422820 0.479402
0.375007 0.453525 0.502737
0.525172 0.465940 0.512707
0.679013 0.455858 0.488788
0.791220 0.452273 0.482124
0.878682 0.459244 0.487125
0.125383 0.389448 0.467190
0.196854 0.435378 0.495050
0.308051 0.489649 0.521018
0.430121 0.535914 0.541061
0.547574 0.561288 0.548286
0.686475 0.552558 0.516230
0.794345 0.541671 0.507769
0.888213 0.538524 0.511913
0.166768 0.436493 0.507173
0.267475 0.491116 0.538748
0.390698 0.551828 0.569165
0.505109 0.605610 0.590289
0.597703 0.642202 0.591219
0.714776 0.650960 0.537199
0.805217 0.649338 0.521956
0.893119 0.647190 0.524141
0.230094 0.492041 0.550576
0.350259 0.552849 0.585450
0.472672 0.611402 0.616844
0.577504 0.661988 0.639037
0.659113 0.700135 0.641053
0.759512 0.720168 0.577942
0.827055 0.736761 0.549831
0.899171 0.746397 0.544597
0.310380 0.546643 0.594769
0.438064 0.609647 0.631375
0.550237 0.662322 0.659982
0.641046 0.705761 0.680172
0.713857 0.740397 0.684208
0.807474 0.762249 0.625384
0.860225 0.790856 0.595697
0.911689 0.812863 0.588964
0.039742 0.240238 0.333877
0.065923 0.278440 0.368700
0.127921 0.303155 0.384456
0.274968 0.307736 0.374046
0.514367 0.287979 0.334063
0.711262 0.240745 0.266545
0.788009 0.274323 0.288626
0.831103 0.322841 0.331240
0.060294 0.286063 0.377403
0.095919 0.333741 0.414974
0.166594 0.368749 0.443481
0.308454 0.388642 0.458617
0.525695 0.390306 0.455121
0.714412 0.361354 0.415659
0.805735 0.378023 0.411659
0.856805 0.408422 0.426497
0.085223 0.336135 0.424260
0.132387 0.384296 0.460960
0.214173 0.426932 0.495136
0.350039 0.459114 0.523162
0.538910 0.475337 0.539241
0.708527 0.460001 0.521753
0.810562 0.458094 0.509078
0.875842 0.467124 0.511566
0.117317 0.386855 0.471105
0.180295 0.435695 0.506752
0.274834 0.484451 0.542135
0.402953 0.526004 0.573650
0.558028 0.552497 0.596075
0.700084 0.543822 0.591723
0.807050 0.526296 0.578243
0.887422 0.517600 0.576191
0.161096 0.437250 0.516059
0.242922 0.491286 0.552464
0.349959 0.545089 0.586674
0.468688 0.592955 0.615433
0.587719 0.626784 0.634861
0.696010 0.619588 0.633533
0.800600 0.594085 0.619632
0.892095 0.576538 0.615030
0.234097 0.496150 0.561311
0.322609 0.548794 0.598373
0.434050 0.604171 0.629878
0.545820 0.653341 0.653240
0.641196 0.688302 0.665637
0.711115 0.695648 0.658662
0.803261 0.679957 0.640133
0.894583 0.666866 0.632584
0.307937 0.553430 0.605836
0.403933 0.606519 0.640776
0.511032 0.658141 0.669028
0.611483 0.702702 0.689170
0.692202 0.736238 0.698988
0.744767 0.755880 0.689042
0.820623 0.761422 0.658097
0.900878 0.762521 0.643678
0.385320 0.606233 0.647071
0.485359 0.658548 0.679938
0.583453 0.704603 0.704193
0.669523 0.742571 0.720442
0.737022 0.772220 0.728384
0.784499 0.797642 0.721894
0.849140 0.815796 0.685549
0.912006 0.829727 0.666740
0.062586 0.291378 0.383662
0.087646 0.334752 0.421925
0.146499 0.371447 0.449501
0.280189 0.398201 0.461985
0.498621 0.409595 0.453593
0.713226 0.383950 0.403835
0.811078 0.375529 0.384843
0.859465 0.393749 0.399170
0.084846 0.337496 0.425115
0.125789 0.387249 0.467032
0.195600 0.431620 0.501924
0.328139 0.470238 0.527794
0.530626 0.498361 0.539647
0.724495 0.487693 0.513468
0.826582 0.476511 0.488975
0.878840 0.483480 0.488820
0.116286 0.385010 0.469673
0.173162 0.436803 0.511399
0.254402 0.487214 0.550013
0.381680 0.533842 0.583078
0.558326 0.570731 0.605662
0.727665 0.570950 0.596715
0.831726 0.555459 0.576557
0.891662 0.549721 0.571221
0.161210 0.434955 0.515765
0.234215 0.489313 0.556864
0.325567 0.543031 0.595962
0.443128 0.592938 0.630128
0.586413 0.632858 0.655223
0.726942 0.637653 0.657067
0.828336 0.616396 0.645039
0.897397 0.598954 0.639848
0.222862 0.488725 0.562310
0.309828 0.547430 0.603767
0.407895 0.601150 0.640496
0.512628 0.649597 0.670523
0.620167 0.688560 0.691778
0.726815 0.692696 0.698211
0.819709 0.666520 0.692887
0.896892 0.641613 0.689590
0.306498 0.551066 0.609538
0.390538 0.603958 0.646987
0.486353 0.654698 0.678606
0.583574 0.699337 0.702550
0.672415 0.733526 0.717678
0.736328 0.745670 0.722789
0.816241 0.728548 0.716690
0.895708 0.710140 0.712875
0.382781 0.607963 0.652095
0.468265 0.657290 0.684804
0.557245 0.702127 0.710850
0.642784 0.740567 0.729514
0.717897 0.770970 0.740413
0.767854 0.789693 0.742424
0.828716 0.791778 0.732397
0.897937 0.786829 0.726544
0.462146 0.658311 0.688975
0.543574 0.703509 0.717134
0.622406 0.742011 0.738303
0.694699 0.774350 0.752756
0.756681 0.801220 0.760906
0.800073 0.823188 0.762540
0.849937 0.838761 0.750934
0.906044 0.846882 0.740133
0.086920 0.341809 0.429249
0.116858 0.386439 0.468939
0.182003 0.431095 0.505303
0.312300 0.473533 0.533987
0.513672 0.508073 0.548848
0.716160 0.509165 0.528777
0.824270 0.486517 0.495234
0.878337 0.480803 0.484521
0.113235 0.385195 0.468628
0.166016 0.437564 0.514635
0.243714 0.488731 0.554972
0.369872 0.538135 0.588464
0.549723 0.580840 0.611082
0.731048 0.589090 0.601772
0.836765 0.569146 0.572190
0.891809 0.560276 0.558529
0.156256 0.432244 0.513662
0.227358 0.488676 0.560084
0.311664 0.542771 0.601269
0.427942 0.594845 0.636431
0.581817 0.640694 0.662252
0.738844 0.653359 0.660581
0.841134 0.637156 0.640159
0.899442 0.625411 0.626953
0.218835 0.485396 0.561326
0.300981 0.543404 0.605966
0.387738 0.597069 0.645061
0.490080 0.647262 0.677989
0.612801 0.690965 0.702460
0.744046 0.705743 0.705813
0.839527 0.691475 0.695200
0.901868 0.676206 0.685098
0.299493 0.545148 0.609035
0.384274 0.602526 0.651532
0.470376 0.652751 0.686021
0.557361 0.697092 0.713110
0.646822 0.734253 0.732570
0.750283 0.749954 0.738862
0.834494 0.735427 0.735108
0.900334 0.716731 0.729420
0.382435 0.606073 0.654092
0.464076 0.656931 0.689619
0.544536 0.701091 0.718093
0.622772 0.739034 0.739714
0.697041 0.770469 0.754755
0.760567 0.790240 0.762450
0.831249 0.781999 0.759535
0.898572 0.768036 0.755183
0.460472 0.659060 0.691236
0.536770 0.703528 0.720762
0.608307 0.741147 0.743653
0.675712 0.773396 0.760574
0.738323 0.801061 0.772023
0.788646 0.821616 0.776906
0.839637 0.828139 0.776830
0.898533 0.824260 0.773380
0.539534 0.705792 0.722631
0.604723 0.742956 0.746217
0.664915 0.774405 0.764638
0.720952 0.802028 0.778063
0.772754 0.826918 0.786599
0.815458 0.847112 0.789045
0.855718 0.863616 0.790489
0.904827 0.870127 0.785196
