filter/Red and Blue 2/lut/Hope 05_S.cube
# LUT by SparkleStock. Enhanced with VOXCOLOR algorithms.
LUT_3D_SIZE 5
DOMAIN_MIN 0.000000 0.000000 0.000000
DOMAIN_MAX 0.903226 0.903226 0.903226
0.027350 0.019536 0.015629
0.173800 0.025129 0.017921
0.387530 0.045610 0.027689
0.596258 0.080925 0.047186
0.722833 0.126496 0.077467
0.035409 0.063642 0.064981
0.217114 0.120976 0.029448
0.420309 0.169674 0.040902
0.630630 0.190337 0.070279
0.769389 0.207045 0.127911
0.052251 0.112781 0.114357
0.285466 0.191893 0.068429
0.463265 0.300411 0.092394
0.636661 0.344670 0.138505
0.791065 0.344061 0.220659
0.084454 0.169979 0.170239
0.373983 0.259048 0.126682
0.555759 0.371457 0.174655
0.678272 0.480267 0.264921
0.805470 0.510618 0.350172
0.132750 0.228469 0.236945
0.471039 0.342361 0.206493
0.653735 0.450211 0.269395
0.762187 0.554858 0.370381
0.842087 0.634689 0.462385
0.028792 0.068077 0.085659
0.199928 0.048040 0.061932
0.446974 0.062551 0.085018
0.648051 0.107475 0.117853
0.766618 0.173230 0.152211
0.047127 0.115743 0.139736
0.173570 0.180642 0.177474
0.429409 0.220314 0.189768
0.669390 0.243691 0.207149
0.821767 0.280451 0.240123
0.076487 0.173144 0.202917
0.217764 0.276231 0.241968
0.464886 0.384977 0.239940
0.681459 0.423943 0.260195
0.851247 0.434306 0.312122
0.123836 0.241285 0.274954
0.294273 0.351585 0.326267
0.554275 0.482463 0.319099
0.718273 0.578378 0.342951
0.864627 0.606605 0.394204
0.198491 0.319908 0.356252
0.398733 0.440845 0.426024
0.669496 0.557335 0.428154
0.812303 0.650291 0.458405
0.889960 0.721172 0.507427
0.035724 0.121186 0.158588
0.152532 0.128393 0.161930
0.473426 0.116927 0.145304
0.697485 0.163175 0.189823
0.810390 0.241269 0.243463
0.064622 0.175439 0.226530
0.177788 0.244655 0.293720
0.424807 0.282124 0.344794
0.694575 0.304049 0.358185
0.854723 0.352065 0.376029
0.112222 0.246011 0.307265
0.241417 0.346817 0.379962
0.441937 0.445852 0.438767
0.695500 0.474236 0.437481
0.882737 0.487013 0.456629
0.177547 0.326546 0.389573
0.329572 0.439594 0.467081
0.511877 0.562726 0.516983
0.725936 0.647366 0.487007
0.893788 0.661425 0.499579
0.274989 0.418730 0.480809
0.443064 0.537304 0.565691
0.617536 0.646462 0.616194
0.816468 0.730522 0.576580
0.912067 0.788869 0.576333
0.054732 0.175682 0.233101
0.139548 0.224056 0.282759
0.392851 0.257582 0.296065
0.753412 0.259068 0.270146
0.859038 0.334807 0.344215
0.097493 0.241046 0.311287
0.203610 0.326566 0.393498
0.417474 0.402366 0.464211
0.729564 0.428160 0.484699
0.886042 0.458844 0.498333
0.166646 0.326052 0.405184
0.295269 0.426980 0.491505
0.466609 0.526774 0.572856
0.705769 0.571154 0.618852
0.897573 0.562365 0.611317
0.269607 0.425703 0.503125
0.405867 0.529467 0.584468
0.559043 0.634983 0.652651
0.704597 0.703173 0.686920
0.900073 0.695978 0.665055
0.383261 0.529077 0.597694
0.519058 0.629401 0.673150
0.653524 0.720924 0.728391
0.769751 0.795083 0.755505
0.914542 0.829159 0.701663
0.090260 0.237008 0.313246
0.181779 0.315818 0.392244
0.400950 0.399833 0.459254
0.712837 0.452560 0.484438
0.894139 0.463454 0.478648
0.154178 0.317204 0.398708
0.272853 0.418510 0.495630
0.459377 0.518566 0.575288
0.728499 0.586734 0.614389
0.908926 0.588654 0.602893
0.255827 0.417028 0.500117
0.383969 0.522615 0.594545
0.524690 0.619366 0.669915
0.731600 0.691338 0.713756
0.907468 0.687852 0.706139
0.381387 0.529886 0.603457
0.500364 0.626195 0.685661
0.617439 0.710487 0.747440
0.742307 0.777713 0.785668
0.901075 0.780333 0.778642
0.503377 0.635911 0.694429
0.599458 0.711885 0.758908
0.699546 0.781174 0.805145
0.803201 0.840096 0.829363
0.904342 0.866404 0.824529
