filter/Red and Blue 2/lut/Hope 04_S.cube
# LUT by SparkleStock. Enhanced with VOXCOLOR algorithms.
LUT_3D_SIZE 32
0.039072 0.058608 0.054701
0.050416 0.058277 0.054559
0.061759 0.057946 0.054417
0.073103 0.057616 0.054275
0.084446 0.057285 0.054134
0.095790 0.056954 0.053992
0.112332 0.056820 0.053417
0.129915 0.056725 0.052755
0.147497 0.056631 0.052093
0.165079 0.056536 0.051432
0.182662 0.056442 0.050770
0.205884 0.057608 0.050108
0.231927 0.059404 0.049447
0.257970 0.061200 0.048785
0.284013 0.062996 0.048123
0.310056 0.064792 0.047461
0.338769 0.068100 0.047343
0.370152 0.072921 0.047769
0.401536 0.077742 0.048194
0.432920 0.082563 0.048619
0.464303 0.087384 0.049045
0.495136 0.093056 0.049833
0.524865 0.100429 0.051345
0.554595 0.107803 0.052858
0.584324 0.115176 0.054370
0.614053 0.122549 0.055882
0.642436 0.129970 0.057568
0.664083 0.137627 0.060121
0.685730 0.145283 0.062673
0.707377 0.152940 0.065225
0.729024 0.160597 0.067777
0.750672 0.168254 0.070330
0.039545 0.064185 0.059947
0.052617 0.064760 0.058689
0.065690 0.065335 0.057432
0.078762 0.065910 0.056174
0.091835 0.066484 0.054916
0.104907 0.067059 0.053658
0.122302 0.067747 0.052927
0.140561 0.068458 0.052302
0.158821 0.069168 0.051677
0.177080 0.069879 0.051052
0.195339 0.070589 0.050427
0.219221 0.072170 0.049869
0.245913 0.074185 0.049344
0.272605 0.076201 0.048820
0.299298 0.078216 0.048295
0.325990 0.080232 0.047771
0.355046 0.083458 0.047785
0.386466 0.087895 0.048339
0.417887 0.092332 0.048892
0.449307 0.096769 0.049446
0.480727 0.101205 0.049999
0.511358 0.106398 0.050961
0.540411 0.113104 0.052739
0.569463 0.119809 0.054516
0.598515 0.126515 0.056294
0.627568 0.133220 0.058072
0.655186 0.140007 0.060047
0.675635 0.147197 0.063011
0.696084 0.154387 0.065975
0.716533 0.161577 0.068939
0.736982 0.168768 0.071903
0.757430 0.175958 0.074867
0.040017 0.069762 0.065194
0.054819 0.071243 0.062820
0.069620 0.072723 0.060446
0.084422 0.074204 0.058072
0.099223 0.075684 0.055698
0.114024 0.077165 0.053324
0.132272 0.078674 0.052438
0.151208 0.080190 0.051849
0.170144 0.081705 0.051261
0.189081 0.083221 0.050672
0.208017 0.084736 0.050084
0.232557 0.086732 0.049630
0.259899 0.088967 0.049242
0.287240 0.091202 0.048855
0.314582 0.093437 0.048468
0.341924 0.095672 0.048081
0.371323 0.098816 0.048228
0.402780 0.102869 0.048909
0.434237 0.106921 0.049591
0.465694 0.110974 0.050272
0.497151 0.115026 0.050954
0.527581 0.119741 0.052089
0.555956 0.125778 0.054132
0.584332 0.131816 0.056175
0.612707 0.137854 0.058218
0.641083 0.143891 0.060261
0.667937 0.150043 0.062526
0.687188 0.156767 0.065902
0.706438 0.163491 0.069278
0.725688 0.170215 0.072653
0.744939 0.176938 0.076029
0.764189 0.183662 0.079404
0.040490 0.075340 0.070440
0.057020 0.077726 0.066950
0.073551 0.080112 0.063460
0.090081 0.082498 0.059970
0.106612 0.084884 0.056480
0.123142 0.087270 0.052990
0.142241 0.089602 0.051949
0.161855 0.091922 0.051397
0.181468 0.094243 0.050845
0.201081 0.096563 0.050293
0.220695 0.098884 0.049741
0.245893 0.101294 0.049390
0.273884 0.103749 0.049140
0.301876 0.106203 0.048890
0.329867 0.108658 0.048640
0.357858 0.111113 0.048390
0.387601 0.114174 0.048670
0.419094 0.117842 0.049479
0.450588 0.121511 0.050289
0.482081 0.125179 0.051099
0.513574 0.128848 0.051908
0.543803 0.133083 0.053217
0.571502 0.138453 0.055526
0.599200 0.143823 0.057834
0.626899 0.149193 0.060142
0.654597 0.154562 0.062451
0.680688 0.160080 0.065006
0.698740 0.166337 0.068793
0.716792 0.172595 0.072580
0.734844 0.178852 0.076367
0.752896 0.185109 0.080155
0.770948 0.191366 0.083942
0.040963 0.080917 0.075686
0.059222 0.084209 0.071080
0.077481 0.087500 0.066474
0.095741 0.090792 0.061868
0.114000 0.094084 0.057262
0.132259 0.097376 0.052656
0.152211 0.100529 0.051459
0.172501 0.103654 0.050944
0.192792 0.106780 0.050428
0.213082 0.109906 0.049913
0.233372 0.113031 0.049398
0.259229 0.115856 0.049151
0.287870 0.118530 0.049038
0.316511 0.121204 0.048925
0.345152 0.123879 0.048812
0.373793 0.126553 0.048700
0.403878 0.129532 0.049112
0.435408 0.132816 0.050050
0.466938 0.136100 0.050987
0.498468 0.139384 0.051925
0.529998 0.142669 0.052863
0.560025 0.146425 0.054346
0.587047 0.151127 0.056919
0.614069 0.155829 0.059493
0.641090 0.160532 0.062067
0.668112 0.165234 0.064640
0.693439 0.170117 0.067485
0.710292 0.175908 0.071684
0.727146 0.181698 0.075882
0.744000 0.187489 0.080081
0.760853 0.193280 0.084280
0.777707 0.199070 0.088479
0.041435 0.086494 0.080933
0.061424 0.090692 0.075211
0.081412 0.094889 0.069489
0.101400 0.099086 0.063767
0.121389 0.103284 0.058044
0.141377 0.107481 0.052322
0.162181 0.111456 0.050970
0.183148 0.115387 0.050491
0.204115 0.119317 0.050012
0.225082 0.123248 0.049534
0.246050 0.127179 0.049055
0.272566 0.130418 0.048911
0.301856 0.133312 0.048936
0.331146 0.136206 0.048960
0.360437 0.139099 0.048985
0.389727 0.141993 0.049009
0.420155 0.144890 0.049554
0.451722 0.147790 0.050620
0.483289 0.150690 0.051686
0.514855 0.153590 0.052751
0.546422 0.156490 0.053817
0.576248 0.159768 0.055474
0.602592 0.163802 0.058313
0.628937 0.167836 0.061152
0.655282 0.171870 0.063991
0.681626 0.175905 0.066830
0.706189 0.180154 0.069964
0.721845 0.185478 0.074574
0.737500 0.190802 0.079185
0.753155 0.196126 0.083795
0.768810 0.201450 0.088406
0.784466 0.206775 0.093017
0.042262 0.091914 0.086258
0.063560 0.096445 0.079969
0.084858 0.100976 0.073679
0.106156 0.105508 0.067390
0.127454 0.110039 0.061101
0.148753 0.114570 0.054812
0.170428 0.120149 0.053223
0.192179 0.125936 0.052575
0.213930 0.131724 0.051927
0.235680 0.137511 0.051280
0.257431 0.143299 0.050632
0.284052 0.147604 0.050493
0.313107 0.151167 0.050609
0.342163 0.154730 0.050725
0.371218 0.158293 0.050840
0.400274 0.161856 0.050956
0.430420 0.165010 0.051676
0.461658 0.167754 0.052999
0.492895 0.170499 0.054323
0.524132 0.173243 0.055646
0.555370 0.175988 0.056970
0.584893 0.178934 0.058917
0.610987 0.182285 0.062113
0.637082 0.185637 0.065308
0.663176 0.188988 0.068504
0.689271 0.192339 0.071700
0.713620 0.195925 0.075200
0.729244 0.200683 0.080222
0.744867 0.205442 0.085244
0.760490 0.210200 0.090267
0.776113 0.214959 0.095289
0.791737 0.219717 0.100311
0.043160 0.097302 0.091599
0.065684 0.102053 0.084852
0.088208 0.106804 0.078105
0.110732 0.111555 0.071359
0.133256 0.116305 0.064612
0.155780 0.121056 0.057866
0.178330 0.128394 0.056026
0.200886 0.136249 0.055167
0.223442 0.144104 0.054309
0.245998 0.151959 0.053451
0.268554 0.159814 0.052592
0.295168 0.165314 0.052438
0.323812 0.169637 0.052636
0.352456 0.173959 0.052835
0.381100 0.178281 0.053033
0.409744 0.182604 0.053231
0.439483 0.186082 0.054134
0.470318 0.188717 0.055741
0.501153 0.191352 0.057348
0.531987 0.193986 0.058955
0.562822 0.196621 0.060562
0.592022 0.199266 0.062823
0.617952 0.201931 0.066394
0.643882 0.204596 0.069965
0.669812 0.207261 0.073536
0.695742 0.209926 0.077106
0.719987 0.212842 0.080988
0.735812 0.217015 0.086421
0.751636 0.221189 0.091855
0.767461 0.225362 0.097289
0.783285 0.229535 0.102723
0.799110 0.233708 0.108157
0.044058 0.102690 0.096940
0.067808 0.107661 0.089736
0.091558 0.112631 0.082532
0.115307 0.117601 0.075328
0.139057 0.122572 0.068123
0.162807 0.127542 0.060919
0.186233 0.136639 0.058828
0.209593 0.146562 0.057759
0.232954 0.156484 0.056691
0.256315 0.166407 0.055622
0.279676 0.176329 0.054553
0.306285 0.183025 0.054384
0.334517 0.188106 0.054664
0.362749 0.193188 0.054945
0.390981 0.198270 0.055225
0.419213 0.203351 0.055506
0.448546 0.207155 0.056591
0.478978 0.209680 0.058482
0.509410 0.212204 0.060373
0.539842 0.214729 0.062263
0.570275 0.217254 0.064154
0.599151 0.219597 0.066729
0.624917 0.221576 0.070675
0.650682 0.223555 0.074621
0.676447 0.225534 0.078567
0.702212 0.227513 0.082513
0.726354 0.229760 0.086775
0.742380 0.233348 0.092621
0.758406 0.236935 0.098466
0.774432 0.240523 0.104312
0.790457 0.244110 0.110157
0.806483 0.247698 0.116003
0.044956 0.108078 0.102281
0.069932 0.113268 0.094619
0.094907 0.118458 0.086958
0.119883 0.123648 0.079296
0.144859 0.128838 0.071635
0.169834 0.134028 0.063973
0.194135 0.144885 0.061630
0.218301 0.156875 0.060351
0.242467 0.168865 0.059072
0.266633 0.180855 0.057793
0.290799 0.192845 0.056514
0.317401 0.200735 0.056329
0.345221 0.206576 0.056692
0.373042 0.212417 0.057055
0.400862 0.218258 0.057418
0.428683 0.224099 0.057781
0.457608 0.228227 0.059049
0.487638 0.230642 0.061223
0.517668 0.233057 0.063398
0.547697 0.235472 0.065572
0.577727 0.237887 0.067746
0.606281 0.239928 0.070636
0.631881 0.241221 0.074957
0.657482 0.242514 0.079277
0.683082 0.243807 0.083598
0.708683 0.245100 0.087919
0.732721 0.246678 0.092563
0.748948 0.249680 0.098820
0.765175 0.252682 0.105077
0.781402 0.255684 0.111334
0.797629 0.258686 0.117592
0.813856 0.261688 0.123849
0.045855 0.113466 0.107621
0.072056 0.118876 0.099503
0.098257 0.124285 0.091384
0.124459 0.129695 0.083265
0.150660 0.135104 0.075146
0.176861 0.140514 0.067027
0.202037 0.153130 0.064433
0.227008 0.167187 0.062943
0.251979 0.181245 0.061454
0.276950 0.195302 0.059964
0.301921 0.209360 0.058474
0.328517 0.218446 0.058275
0.355926 0.225046 0.058720
0.383335 0.231646 0.059165
0.410744 0.238246 0.059610
0.438153 0.244847 0.060055
0.466671 0.249299 0.061507
0.496298 0.251605 0.063965
0.525925 0.253910 0.066422
0.555553 0.256215 0.068880
0.585180 0.258521 0.071338
0.613410 0.260260 0.074542
0.638846 0.260867 0.079238
0.664282 0.261473 0.083934
0.689718 0.262080 0.088630
0.715154 0.262687 0.093326
0.739088 0.263595 0.098350
0.755517 0.266012 0.105019
0.771945 0.268429 0.111688
0.788373 0.270845 0.118357
0.804801 0.273262 0.125026
0.821230 0.275678 0.131695
0.047698 0.119516 0.113214
0.075253 0.125023 0.104730
0.102808 0.130530 0.096245
0.130364 0.136038 0.087760
0.157919 0.141545 0.079275
0.185474 0.147052 0.070791
0.211506 0.160335 0.068087
0.237233 0.175173 0.066539
0.262960 0.190011 0.064992
0.288687 0.204849 0.063444
0.314415 0.219687 0.061897
0.340907 0.230149 0.061964
0.367782 0.238423 0.062840
0.394658 0.246698 0.063715
0.421533 0.254972 0.064590
0.448408 0.263246 0.065465
0.476293 0.268765 0.067328
0.505189 0.271528 0.070179
0.534084 0.274290 0.073030
0.562980 0.277053 0.075881
0.591875 0.279816 0.078733
0.619514 0.281802 0.082387
0.644639 0.282235 0.087647
0.669764 0.282668 0.092907
0.694888 0.283101 0.098167
0.720013 0.283534 0.103427
0.743749 0.284240 0.109006
0.760537 0.286316 0.116178
0.777325 0.288391 0.123350
0.794113 0.290466 0.130522
0.810901 0.292541 0.137694
0.827689 0.294616 0.144866
0.050014 0.125897 0.118933
0.078987 0.131441 0.110128
0.107960 0.136984 0.101324
0.136933 0.142528 0.092519
0.165906 0.148072 0.083714
0.194880 0.153615 0.074909
0.221758 0.167019 0.072167
0.248217 0.181994 0.070638
0.274676 0.196969 0.069108
0.301135 0.211944 0.067579
0.327594 0.226920 0.066050
0.353934 0.238849 0.066526
0.380214 0.249255 0.068005
0.406495 0.259660 0.069484
0.432776 0.270066 0.070963
0.459056 0.280472 0.072442
0.486196 0.287427 0.074831
0.514195 0.290930 0.078130
0.542194 0.294434 0.081430
0.570193 0.297938 0.084729
0.598192 0.301441 0.088028
0.625105 0.303949 0.092201
0.649845 0.304464 0.098120
0.674586 0.304980 0.104038
0.699327 0.305495 0.109957
0.724067 0.306010 0.115876
0.747556 0.306749 0.122095
0.764783 0.308605 0.129816
0.782010 0.310460 0.137537
0.799237 0.312316 0.145258
0.816465 0.314171 0.152979
0.833692 0.316027 0.160700
0.052330 0.132278 0.124652
0.082721 0.137858 0.115527
0.113112 0.143438 0.106402
0.143503 0.149019 0.097277
0.173894 0.154599 0.088152
0.204285 0.160179 0.079027
0.232010 0.173703 0.076247
0.259200 0.188815 0.074736
0.286391 0.203928 0.073225
0.313582 0.219040 0.071714
0.340773 0.234153 0.070203
0.366961 0.247548 0.071088
0.392647 0.260086 0.073171
0.418333 0.272623 0.075253
0.444019 0.285160 0.077336
0.469705 0.297698 0.079419
0.496099 0.306089 0.082334
0.523201 0.310333 0.086081
0.550304 0.314578 0.089829
0.577406 0.318823 0.093577
0.604508 0.323067 0.097324
0.630696 0.326096 0.102015
0.655052 0.326694 0.108593
0.679409 0.327292 0.115170
0.703765 0.327889 0.121747
0.728122 0.328487 0.128325
0.751363 0.329258 0.135184
0.769029 0.330894 0.143454
0.786696 0.332530 0.151724
0.804362 0.334166 0.159994
0.822028 0.335802 0.168263
0.839694 0.337437 0.176533
0.054646 0.138658 0.130371
0.086455 0.144275 0.120926
0.118264 0.149892 0.111481
0.150073 0.155509 0.102036
0.181882 0.161126 0.092590
0.213691 0.166743 0.083145
0.242261 0.180387 0.080327
0.270184 0.195637 0.078834
0.298107 0.210886 0.077342
0.326029 0.226136 0.075849
0.353952 0.241386 0.074356
0.379987 0.256248 0.075650
0.405079 0.270917 0.078336
0.430170 0.285586 0.081023
0.455261 0.300254 0.083709
0.480353 0.314923 0.086396
0.506001 0.324750 0.089837
0.532207 0.329736 0.094033
0.558413 0.334722 0.098228
0.584619 0.339707 0.102424
0.610825 0.344693 0.106620
0.636286 0.348244 0.111829
0.660259 0.348924 0.119066
0.684231 0.349604 0.126302
0.708203 0.350284 0.133538
0.732176 0.350964 0.140774
0.755170 0.351766 0.148274
0.773275 0.353183 0.157092
0.791381 0.354599 0.165911
0.809486 0.356015 0.174729
0.827592 0.357432 0.183548
0.845697 0.358848 0.192367
0.056962 0.145039 0.136090
0.090189 0.150693 0.126325
0.123416 0.156346 0.116559
0.156643 0.162000 0.106794
0.189870 0.167653 0.097029
0.223097 0.173306 0.087263
0.252513 0.187071 0.084407
0.281168 0.202458 0.082933
0.309822 0.217845 0.081458
0.338477 0.233232 0.079984
0.367131 0.248619 0.078509
0.393014 0.264948 0.080212
0.417511 0.281748 0.083502
0.442008 0.298548 0.086792
0.466504 0.315349 0.090082
0.491001 0.332149 0.093372
0.515904 0.343412 0.097340
0.541214 0.349139 0.101984
0.566523 0.354866 0.106628
0.591832 0.360592 0.111272
0.617142 0.366319 0.115916
0.641877 0.370391 0.121644
0.665465 0.371153 0.129538
0.689054 0.371915 0.137433
0.712642 0.372678 0.145328
0.736230 0.373440 0.153223
0.758977 0.374275 0.161363
0.777522 0.375472 0.170730
0.796066 0.376669 0.180098
0.814611 0.377865 0.189465
0.833155 0.379062 0.198833
0.851700 0.380259 0.208200
0.059774 0.151798 0.141904
0.094542 0.157602 0.131873
0.129311 0.163407 0.121842
0.164079 0.169211 0.111812
0.198848 0.175016 0.101781
0.233616 0.180820 0.091750
0.263972 0.194587 0.088953
0.293445 0.209946 0.087602
0.322918 0.225306 0.086251
0.352392 0.240665 0.084900
0.381865 0.256025 0.083549
0.407810 0.273019 0.085698
0.431991 0.290830 0.089597
0.456172 0.308641 0.093495
0.480354 0.326452 0.097394
0.504535 0.344263 0.101292
0.528779 0.356764 0.106044
0.553087 0.363954 0.111649
0.577395 0.371144 0.117253
0.601702 0.378335 0.122858
0.626010 0.385525 0.128463
0.649840 0.390777 0.135067
0.672714 0.392152 0.143671
0.695589 0.393528 0.152274
0.718464 0.394903 0.160878
0.741338 0.396278 0.169482
0.763511 0.397639 0.178319
0.782174 0.398927 0.188322
0.800838 0.400215 0.198325
0.819501 0.401504 0.208328
0.838164 0.402792 0.218332
0.856828 0.404081 0.228335
0.063082 0.158935 0.147812
0.099516 0.165005 0.137571
0.135949 0.171074 0.127330
0.172383 0.177144 0.117089
0.208816 0.183214 0.106847
0.245249 0.189283 0.096606
0.276637 0.202934 0.093964
0.307016 0.218102 0.092842
0.337395 0.233269 0.091720
0.367774 0.248437 0.090598
0.398153 0.263604 0.089476
0.424376 0.280461 0.092109
0.448520 0.298162 0.096621
0.472665 0.315863 0.101132
0.496809 0.333565 0.105644
0.520954 0.351266 0.110155
0.544627 0.364805 0.115950
0.567827 0.374182 0.123027
0.591028 0.383558 0.130105
0.614229 0.392935 0.137182
0.637430 0.402312 0.144260
0.660174 0.409402 0.152099
0.682006 0.411921 0.161462
0.703837 0.414440 0.170825
0.725669 0.416959 0.180188
0.747501 0.419477 0.189551
0.768771 0.421858 0.199141
0.787233 0.423549 0.209867
0.805695 0.425240 0.220593
0.824157 0.426931 0.231319
0.842619 0.428621 0.242045
0.861082 0.430312 0.252771
0.066391 0.166072 0.153720
0.104489 0.172407 0.143269
0.142588 0.178742 0.132817
0.180686 0.185077 0.122365
0.218784 0.191412 0.111914
0.256882 0.197747 0.101462
0.289303 0.211282 0.098976
0.320587 0.226257 0.098082
0.351872 0.241232 0.097189
0.383156 0.256208 0.096295
0.414441 0.271183 0.095402
0.440941 0.287902 0.098520
0.465049 0.305494 0.103645
0.489157 0.323086 0.108769
0.513265 0.340677 0.113894
0.537373 0.358269 0.119018
0.560474 0.372846 0.125855
0.582568 0.384409 0.134406
0.604662 0.395972 0.142956
0.626756 0.407535 0.151506
0.648849 0.419098 0.160057
0.670508 0.428028 0.169131
0.691297 0.431690 0.179253
0.712086 0.435352 0.189375
0.732875 0.439014 0.199498
0.753663 0.442677 0.209620
0.774031 0.446077 0.219963
0.792292 0.448171 0.231412
0.810553 0.450264 0.242861
0.828814 0.452357 0.254309
0.847074 0.454451 0.265758
0.865335 0.456544 0.277207
0.069699 0.173209 0.159628
0.109463 0.179809 0.148966
0.149226 0.186409 0.138304
0.188989 0.193010 0.127642
0.228752 0.199610 0.116980
0.268516 0.206210 0.106318
0.301968 0.219630 0.103987
0.334158 0.234413 0.103323
0.366348 0.249196 0.102658
0.398539 0.263979 0.101993
0.430729 0.278762 0.101328
0.457506 0.295344 0.104932
0.481578 0.312826 0.110669
0.505649 0.330308 0.116406
0.529721 0.347790 0.122144
0.553792 0.365271 0.127881
0.576321 0.380887 0.135761
0.597308 0.394636 0.145784
0.618295 0.408386 0.155807
0.639282 0.422135 0.165831
0.660269 0.435885 0.175854
0.680842 0.446653 0.186163
0.700588 0.451459 0.197044
0.720334 0.456264 0.207926
0.740080 0.461070 0.218807
0.759826 0.465876 0.229689
0.779291 0.470297 0.240786
0.797351 0.472793 0.252957
0.815410 0.475288 0.265128
0.833470 0.477784 0.277300
0.851530 0.480280 0.289471
0.869589 0.482776 0.301642
0.073008 0.180346 0.165536
0.114436 0.187211 0.154664
0.155864 0.194077 0.143792
0.197292 0.200942 0.132919
0.238721 0.207808 0.122047
0.280149 0.214674 0.111174
0.314633 0.227977 0.108999
0.347729 0.242568 0.108563
0.380825 0.257159 0.108127
0.413921 0.271750 0.107691
0.447017 0.286341 0.107255
0.474072 0.302786 0.111343
0.498107 0.320158 0.117693
0.522142 0.337530 0.124043
0.546176 0.354902 0.130394
0.570211 0.372274 0.136744
0.592169 0.388928 0.145667
0.612049 0.404864 0.157163
0.631929 0.420800 0.168659
0.651809 0.436735 0.180155
0.671689 0.452671 0.191651
0.691177 0.465278 0.203195
0.709880 0.471227 0.214836
0.728583 0.477177 0.226477
0.747286 0.483126 0.238117
0.765989 0.489075 0.249758
0.784551 0.494516 0.261608
0.802409 0.497414 0.274502
0.820268 0.500313 0.287396
0.838126 0.503211 0.300290
0.855985 0.506109 0.313184
0.873843 0.509008 0.326078
0.076616 0.187341 0.171208
0.119752 0.194624 0.160226
0.162887 0.201908 0.149244
0.206023 0.209191 0.138262
0.249159 0.216474 0.127279
0.292295 0.223758 0.116297
0.327768 0.237098 0.114330
0.361708 0.251649 0.114165
0.395649 0.266200 0.114000
0.429589 0.280752 0.113836
0.463530 0.295303 0.113671
0.490836 0.311654 0.118258
0.514825 0.328904 0.125221
0.538814 0.346154 0.132184
0.562803 0.363404 0.139148
0.586792 0.380654 0.146111
0.608273 0.397951 0.155975
0.627244 0.415296 0.168739
0.646215 0.432640 0.181504
0.665187 0.449985 0.194268
0.684158 0.467329 0.207033
0.702699 0.481325 0.219754
0.720377 0.488622 0.232389
0.738055 0.495919 0.245024
0.755734 0.503216 0.257658
0.773412 0.510513 0.270293
0.791041 0.517176 0.283079
0.808421 0.520673 0.296616
0.825800 0.524169 0.310154
0.843180 0.527665 0.323691
0.860560 0.531161 0.337229
0.877939 0.534657 0.350766
0.080822 0.194053 0.176407
0.125751 0.202059 0.165516
0.170680 0.210065 0.154626
0.215609 0.218071 0.143735
0.260538 0.226077 0.132844
0.305466 0.234083 0.121954
0.341840 0.247764 0.120299
0.376504 0.262581 0.120491
0.411167 0.277398 0.120683
0.445830 0.292214 0.120875
0.480493 0.307031 0.121067
0.507998 0.323372 0.126182
0.531923 0.340476 0.133758
0.555848 0.357580 0.141334
0.579773 0.374683 0.148910
0.603698 0.391787 0.156486
0.624890 0.408938 0.167086
0.643349 0.426136 0.180711
0.661808 0.443334 0.194335
0.680267 0.460532 0.207960
0.698726 0.477731 0.221584
0.716596 0.492214 0.235366
0.733286 0.501267 0.249465
0.749977 0.510321 0.263563
0.766667 0.519374 0.277662
0.783358 0.528428 0.291761
0.799991 0.536720 0.305846
0.816337 0.541204 0.319869
0.832683 0.545688 0.333891
0.849029 0.550172 0.347913
0.865375 0.554656 0.361936
0.881720 0.559140 0.375958
0.085029 0.200764 0.181606
0.131751 0.209493 0.170807
0.178473 0.218222 0.160008
0.225194 0.226950 0.149209
0.271916 0.235679 0.138409
0.318638 0.244408 0.127610
0.355913 0.258431 0.126268
0.391299 0.273513 0.126817
0.426685 0.288595 0.127366
0.462071 0.303677 0.127914
0.497457 0.318759 0.128463
0.525159 0.335091 0.134106
0.549020 0.352048 0.142295
0.572881 0.369005 0.150484
0.596742 0.385963 0.158672
0.620603 0.402920 0.166861
0.641507 0.419925 0.178198
0.659454 0.436976 0.192682
0.677401 0.454028 0.207167
0.695348 0.471080 0.221651
0.713294 0.488132 0.236135
0.730493 0.503103 0.250979
0.746196 0.513913 0.266541
0.761898 0.524723 0.282103
0.777601 0.535533 0.297666
0.793303 0.546343 0.313228
0.808941 0.556263 0.328614
0.824253 0.561735 0.343121
0.839565 0.567207 0.357629
0.854877 0.572679 0.372136
0.870189 0.578151 0.386643
0.885502 0.583623 0.401150
0.089235 0.207476 0.186805
0.137750 0.216927 0.176098
0.186265 0.226378 0.165390
0.234780 0.235830 0.154682
0.283295 0.245281 0.143974
0.331809 0.254733 0.133267
0.369986 0.269097 0.132237
0.406094 0.284444 0.133142
0.442203 0.299792 0.134048
0.478312 0.315139 0.134954
0.514420 0.330486 0.135859
0.542321 0.346809 0.142029
0.566118 0.363620 0.150831
0.589915 0.380431 0.159633
0.613712 0.397242 0.168435
0.637509 0.414053 0.177237
0.658124 0.430911 0.189310
0.675559 0.447817 0.204654
0.692994 0.464722 0.219998
0.710428 0.481628 0.235342
0.727863 0.498533 0.250687
0.744390 0.513992 0.266591
0.759105 0.526558 0.283617
0.773819 0.539125 0.300643
0.788534 0.551691 0.317669
0.803249 0.564257 0.334695
0.817890 0.575806 0.351382
0.832169 0.582266 0.366374
0.846447 0.588726 0.381366
0.860726 0.595186 0.396358
0.875004 0.601646 0.411350
0.889283 0.608106 0.426342
0.093442 0.214187 0.192004
0.143750 0.224361 0.181388
0.194058 0.234535 0.170772
0.244365 0.244709 0.160156
0.294673 0.254884 0.149539
0.344981 0.265058 0.138923
0.384058 0.279764 0.138206
0.420890 0.295376 0.139468
0.457721 0.310989 0.140731
0.494552 0.326601 0.141993
0.531384 0.342214 0.143256
0.559483 0.358528 0.149953
0.583215 0.375192 0.159368
0.606948 0.391857 0.168783
0.630681 0.408522 0.178197
0.654414 0.425186 0.187612
0.674742 0.441898 0.200422
0.691664 0.458657 0.216626
0.708586 0.475416 0.232830
0.725509 0.492175 0.249034
0.742431 0.508934 0.265238
0.758288 0.524881 0.282204
0.772014 0.539204 0.300694
0.785741 0.553527 0.319183
0.799467 0.567849 0.337673
0.813194 0.582172 0.356162
0.826840 0.595349 0.374150
0.840085 0.602797 0.389627
0.853330 0.610245 0.405104
0.866574 0.617693 0.420580
0.879819 0.625141 0.436057
0.893064 0.632589 0.451534
0.097853 0.220513 0.197322
0.149988 0.231458 0.186841
0.202122 0.242404 0.176361
0.254256 0.253349 0.165880
0.306391 0.264295 0.155400
0.358525 0.275241 0.144919
0.398420 0.290310 0.144515
0.435867 0.306205 0.146127
0.473315 0.322100 0.147738
0.510762 0.337994 0.149350
0.548209 0.353889 0.150961
0.576438 0.370237 0.158198
0.600058 0.386811 0.168247
0.623679 0.403386 0.178296
0.647299 0.419961 0.188345
0.670919 0.436535 0.198394
0.690938 0.453141 0.211945
0.707357 0.469778 0.228997
0.723776 0.486415 0.246048
0.740196 0.503053 0.263100
0.756615 0.519690 0.280152
0.771830 0.536031 0.298097
0.784639 0.551781 0.317830
0.797448 0.567531 0.337562
0.810256 0.583280 0.357294
0.823065 0.599030 0.377026
0.835770 0.613549 0.396114
0.847955 0.621917 0.411981
0.860140 0.630284 0.427848
0.872325 0.638651 0.443716
0.884510 0.647019 0.459583
0.896695 0.655386 0.475450
0.103289 0.224908 0.203230
0.157417 0.236869 0.193106
0.211546 0.248830 0.182982
0.265675 0.260791 0.172858
0.319803 0.272752 0.162735
0.373932 0.284713 0.152611
0.414228 0.300257 0.152526
0.451757 0.316518 0.154448
0.489287 0.332778 0.156371
0.526817 0.349039 0.158294
0.564346 0.365299 0.160216
0.592365 0.381897 0.168050
0.615628 0.398664 0.178840
0.638892 0.415431 0.189631
0.662155 0.432198 0.200421
0.685418 0.448964 0.211211
0.705031 0.465666 0.225525
0.720992 0.482303 0.243363
0.736954 0.498940 0.261202
0.752916 0.515578 0.279041
0.768878 0.532215 0.296879
0.783599 0.548483 0.315395
