filter/Red and Blue 2/lut/Hope 01_S.cube
# LUT by SparkleStock. Enhanced with VOXCOLOR algorithms.
LUT_3D_SIZE 32
0.015629 0.015629 0.101587
0.025507 0.016432 0.103194
0.035385 0.017236 0.104801
0.045264 0.018039 0.106408
0.055142 0.018843 0.108015
0.065020 0.019646 0.109622
0.085927 0.020529 0.108787
0.109039 0.021427 0.107464
0.132152 0.022325 0.106140
0.155264 0.023223 0.104817
0.178376 0.024121 0.103494
0.218063 0.026531 0.100847
0.266036 0.029698 0.097538
0.314010 0.032865 0.094230
0.361984 0.036031 0.090921
0.409957 0.039198 0.087613
0.450368 0.043286 0.085817
0.483217 0.048297 0.085533
0.516066 0.053307 0.085250
0.548915 0.058317 0.084966
0.581764 0.063327 0.084682
0.609760 0.067722 0.084572
0.628052 0.070889 0.084808
0.646343 0.074056 0.085045
0.664634 0.077222 0.085281
0.682926 0.080389 0.085517
0.700114 0.084131 0.086100
0.711789 0.090748 0.088416
0.723463 0.097365 0.090732
0.735137 0.103982 0.093048
0.746812 0.110599 0.095364
0.758486 0.117216 0.097680
0.015298 0.022860 0.109764
0.027262 0.024597 0.109304
0.039226 0.026333 0.108843
0.051190 0.028070 0.108383
0.063154 0.029807 0.107922
0.075118 0.031543 0.107462
0.097470 0.033305 0.105871
0.121900 0.035072 0.104053
0.146330 0.036839 0.102236
0.170759 0.038607 0.100418
0.195189 0.040374 0.098601
0.234259 0.043177 0.095991
0.280650 0.046500 0.092984
0.327041 0.049822 0.089977
0.373432 0.053144 0.086971
0.419823 0.056466 0.083964
0.459242 0.060216 0.082479
0.491688 0.064394 0.082516
0.524135 0.068571 0.082552
0.556581 0.072749 0.082589
0.589027 0.076927 0.082626
0.616801 0.080572 0.082933
0.635230 0.083153 0.083782
0.653658 0.085735 0.084632
0.672087 0.088316 0.085481
0.690515 0.090897 0.086330
0.707689 0.094107 0.087552
0.718586 0.100459 0.090636
0.729482 0.106810 0.093721
0.740379 0.113162 0.096805
0.751276 0.119514 0.099889
0.762173 0.125866 0.102974
0.014967 0.030092 0.117941
0.029017 0.032761 0.115413
0.043067 0.035431 0.112885
0.057116 0.038101 0.110357
0.071166 0.040771 0.107829
0.085216 0.043440 0.105301
0.109013 0.046082 0.102954
0.134760 0.048718 0.100643
0.160507 0.051354 0.098331
0.186254 0.053990 0.096020
0.212001 0.056627 0.093708
0.250456 0.059824 0.091135
0.295264 0.063301 0.088430
0.340073 0.066779 0.085725
0.384881 0.070257 0.083020
0.429689 0.073735 0.080316
0.468115 0.077146 0.079142
0.500159 0.080491 0.079498
0.532203 0.083836 0.079855
0.564247 0.087182 0.080212
0.596291 0.090527 0.080569
0.623842 0.093422 0.081294
0.642408 0.095418 0.082756
0.660974 0.097414 0.084218
0.679539 0.099409 0.085680
0.698105 0.101405 0.087143
0.715263 0.104083 0.089003
0.725382 0.110169 0.092856
0.735502 0.116256 0.096709
0.745621 0.122342 0.100562
0.755740 0.128428 0.104415
0.765859 0.134515 0.108267
0.014636 0.037323 0.126118
0.030772 0.040926 0.121522
0.046907 0.044529 0.116927
0.063043 0.048132 0.112332
0.079178 0.051734 0.107736
0.095314 0.055337 0.103141
0.120557 0.058859 0.100037
0.147621 0.062364 0.097232
0.174685 0.065869 0.094426
0.201750 0.069374 0.091621
0.228814 0.072879 0.088816
0.266652 0.076470 0.086279
0.309878 0.080103 0.083876
0.353104 0.083737 0.081473
0.396330 0.087370 0.079070
0.439555 0.091003 0.076667
0.476989 0.094076 0.075804
0.508630 0.096589 0.076481
0.540272 0.099101 0.077158
0.571913 0.101614 0.077835
0.603554 0.104127 0.078512
0.630883 0.106272 0.079655
0.649586 0.107682 0.081730
0.668289 0.109092 0.083805
0.686992 0.110503 0.085880
0.705695 0.111913 0.087955
0.722838 0.114059 0.090455
0.732179 0.119880 0.095076
0.741521 0.125701 0.099697
0.750863 0.131522 0.104318
0.760204 0.137343 0.108940
0.769546 0.143164 0.113561
0.014305 0.044555 0.134294
0.032527 0.049091 0.127632
0.050748 0.053626 0.120969
0.068969 0.058162 0.114306
0.087190 0.062698 0.107643
0.105412 0.067234 0.100980
0.132100 0.071635 0.097121
0.160481 0.076010 0.093821
0.188863 0.080384 0.090522
0.217245 0.084758 0.087222
0.245626 0.089132 0.083923
0.282849 0.093116 0.081423
0.324492 0.096905 0.079322
0.366135 0.100694 0.077221
0.407778 0.104483 0.075120
0.449421 0.108271 0.073019
0.485862 0.111006 0.072467
0.517101 0.112686 0.073464
0.548340 0.114366 0.074461
0.579579 0.116046 0.075458
0.610818 0.117727 0.076455
0.637924 0.119122 0.078016
0.656764 0.119947 0.080704
0.675604 0.120771 0.083392
0.694445 0.121596 0.086080
0.713285 0.122421 0.088768
0.730412 0.124034 0.091906
0.738976 0.129590 0.097296
0.747540 0.135146 0.102686
0.756104 0.140702 0.108075
0.764668 0.146258 0.113465
0.773233 0.151814 0.118855
0.013975 0.051786 0.142471
0.034282 0.057255 0.133741
0.054589 0.062724 0.125011
0.074896 0.068193 0.116280
0.095203 0.073662 0.107550
0.115510 0.079131 0.098820
0.143643 0.084412 0.094204
0.173342 0.089655 0.090411
0.203041 0.094899 0.086617
0.232740 0.100142 0.082824
0.262439 0.105385 0.079030
0.299045 0.109763 0.076567
0.339106 0.113707 0.074767
0.379166 0.117651 0.072968
0.419227 0.121595 0.071169
0.459288 0.125540 0.069370
0.494736 0.127936 0.069129
0.525572 0.128783 0.070447
0.556409 0.129631 0.071764
0.587245 0.130479 0.073081
0.618081 0.131327 0.074398
0.644965 0.131972 0.076377
0.663942 0.132211 0.079678
0.682920 0.132450 0.082979
0.701897 0.132690 0.086280
0.720875 0.132929 0.089581
0.737987 0.134010 0.093358
0.745773 0.139301 0.099516
0.753560 0.144591 0.105674
0.761346 0.149882 0.111832
0.769133 0.155173 0.117990
0.776919 0.160463 0.124148
0.013959 0.060633 0.149309
0.036756 0.066379 0.139228
0.059552 0.072125 0.129147
0.082349 0.077872 0.119066
0.105146 0.083618 0.108984
0.127943 0.089365 0.098903
0.157703 0.096541 0.094051
0.188857 0.104002 0.090244
0.220010 0.111464 0.086436
0.251164 0.118926 0.082629
0.282317 0.126387 0.078822
0.317825 0.132040 0.076586
0.355510 0.136788 0.075134
0.393195 0.141536 0.073683
0.430880 0.146283 0.072231
0.468565 0.151031 0.070780
0.502381 0.153664 0.070873
0.532327 0.154183 0.072510
0.562273 0.154701 0.074148
0.592219 0.155219 0.075785
0.622165 0.155738 0.077423
0.648551 0.155899 0.079824
0.667818 0.155347 0.083753
0.687085 0.154796 0.087682
0.706352 0.154244 0.091611
0.725620 0.153692 0.095540
0.743030 0.153947 0.099961
0.751160 0.158241 0.106842
0.759289 0.162534 0.113723
0.767419 0.166828 0.120604
0.775548 0.171121 0.127484
0.783678 0.175415 0.134365
0.014006 0.069802 0.155879
0.039373 0.075695 0.144590
0.064741 0.081588 0.133301
0.090108 0.087480 0.122013
0.115475 0.093373 0.110724
0.140843 0.099266 0.099435
0.172267 0.108540 0.094450
0.204902 0.118490 0.090725
0.237538 0.128440 0.087001
0.270173 0.138390 0.083276
0.302809 0.148340 0.079551
0.337121 0.155443 0.077580
0.372272 0.161124 0.076485
0.407423 0.166805 0.075390
0.442574 0.172486 0.074296
0.477726 0.178167 0.073201
0.509780 0.181152 0.073632
0.538738 0.181442 0.075590
0.567696 0.181732 0.077548
0.596654 0.182021 0.079505
0.625612 0.182311 0.081463
0.651446 0.182043 0.084288
0.671034 0.180658 0.088848
0.690621 0.179274 0.093409
0.710208 0.177890 0.097969
0.729796 0.176505 0.102529
0.747568 0.175877 0.107595
0.756265 0.179026 0.115190
0.764961 0.182176 0.122784
0.773658 0.185326 0.130378
0.782355 0.188476 0.137973
0.791051 0.191626 0.145567
0.014053 0.078971 0.162448
0.041991 0.085010 0.149952
0.069929 0.091050 0.137456
0.097867 0.097089 0.124960
0.125805 0.103128 0.112464
0.153743 0.109167 0.099968
0.186830 0.120539 0.094850
0.220948 0.132977 0.091207
0.255065 0.145415 0.087565
0.289183 0.157853 0.083922
0.323300 0.170292 0.080280
0.356417 0.178847 0.078574
0.389034 0.185461 0.077836
0.421651 0.192075 0.077098
0.454269 0.198689 0.076360
0.486886 0.205303 0.075622
0.517179 0.208641 0.076392
0.545149 0.208702 0.078670
0.573119 0.208762 0.080948
0.601089 0.208823 0.083226
0.629059 0.208884 0.085503
0.654342 0.208186 0.088752
0.674249 0.205969 0.093944
0.694157 0.203752 0.099135
0.714064 0.201536 0.104327
0.733972 0.199319 0.109518
0.752105 0.197806 0.115229
0.761369 0.199812 0.123537
0.770633 0.201819 0.131845
0.779897 0.203825 0.140153
0.789161 0.205832 0.148461
0.798425 0.207838 0.156769
0.014101 0.088141 0.169018
0.044609 0.094326 0.155314
0.075118 0.100512 0.141611
0.105626 0.106697 0.127907
0.136135 0.112883 0.114203
0.166643 0.119068 0.100500
0.201394 0.132538 0.095249
0.236993 0.147464 0.091689
0.272593 0.162391 0.088129
0.308192 0.177317 0.084569
0.343792 0.192244 0.081009
0.375713 0.202251 0.079568
0.405797 0.209798 0.079187
0.435880 0.217345 0.078806
0.465963 0.224892 0.078424
0.496046 0.232439 0.078043
0.524578 0.236129 0.079152
0.551560 0.235961 0.081750
0.578542 0.235793 0.084348
0.605524 0.235626 0.086946
0.632506 0.235458 0.089544
0.657237 0.234330 0.093217
0.677465 0.231280 0.099039
0.697692 0.228231 0.104862
0.717920 0.225182 0.110685
0.738148 0.222132 0.116507
0.756643 0.219735 0.122863
0.766474 0.220598 0.131885
0.776305 0.221461 0.140906
0.786136 0.222324 0.149928
0.795967 0.223187 0.158949
0.805798 0.224050 0.167970
0.014148 0.097310 0.175588
0.047227 0.103642 0.160677
0.080306 0.109974 0.145765
0.113385 0.116306 0.130854
0.146464 0.122638 0.115943
0.179543 0.128969 0.101032
0.215958 0.144537 0.095648
0.253039 0.161952 0.092171
0.290120 0.179366 0.088693
0.327202 0.196781 0.085215
0.364283 0.214196 0.081737
0.395010 0.225654 0.080562
0.422559 0.234134 0.080538
0.450108 0.242615 0.080513
0.477657 0.251095 0.080489
0.505206 0.259575 0.080464
0.531978 0.263617 0.081911
0.557972 0.263220 0.084829
0.583966 0.262824 0.087748
0.609960 0.262428 0.090666
0.635954 0.262031 0.093584
0.660132 0.260473 0.097681
0.680680 0.256591 0.104135
0.701228 0.252709 0.110589
0.721776 0.248828 0.117043
0.742324 0.244946 0.123496
0.761180 0.241664 0.130497
0.771578 0.241384 0.140232
0.781976 0.241103 0.149967
0.792375 0.240823 0.159702
0.802773 0.240542 0.169437
0.813171 0.240262 0.179172
0.016495 0.109693 0.185372
0.052743 0.115995 0.169460
0.088990 0.122296 0.153549
0.125237 0.128597 0.137637
0.161485 0.134899 0.121726
0.197732 0.141200 0.105815
0.234989 0.157586 0.100379
0.272449 0.175989 0.097038
0.309908 0.194392 0.093698
0.347368 0.212794 0.090357
0.384827 0.231197 0.087017
0.414356 0.243826 0.086190
0.439921 0.253569 0.086620
0.465485 0.263311 0.087050
0.491049 0.273054 0.087480
0.516613 0.282797 0.087910
0.541892 0.287770 0.089912
0.566885 0.287974 0.093485
0.591879 0.288179 0.097059
0.616873 0.288383 0.100633
0.641867 0.288587 0.104207
0.665286 0.287408 0.109079
0.685556 0.283462 0.116549
0.705827 0.279517 0.124018
0.726097 0.275571 0.131487
0.746368 0.271625 0.138957
0.765074 0.268158 0.146828
0.775960 0.267088 0.156709
0.786846 0.266018 0.166591
0.797732 0.264947 0.176472
0.808618 0.263877 0.186353
0.819505 0.262807 0.196235
0.019993 0.123683 0.196762
0.059707 0.129866 0.179954
0.099422 0.136049 0.163147
0.139136 0.142231 0.146339
0.178851 0.148414 0.129531
0.218565 0.154596 0.112723
0.256256 0.171160 0.107275
0.293541 0.189801 0.104099
0.330827 0.208441 0.100923
0.368112 0.227082 0.097747
0.405398 0.245722 0.094572
0.433729 0.259382 0.094135
0.457582 0.270552 0.095068
0.481436 0.281722 0.096001
0.505289 0.292891 0.096934
0.529142 0.304061 0.097867
0.553063 0.310256 0.100532
0.577050 0.311476 0.104930
0.601038 0.312695 0.109327
0.625025 0.313915 0.113724
0.649013 0.315135 0.118121
0.671569 0.314739 0.123945
0.691263 0.311114 0.132622
0.710957 0.307488 0.141298
0.730651 0.303862 0.149975
0.750346 0.300237 0.158652
0.768646 0.296935 0.167507
0.779981 0.295252 0.177251
0.791315 0.293568 0.186995
0.802649 0.291885 0.196739
0.813984 0.290202 0.206483
0.825318 0.288519 0.216228
0.023490 0.137674 0.208153
0.066672 0.143737 0.190449
0.109854 0.149801 0.172744
0.153035 0.155865 0.155040
0.196217 0.161928 0.137336
0.239398 0.167992 0.119631
0.277522 0.184734 0.114171
0.314633 0.203613 0.111160
0.351745 0.222491 0.108149
0.388857 0.241369 0.105137
0.425969 0.260248 0.102126
0.453101 0.274938 0.102080
0.475244 0.287535 0.103516
0.497387 0.300132 0.104952
0.519529 0.312729 0.106389
0.541672 0.325326 0.107825
0.564234 0.332742 0.111153
0.587215 0.334977 0.116374
0.610196 0.337212 0.121594
0.633178 0.339447 0.126815
0.656159 0.341682 0.132035
0.677852 0.342070 0.138810
0.696970 0.338765 0.148695
0.716088 0.335459 0.158579
0.735206 0.332154 0.168463
0.754323 0.328849 0.178348
0.772219 0.325711 0.188186
0.784001 0.323415 0.197793
0.795784 0.321119 0.207400
0.807566 0.318823 0.217007
0.819349 0.316527 0.226614
0.831132 0.314231 0.236220
0.026988 0.151664 0.219544
0.073637 0.157609 0.200943
0.120285 0.163553 0.182342
0.166934 0.169498 0.163741
0.213582 0.175443 0.145140
0.260231 0.181387 0.126539
0.298788 0.198308 0.121067
0.335726 0.217425 0.118221
0.372664 0.236541 0.115374
0.409602 0.255657 0.112528
0.446540 0.274773 0.109681
0.472474 0.290495 0.110025
0.492906 0.304518 0.111964
0.513338 0.318542 0.113904
0.533770 0.332566 0.115843
0.554202 0.346590 0.117783
0.575405 0.355227 0.121774
0.597380 0.358478 0.127818
0.619355 0.361728 0.133862
0.641330 0.364979 0.139905
0.663305 0.368230 0.145949
0.684135 0.369402 0.153676
0.702677 0.366416 0.164768
0.721218 0.363431 0.175859
0.739760 0.360446 0.186951
0.758301 0.357460 0.198043
0.775791 0.354488 0.208865
0.788022 0.351579 0.218335
0.800253 0.348670 0.227804
0.812483 0.345761 0.237274
0.824714 0.342852 0.246744
0.836945 0.339942 0.256213
0.030486 0.165654 0.230935
0.080601 0.171480 0.211437
0.130717 0.177306 0.191940
0.180833 0.183132 0.172442
0.230948 0.188957 0.152945
0.281064 0.194783 0.133448
0.320054 0.211882 0.127963
0.356818 0.231237 0.125281
0.393582 0.250591 0.122599
0.430346 0.269945 0.119918
0.467110 0.289299 0.117236
0.491846 0.306051 0.117970
0.510567 0.321502 0.120413
0.529289 0.336953 0.122855
0.548010 0.352404 0.125298
0.566731 0.367855 0.127740
0.586576 0.377713 0.132395
0.607545 0.381979 0.139262
0.628514 0.386245 0.146129
0.649482 0.390511 0.152996
0.670451 0.394777 0.159863
0.690419 0.396733 0.168541
0.708384 0.394068 0.180841
0.726349 0.391402 0.193140
0.744314 0.388737 0.205439
0.762279 0.386072 0.217739
0.779363 0.383264 0.229544
0.792042 0.379742 0.238876
0.804721 0.376220 0.248209
0.817400 0.372698 0.257541
0.830080 0.369176 0.266874
0.842759 0.365654 0.276206
0.035448 0.178983 0.241593
0.088885 0.185010 0.221693
0.142321 0.191037 0.201793
0.195758 0.197064 0.181893
0.249194 0.203091 0.161993
0.302630 0.209118 0.142093
0.341983 0.225927 0.136858
0.378518 0.244892 0.134556
0.415054 0.263857 0.132254
0.451589 0.282823 0.129951
0.488125 0.301788 0.127649
0.512080 0.318837 0.129022
0.529745 0.334929 0.132233
0.547409 0.351020 0.135444
0.565074 0.367111 0.138655
0.582739 0.383203 0.141866
0.601372 0.394122 0.147374
0.620973 0.399870 0.155179
0.640574 0.405618 0.162983
0.660175 0.411366 0.170788
0.679776 0.417114 0.178593
0.698554 0.420367 0.188048
0.715687 0.418631 0.200805
0.732820 0.416894 0.213562
0.749952 0.415157 0.226319
0.767085 0.413421 0.239076
0.783499 0.411368 0.251247
0.796320 0.407731 0.260493
0.809141 0.404095 0.269739
0.821962 0.400459 0.278984
0.834782 0.396822 0.288230
0.847603 0.393186 0.297475
0.041876 0.191650 0.251518
0.098487 0.198198 0.231710
0.155098 0.204747 0.211902
0.211709 0.211295 0.192093
0.268319 0.217844 0.172285
0.324930 0.224392 0.152476
0.364575 0.240442 0.147752
0.400827 0.258392 0.146044
0.437079 0.276341 0.144337
0.473331 0.294291 0.142629
0.509583 0.312241 0.140921
0.533175 0.328854 0.143182
0.550437 0.344799 0.147427
0.567699 0.360744 0.151671
0.584962 0.376689 0.155916
0.602224 0.392634 0.160161
0.619791 0.404455 0.166711
0.637663 0.412151 0.175568
0.655535 0.419848 0.184425
0.673407 0.427544 0.193282
0.691280 0.435241 0.202138
0.708542 0.440305 0.212198
0.724586 0.440106 0.224662
0.740630 0.439906 0.237126
0.756674 0.439706 0.249590
0.772718 0.439506 0.262054
0.788198 0.438798 0.273976
0.800854 0.435546 0.283185
0.813510 0.432294 0.292394
0.826167 0.429042 0.301603
0.838823 0.425789 0.310812
0.851479 0.422537 0.320020
0.048304 0.204317 0.261444
0.108089 0.211387 0.241727
0.167875 0.218457 0.222010
0.227660 0.225526 0.202293
0.287445 0.232596 0.182576
0.347230 0.239666 0.162859
0.387168 0.254956 0.158646
0.423136 0.271891 0.157533
0.459104 0.288825 0.156420
0.495073 0.305760 0.155307
0.531041 0.322694 0.154194
0.554270 0.338871 0.157341
0.571130 0.354670 0.162620
0.587990 0.370469 0.167898
0.604849 0.386267 0.173177
0.621709 0.402066 0.178455
0.638211 0.414787 0.186049
0.654354 0.424432 0.195957
0.670497 0.434077 0.205866
0.686640 0.443723 0.215775
0.702783 0.453368 0.225684
0.718530 0.460243 0.236347
0.733486 0.461580 0.248518
0.748441 0.462918 0.260689
0.763397 0.464255 0.272861
0.778352 0.465592 0.285032
0.792897 0.466228 0.296704
0.805388 0.463360 0.305876
0.817880 0.460492 0.315049
0.830372 0.457624 0.324221
0.842863 0.454757 0.333393
0.855355 0.451889 0.342566
0.054732 0.216984 0.271369
0.117692 0.224575 0.251744
0.180651 0.232166 0.232119
0.243611 0.239758 0.212493
0.306570 0.247349 0.192868
0.369530 0.254940 0.173242
0.409760 0.269471 0.169539
0.445445 0.285390 0.169021
0.481130 0.301309 0.168502
0.516814 0.317228 0.167984
0.552499 0.333147 0.167466
0.575366 0.348888 0.171501
0.591823 0.364541 0.177813
0.608280 0.380193 0.184125
0.624737 0.395845 0.190437
0.641194 0.411497 0.196749
0.656630 0.425120 0.205386
0.671044 0.436714 0.216347
0.685458 0.448307 0.227307
0.699873 0.459901 0.238268
0.714287 0.471494 0.249229
0.728518 0.480181 0.260496
0.742385 0.483055 0.272374
0.756252 0.485929 0.284253
0.770119 0.488803 0.296132
0.783986 0.491677 0.308010
0.797596 0.493658 0.319432
0.809923 0.491175 0.328568
0.822250 0.488691 0.337704
0.834577 0.486207 0.346839
0.846903 0.483724 0.355975
0.859230 0.481240 0.365111
0.061160 0.229651 0.281295
0.127294 0.237763 0.261761
0.193428 0.245876 0.242227
0.259562 0.253989 0.222693
0.325696 0.262102 0.203159
0.391829 0.270214 0.183625
0.432353 0.283986 0.180433
0.467754 0.298890 0.180509
0.503155 0.313793 0.180585
0.538556 0.328697 0.180662
0.573957 0.343600 0.180738
0.596461 0.358905 0.185661
0.612515 0.374411 0.193006
0.628570 0.389917 0.200352
0.644625 0.405423 0.207698
0.660680 0.420929 0.215044
0.675050 0.435453 0.224723
0.687735 0.448995 0.236736
0.700420 0.462537 0.248749
0.713105 0.476079 0.260762
0.725790 0.489621 0.272774
0.738507 0.500119 0.284645
0.751285 0.504530 0.296231
0.764063 0.508941 0.307817
0.776841 0.513352 0.319403
0.789619 0.517763 0.330989
0.802295 0.521089 0.342160
0.814457 0.518989 0.351259
0.826619 0.516890 0.360358
0.838782 0.514790 0.369458
0.850944 0.512691 0.378557
0.863106 0.510591 0.387656
0.067336 0.241656 0.290779
0.136413 0.250507 0.271529
0.205489 0.259357 0.252279
0.274565 0.268208 0.233028
0.343642 0.277059 0.213778
0.412718 0.285909 0.194527
0.453417 0.299120 0.191736
0.488440 0.313204 0.192236
0.523463 0.327287 0.192736
0.558486 0.341370 0.193236
0.593509 0.355454 0.193736
0.615577 0.370306 0.199349
0.631169 0.385544 0.207518
0.646760 0.400781 0.215687
0.662351 0.416019 0.223856
0.677942 0.431256 0.232026
0.691434 0.446256 0.242457
0.702826 0.461018 0.255149
0.714219 0.475780 0.267842
0.725611 0.490541 0.280535
0.737003 0.505303 0.293228
0.748527 0.517098 0.305486
0.760314 0.522961 0.316873
0.772101 0.528823 0.328261
0.783889 0.534685 0.339649
0.795676 0.540548 0.351036
0.807462 0.545198 0.362036
0.819247 0.543784 0.371092
0.831031 0.542371 0.380149
0.842815 0.540957 0.389205
0.854599 0.539544 0.398262
0.866383 0.538131 0.407318
0.073008 0.252338 0.299382
0.144563 0.262359 0.280799
0.216119 0.272381 0.262216
0.287674 0.282402 0.243634
0.359230 0.292424 0.225051
0.430785 0.302446 0.206469
0.471425 0.315494 0.203857
0.505880 0.329147 0.204439
0.540336 0.342800 0.205022
0.574792 0.356454 0.205604
0.609248 0.370107 0.206187
0.630737 0.384475 0.212095
0.645743 0.399200 0.220667
0.660749 0.413926 0.229238
0.675754 0.428651 0.237810
0.690760 0.443376 0.246382
0.703749 0.458000 0.256982
0.714720 0.472524 0.269611
0.725692 0.487048 0.282240
0.736663 0.501572 0.294868
0.747635 0.516096 0.307497
0.758613 0.528160 0.319709
0.769604 0.535303 0.331088
0.780595 0.542446 0.342466
0.791587 0.549589 0.353845
0.802578 0.556732 0.365223
0.813567 0.562664 0.376206
0.824546 0.562541 0.385207
0.835525 0.562417 0.394209
0.846505 0.562294 0.403211
0.857484 0.562170 0.412212
0.868463 0.562047 0.421214
0.078680 0.263019 0.307984
0.152714 0.274212 0.290069
0.226749 0.285405 0.272154
0.300784 0.296597 0.254239
0.374818 0.307790 0.236325
0.448853 0.318982 0.218410
0.489432 0.331867 0.215978
0.523321 0.345091 0.216643
0.557210 0.358314 0.217307
0.591099 0.371537 0.217972
0.624987 0.384761 0.218637
0.645897 0.398644 0.224841
0.660317 0.412857 0.233816
0.674737 0.427070 0.242790
0.689158 0.441283 0.251764
0.703578 0.455495 0.260738
0.716063 0.469745 0.271507
0.726614 0.484031 0.284072
0.737165 0.498317 0.296637
0.747715 0.512603 0.309202
0.758266 0.526889 0.321766
0.768698 0.539221 0.333933
0.778894 0.547645 0.345302
0.789089 0.556069 0.356672
0.799285 0.564493 0.368041
0.809480 0.572916 0.379410
0.819672 0.580131 0.390376
0.829846 0.581297 0.399323
0.840020 0.582463 0.408270
0.850194 0.583630 0.417216
0.860368 0.584796 0.426163
0.870542 0.585962 0.435110
0.084351 0.273701 0.316586
0.160865 0.286065 0.299339
0.237379 0.298428 0.282092
0.313893 0.310792 0.264845
0.390406 0.323155 0.247598
0.466920 0.335519 0.230351
0.507440 0.348240 0.228099
0.540762 0.361034 0.228846
0.574083 0.373827 0.229593
0.607405 0.386621 0.230340
0.640726 0.399414 0.231087
0.661057 0.412813 0.237588
0.674891 0.426513 0.246964
0.688726 0.440214 0.256341
0.702561 0.453914 0.265718
0.716396 0.467615 0.275094
0.728378 0.481489 0.286033
0.738508 0.495538 0.298534
0.748638 0.509586 0.311034
0.758768 0.523634 0.323535
0.768898 0.537682 0.336036
0.778784 0.550283 0.348156
0.788184 0.559987 0.359517
0.797583 0.569692 0.370877
0.806983 0.579396 0.382237
0.816382 0.589101 0.393597
0.825777 0.597597 0.404546
0.835146 0.600053 0.413438
0.844515 0.602510 0.422330
0.853884 0.604966 0.431222
0.863253 0.607422 0.440114
0.872622 0.609878 0.449005
0.090023 0.284383 0.325188
0.169016 0.297917 0.308609
0.248009 0.311452 0.292030
0.327002 0.324986 0.275451
0.405994 0.338521 0.258871
0.484987 0.352055 0.242292
0.525448 0.364614 0.240220
0.558202 0.376977 0.241050
0.590957 0.389341 0.241879
0.623711 0.401704 0.242708
0.656465 0.414068 0.243538
0.676216 0.426981 0.250334
0.689466 0.440170 0.260113
0.702715 0.453358 0.269892
0.715964 0.466546 0.279671
0.729214 0.479735 0.289450
0.740693 0.493234 0.300558
0.750402 0.507044 0.312995
0.760111 0.520855 0.325432
0.769820 0.534665 0.337868
0.779529 0.548476 0.350305
0.788870 0.561344 0.362380
0.797473 0.572329 0.373731
0.806077 0.583315 0.385082
0.814681 0.594300 0.396433
0.823284 0.605285 0.407784
0.831881 0.615064 0.418717
0.840446 0.618810 0.427553
0.849010 0.622556 0.436390
0.857574 0.626302 0.445227
0.866138 0.630048 0.454064
0.874702 0.633794 0.462901
0.096231 0.294797 0.333869
0.177576 0.309443 0.318009
0.258921 0.324089 0.302150
0.340267 0.338735 0.286290
0.421612 0.353381 0.270431
0.502957 0.368027 0.254571
0.543228 0.380398 0.252634
0.575284 0.392315 0.253482
0.607340 0.404232 0.254330
0.639397 0.416148 0.255178
0.671453 0.428065 0.256025
0.690587 0.440535 0.263040
0.703260 0.453281 0.273138
0.715933 0.466027 0.283235
0.728606 0.478774 0.293333
0.741279 0.491520 0.303431
0.752274 0.504687 0.314658
0.761593 0.518277 0.327014
0.770912 0.531866 0.339370
0.780231 0.545455 0.351726
0.789549 0.559045 0.364081
0.798396 0.572109 0.376082
0.806296 0.584121 0.387370
0.814197 0.596134 0.398659
0.822098 0.608147 0.409947
0.829999 0.620160 0.421236
0.837876 0.630991 0.432113
0.845635 0.635911 0.440932
0.853394 0.640831 0.449750
0.861153 0.645751 0.458569
0.868912 0.650671 0.467388
0.876671 0.655591 0.476206
0.105116 0.303872 0.342944
0.188182 0.319332 0.328063
0.271247 0.334792 0.313182
0.354312 0.350252 0.298302
0.437377 0.365712 0.283421
0.520442 0.381172 0.268540
0.559872 0.393237 0.266515
0.590574 0.404624 0.267061
0.621276 0.416010 0.267607
0.651978 0.427396 0.268152
0.682680 0.438782 0.268698
0.701009 0.451014 0.275545
0.713152 0.463669 0.285542
0.725294 0.476323 0.295539
0.737436 0.488978 0.305537
0.749579 0.501633 0.315534
0.760191 0.514686 0.326628
0.769271 0.528138 0.338819
0.778352 0.541590 0.351011
0.787433 0.555043 0.363202
0.796514 0.568495 0.375393
0.805122 0.581388 0.387174
