filter/Red and Blue 2/lut/Hope 01_S.cube
# LUT by SparkleStock. Enhanced with VOXCOLOR algorithms.
LUT_3D_SIZE 5
DOMAIN_MIN 0.000000 0.000000 0.000000
DOMAIN_MAX 0.903226 0.903226 0.903226
0.015629 0.015629 0.101587
0.109039 0.021427 0.107464
0.361984 0.036031 0.090921
0.609760 0.067722 0.084572
0.723463 0.097365 0.090732
0.014006 0.069802 0.155879
0.204902 0.118490 0.090725
0.442574 0.172486 0.074296
0.651446 0.182043 0.084288
0.764961 0.182176 0.122784
0.026988 0.151664 0.219544
0.335726 0.217425 0.118221
0.533770 0.332566 0.115843
0.684135 0.369402 0.153676
0.800253 0.348670 0.227804
0.067336 0.241656 0.290779
0.488440 0.313204 0.192236
0.662351 0.416019 0.223856
0.748527 0.517098 0.305486
0.831031 0.542371 0.380149
0.114002 0.312947 0.352019
0.605863 0.416932 0.280639
0.746267 0.499183 0.317740
0.811849 0.590667 0.398265
0.861060 0.659666 0.469464
0.010934 0.074812 0.170475
0.140936 0.049475 0.143115
0.433136 0.050223 0.133942
0.655010 0.087214 0.139828
0.757188 0.152646 0.152351
0.025523 0.150851 0.235174
0.146057 0.209314 0.247546
0.438319 0.227865 0.214779
0.678258 0.234595 0.209747
0.815627 0.266632 0.232344
0.057468 0.242041 0.313483
0.213637 0.332352 0.314491
0.501883 0.411851 0.257883
0.699436 0.434568 0.261976
0.852929 0.437083 0.313210
0.104577 0.327633 0.386006
0.324388 0.427426 0.409322
0.631418 0.533555 0.352013
0.755010 0.598833 0.354748
0.873959 0.624528 0.392903
0.190430 0.410773 0.453207
0.471315 0.525828 0.499598
0.753030 0.606447 0.461618
0.840954 0.672607 0.466678
0.894522 0.738154 0.503303
0.017267 0.162393 0.252842
0.106987 0.174796 0.262636
0.461104 0.115875 0.195131
0.697865 0.146725 0.202264
0.791268 0.233017 0.244391
0.048203 0.245520 0.334669
0.152741 0.305217 0.382388
0.424498 0.307654 0.397133
0.703926 0.303250 0.374334
0.845898 0.351433 0.379195
0.094076 0.336333 0.416539
0.228065 0.417943 0.457071
0.465739 0.481311 0.470691
0.710092 0.480424 0.440998
0.879476 0.482469 0.452202
0.156030 0.421594 0.488623
0.355090 0.523952 0.541503
0.570106 0.619627 0.553500
0.750694 0.658518 0.482357
0.892183 0.665244 0.484165
0.277582 0.515007 0.564675
0.505282 0.624618 0.627028
0.687508 0.700309 0.642891
0.834296 0.748719 0.571843
0.909586 0.799702 0.559571
0.044720 0.253094 0.346938
0.112412 0.316672 0.400259
0.388475 0.332033 0.385982
0.754379 0.261010 0.278242
0.838233 0.339410 0.346907
0.084694 0.335888 0.424247
0.184804 0.419664 0.489196
0.442790 0.476403 0.535624
0.753810 0.461633 0.514472
0.876209 0.474322 0.508037
0.146930 0.423634 0.505434
0.295234 0.516472 0.570674
0.513013 0.595305 0.624640
0.730760 0.598073 0.635894
0.891563 0.559394 0.618586
0.270824 0.525494 0.585640
0.436759 0.617393 0.646912
0.621279 0.697356 0.683634
0.735086 0.723831 0.688072
0.895772 0.696277 0.660714
0.404244 0.620379 0.659107
0.568814 0.704195 0.709292
0.711245 0.765797 0.734444
0.795127 0.810981 0.737274
0.911458 0.833972 0.685746
0.086920 0.341809 0.429249
0.162093 0.419929 0.496554
0.412906 0.493192 0.543913
0.757344 0.507064 0.522412
0.878337 0.480803 0.484521
0.143781 0.420105 0.501821
0.271542 0.516410 0.580298
0.493602 0.606680 0.639907
0.772464 0.638955 0.644526
0.898135 0.610603 0.610422
0.259001 0.515188 0.585370
0.407667 0.613017 0.657676
0.575296 0.694739 0.708333
0.773609 0.728894 0.723078
0.901117 0.695699 0.708585
0.402680 0.620511 0.664565
0.542554 0.702382 0.719414
0.674334 0.764557 0.753257
0.780018 0.801907 0.768327
0.898304 0.781354 0.760867
0.539534 0.705792 0.722631
0.650382 0.767131 0.760565
0.747503 0.814808 0.782766
0.825889 0.851792 0.789556
0.904827 0.870127 0.785196
