filter/Red and Blue 2/lut/Impulse 02_S.cube
# LUT by SparkleStock. Enhanced with VOXCOLOR algorithms.
LUT_3D_SIZE 5
DOMAIN_MIN 0.000000 0.000000 0.000000
DOMAIN_MAX 0.903226 0.903226 0.903226
0.019536 0.015629 0.015629
0.172350 0.023932 0.020466
0.376352 0.043696 0.027595
0.561495 0.073890 0.041191
0.669274 0.110245 0.058151
0.026838 0.028469 0.042790
0.195940 0.064628 0.032102
0.437256 0.122605 0.029881
0.641172 0.157340 0.050624
0.747023 0.181675 0.094124
0.035929 0.050557 0.082626
0.167497 0.113409 0.102361
0.481100 0.203511 0.062410
0.696773 0.252854 0.091312
0.811808 0.276484 0.161713
0.069629 0.106432 0.147434
0.164420 0.185580 0.220103
0.432544 0.286263 0.251461
0.757891 0.356592 0.241285
0.879751 0.428227 0.334768
0.113057 0.175359 0.229375
0.199551 0.302378 0.364364
0.451404 0.459145 0.496022
0.784417 0.584906 0.566955
0.932901 0.630100 0.585086
0.018969 0.040466 0.093151
0.147541 0.052384 0.083340
0.427040 0.064000 0.085628
0.638884 0.104581 0.094288
0.741700 0.167908 0.106382
0.036434 0.076415 0.139555
0.156266 0.156687 0.184945
0.420087 0.200628 0.197019
0.675701 0.230824 0.198706
0.815532 0.274893 0.211981
0.062497 0.126121 0.201055
0.173726 0.247856 0.256972
0.422676 0.368195 0.277931
0.701245 0.404559 0.273125
0.868616 0.426858 0.306659
0.098665 0.201109 0.282779
0.202355 0.320886 0.369313
0.433211 0.475935 0.441434
0.742152 0.568574 0.430167
0.906008 0.601907 0.442088
0.142900 0.301572 0.393991
0.270958 0.430677 0.506909
0.504204 0.585939 0.630123
0.793604 0.706148 0.672418
0.935766 0.750530 0.644309
0.016574 0.073481 0.193643
0.082156 0.112461 0.210331
0.382434 0.126551 0.166111
0.688052 0.167736 0.153900
0.800116 0.240392 0.165813
0.026136 0.121175 0.265340
0.127865 0.222591 0.338216
0.366398 0.282517 0.384605
0.694823 0.313637 0.367172
0.863979 0.372263 0.357013
0.052974 0.199063 0.366829
0.178471 0.336917 0.431111
0.392361 0.455809 0.493615
0.693275 0.486762 0.483130
0.894494 0.510738 0.481833
0.093660 0.305346 0.476398
0.240486 0.446311 0.542964
0.442947 0.582915 0.606105
0.711797 0.671363 0.590508
0.909872 0.687847 0.557700
0.153603 0.426868 0.586908
0.340450 0.561727 0.661011
0.547933 0.678272 0.730963
0.784084 0.784844 0.745965
0.928077 0.829878 0.691291
0.014597 0.121580 0.327937
0.049318 0.181230 0.384828
0.208836 0.254637 0.386600
0.688875 0.288262 0.257712
0.863233 0.352826 0.269628
0.024211 0.174939 0.425701
0.099027 0.296461 0.505196
0.264898 0.409781 0.566279
0.673416 0.483583 0.543565
0.899741 0.519238 0.510918
0.050624 0.256343 0.534248
0.164434 0.410598 0.608177
0.360292 0.549429 0.675508
0.672963 0.611959 0.688666
0.909059 0.613348 0.660858
0.096121 0.360283 0.638222
0.262449 0.536551 0.705834
0.483145 0.667416 0.754280
0.703479 0.737853 0.761970
0.910447 0.734877 0.722288
0.170784 0.488493 0.732809
0.384900 0.650792 0.793774
0.612873 0.761258 0.832953
0.788745 0.835024 0.842866
0.923691 0.869101 0.799004
0.014967 0.177510 0.483871
0.050345 0.244208 0.553958
0.138647 0.351233 0.608084
0.469081 0.475144 0.592533
0.882566 0.510088 0.471144
0.035384 0.239447 0.583721
0.113641 0.364037 0.661217
0.234684 0.495633 0.721960
0.523957 0.624504 0.739739
0.896258 0.673677 0.668748
0.071444 0.325151 0.674600
0.190809 0.478887 0.750662
0.374207 0.627112 0.811739
0.615048 0.729684 0.833230
0.901046 0.761019 0.788484
0.123057 0.428198 0.753960
0.297707 0.596804 0.823020
0.509909 0.730195 0.868819
0.718026 0.813560 0.885054
0.908073 0.829915 0.854385
0.186841 0.521707 0.814124
0.427589 0.701283 0.878825
0.653481 0.812165 0.906016
0.823243 0.874149 0.908651
0.924578 0.904738 0.896931
