filter/Red and Blue 2/lut/Impulse 02.cube
# LUT by SparkleStock. Enhanced with VOXCOLOR algorithms.
LUT_3D_SIZE 5
DOMAIN_MIN 0.000000 0.000000 0.000000
DOMAIN_MAX 0.903226 0.903226 0.903226
0.019536 0.015629 0.015629
0.172350 0.023932 0.020466
0.374855 0.044996 0.027595
0.558565 0.075056 0.041191
0.668778 0.110245 0.058151
0.026838 0.028327 0.042790
0.195329 0.040014 0.036378
0.436866 0.071593 0.043174
0.632802 0.121518 0.068709
0.738619 0.173180 0.102516
0.035929 0.049557 0.082744
0.162720 0.086316 0.109472
0.492585 0.117490 0.079684
0.702823 0.183167 0.114867
0.805494 0.258905 0.173453
0.070172 0.099145 0.148891
0.162477 0.175842 0.223881
0.431225 0.257748 0.261682
0.764916 0.320883 0.253073
0.879612 0.418157 0.342197
0.114380 0.168742 0.230698
0.199332 0.296834 0.367464
0.451068 0.454758 0.500099
0.785405 0.581181 0.571955
0.934337 0.627971 0.589873
0.018969 0.040466 0.093151
0.143797 0.055153 0.074520
0.425279 0.077426 0.055163
0.635102 0.121415 0.068781
0.738723 0.172412 0.101403
0.036434 0.076333 0.139473
0.123857 0.134871 0.175005
0.394682 0.170542 0.165782
0.679695 0.223697 0.167787
0.805654 0.285461 0.206765
0.062707 0.125667 0.201055
0.151567 0.211451 0.265648
0.389337 0.297479 0.315264
0.721097 0.355021 0.309039
0.863655 0.420777 0.350168
0.099618 0.197841 0.283217
0.197401 0.306446 0.375921
0.422274 0.434887 0.477801
0.763098 0.525421 0.501651
0.908666 0.579611 0.531144
0.143893 0.297281 0.395053
0.271097 0.427403 0.508642
0.504684 0.581172 0.636853
0.800892 0.695804 0.700274
0.939921 0.732811 0.703531
0.016574 0.073481 0.193643
0.079816 0.113924 0.206811
0.375184 0.137001 0.139915
0.688830 0.182880 0.121685
0.798510 0.244346 0.159207
0.026136 0.120726 0.265034
0.103538 0.221377 0.326602
0.309711 0.304831 0.349639
0.701490 0.351926 0.313237
0.860913 0.410071 0.338313
0.053007 0.198356 0.366492
0.163282 0.323333 0.428467
0.340009 0.446072 0.510689
0.706145 0.514320 0.506203
0.892870 0.564997 0.518230
0.094840 0.301945 0.476854
0.238017 0.437920 0.545722
0.430932 0.565605 0.633795
0.730327 0.666070 0.678696
0.914892 0.697524 0.668679
0.155145 0.422514 0.588040
0.341134 0.558946 0.662462
0.549574 0.675120 0.737904
0.798293 0.773311 0.788034
0.935644 0.807636 0.785622
0.014597 0.121580 0.327937
0.049135 0.181340 0.384609
0.207196 0.256091 0.383491
0.688660 0.291714 0.249845
0.863105 0.353626 0.268236
0.024211 0.174477 0.425381
0.093977 0.297643 0.503003
0.244700 0.422785 0.557161
0.666328 0.513726 0.524405
0.901198 0.548947 0.499358
0.050735 0.253712 0.532867
0.160319 0.409073 0.606745
0.342205 0.557756 0.677154
0.666510 0.659924 0.693751
0.910735 0.688186 0.661475
0.096805 0.358245 0.637895
0.262043 0.534579 0.705977
0.479699 0.667299 0.760549
0.708644 0.758667 0.794962
0.914520 0.781538 0.764296
0.172235 0.484966 0.733188
0.386232 0.648560 0.794701
0.614796 0.760061 0.835417
0.797641 0.832562 0.859868
0.930170 0.864401 0.848654
0.014967 0.177510 0.483871
0.050345 0.244208 0.553958
0.138647 0.351233 0.608084
0.469081 0.475144 0.592533
0.882566 0.510088 0.471144
0.035384 0.239168 0.582680
0.113446 0.364590 0.660416
0.233581 0.497078 0.721245
0.522935 0.627921 0.738628
0.896386 0.679376 0.666902
0.071536 0.323936 0.672649
0.190725 0.479298 0.749279
0.373477 0.629057 0.810812
0.614222 0.739875 0.831871
0.901742 0.787132 0.782504
0.124168 0.425772 0.752740
0.298195 0.595953 0.822267
0.510370 0.730856 0.868696
0.720427 0.819916 0.886226
0.909424 0.856689 0.852477
0.188116 0.519375 0.813911
0.428699 0.699925 0.878642
0.654655 0.811857 0.905981
0.825536 0.874887 0.909941
0.925845 0.908567 0.900551
