filter/Red and Blue 2/lut/Impulse 03_S.cube
# LUT by SparkleStock. Enhanced with VOXCOLOR algorithms.
LUT_3D_SIZE 5
DOMAIN_MIN 0.000000 0.000000 0.000000
DOMAIN_MAX 0.903226 0.903226 0.903226
0.027350 0.023443 0.023443
0.163591 0.031525 0.030801
0.348836 0.052385 0.034692
0.539060 0.081657 0.046989
0.655969 0.114617 0.065446
0.027035 0.040277 0.064075
0.182986 0.073003 0.048486
0.408990 0.124040 0.040151
0.617972 0.158694 0.059634
0.730291 0.182413 0.097744
0.031163 0.066730 0.112757
0.153418 0.124380 0.131871
0.441636 0.200641 0.084659
0.675100 0.252597 0.099615
0.793064 0.274196 0.161805
0.046343 0.120659 0.193737
0.124577 0.197651 0.271398
0.381680 0.278028 0.275771
0.740456 0.342275 0.222405
0.856917 0.402239 0.304078
0.069495 0.196235 0.296577
0.139912 0.305520 0.417264
0.376882 0.429699 0.507552
0.737178 0.542218 0.541975
0.913955 0.593599 0.548117
0.013132 0.059207 0.132813
0.136847 0.065722 0.106340
0.387619 0.074400 0.095612
0.612848 0.110798 0.099665
0.726065 0.168508 0.109501
0.024186 0.095730 0.182452
0.140720 0.167847 0.218313
0.394641 0.206824 0.214378
0.654913 0.233493 0.204168
0.796200 0.272506 0.207782
0.041441 0.145266 0.253089
0.143430 0.251878 0.299521
0.398735 0.357739 0.297201
0.682415 0.396028 0.276733
0.849078 0.414156 0.297040
0.064728 0.215004 0.339941
0.148666 0.318893 0.409923
0.380223 0.455904 0.453152
0.717456 0.545826 0.417863
0.888824 0.576069 0.423715
0.095113 0.303279 0.443372
0.193629 0.409402 0.528445
0.429030 0.550263 0.623206
0.749704 0.671235 0.654822
0.921108 0.718054 0.628577
0.005916 0.099350 0.251794
0.073988 0.127808 0.255509
0.353004 0.136710 0.189721
0.662930 0.172701 0.156450
0.784769 0.240162 0.165953
0.014773 0.145906 0.320645
0.108475 0.231653 0.376049
0.341710 0.283226 0.397549
0.668886 0.307660 0.361653
0.840728 0.358018 0.337564
0.038698 0.214385 0.408683
0.140798 0.330475 0.459202
0.357676 0.440817 0.501023
0.673130 0.477635 0.480790
0.877319 0.498803 0.467482
0.069351 0.299318 0.503586
0.177262 0.419471 0.555428
0.382585 0.554520 0.604976
0.682869 0.656242 0.588415
0.896899 0.670011 0.553377
0.107987 0.390558 0.591375
0.246379 0.511797 0.651303
0.468519 0.637625 0.717375
0.742119 0.755797 0.739614
0.916308 0.804236 0.692447
0.003143 0.150758 0.392367
0.039622 0.198255 0.426096
0.189613 0.254034 0.414854
0.675777 0.272818 0.244132
0.842417 0.335024 0.252092
0.012409 0.202901 0.472688
0.079459 0.294831 0.526806
0.228107 0.386948 0.569884
0.636861 0.451952 0.528137
0.874289 0.482922 0.476508
0.034279 0.271977 0.562729
0.124859 0.386859 0.610532
0.302659 0.508861 0.664084
0.628513 0.589886 0.680984
0.889023 0.593520 0.638547
0.066638 0.347831 0.646277
0.188726 0.485836 0.687937
0.400819 0.618951 0.734077
0.643361 0.712511 0.757111
0.894964 0.720644 0.717008
0.110429 0.438605 0.718552
0.268387 0.580646 0.764996
0.508730 0.710149 0.812699
0.729100 0.805864 0.837802
0.909354 0.852751 0.799493
0.001560 0.206018 0.522652
0.034770 0.263948 0.574588
0.119466 0.338462 0.606569
0.418130 0.433692 0.575208
0.840266 0.467965 0.433549
0.018305 0.264867 0.606812
0.077109 0.353518 0.664098
0.176545 0.450575 0.704190
0.456428 0.572289 0.718168
0.856511 0.629922 0.639240
0.044122 0.328997 0.686636
0.125116 0.437682 0.737232
0.266935 0.558014 0.783488
0.519892 0.675225 0.810719
0.863522 0.729931 0.768962
0.077385 0.397707 0.749981
0.188331 0.526789 0.796746
0.372267 0.657697 0.842017
0.611835 0.767841 0.873708
0.873189 0.811631 0.846339
0.112527 0.461572 0.795659
0.274047 0.614402 0.845382
0.499643 0.746875 0.887773
0.732512 0.844142 0.909222
0.900389 0.892851 0.897713
