filter/Red and Blue 2/lut/Impulse 02_S.cube
# LUT by SparkleStock. Enhanced with VOXCOLOR algorithms.
LUT_3D_SIZE 32
0.019536 0.015629 0.015629
0.038450 0.016511 0.016401
0.057363 0.017393 0.017173
0.076277 0.018276 0.017945
0.095191 0.019158 0.018717
0.118642 0.020513 0.019363
0.145496 0.022222 0.019914
0.172350 0.023932 0.020466
0.199204 0.025641 0.021017
0.226523 0.027547 0.021647
0.256631 0.030635 0.022750
0.286738 0.033723 0.023853
0.316846 0.036811 0.024956
0.346953 0.039899 0.026059
0.376352 0.043696 0.027595
0.405467 0.047777 0.029304
0.434582 0.051857 0.031013
0.463697 0.055938 0.032723
0.491189 0.060160 0.034574
0.514624 0.064737 0.036780
0.538060 0.069313 0.038985
0.561495 0.073890 0.041191
0.584930 0.078467 0.043397
0.601134 0.083422 0.045744
0.616133 0.088440 0.048115
0.631132 0.093458 0.050486
0.646130 0.098476 0.052858
0.659073 0.104014 0.055394
0.669274 0.110245 0.058151
0.679475 0.116476 0.060908
0.689677 0.122707 0.063665
0.699878 0.128938 0.066422
0.021025 0.017504 0.019489
0.040188 0.018548 0.019551
0.059350 0.019592 0.019613
0.078513 0.020636 0.019676
0.097676 0.021680 0.019738
0.121611 0.023567 0.020008
0.149125 0.026086 0.020435
0.176639 0.028604 0.020862
0.204153 0.031123 0.021289
0.232146 0.033821 0.021805
0.263013 0.037594 0.022859
0.293880 0.041367 0.023912
0.324747 0.045139 0.024965
0.355614 0.048912 0.026018
0.385692 0.053118 0.027557
0.415455 0.057498 0.029292
0.445217 0.061877 0.031026
0.474980 0.066256 0.032760
0.503055 0.070681 0.034693
0.526914 0.075221 0.037123
0.550773 0.079760 0.039553
0.574631 0.084300 0.041983
0.598490 0.088839 0.044412
0.614690 0.093639 0.047294
0.629614 0.098483 0.050250
0.644538 0.103326 0.053206
0.659462 0.108170 0.056162
0.671935 0.113486 0.059343
0.681140 0.119430 0.062822
0.690345 0.125375 0.066302
0.699551 0.131320 0.069781
0.708756 0.137264 0.073260
0.022514 0.019378 0.023349
0.041925 0.020584 0.022701
0.061337 0.021790 0.022054
0.080749 0.022996 0.021406
0.100161 0.024203 0.020759
0.124579 0.026621 0.020654
0.152753 0.029949 0.020956
0.180927 0.033277 0.021259
0.209101 0.036605 0.021561
0.237769 0.040095 0.021964
0.269395 0.044552 0.022967
0.301022 0.049010 0.023970
0.332649 0.053468 0.024973
0.364275 0.057925 0.025977
0.395033 0.062540 0.027520
0.425443 0.067219 0.029279
0.455852 0.071897 0.031038
0.486262 0.076575 0.032798
0.514921 0.081203 0.034812
0.539204 0.085705 0.037466
0.563486 0.090207 0.040120
0.587768 0.094709 0.042774
0.612050 0.099211 0.045428
0.628246 0.103857 0.048843
0.643096 0.108526 0.052384
0.657945 0.113195 0.055926
0.672794 0.117864 0.059467
0.684797 0.122957 0.063292
0.693006 0.128616 0.067493
0.701216 0.134274 0.071695
0.709425 0.139932 0.075896
0.717634 0.145591 0.080098
0.024003 0.021253 0.027209
0.043663 0.022621 0.025851
0.063324 0.023989 0.024494
0.082985 0.025357 0.023137
0.102646 0.026725 0.021780
0.127548 0.029675 0.021300
0.156382 0.033813 0.021478
0.185216 0.037950 0.021656
0.214050 0.042088 0.021833
0.243391 0.046369 0.022122
0.275778 0.051511 0.023076
0.308164 0.056653 0.024029
0.340550 0.061796 0.024982
0.372936 0.066938 0.025936
0.404373 0.071963 0.027483
0.435430 0.076940 0.029267
0.466488 0.081917 0.031051
0.497545 0.086894 0.032835
0.526788 0.091724 0.034932
0.551493 0.096189 0.037810
0.576198 0.100654 0.040688
0.600904 0.105118 0.043566
0.625609 0.109583 0.046444
0.641802 0.114074 0.050392
0.656577 0.118569 0.054519
0.671351 0.123064 0.058646
0.686126 0.127559 0.062772
0.697660 0.132429 0.067241
0.704873 0.137801 0.072164
0.712086 0.143173 0.077088
0.719299 0.148545 0.082012
0.726511 0.153917 0.086935
0.025491 0.023128 0.031069
0.045401 0.024658 0.029002
0.065311 0.026188 0.026935
0.085221 0.027717 0.024868
0.105131 0.029247 0.022801
0.130517 0.032729 0.021945
0.160011 0.037676 0.021999
0.189505 0.042623 0.022052
0.218999 0.047570 0.022106
0.249014 0.052642 0.022280
0.282160 0.058470 0.023184
0.315305 0.064297 0.024088
0.348451 0.070124 0.024991
0.381597 0.075951 0.025895
0.413713 0.081385 0.027445
0.445418 0.086661 0.029254
0.477123 0.091936 0.031063
0.508828 0.097212 0.032872
0.538654 0.102246 0.035051
0.563783 0.106673 0.038153
0.588911 0.111100 0.041255
0.614040 0.115528 0.044357
0.639169 0.119955 0.047459
0.655358 0.124291 0.051941
0.670058 0.128612 0.056653
0.684758 0.132932 0.061365
0.699458 0.137253 0.066077
0.710522 0.141901 0.071190
0.716739 0.146987 0.076835
0.722956 0.152072 0.082481
0.729173 0.157158 0.088127
0.735389 0.162243 0.093773
0.026287 0.024940 0.034960
0.045734 0.026902 0.033108
0.065182 0.028864 0.031257
0.084629 0.030826 0.029405
0.104076 0.032788 0.027553
0.130178 0.037060 0.026239
0.161271 0.043065 0.025328
0.192364 0.049071 0.024418
0.223457 0.055076 0.023507
0.254917 0.061175 0.022852
0.288581 0.067836 0.023735
0.322244 0.074498 0.024617
0.355907 0.081159 0.025499
0.389571 0.087821 0.026382
0.422059 0.093685 0.027974
0.454077 0.099232 0.029851
0.486094 0.104778 0.031727
0.518112 0.110324 0.033604
0.548240 0.115503 0.035907
0.573643 0.119765 0.039276
0.599046 0.124027 0.042645
0.624448 0.128289 0.046014
0.649851 0.132551 0.049383
0.666199 0.136586 0.054386
0.681037 0.140583 0.059662
0.695876 0.144580 0.064938
0.710714 0.148577 0.070214
0.721663 0.152930 0.075930
0.727424 0.157757 0.082234
0.733185 0.162585 0.088538
0.738947 0.167412 0.094842
0.744708 0.172240 0.101146
0.026563 0.026704 0.038875
0.045014 0.029301 0.037932
0.063465 0.031898 0.036990
0.081916 0.034496 0.036047
0.100368 0.037093 0.035104
0.127359 0.042349 0.033269
0.160755 0.049599 0.030764
0.194152 0.056849 0.028260
0.227548 0.064099 0.025755
0.261031 0.071401 0.023735
0.295030 0.079009 0.024617
0.329030 0.086616 0.025499
0.363029 0.094224 0.026382
0.397029 0.101832 0.027264
0.429657 0.108145 0.028927
0.461738 0.113940 0.030904
0.493818 0.119736 0.032880
0.525898 0.125531 0.034856
0.556117 0.130813 0.037316
0.581681 0.134814 0.040983
0.607246 0.138814 0.044651
0.632810 0.142815 0.048319
0.658375 0.146815 0.051987
0.675002 0.150439 0.057503
0.690139 0.154000 0.063326
0.705276 0.157561 0.069150
0.720414 0.161122 0.074974
0.731512 0.165125 0.081265
0.737223 0.169716 0.088179
0.742935 0.174307 0.095093
0.748647 0.178898 0.102007
0.754358 0.183489 0.108921
0.026838 0.028469 0.042790
0.044294 0.031701 0.042756
0.061749 0.034933 0.042723
0.079204 0.038165 0.042689
0.096659 0.041397 0.042655
0.124540 0.047637 0.040299
0.160240 0.056132 0.036200
0.195940 0.064628 0.032102
0.231640 0.073123 0.028004
0.267145 0.081627 0.024617
0.301480 0.090181 0.025499
0.335816 0.098735 0.026382
0.370152 0.107289 0.027264
0.404487 0.115843 0.028146
0.437256 0.122605 0.029881
0.469399 0.128649 0.031957
0.501541 0.134693 0.034033
0.533684 0.140738 0.036108
0.563993 0.146123 0.038724
0.589719 0.149862 0.042691
0.615446 0.153601 0.046658
0.641172 0.157340 0.050624
0.666899 0.161079 0.054591
0.683805 0.164292 0.060619
0.699241 0.167417 0.066991
0.714677 0.170543 0.073362
0.730113 0.173668 0.079734
0.741361 0.177320 0.086599
0.747023 0.181675 0.094124
0.752684 0.186029 0.101648
0.758346 0.190383 0.109172
0.764008 0.194738 0.116696
0.027114 0.030234 0.046705
0.043573 0.034101 0.047580
0.060032 0.037968 0.048456
0.076491 0.041835 0.049331
0.092950 0.045702 0.050206
0.121720 0.052925 0.047328
0.159724 0.062666 0.041636
0.197727 0.072406 0.035944
0.235731 0.082147 0.030252
0.273258 0.091853 0.025499
0.307930 0.101354 0.026382
0.342602 0.110854 0.027264
0.377274 0.120354 0.028146
0.411946 0.129855 0.029028
0.444855 0.137064 0.030834
0.477060 0.143358 0.033010
0.509265 0.149651 0.035185
0.541469 0.155944 0.037361
0.571869 0.161433 0.040133
0.597758 0.164911 0.044399
0.623646 0.168388 0.048664
0.649534 0.171866 0.052930
0.675423 0.175343 0.057195
0.692608 0.178145 0.063736
0.708343 0.180835 0.070655
0.724078 0.183524 0.077574
0.739813 0.186214 0.084494
0.751210 0.189515 0.091934
0.756822 0.193633 0.100068
0.762434 0.197751 0.108203
0.768046 0.201869 0.116337
0.773658 0.205987 0.124471
0.027539 0.032203 0.050920
0.043058 0.036698 0.052707
0.058576 0.041193 0.054495
0.074094 0.045688 0.056283
0.089612 0.050183 0.058070
0.118936 0.058307 0.054854
0.158615 0.069154 0.047885
0.198294 0.080001 0.040916
0.237973 0.090848 0.033946
0.277064 0.101635 0.028055
0.312625 0.112056 0.028627
0.348187 0.122478 0.029200
0.383748 0.132900 0.029773
0.419309 0.143322 0.030346
0.452511 0.151010 0.032153
0.484769 0.157603 0.034455
0.517027 0.164197 0.036757
0.549285 0.170791 0.039059
0.579756 0.176434 0.042012
0.605760 0.179700 0.046594
0.631764 0.182966 0.051176
0.657768 0.186232 0.055758
0.683772 0.189498 0.060340
0.701224 0.191939 0.067397
0.717251 0.194242 0.074866
0.733277 0.196546 0.082335
0.749304 0.198849 0.089804
0.760875 0.201856 0.097811
0.766505 0.205799 0.106536
0.772135 0.209743 0.115261
0.777765 0.213686 0.123986
0.783394 0.217630 0.132711
0.028863 0.035401 0.056930
0.043771 0.040481 0.059652
0.058679 0.045562 0.062373
0.073587 0.050642 0.065095
0.088495 0.055722 0.067816
0.116362 0.064254 0.065356
0.153949 0.075375 0.059009
0.191537 0.086496 0.052663
0.229124 0.097617 0.046316
0.267023 0.108748 0.040648
0.306793 0.119942 0.039055
0.346563 0.131136 0.037461
0.386332 0.142329 0.035867
0.426102 0.153523 0.034273
0.460507 0.161867 0.035666
0.492765 0.169071 0.038255
0.525023 0.176275 0.040843
0.557281 0.183479 0.043431
0.587706 0.189583 0.046710
0.613548 0.192936 0.051715
0.639390 0.196289 0.056721
0.665232 0.199642 0.061726
0.691074 0.202995 0.066731
0.708716 0.205374 0.074329
0.724992 0.207590 0.082358
0.741268 0.209806 0.090388
0.757543 0.212023 0.098417
0.769438 0.215065 0.106947
0.775491 0.219207 0.116145
0.781544 0.223350 0.125343
0.787598 0.227493 0.134541
0.793651 0.231636 0.143739
0.030186 0.038599 0.062941
0.044484 0.044265 0.066596
0.058782 0.049930 0.070251
0.073080 0.055596 0.073907
0.087377 0.061261 0.077562
0.113788 0.070200 0.075858
0.149284 0.081595 0.070134
0.184779 0.092990 0.064410
0.220274 0.104385 0.058686
0.256982 0.115861 0.053242
0.300960 0.127827 0.049482
0.344939 0.139793 0.045721
0.388917 0.151759 0.041961
0.432895 0.163724 0.038201
0.468502 0.172725 0.039180
0.500760 0.180539 0.042054
0.533018 0.188353 0.044929
0.565276 0.196167 0.047803
0.595655 0.202732 0.051407
0.621335 0.206172 0.056836
0.647015 0.209612 0.062265
0.672695 0.213052 0.067694
0.698376 0.216492 0.073123
0.716208 0.218809 0.081261
0.732733 0.220938 0.089850
0.749258 0.223067 0.098440
0.765783 0.225196 0.107030
0.778001 0.228274 0.116083
0.784478 0.232616 0.125754
0.790954 0.236958 0.135425
0.797431 0.241300 0.145097
0.803907 0.245642 0.154768
0.031510 0.041798 0.068951
0.045197 0.048048 0.073540
0.058885 0.054299 0.078130
0.072573 0.060549 0.082719
0.086260 0.066800 0.087308
0.111214 0.076147 0.086360
0.144618 0.087816 0.081258
0.178021 0.099484 0.076157
0.211425 0.111153 0.071055
0.246941 0.122975 0.065836
0.295128 0.135712 0.059909
0.343315 0.148450 0.053982
0.391502 0.161188 0.048055
0.439689 0.173926 0.042128
0.476498 0.183582 0.042693
0.508756 0.192007 0.045853
0.541014 0.200431 0.049014
0.573272 0.208855 0.052175
0.603604 0.215880 0.056105
0.629123 0.219408 0.061957
0.654641 0.222935 0.067809
0.680159 0.226462 0.073662
0.705677 0.229990 0.079514
0.723701 0.232244 0.088193
0.740474 0.234286 0.097343
0.757248 0.236328 0.106493
0.774022 0.238370 0.115643
0.786564 0.241483 0.125219
0.793464 0.246024 0.135363
0.800364 0.250565 0.145508
0.807264 0.255107 0.155652
0.814164 0.259648 0.165796
0.032833 0.044996 0.074962
0.045911 0.051832 0.080485
0.058988 0.058668 0.086008
0.072066 0.065503 0.091531
0.085143 0.072339 0.097054
0.108640 0.082093 0.096862
0.139952 0.094036 0.092383
0.171264 0.105979 0.087904
0.202576 0.117921 0.083425
0.236899 0.130088 0.078429
0.289295 0.143598 0.070336
0.341691 0.157107 0.062243
0.394086 0.170617 0.054149
0.446482 0.184127 0.046056
0.484493 0.194440 0.046206
0.516751 0.203474 0.049653
0.549009 0.212509 0.053100
0.581267 0.221543 0.056547
0.611554 0.229029 0.060803
0.636910 0.232644 0.067078
0.662266 0.236258 0.073354
0.687623 0.239872 0.079629
0.712979 0.243487 0.085905
0.731193 0.245679 0.095125
0.748216 0.247634 0.104835
0.765238 0.249589 0.114545
0.782261 0.251544 0.124255
0.795127 0.254692 0.134355
0.802450 0.259433 0.144972
0.809774 0.264173 0.155590
0.817097 0.268914 0.166207
0.824420 0.273654 0.176825
0.035929 0.050557 0.082626
0.048548 0.057863 0.088950
0.061166 0.065168 0.095273
0.073785 0.072474 0.101597
0.086403 0.079779 0.107920
0.108630 0.089688 0.108793
0.138064 0.101548 0.105577
0.167497 0.113409 0.102361
0.196931 0.125270 0.099145
0.229686 0.137416 0.095253
0.282377 0.151271 0.087305
0.335068 0.165126 0.079358
0.387759 0.178980 0.071410
0.440450 0.192835 0.063463
0.481100 0.203511 0.062410
0.516933 0.212916 0.064116
0.552766 0.222320 0.065822
0.588600 0.231724 0.067528
0.621376 0.239695 0.070709
0.646508 0.244082 0.077576
0.671640 0.248468 0.084444
0.696773 0.252854 0.091312
0.721905 0.257241 0.098180
0.740079 0.259987 0.108140
0.757093 0.262459 0.118615
0.774107 0.264932 0.129090
0.791121 0.267404 0.139565
0.804132 0.271117 0.150400
0.811808 0.276484 0.161713
0.819483 0.281850 0.173026
0.827159 0.287217 0.184339
0.834834 0.292583 0.195652
0.039734 0.057064 0.090953
0.051954 0.064793 0.098023
0.064174 0.072522 0.105094
0.076394 0.080250 0.112165
0.088614 0.087979 0.119235
0.109646 0.097941 0.121296
0.137287 0.109578 0.119599
0.164927 0.121215 0.117902
0.192567 0.132851 0.116205
0.223605 0.144830 0.113768
0.275026 0.158859 0.106891
0.326446 0.172888 0.100015
0.377867 0.186917 0.093138
0.429288 0.200947 0.086261
0.473150 0.211868 0.083692
0.513989 0.221546 0.082845
0.554828 0.231225 0.081998
0.595667 0.240903 0.081151
0.631947 0.249368 0.082697
0.656830 0.254800 0.090225
0.681714 0.260233 0.097753
0.706597 0.265665 0.105281
0.731480 0.271098 0.112809
0.749522 0.274644 0.123588
0.766424 0.277876 0.134910
0.783326 0.281108 0.146232
0.800228 0.284340 0.157554
0.813314 0.288828 0.169208
0.821314 0.294992 0.181306
0.829313 0.301155 0.193403
0.837312 0.307319 0.205501
0.845311 0.313482 0.217598
0.043539 0.063571 0.099279
0.055360 0.071723 0.107097
0.067182 0.079875 0.114915
0.079004 0.088027 0.122732
0.090825 0.096179 0.130550
0.110662 0.106195 0.133799
0.136509 0.117607 0.133621
0.162357 0.129020 0.133443
0.188204 0.140432 0.133265
0.217523 0.152244 0.132283
0.267674 0.166447 0.126477
0.317825 0.180651 0.120672
0.367975 0.194854 0.114866
0.418126 0.209058 0.109060
0.465201 0.220225 0.104973
0.511045 0.230177 0.101574
0.556890 0.240129 0.098174
0.602734 0.250081 0.094775
0.642518 0.259041 0.094686
0.667153 0.265519 0.102874
0.691787 0.271998 0.111062
0.716421 0.278476 0.119250
0.741055 0.284954 0.127437
0.758966 0.289301 0.139037
0.775756 0.293293 0.151206
0.792545 0.297284 0.163374
0.809335 0.301276 0.175543
0.822496 0.306540 0.188017
0.830819 0.313500 0.200899
0.839142 0.320460 0.213781
0.847465 0.327421 0.226663
0.855788 0.334381 0.239545
0.047343 0.070078 0.107606
0.058767 0.078653 0.116170
0.070190 0.087229 0.124735
0.081613 0.095804 0.133300
0.093036 0.104379 0.141865
0.111678 0.114448 0.146302
0.135732 0.125637 0.147643
0.159786 0.136825 0.148984
0.183841 0.148014 0.150325
0.211442 0.159658 0.150799
0.260322 0.174035 0.146064
0.309203 0.188413 0.141328
0.358084 0.202791 0.136593
0.406964 0.217169 0.131858
0.457252 0.228581 0.126254
0.508101 0.238808 0.120302
0.558951 0.249034 0.114351
0.609801 0.259260 0.108399
0.653090 0.268714 0.106675
0.677475 0.276238 0.115523
0.701860 0.283762 0.124371
0.726245 0.291287 0.133218
0.750630 0.298811 0.142066
0.768409 0.303958 0.154486
0.785087 0.308709 0.167501
0.801765 0.313460 0.180516
0.818443 0.318211 0.193532
0.831678 0.324251 0.206826
0.840325 0.332008 0.220492
0.848972 0.339765 0.234159
0.857618 0.347523 0.247825
0.866265 0.355280 0.261491
0.051763 0.077482 0.116499
0.062805 0.086513 0.125797
0.073848 0.095544 0.135095
0.084890 0.104575 0.144392
0.095933 0.113606 0.153690
0.113521 0.123849 0.159370
0.136017 0.135002 0.162337
0.158513 0.146155 0.165304
0.181009 0.157308 0.168271
0.207089 0.168949 0.170342
0.254675 0.183523 0.167037
0.302261 0.198096 0.163732
0.349847 0.212670 0.160427
0.397432 0.227243 0.157122
0.449919 0.239047 0.151021
0.504365 0.249743 0.143801
0.558812 0.260439 0.136581
0.613258 0.271134 0.129361
0.659388 0.281083 0.126597
0.684727 0.289162 0.134973
0.710065 0.297241 0.143349
0.735404 0.305320 0.151725
0.760743 0.313399 0.160102
0.778485 0.319503 0.173140
0.794962 0.325277 0.186956
0.811439 0.331050 0.200772
0.827916 0.336824 0.214587
0.841118 0.343820 0.228700
0.849953 0.352445 0.243207
0.858788 0.361071 0.257715
0.867623 0.369696 0.272223
0.876458 0.378321 0.286730
0.057718 0.087132 0.126811
0.068424 0.096698 0.136806
0.079131 0.106265 0.146801
0.089837 0.115831 0.156796
0.100544 0.125397 0.166791
0.117432 0.136119 0.173851
0.138957 0.147708 0.178711
0.160482 0.159297 0.183570
0.182007 0.170885 0.188430
0.207061 0.182936 0.192456
0.253290 0.197758 0.191479
0.299518 0.212581 0.190503
0.345747 0.227404 0.189526
0.391975 0.242226 0.188550
0.444127 0.254786 0.184501
0.498648 0.266440 0.179223
0.553169 0.278095 0.173946
0.607691 0.289749 0.168668
0.655005 0.300190 0.166349
0.684303 0.307597 0.171425
0.713602 0.315004 0.176502
0.742900 0.322411 0.181579
0.772198 0.329817 0.186655
0.790144 0.337265 0.199809
0.806197 0.344720 0.214310
0.822250 0.352175 0.228811
0.838304 0.359630 0.243311
0.851200 0.368035 0.258236
0.859885 0.377706 0.273728
0.868571 0.387377 0.289219
0.877257 0.397048 0.304710
0.885943 0.406719 0.320202
0.063673 0.096782 0.137122
0.074043 0.106884 0.147815
0.084414 0.116985 0.158507
0.094784 0.127087 0.169199
0.105154 0.137189 0.179891
0.121344 0.148389 0.188332
0.141897 0.160414 0.195084
0.162451 0.172438 0.201836
0.183005 0.184463 0.208589
0.207033 0.196922 0.214569
0.251904 0.211994 0.215921
0.296775 0.227066 0.217273
0.341647 0.242137 0.218625
0.386518 0.257209 0.219977
0.438335 0.270524 0.217981
0.492931 0.283138 0.214646
0.547527 0.295751 0.211310
0.602123 0.308364 0.207975
0.650622 0.319298 0.206101
0.683880 0.326032 0.207878
0.717138 0.332767 0.209655
0.750396 0.339501 0.211432
0.783653 0.346236 0.213209
0.801802 0.355028 0.226479
0.817432 0.364164 0.241664
0.833062 0.373300 0.256849
0.848692 0.382436 0.272035
0.861282 0.392249 0.287773
0.869818 0.402966 0.304248
0.878354 0.413683 0.320723
0.886891 0.424400 0.337198
0.895427 0.435118 0.353673
0.069629 0.106432 0.147434
0.079663 0.117069 0.158823
0.089697 0.127706 0.170213
0.099731 0.138343 0.181602
0.109765 0.148980 0.192992
0.125255 0.160659 0.202813
0.144838 0.173119 0.211458
0.164420 0.185580 0.220103
0.184003 0.198040 0.228748
0.207004 0.210909 0.236683
0.250518 0.226230 0.240363
0.294032 0.241550 0.244044
0.337546 0.256871 0.247724
0.381061 0.272191 0.251404
0.432544 0.286263 0.251461
0.487214 0.299835 0.250068
0.541885 0.313407 0.248675
0.596556 0.326979 0.247283
0.646239 0.338405 0.245853
0.683457 0.344467 0.244330
0.720674 0.350530 0.242807
0.757891 0.356592 0.241285
0.795109 0.362654 0.239762
0.813460 0.372791 0.253148
0.828666 0.383608 0.269018
0.843873 0.394425 0.284888
0.859080 0.405241 0.300758
0.871364 0.416464 0.317309
0.879751 0.428227 0.334768
0.888138 0.439990 0.352227
0.896525 0.451753 0.369685
0.904912 0.463516 0.387144
0.075584 0.116082 0.157745
0.085282 0.127254 0.169832
0.094980 0.138427 0.181919
0.104678 0.149599 0.194006
0.114375 0.160772 0.206093
0.129167 0.172929 0.217294
0.147778 0.185825 0.227831
0.166389 0.198721 0.238369
0.185001 0.211617 0.248906
0.206976 0.224895 0.258797
0.249133 0.240465 0.264806
0.291289 0.256035 0.270814
0.333446 0.271604 0.276823
0.375603 0.287174 0.282832
0.426752 0.302002 0.284941
0.481497 0.316532 0.285491
0.536243 0.331063 0.286040
0.590988 0.345594 0.286590
0.641857 0.357513 0.285605
0.683033 0.362903 0.280783
0.724210 0.368292 0.275960
0.765387 0.373682 0.271138
0.806564 0.379072 0.266316
0.825118 0.390554 0.279817
0.839901 0.403052 0.296372
0.854685 0.415549 0.312927
0.869468 0.428047 0.329482
0.881446 0.440678 0.346846
0.889683 0.453487 0.365288
0.897921 0.466296 0.383731
0.906158 0.479105 0.402173
0.914396 0.491914 0.420615
0.082059 0.126441 0.169428
0.091453 0.138458 0.182447
0.100847 0.150475 0.195465
0.110240 0.162493 0.208484
0.119634 0.174510 0.221503
0.134191 0.187706 0.234131
0.152621 0.201785 0.246465
0.171051 0.215864 0.258799
0.189481 0.229943 0.271133
0.211215 0.244407 0.282912
0.252772 0.261187 0.291367
0.294330 0.277966 0.299821
0.335887 0.294745 0.308276
0.377445 0.311524 0.316731
0.428010 0.327527 0.321277
0.482179 0.343219 0.324260
0.536348 0.358912 0.327243
0.590517 0.374604 0.330226
0.641307 0.387789 0.331430
0.683647 0.394705 0.328185
0.725987 0.401620 0.324941
0.768327 0.408536 0.321696
0.810667 0.415452 0.318452
0.830388 0.425602 0.329088
0.846338 0.436291 0.342037
0.862288 0.446979 0.354987
0.878238 0.457668 0.367936
0.890654 0.469380 0.383131
0.898358 0.482455 0.401319
0.906062 0.495531 0.419507
0.913766 0.508607 0.437695
0.921470 0.521683 0.455882
0.088621 0.136918 0.181338
0.097716 0.149831 0.195328
0.106811 0.162745 0.209318
0.115906 0.175659 0.223309
0.125001 0.188573 0.237299
0.139401 0.202900 0.251360
0.157781 0.218286 0.265474
0.176161 0.233673 0.279589
0.194541 0.249059 0.293704
0.216165 0.264840 0.307362
0.257249 0.282989 0.318282
0.298334 0.301138 0.329201
0.339418 0.319287 0.340121
0.380502 0.337435 0.351041
0.430444 0.354683 0.358089
0.483928 0.371571 0.363587
0.537412 0.388459 0.369085
0.590896 0.405346 0.374583
0.641396 0.419926 0.378266
0.684433 0.428734 0.377413
0.727470 0.437543 0.376559
0.770508 0.446351 0.375705
0.813545 0.455160 0.374851
0.834593 0.463531 0.382125
0.851975 0.471829 0.390754
0.869357 0.480127 0.399383
0.886739 0.488425 0.408012
0.899717 0.498829 0.420540
0.906824 0.512042 0.438267
0.913930 0.525254 0.455995
0.921036 0.538467 0.473722
0.928142 0.551680 0.491449
0.095183 0.147395 0.193249
0.103979 0.161205 0.208210
0.112775 0.175015 0.223172
0.121571 0.188826 0.238133
0.130367 0.202636 0.253094
0.144611 0.218094 0.268589
0.162942 0.234788 0.284484
0.181272 0.251482 0.300379
0.199602 0.268176 0.316274
0.221115 0.285273 0.331811
0.261727 0.304791 0.345196
0.302338 0.324310 0.358582
0.342949 0.343828 0.371967
0.383560 0.363347 0.385352
0.432877 0.381840 0.394900
0.485676 0.399923 0.402914
0.538476 0.418006 0.410927
0.591275 0.436089 0.418940
0.641485 0.452063 0.425103
0.685219 0.462764 0.426640
0.728954 0.473465 0.428177
0.772689 0.484166 0.429714
0.816423 0.494867 0.431251
0.838798 0.501459 0.435163
0.857612 0.507367 0.439471
0.876426 0.513274 0.443779
0.895240 0.519181 0.448088
0.908780 0.528278 0.457949
0.915289 0.541628 0.475216
0.921797 0.554978 0.492483
0.928306 0.568327 0.509749
0.934814 0.581677 0.527016
0.101745 0.157872 0.205160
0.110242 0.172578 0.221092
0.118739 0.187285 0.237025
0.127236 0.201992 0.252957
0.135734 0.216699 0.268890
0.149821 0.233288 0.285818
0.168102 0.251290 0.303494
0.186382 0.269291 0.321170
0.204663 0.287292 0.338845
0.226066 0.305706 0.356260
0.266204 0.326594 0.372111
0.306342 0.347482 0.387962
0.346480 0.368370 0.403812
0.386618 0.389258 0.419663
0.435310 0.408997 0.431712
0.487425 0.428275 0.442241
0.539539 0.447553 0.452769
0.591654 0.466832 0.463298
0.641574 0.484200 0.471940
0.686005 0.496794 0.475868
0.730437 0.509387 0.479795
0.774869 0.521981 0.483723
0.819301 0.534575 0.487650
0.843003 0.539388 0.488201
0.863249 0.542905 0.488188
0.883495 0.546422 0.488176
0.903741 0.549938 0.488163
0.917843 0.557728 0.495359
0.923754 0.571214 0.512165
0.929665 0.584701 0.528971
0.935576 0.598188 0.545776
0.941486 0.611674 0.562582
0.107763 0.167309 0.217189
0.116095 0.183019 0.234348
0.124427 0.198729 0.251508
0.132759 0.214439 0.268668
0.141090 0.230149 0.285828
0.155265 0.247873 0.304129
0.173821 0.267107 0.323287
0.192377 0.286341 0.342444
0.210933 0.305575 0.361601
0.232562 0.325232 0.380565
0.272627 0.347431 0.398363
0.312692 0.369630 0.416161
0.352757 0.391829 0.433960
0.392822 0.414028 0.451758
0.441112 0.434904 0.465730
0.492691 0.455249 0.478171
0.544270 0.475595 0.490611
0.595849 0.495940 0.503052
0.645380 0.514431 0.513535
0.689788 0.528282 0.519122
0.734197 0.542133 0.524709
0.778606 0.555984 0.530296
