filter/Red and Blue 2/lut/Impulse 03_S.cube
# LUT by SparkleStock. Enhanced with VOXCOLOR algorithms.
LUT_3D_SIZE 32
0.027350 0.023443 0.023443
0.045216 0.024152 0.024767
0.063082 0.024861 0.026090
0.080948 0.025570 0.027413
0.098814 0.026279 0.028737
0.116680 0.026988 0.030060
0.139627 0.029115 0.030517
0.163591 0.031525 0.030801
0.187554 0.033936 0.031084
0.211517 0.036346 0.031368
0.235480 0.038757 0.031652
0.262626 0.041892 0.032282
0.291362 0.045390 0.033085
0.320099 0.048887 0.033889
0.348836 0.052385 0.034692
0.377573 0.055882 0.035496
0.405554 0.059805 0.036890
0.432778 0.064154 0.038875
0.460002 0.068502 0.040860
0.487227 0.072850 0.042845
0.514451 0.077199 0.044830
0.539060 0.081657 0.046989
0.558439 0.086337 0.049494
0.577817 0.091016 0.051999
0.597196 0.095695 0.054504
0.616574 0.100374 0.057009
0.634511 0.105069 0.059585
0.645240 0.109843 0.062515
0.655969 0.114617 0.065446
0.666698 0.119390 0.068376
0.677427 0.124164 0.071306
0.688156 0.128938 0.074237
0.027256 0.025712 0.029446
0.045717 0.026759 0.029809
0.064177 0.027807 0.030172
0.082638 0.028854 0.030534
0.101098 0.029902 0.030897
0.119559 0.030949 0.031260
0.143177 0.033719 0.031427
0.167826 0.036834 0.031555
0.192475 0.039949 0.031684
0.217125 0.043064 0.031812
0.241774 0.046179 0.031940
0.269618 0.049836 0.032530
0.299059 0.053763 0.033352
0.328500 0.057691 0.034174
0.357941 0.061618 0.034996
0.387383 0.065546 0.035817
0.415926 0.069693 0.037312
0.443571 0.074060 0.039480
0.471216 0.078426 0.041648
0.498861 0.082793 0.043817
0.526507 0.087159 0.045985
0.551387 0.091575 0.048399
0.570738 0.096090 0.051307
0.590089 0.100604 0.054214
0.609440 0.105119 0.057122
0.628791 0.109633 0.060029
0.646617 0.114173 0.062999
0.656815 0.118837 0.066277
0.667014 0.123501 0.069555
0.677212 0.128165 0.072833
0.687411 0.132829 0.076111
0.697609 0.137493 0.079389
0.027161 0.027981 0.035448
0.046217 0.029367 0.034851
0.065272 0.030752 0.034253
0.084327 0.032138 0.033655
0.103382 0.033524 0.033058
0.122438 0.034910 0.032460
0.146726 0.038324 0.032338
0.172062 0.042143 0.032310
0.197397 0.045963 0.032283
0.222732 0.049782 0.032255
0.248068 0.053601 0.032228
0.276610 0.057779 0.032779
0.306755 0.062137 0.033619
0.336901 0.066494 0.034459
0.367047 0.070852 0.035299
0.397192 0.075209 0.036139
0.426298 0.079580 0.037735
0.454364 0.083965 0.040086
0.482430 0.088350 0.042437
0.510496 0.092735 0.044788
0.538562 0.097120 0.047139
0.563714 0.101493 0.049809
0.583038 0.105843 0.053120
0.602361 0.110193 0.056430
0.621685 0.114543 0.059740
0.641008 0.118893 0.063050
0.658723 0.123277 0.066412
0.668391 0.127831 0.070038
0.678058 0.132385 0.073664
0.687726 0.136939 0.077289
0.697394 0.141493 0.080915
0.707062 0.146048 0.084541
0.027067 0.030249 0.041451
0.046717 0.031974 0.039893
0.066367 0.033698 0.038335
0.086016 0.035423 0.036776
0.105666 0.037147 0.035218
0.125316 0.038871 0.033660
0.150276 0.042928 0.033248
0.176297 0.047452 0.033065
0.202319 0.051976 0.032882
0.228340 0.056499 0.032699
0.254361 0.061023 0.032516
0.283602 0.065723 0.033027
0.314452 0.070510 0.033886
0.345302 0.075298 0.034744
0.376152 0.080085 0.035602
0.407002 0.084872 0.036461
0.436670 0.089468 0.038157
0.465157 0.093871 0.040691
0.493644 0.098274 0.043225
0.522131 0.102677 0.045759
0.550618 0.107081 0.048293
0.576041 0.111411 0.051220
0.595337 0.115596 0.054932
0.614633 0.119782 0.058645
0.633929 0.123967 0.062357
0.653225 0.128152 0.066070
0.670828 0.132380 0.069826
0.679966 0.136825 0.073799
0.689103 0.141269 0.077773
0.698240 0.145714 0.081746
0.707378 0.150158 0.085719
0.716515 0.154602 0.089692
0.026972 0.032518 0.047454
0.047217 0.034581 0.044935
0.067461 0.036644 0.042416
0.087706 0.038707 0.039897
0.107950 0.040769 0.037379
0.128195 0.042832 0.034860
0.153825 0.047533 0.034158
0.180533 0.052761 0.033820
0.207240 0.057989 0.033481
0.233948 0.063217 0.033143
0.260655 0.068445 0.032804
0.290594 0.073666 0.033276
0.322148 0.078884 0.034152
0.353703 0.084101 0.035029
0.385257 0.089318 0.035906
0.416812 0.094536 0.036783
0.447043 0.099355 0.038579
0.475950 0.103777 0.041296
0.504858 0.108198 0.044013
0.533766 0.112620 0.046730
0.562673 0.117041 0.049447
0.588368 0.121329 0.052630
0.607637 0.125350 0.056745
0.626905 0.129370 0.060860
0.646174 0.133391 0.064975
0.665443 0.137411 0.069090
0.682934 0.141484 0.073240
0.691541 0.145819 0.077561
0.700148 0.150153 0.081882
0.708754 0.154488 0.086202
0.717361 0.158823 0.090523
0.725968 0.163157 0.094844
0.026878 0.034787 0.053456
0.047717 0.037188 0.049977
0.068556 0.039589 0.046498
0.089395 0.041991 0.043018
0.110234 0.044392 0.039539
0.131073 0.046793 0.036060
0.157374 0.052137 0.035068
0.184768 0.058070 0.034574
0.212162 0.064002 0.034080
0.239555 0.069935 0.033586
0.266949 0.075867 0.033092
0.297586 0.081610 0.033524
0.329845 0.087257 0.034419
0.362104 0.092904 0.035314
0.394363 0.098552 0.036209
0.426621 0.104199 0.037104
0.457415 0.109243 0.039002
0.486743 0.113682 0.041902
0.516072 0.118122 0.044801
0.545400 0.122562 0.047701
0.574729 0.127002 0.050601
0.600695 0.131247 0.054040
0.619936 0.135103 0.058558
0.639177 0.138959 0.063076
0.658418 0.142815 0.067593
0.677660 0.146671 0.072111
0.695040 0.150588 0.076653
0.703116 0.154813 0.081322
0.711192 0.159038 0.085991
0.719269 0.163262 0.090659
0.727345 0.167487 0.095328
0.735421 0.171712 0.099996
0.026941 0.037489 0.058829
0.046979 0.040465 0.056005
0.067018 0.043441 0.053181
0.087057 0.046417 0.050358
0.107095 0.049393 0.047534
0.127134 0.052369 0.044710
0.154960 0.058536 0.042752
0.184343 0.065340 0.040966
0.213727 0.072145 0.039181
0.243110 0.078950 0.037396
0.272493 0.085754 0.035610
0.304024 0.092196 0.035563
0.336629 0.098456 0.036385
0.369234 0.104716 0.037207
0.401839 0.110977 0.038028
0.434444 0.117237 0.038850
0.465499 0.122600 0.040791
0.495004 0.127066 0.043851
0.524510 0.131531 0.046911
0.554015 0.135997 0.049971
0.583520 0.140463 0.053031
0.609669 0.144625 0.056711
0.629104 0.148179 0.061631
0.648538 0.151733 0.066551
0.667973 0.155287 0.071471
0.687408 0.158841 0.076391
0.704933 0.162469 0.081354
0.712905 0.166470 0.086530
0.720878 0.170471 0.091707
0.728850 0.174471 0.096883
0.736823 0.178472 0.102059
0.744795 0.182473 0.107235
0.027035 0.040277 0.064075
0.045995 0.043875 0.062230
0.064954 0.047474 0.060385
0.083913 0.051072 0.058540
0.102872 0.054670 0.056696
0.121831 0.058268 0.054851
0.151353 0.065293 0.051790
0.182986 0.073003 0.048486
0.214620 0.080714 0.045182
0.246254 0.088424 0.041878
0.277887 0.096134 0.038574
0.310352 0.103311 0.037960
0.343231 0.110220 0.038690
0.376110 0.117130 0.039420
0.408990 0.124040 0.040151
0.441869 0.130950 0.040881
0.473125 0.136651 0.042854
0.502759 0.141144 0.046069
0.532392 0.145638 0.049285
0.562025 0.150131 0.052501
0.591659 0.154624 0.055716
0.617972 0.158694 0.059634
0.637645 0.161919 0.064957
0.657317 0.165144 0.070279
0.676990 0.168368 0.075602
0.696663 0.171593 0.080924
0.714383 0.174906 0.086312
0.722337 0.178660 0.092028
0.730291 0.182413 0.097744
0.738245 0.186167 0.103460
0.746199 0.189921 0.109176
0.754153 0.193674 0.114892
0.027130 0.043066 0.069321
0.045010 0.047286 0.068455
0.062889 0.051506 0.067589
0.080769 0.055727 0.066723
0.098649 0.059947 0.065857
0.116528 0.064167 0.064991
0.147745 0.072051 0.060828
0.181629 0.080666 0.056006
0.215513 0.089282 0.051183
0.249398 0.097898 0.046361
0.283282 0.106514 0.041538
0.316679 0.114425 0.040357
0.349833 0.121985 0.040995
0.382987 0.129544 0.041634
0.416140 0.137103 0.042273
0.449294 0.144663 0.042912
0.480752 0.150703 0.044917
0.510513 0.155223 0.048288
0.540275 0.159744 0.051659
0.570036 0.164264 0.055030
0.599797 0.168785 0.058401
0.626275 0.172764 0.062557
0.646186 0.175659 0.068282
0.666096 0.178555 0.074007
0.686007 0.181450 0.079732
0.705918 0.184345 0.085457
0.723832 0.187342 0.091271
0.731768 0.190849 0.097526
0.739704 0.194356 0.103782
0.747640 0.197863 0.110038
0.755576 0.201369 0.116293
0.763512 0.204876 0.122549
0.027224 0.045855 0.074568
0.044025 0.050697 0.074681
0.060825 0.055539 0.074793
0.077625 0.060381 0.074906
0.094425 0.065224 0.075019
0.111226 0.070066 0.075132
0.144138 0.078808 0.069866
0.180272 0.088329 0.063525
0.216407 0.097851 0.057184
0.252541 0.107372 0.050843
0.288676 0.116894 0.044502
0.323006 0.125540 0.042753
0.356435 0.133749 0.043301
0.389863 0.141958 0.043848
0.423291 0.150167 0.044395
0.456719 0.158375 0.044943
0.488378 0.164754 0.046980
0.518268 0.169302 0.050506
0.548157 0.173850 0.054033
0.578047 0.178398 0.057559
0.607936 0.182946 0.061086
0.634579 0.186834 0.065479
0.654727 0.189400 0.071607
0.674875 0.191966 0.077735
0.695024 0.194532 0.083862
0.715172 0.197098 0.089990
0.733282 0.199779 0.096229
0.741200 0.203039 0.103024
0.749117 0.206299 0.109820
0.757035 0.209558 0.116615
0.764953 0.212818 0.123411
0.772870 0.216078 0.130206
0.027319 0.048643 0.079814
0.043040 0.054108 0.080906
0.058761 0.059572 0.081997
0.074481 0.065036 0.083089
0.090202 0.070501 0.084181
0.105923 0.075965 0.085272
0.140531 0.085565 0.078905
0.178915 0.095992 0.071045
0.217300 0.106419 0.063185
0.255685 0.116847 0.055326
0.294070 0.127274 0.047466
0.329334 0.136655 0.045150
0.363036 0.145513 0.045606
0.396739 0.154372 0.046062
0.430442 0.163230 0.046518
0.464144 0.172088 0.046974
0.496004 0.178805 0.049043
0.526022 0.183381 0.052725
0.556040 0.187956 0.056407
0.586057 0.192532 0.060089
0.616075 0.197107 0.063771
0.642882 0.200903 0.068402
0.663268 0.203140 0.074932
0.683654 0.205376 0.081463
0.704041 0.207613 0.087993
0.724427 0.209850 0.094523
0.742732 0.212216 0.101187
0.750631 0.215229 0.108522
0.758531 0.218241 0.115857
0.766430 0.221254 0.123193
0.774329 0.224267 0.130528
0.782229 0.227280 0.137863
0.028044 0.052692 0.087235
0.042776 0.058663 0.089421
0.057509 0.064633 0.091607
0.072242 0.070604 0.093794
0.086975 0.076574 0.095980
0.101708 0.082545 0.098166
0.135866 0.092496 0.091996
0.173909 0.103244 0.084155
0.211953 0.113991 0.076314
0.249996 0.124738 0.068472
0.288040 0.135486 0.060631
0.325031 0.145346 0.057293
0.361496 0.154762 0.056205
0.397962 0.164178 0.055118
0.434427 0.173595 0.054031
0.470893 0.183011 0.052944
0.504131 0.190204 0.054350
0.534142 0.195172 0.058248
0.564154 0.200141 0.062147
0.594165 0.205110 0.066046
0.624177 0.210079 0.069944
0.651004 0.214139 0.074874
0.671464 0.216382 0.081868
0.691923 0.218625 0.088862
0.712383 0.220868 0.095855
0.732842 0.223110 0.102849
0.751237 0.225494 0.109999
0.759307 0.228583 0.117928
0.767377 0.231672 0.125858
0.775447 0.234761 0.133788
0.783517 0.237850 0.141718
0.791587 0.240939 0.149647
0.029083 0.057371 0.095742
0.042874 0.063790 0.099081
0.056665 0.070209 0.102420
0.070455 0.076628 0.105759
0.084246 0.083047 0.109098
0.098036 0.089465 0.112437
0.130673 0.099514 0.107115
0.167079 0.110289 0.100060
0.203485 0.121064 0.093006
0.239891 0.131839 0.085951
0.276297 0.142613 0.078896
0.315413 0.152824 0.074308
0.355886 0.162753 0.070952
0.396358 0.172681 0.067596
0.436830 0.182610 0.064240
0.477302 0.192539 0.060885
0.512507 0.200275 0.061280
0.542446 0.205821 0.065425
0.572384 0.211366 0.069571
0.602322 0.216911 0.073716
0.632261 0.222456 0.077862
0.659036 0.226959 0.083121
0.679487 0.229375 0.090609
0.699937 0.231792 0.098097
0.720387 0.234208 0.105584
0.740837 0.236625 0.113072
0.759269 0.239193 0.120737
0.767604 0.242520 0.129289
0.775939 0.245847 0.137840
0.784275 0.249174 0.146392
0.792610 0.252501 0.154944
0.800945 0.255827 0.163496
0.030123 0.062050 0.104250
0.042972 0.068918 0.108742
0.055820 0.075785 0.113233
0.068668 0.082652 0.117725
0.081517 0.089519 0.122217
0.094365 0.096386 0.126708
0.125480 0.106532 0.122234
0.160248 0.117335 0.115966
0.195017 0.128137 0.109698
0.229785 0.138939 0.103430
0.264554 0.149741 0.097162
0.305796 0.160303 0.091323
0.350275 0.170743 0.085699
0.394754 0.181184 0.080074
0.439233 0.191625 0.074450
0.483712 0.202066 0.068825
0.520884 0.210347 0.068209
0.550749 0.216469 0.072602
0.580614 0.222590 0.076994
0.610479 0.228712 0.081387
0.640344 0.234833 0.085779
0.667068 0.239778 0.091368
0.687509 0.242368 0.099350
0.707950 0.244959 0.107331
0.728392 0.247549 0.115313
0.748833 0.250140 0.123295
0.767301 0.252892 0.131475
0.775901 0.256457 0.140649
0.784502 0.260022 0.149823
0.793102 0.263586 0.158997
0.801703 0.267151 0.168171
0.810304 0.270716 0.177345
0.031163 0.066730 0.112757
0.043069 0.074045 0.118402
0.054975 0.081360 0.124046
0.066881 0.088676 0.129690
0.078787 0.095991 0.135335
0.090694 0.103306 0.140979
0.120287 0.113550 0.137352
0.153418 0.124380 0.131871
0.186549 0.135210 0.126390
0.219680 0.146039 0.120909
0.252811 0.156869 0.115427
0.296178 0.167781 0.108338
0.344664 0.178734 0.100445
0.393150 0.189687 0.092552
0.441636 0.200641 0.084659
0.490122 0.211594 0.076766
0.529260 0.220419 0.075139
0.559052 0.227117 0.079778
0.588844 0.233815 0.084418
0.618636 0.240513 0.089057
0.648428 0.247211 0.093697
0.675100 0.252597 0.099615
0.695532 0.255362 0.108091
0.715964 0.258126 0.116566
0.736396 0.260890 0.125042
0.756828 0.263654 0.133518
0.775332 0.266591 0.142213
0.784198 0.270394 0.152009
0.793064 0.274196 0.161805
0.801930 0.277999 0.171601
0.810796 0.281801 0.181397
0.819662 0.285604 0.191193
0.032203 0.071409 0.121265
0.043167 0.079172 0.128062
0.054131 0.086936 0.134859
0.065094 0.094700 0.141656
0.076058 0.102463 0.148453
0.087022 0.110227 0.155250
0.115094 0.120568 0.152471
0.146587 0.131425 0.147776
0.178081 0.142283 0.143082
0.209574 0.153140 0.138387
0.241068 0.163997 0.133693
0.286561 0.175260 0.125353
0.339053 0.186725 0.115192
0.391546 0.198190 0.105030
0.444039 0.209656 0.094868
0.496531 0.221121 0.084706
0.537637 0.230491 0.082068
0.567356 0.237765 0.086955
0.597074 0.245040 0.091841
0.626793 0.252314 0.096728
0.656512 0.259588 0.101614
0.683132 0.265417 0.107862
0.703555 0.268355 0.116832
0.723978 0.271293 0.125801
0.744401 0.274231 0.134771
0.764823 0.277169 0.143740
0.783364 0.280291 0.152951
0.792496 0.284331 0.163369
0.801627 0.288371 0.173787
0.810758 0.292412 0.184206
0.819889 0.296452 0.194624
0.829020 0.300492 0.205042
0.033928 0.077931 0.131663
0.044114 0.086189 0.139558
0.054301 0.094447 0.147453
0.064487 0.102704 0.155347
0.074673 0.110962 0.163242
0.084859 0.119219 0.171137
0.111456 0.129643 0.169623
0.141335 0.140500 0.166228
0.171214 0.151357 0.162832
0.201093 0.162215 0.159437
0.230972 0.173072 0.156041
0.276984 0.184502 0.147806
0.331064 0.196219 0.137150
0.385144 0.207936 0.126494
0.439224 0.219653 0.115838
0.493304 0.231370 0.105182
0.536342 0.241035 0.101607
0.568338 0.248648 0.105112
0.600335 0.256260 0.108617
0.632332 0.263873 0.112122
0.664328 0.271486 0.115628
0.692412 0.277757 0.121119
0.712670 0.281344 0.130583
0.732928 0.284932 0.140046
0.753186 0.288519 0.149510
0.773445 0.292107 0.158973
0.791880 0.295855 0.168698
0.801204 0.300408 0.179729
0.810527 0.304960 0.190760
0.819850 0.309513 0.201791
0.829174 0.314066 0.212822
0.838497 0.318618 0.223853
0.036339 0.086297 0.143952
0.045912 0.095095 0.152890
0.055485 0.103892 0.161827
0.065059 0.112689 0.170765
0.074632 0.121486 0.179702
0.084205 0.130284 0.188640
0.109374 0.140775 0.188809
0.137661 0.151604 0.187225
0.165948 0.162434 0.185641
0.194235 0.173264 0.184057
0.222522 0.184093 0.182473
0.267449 0.195509 0.175695
0.320696 0.207216 0.166320
0.373944 0.218924 0.156945
0.427191 0.230632 0.147569
0.480438 0.242340 0.138194
0.525375 0.252051 0.133754
0.562000 0.259764 0.134250
0.598626 0.267477 0.134745
0.635251 0.275191 0.135241
0.671877 0.282904 0.135736
0.702940 0.289617 0.139386
0.722878 0.294330 0.149344
0.742816 0.299042 0.159301
0.762754 0.303755 0.169259
0.782692 0.308468 0.179216
0.800880 0.313285 0.189453
0.810323 0.318624 0.201088
0.819765 0.323964 0.212723
0.829207 0.329303 0.224358
0.838649 0.334643 0.235992
0.848092 0.339982 0.247627
0.038749 0.094663 0.156241
0.047710 0.104000 0.166221
0.056670 0.113337 0.176202
0.065630 0.122674 0.186182
0.074591 0.132011 0.196163
0.083551 0.141348 0.206143
0.107291 0.151906 0.207996
0.133986 0.162709 0.208223
0.160681 0.173511 0.208450
0.187377 0.184313 0.208677
0.214072 0.195115 0.208905
0.257914 0.206515 0.203584
0.310329 0.218214 0.195490
0.362744 0.229913 0.187395
0.415158 0.241611 0.179301
0.467573 0.253310 0.171206
0.514408 0.263066 0.165902
0.555662 0.270880 0.163388
0.596917 0.278694 0.160874
0.638171 0.286508 0.158359
0.679425 0.294322 0.155845
0.713467 0.301477 0.157653
0.733085 0.307315 0.168105
0.752703 0.313153 0.178556
0.772321 0.318991 0.189008
0.791939 0.324829 0.199459
0.809881 0.330715 0.210209
0.819442 0.336841 0.222447
0.829003 0.342967 0.234686
0.838564 0.349093 0.246924
0.848125 0.355219 0.259163
0.857686 0.361345 0.271401
0.041160 0.103029 0.168530
0.049507 0.112906 0.179553
0.057855 0.122782 0.190576
0.066202 0.132659 0.201600
0.074550 0.142536 0.212623
0.082897 0.152413 0.223646
0.105208 0.163038 0.227182
0.130312 0.173813 0.229221
0.155415 0.184587 0.231259
0.180519 0.195362 0.233298
0.205622 0.206137 0.235336
0.248379 0.217522 0.231473
0.299961 0.229211 0.224659
0.351543 0.240901 0.217846
0.403126 0.252590 0.211032
0.454708 0.264280 0.204218
0.503441 0.274082 0.198049
0.549324 0.281997 0.192526
0.595207 0.289911 0.187002
0.641091 0.297826 0.181478
0.686974 0.305740 0.175954
0.723995 0.313338 0.175920
0.743293 0.320301 0.186866
0.762591 0.327264 0.197811
0.781888 0.334227 0.208757
0.801186 0.341190 0.219702
0.818881 0.348145 0.230964
0.828561 0.355058 0.243806
0.838241 0.361971 0.256648
0.847921 0.368883 0.269491
0.857601 0.375796 0.282333
0.867281 0.382709 0.295175
0.043570 0.111395 0.180818
0.051305 0.121811 0.192885
0.059039 0.132228 0.204951
0.066774 0.142644 0.217017
0.074509 0.153061 0.229083
0.082243 0.163477 0.241149
0.103125 0.174169 0.246369
0.126637 0.184917 0.250218
0.150149 0.195664 0.254068
0.173661 0.206411 0.257918
0.197173 0.217159 0.261768
0.238843 0.228528 0.259362
0.289593 0.240209 0.253829
0.340343 0.251889 0.248296
0.391093 0.263570 0.242763
0.441843 0.275250 0.237230
0.492474 0.285098 0.230197
0.542986 0.293113 0.221663
0.593498 0.301128 0.213130
0.644010 0.309143 0.204596
0.694523 0.317158 0.196063
0.734523 0.325198 0.194187
0.753501 0.333286 0.205627
0.772478 0.341375 0.217066
0.791456 0.349463 0.228506
0.810433 0.357551 0.239945
0.827881 0.365575 0.251719
0.837680 0.373274 0.265165
0.847479 0.380974 0.278611
0.857278 0.388674 0.292057
0.867077 0.396373 0.305503
0.876876 0.404073 0.318949
0.046343 0.120659 0.193737
0.053599 0.131667 0.206782
0.060855 0.142675 0.219827
0.068111 0.153683 0.232873
0.075366 0.164691 0.245918
0.082622 0.175699 0.258963
0.102352 0.186678 0.265801
0.124577 0.197651 0.271398
0.146802 0.208624 0.276995
0.169027 0.219597 0.282592
0.191252 0.230570 0.288189
0.231937 0.242191 0.287458
0.281852 0.254137 0.283562
0.331766 0.266083 0.279667
0.381680 0.278028 0.275771
0.431595 0.289974 0.271876
0.483391 0.300153 0.264986
0.537068 0.308564 0.255101
0.590745 0.316976 0.245217
0.644423 0.325388 0.235333
0.698100 0.333799 0.225448
0.740456 0.342275 0.222405
0.760168 0.350878 0.233046
0.779880 0.359482 0.243687
0.799593 0.368086 0.254327
0.819305 0.376689 0.264968
0.837362 0.385273 0.276162
0.847139 0.393756 0.290120
0.856917 0.402239 0.304078
0.866695 0.410723 0.318036
0.876472 0.419206 0.331995
0.886250 0.427689 0.345953
0.049840 0.131718 0.207917
0.056886 0.143422 0.221813
0.063931 0.155125 0.235708
0.070977 0.166828 0.249604
0.078022 0.178532 0.263500
0.085068 0.190235 0.277396
0.104199 0.201940 0.285725
0.125747 0.213644 0.292941
0.147295 0.225349 0.300158
0.168843 0.237054 0.307374
0.190391 0.248759 0.314590
0.230289 0.261167 0.315966
0.279362 0.273927 0.314421
0.328435 0.286687 0.312877
0.377507 0.299447 0.311332
0.426580 0.312207 0.309788
0.478074 0.323287 0.305057
0.531989 0.332686 0.297139
0.585904 0.342086 0.289222
0.639820 0.351485 0.281304
0.693735 0.360885 0.273387
0.737197 0.369784 0.270527
0.759755 0.377684 0.277783
0.782312 0.385583 0.285039
0.804870 0.393482 0.292294
0.827427 0.401381 0.299550
0.847804 0.409508 0.307978
0.857280 0.418768 0.322266
0.866756 0.428029 0.336553
0.876231 0.437290 0.350841
0.885707 0.446551 0.365129
0.895183 0.455812 0.379416
0.053338 0.142778 0.222096
0.060173 0.155177 0.236843
0.067008 0.167575 0.251589
0.073843 0.179974 0.266336
0.080678 0.192373 0.281082
0.087513 0.204771 0.295829
0.106045 0.217202 0.305650
0.126916 0.229638 0.314485
0.147787 0.242075 0.323320
0.168659 0.254512 0.332156
0.189530 0.266948 0.340991
0.228641 0.280143 0.344474
0.276872 0.293717 0.345281
0.325103 0.307291 0.346087
0.373334 0.320865 0.346894
0.421566 0.334439 0.347700
0.472758 0.346420 0.345128
0.526911 0.356808 0.339177
0.581064 0.367195 0.333227
0.635217 0.377583 0.327276
0.689370 0.387970 0.321325
0.733939 0.397294 0.318648
0.759342 0.404489 0.322519
0.784744 0.411683 0.326391
0.810146 0.418878 0.330262
0.835549 0.426073 0.334133
0.858246 0.433742 0.339795
0.867420 0.443780 0.354412
0.876594 0.453819 0.369029
0.885768 0.463857 0.383646
0.894942 0.473896 0.398263
0.904116 0.483934 0.412880
0.056836 0.153838 0.236276
0.063460 0.166932 0.251873
0.070085 0.180026 0.267470
0.076710 0.193120 0.283067
0.083334 0.206214 0.298665
0.089959 0.219307 0.314262
0.107892 0.232463 0.325574
0.128086 0.245632 0.336028
0.148280 0.258800 0.346483
0.168474 0.271969 0.356938
0.188668 0.285137 0.367392
0.226993 0.299119 0.372982
0.274382 0.313507 0.376140
0.321772 0.327896 0.379297
0.369161 0.342284 0.382455
0.416551 0.356672 0.385613
0.467441 0.369554 0.385199
0.521832 0.380930 0.381215
0.576223 0.392305 0.377231
0.630614 0.403681 0.373247
0.685005 0.415056 0.369264
0.730681 0.424803 0.366770
0.758928 0.431294 0.367256
0.787176 0.437784 0.367742
0.815423 0.444275 0.368229
0.843671 0.450765 0.368715
0.868689 0.457977 0.371612
0.877561 0.468793 0.386558
0.886433 0.479609 0.401504
0.895305 0.490424 0.416450
0.904177 0.501240 0.431397
0.913049 0.512056 0.446343
0.060333 0.164898 0.250455
0.066747 0.178687 0.266903
0.073162 0.192476 0.283351
0.079576 0.206265 0.299799
0.085990 0.220054 0.316247
0.092405 0.233843 0.332695
0.109738 0.247725 0.345498
0.129255 0.261626 0.357572
0.148772 0.275526 0.369646
0.168290 0.289426 0.381720
0.187807 0.303327 0.393793
0.225344 0.318095 0.401490
0.271892 0.333298 0.406999
0.318440 0.348500 0.412508
0.364988 0.363702 0.418016
0.411536 0.378905 0.423525
0.462125 0.392688 0.425271
0.516753 0.405051 0.423253
0.571382 0.417415 0.421236
0.626011 0.429778 0.419219
0.680639 0.442142 0.417202
0.727423 0.452313 0.414891
0.758515 0.458099 0.411993
0.789608 0.463885 0.409094
0.820700 0.469671 0.406196
0.851793 0.475457 0.403298
0.879131 0.482211 0.403428
0.887701 0.493805 0.418704
0.896272 0.505398 0.433979
0.904842 0.516992 0.449255
0.913412 0.528585 0.464531
0.921982 0.540179 0.479806
0.063728 0.175816 0.264910
0.069996 0.190256 0.282130
0.076264 0.204696 0.299349
0.082532 0.219137 0.316569
0.088800 0.233577 0.333788
0.095068 0.248017 0.351008
0.111959 0.262642 0.365177
0.130974 0.277305 0.378736
0.149990 0.291968 0.392294
0.169006 0.306630 0.405853
0.188021 0.321293 0.419412
0.224966 0.336921 0.429082
0.270875 0.353032 0.436807
0.316784 0.369144 0.444533
0.362693 0.385255 0.452258
0.408602 0.401366 0.459984
0.458942 0.416117 0.463814
0.513713 0.429508 0.463748
0.568483 0.442899 0.463683
0.623254 0.456290 0.463617
0.678024 0.469681 0.463552
0.725667 0.480390 0.461683
0.759054 0.485732 0.456210
0.792441 0.491074 0.450736
0.825828 0.496417 0.445263
0.859215 0.501759 0.439789
0.888435 0.508197 0.437729
0.896817 0.520109 0.452735
0.905200 0.532021 0.467740
0.913583 0.543933 0.482746
0.921965 0.555845 0.497752
0.930348 0.567758 0.512757
0.066612 0.186025 0.280744
0.073053 0.200895 0.298338
0.079495 0.215766 0.315933
0.085937 0.230636 0.333527
0.092378 0.245506 0.351122
0.098820 0.260376 0.368717
0.116053 0.275835 0.383627
0.135443 0.291413 0.398000
0.154834 0.306990 0.412373
0.174225 0.322568 0.426746
0.193615 0.338145 0.441119
0.230935 0.354999 0.452091
0.277219 0.372492 0.461362
0.323503 0.389984 0.470634
0.369788 0.407477 0.479905
0.416072 0.424969 0.489177
0.466430 0.441024 0.494717
0.520862 0.455641 0.496527
0.575294 0.470258 0.498337
0.629726 0.484875 0.500146
0.684158 0.499492 0.501956
0.731422 0.511304 0.501829
