filter/Red and Blue 2/lut/Impulse 02.cube
# LUT by SparkleStock. Enhanced with VOXCOLOR algorithms.
LUT_3D_SIZE 8
DOMAIN_MIN 0.000000 0.000000 0.000000
DOMAIN_MAX 0.903226 0.903226 0.903226
0.019536 0.015629 0.015629
0.095191 0.019158 0.018717
0.199204 0.025641 0.021017
0.315979 0.037678 0.024956
0.432313 0.053377 0.031013
0.535129 0.070645 0.038985
0.614124 0.089007 0.048115
0.668778 0.110245 0.058151
0.025491 0.023128 0.031069
0.104931 0.024466 0.023797
0.216643 0.033382 0.025343
0.343622 0.049503 0.031872
0.469497 0.070938 0.040982
0.578773 0.095035 0.052170
0.659575 0.119922 0.065519
0.710344 0.144376 0.081090
0.027114 0.030037 0.046705
0.091306 0.038255 0.051664
0.236312 0.044859 0.036295
0.379567 0.063552 0.039975
0.509323 0.090060 0.052703
0.618174 0.120404 0.068937
0.697873 0.152203 0.088392
0.747883 0.182960 0.109893
0.031510 0.041380 0.068951
0.084745 0.060698 0.088696
0.207282 0.071464 0.080030
0.398144 0.086901 0.062489
0.550953 0.115330 0.069460
0.658686 0.151872 0.091518
0.735889 0.191077 0.118149
0.785727 0.229626 0.147282
0.043539 0.061137 0.099728
0.089908 0.091732 0.131782
0.182868 0.113579 0.140876
0.368462 0.136590 0.128807
0.567507 0.162682 0.115975
0.702508 0.200851 0.131437
0.777465 0.248709 0.169560
0.826590 0.297035 0.211149
0.064051 0.090598 0.138359
0.104757 0.131809 0.181683
0.179805 0.170726 0.213534
0.338549 0.212611 0.228505
0.551677 0.251213 0.223983
0.725474 0.286809 0.223397
0.821882 0.332984 0.254134
0.868978 0.391241 0.312147
0.089866 0.127859 0.183150
0.125085 0.180816 0.240327
0.193257 0.240908 0.297911
0.337835 0.308078 0.346380
0.537248 0.372938 0.377461
0.730390 0.420014 0.385307
0.855228 0.457959 0.398802
0.907779 0.505976 0.445233
0.114380 0.168742 0.230698
0.146711 0.236613 0.306958
0.218448 0.317425 0.387817
0.362201 0.409187 0.465622
0.554002 0.497467 0.527496
0.741830 0.566844 0.565571
0.873154 0.604311 0.576975
0.934337 0.627971 0.589873
0.019536 0.028201 0.055552
0.077460 0.035117 0.046089
0.203587 0.038939 0.037261
0.344596 0.051972 0.036190
0.474975 0.071621 0.041430
0.582004 0.094580 0.051280
0.660273 0.119502 0.064878
0.711710 0.145094 0.081588
0.029476 0.044466 0.077167
0.066713 0.065745 0.089914
0.172853 0.072168 0.084625
0.327664 0.086354 0.078844
0.484216 0.108499 0.078332
0.611792 0.135153 0.085717
0.698809 0.164209 0.101356
0.750089 0.194418 0.122162
0.039530 0.060496 0.101648
0.075285 0.089787 0.123207
0.163875 0.109482 0.131851
0.325834 0.125640 0.123851
0.498952 0.148896 0.119391
0.640487 0.179027 0.125659
0.734983 0.212725 0.142775
0.788290 0.247747 0.167830
0.051482 0.080221 0.128049
0.088837 0.115650 0.155949
0.165473 0.147274 0.179883
0.332603 0.174972 0.178589
0.519035 0.202518 0.173747
0.671187 0.235052 0.179639
0.770586 0.272900 0.199705
0.825194 0.312926 0.231025
0.068520 0.105848 0.159317
0.105101 0.147535 0.195407
0.174302 0.193087 0.237158
0.329542 0.237589 0.256383
0.534878 0.276032 0.255461
0.704474 0.312123 0.259865
0.806458 0.351433 0.282006
0.860415 0.394658 0.318781
0.089943 0.139977 0.199513
0.125565 0.189427 0.246128
0.191634 0.250136 0.306217
0.333509 0.313590 0.350958
0.537471 0.369443 0.369224
0.725995 0.411503 0.372993
0.842286 0.449099 0.388895
0.893294 0.491660 0.428285
0.112976 0.184224 0.251932
0.151685 0.243049 0.309739
0.219651 0.318390 0.385808
0.357323 0.400208 0.453140
0.546948 0.474910 0.498009
0.738076 0.528964 0.514559
0.867724 0.564042 0.522594
0.921638 0.595798 0.548105
0.136096 0.238001 0.315574
0.181839 0.305158 0.382348
0.258932 0.393364 0.469650
0.400141 0.488454 0.551215
0.581986 0.575295 0.612556
0.757674 0.640756 0.647784
0.881760 0.676026 0.656652
0.940246 0.693868 0.660969
0.018748 0.044712 0.106109
0.058408 0.057505 0.104551
0.161328 0.062109 0.080752
0.339188 0.074245 0.065118
0.502270 0.095308 0.062722
0.620549 0.121520 0.070817
0.698671 0.150747 0.086641
0.747439 0.181583 0.108132
0.026803 0.064051 0.131232
0.061147 0.095391 0.149590
0.134149 0.116930 0.151691
0.305126 0.129240 0.134455
0.491034 0.149381 0.123327
0.638622 0.177597 0.125709
0.733947 0.209899 0.140362
0.786882 0.244240 0.163878
0.038942 0.089387 0.162365
0.080372 0.128544 0.184389
0.136970 0.169572 0.214467
0.291511 0.191781 0.210691
0.485899 0.217517 0.201786
0.654172 0.250265 0.203029
0.765126 0.286090 0.218114
0.823522 0.322981 0.245288
0.054562 0.119781 0.200291
0.098914 0.164785 0.226373
0.156231 0.218998 0.272493
0.287766 0.264123 0.298113
0.485018 0.297449 0.295763
0.670406 0.329684 0.291877
0.793052 0.365420 0.303877
0.855649 0.403182 0.331910
0.072683 0.156963 0.244425
0.119232 0.207298 0.276248
0.181437 0.270502 0.332481
0.302796 0.332677 0.379126
0.496280 0.382811 0.394853
0.688604 0.419600 0.393917
0.818563 0.451842 0.400365
0.882572 0.487155 0.425697
0.094204 0.202163 0.295233
0.144751 0.258692 0.335228
0.212729 0.328353 0.398181
0.333007 0.402144 0.458743
0.515434 0.468621 0.495250
0.707839 0.516104 0.504921
0.843328 0.547803 0.508829
0.905381 0.576566 0.528132
0.118628 0.255964 0.354860
0.177094 0.320306 0.404505
0.254000 0.394654 0.470695
0.376774 0.477335 0.541195
0.548346 0.554424 0.592990
0.730836 0.612402 0.616416
0.863954 0.645857 0.621267
0.924803 0.665972 0.629609
0.146020 0.317449 0.422424
0.215578 0.388856 0.479644
0.304998 0.465782 0.546101
0.434181 0.553301 0.619860
0.599819 0.634989 0.677840
0.763253 0.696636 0.710282
0.881530 0.730715 0.717928
0.939548 0.745211 0.717121
0.017346 0.063082 0.162622
0.043530 0.082990 0.172362
0.115390 0.099093 0.158807
0.300531 0.108003 0.119458
0.501954 0.127039 0.099106
0.648229 0.154959 0.100783
0.732897 0.186856 0.115640
0.781185 0.221399 0.139515
0.021558 0.084499 0.194376
0.055653 0.128622 0.222927
0.110762 0.163116 0.235005
0.255970 0.188097 0.221426
0.469435 0.209030 0.197554
0.654555 0.234792 0.186320
0.765887 0.267182 0.195504
0.822172 0.303624 0.220440
0.032091 0.116054 0.236461
0.073277 0.168085 0.265793
0.126932 0.225725 0.305164
0.245015 0.269482 0.320353
0.454279 0.299007 0.306859
0.658214 0.327788 0.294442
0.789389 0.361041 0.300842
0.854019 0.397126 0.325253
0.047660 0.156653 0.289154
0.095569 0.215165 0.317014
0.161074 0.282466 0.363101
0.260229 0.343930 0.405224
0.454373 0.384445 0.409001
0.662148 0.417277 0.400323
0.805325 0.450833 0.404393
0.876482 0.484626 0.425409
0.067248 0.204905 0.345856
0.121360 0.269982 0.376732
0.198294 0.341060 0.424773
0.296923 0.412068 0.479131
0.467409 0.470126 0.508024
0.667769 0.510009 0.508771
0.820249 0.539162 0.505776
0.895417 0.567468 0.519774
0.090424 0.260849 0.405901
0.152571 0.331029 0.442123
0.239878 0.404114 0.491872
0.344458 0.478355 0.549568
0.499632 0.548195 0.594672
0.686021 0.599432 0.610446
0.835815 0.628531 0.607731
0.910874 0.647740 0.611351
0.118032 0.323958 0.469728
0.192036 0.398239 0.511688
0.291349 0.472147 0.561905
0.401452 0.546282 0.619067
0.551118 0.618919 0.668454
0.719823 0.677560 0.695601
0.854127 0.710166 0.698830
0.923962 0.723178 0.695206
0.151863 0.391054 0.534645
0.240375 0.468539 0.581378
0.351861 0.541393 0.630708
0.468218 0.613276 0.684236
0.613918 0.684456 0.732324
0.764022 0.741749 0.761121
0.877555 0.775180 0.767835
0.937058 0.788172 0.764261
0.015802 0.085722 0.228493
0.033889 0.111244 0.250194
0.079896 0.140984 0.257188
0.220746 0.161168 0.225543
0.465841 0.175647 0.168899
0.665419 0.199641 0.144195
0.766373 0.233798 0.157490
0.816924 0.271996 0.185003
0.017858 0.109401 0.269710
0.049942 0.163174 0.308262
0.092072 0.209397 0.333501
0.201528 0.252674 0.334866
0.426331 0.285981 0.306543
0.651653 0.311707 0.278314
0.791236 0.338970 0.273681
0.854759 0.373693 0.295201
0.026566 0.143340 0.321779
0.064872 0.206715 0.360179
0.118512 0.278335 0.404792
0.214374 0.339111 0.431399
0.410940 0.386324 0.428846
0.640033 0.418018 0.408231
0.804357 0.443558 0.396770
0.879699 0.473891 0.411701
0.041176 0.188332 0.382825
0.087947 0.260491 0.418200
0.158255 0.339934 0.463059
0.251259 0.413514 0.507542
0.420165 0.470919 0.525933
0.637525 0.508592 0.516441
0.810899 0.535009 0.504838
0.893812 0.561157 0.513683
0.061595 0.242217 0.446939
0.119577 0.323848 0.481335
0.205586 0.404317 0.523011
0.308347 0.480999 0.571042
0.449497 0.546321 0.607033
0.644414 0.589680 0.610536
0.817148 0.615628 0.599167
0.903779 0.636835 0.601245
0.087206 0.304628 0.511882
0.157681 0.392366 0.548247
0.257584 0.472284 0.588342
0.370825 0.546612 0.633365
0.499571 0.614049 0.675530
0.667834 0.664867 0.692990
0.825281 0.692783 0.686664
0.912625 0.706273 0.679354
0.119209 0.374195 0.575916
0.204375 0.463148 0.614685
0.317539 0.541253 0.653876
0.437357 0.611470 0.694791
0.564373 0.675442 0.733872
0.710018 0.728983 0.758009
0.842745 0.760420 0.759078
0.921904 0.770356 0.748325
0.159731 0.446093 0.635875
0.261937 0.532940 0.675615
0.386330 0.607479 0.713758
0.509978 0.672215 0.749861
0.633552 0.730845 0.784033
0.762907 0.779953 0.805727
0.871816 0.812190 0.810519
0.934173 0.825096 0.804778
0.014762 0.113860 0.306763
0.029405 0.142456 0.338795
0.059542 0.182080 0.364455
0.147633 0.221417 0.360482
0.366371 0.249399 0.307563
0.630555 0.268522 0.240136
0.799080 0.294956 0.217528
0.853853 0.335995 0.249633
0.017445 0.140272 0.357885
0.047627 0.198044 0.402269
0.080755 0.252229 0.437819
0.159661 0.311752 0.457554
0.351289 0.365123 0.444228
0.612962 0.400664 0.403095
0.808025 0.424497 0.374001
0.883529 0.452329 0.385037
0.026016 0.174808 0.415791
0.062494 0.244003 0.459267
0.115276 0.324220 0.505520
0.197462 0.396254 0.539400
0.361524 0.461821 0.551844
0.603152 0.508537 0.533511
0.807279 0.533919 0.507006
0.899961 0.553441 0.504699
0.040577 0.219918 0.477805
0.086245 0.300128 0.519684
0.156237 0.388456 0.564244
0.249806 0.470749 0.606409
0.394857 0.542014 0.633200
0.608037 0.593307 0.630495
0.804772 0.620558 0.610065
0.906954 0.635391 0.600401
0.061673 0.274536 0.541441
0.121404 0.366426 0.581277
0.208312 0.456004 0.621556
0.317525 0.538413 0.661753
0.446227 0.609242 0.695315
0.626573 0.661210 0.703747
0.805848 0.689089 0.689289
0.909839 0.701189 0.675587
0.088507 0.335999 0.602972
0.166527 0.438271 0.642736
0.269586 0.526898 0.679500
0.392132 0.604023 0.714007
0.515715 0.669719 0.746293
0.661911 0.720892 0.763203
0.812219 0.748775 0.755457
0.913380 0.757262 0.737501
0.123504 0.404810 0.661419
0.220580 0.510040 0.701364
0.337853 0.595152 0.735274
0.468399 0.666239 0.764988
0.591735 0.724860 0.791723
0.712946 0.772428 0.810543
0.831671 0.801276 0.809445
0.919626 0.809845 0.792821
0.169626 0.479286 0.716049
0.284639 0.578522 0.754255
0.412430 0.657543 0.785760
0.544838 0.721688 0.811102
0.662552 0.773271 0.832337
0.770258 0.815005 0.847106
0.865057 0.844213 0.849532
0.931005 0.856993 0.840297
0.014510 0.145764 0.395455
0.029238 0.175875 0.433955
0.053610 0.219969 0.470142
0.109529 0.274634 0.491103
0.259038 0.329307 0.477995
0.527619 0.365331 0.412206
0.775962 0.385280 0.343331
0.887740 0.412218 0.335777
0.019925 0.175163 0.453457
0.050276 0.233661 0.499816
0.081101 0.290292 0.537953
0.140288 0.359128 0.570117
0.279148 0.430885 0.580885
0.528674 0.486759 0.551575
0.777606 0.516568 0.502954
0.906619 0.535120 0.483740
0.030491 0.211094 0.511948
0.067618 0.281704 0.556436
0.122904 0.363756 0.600485
0.194092 0.441455 0.638137
0.323321 0.517390 0.660879
0.543882 0.581360 0.654549
0.777223 0.617155 0.622007
0.914232 0.631074 0.596915
0.046803 0.256020 0.569666
0.093959 0.338119 0.613567
0.165579 0.428976 0.656283
0.257597 0.515236 0.695631
0.384692 0.592134 0.723214
0.573631 0.655855 0.729046
0.779891 0.693018 0.707813
0.914994 0.704349 0.680837
0.069625 0.309844 0.626277
0.131583 0.403396 0.669272
0.218663 0.496583 0.708894
0.327556 0.582408 0.744470
0.453385 0.656076 0.772244
0.613859 0.715571 0.783629
0.788843 0.750672 0.769373
0.913542 0.760582 0.742935
0.097504 0.367997 0.678967
0.181191 0.473828 0.721410
0.284260 0.566955 0.757553
0.406135 0.646972 0.787329
0.533428 0.713136 0.810987
0.665213 0.765538 0.824842
0.803563 0.796715 0.816414
0.913549 0.805573 0.791547
0.131541 0.429283 0.727090
0.240125 0.543473 0.769597
0.358322 0.633839 0.802035
0.489227 0.706743 0.826260
0.616669 0.764141 0.843900
0.726386 0.808360 0.856344
0.829180 0.836656 0.853819
0.916814 0.846691 0.834798
0.177725 0.498021 0.773415
0.307592 0.609674 0.814354
0.437013 0.693822 0.843021
0.569938 0.758547 0.861997
0.690696 0.807859 0.873980
0.787529 0.845134 0.881933
0.865229 0.871729 0.882821
0.926994 0.884986 0.872601
0.014967 0.177510 0.483871
0.031702 0.210524 0.525672
0.056898 0.255932 0.563217
0.100430 0.316776 0.595812
0.202228 0.389530 0.614200
0.404451 0.459078 0.600723
0.675220 0.497661 0.536493
0.882566 0.510088 0.471144
0.024608 0.209471 0.542030
0.056824 0.269920 0.590123
0.090594 0.326456 0.625777
0.143116 0.396743 0.660655
0.246619 0.477257 0.687227
0.434782 0.552426 0.688802
0.688848 0.599718 0.648616
0.892472 0.617823 0.597895
0.039172 0.249386 0.596066
0.079652 0.322133 0.642899
0.139992 0.402289 0.684936
0.207436 0.479014 0.720635
0.311029 0.557330 0.748427
0.481328 0.629848 0.756593
0.708925 0.679082 0.730496
0.897495 0.698824 0.688457
0.059465 0.297472 0.647611
0.110608 0.380271 0.693733
0.186870 0.469388 0.735868
0.280768 0.554218 0.772593
0.390578 0.630617 0.799624
0.541225 0.696111 0.809367
0.735135 0.741890 0.791158
0.900364 0.760796 0.754923
0.085809 0.352987 0.696854
0.151934 0.444340 0.741636
0.241940 0.535548 0.781394
0.351929 0.620372 0.815148
0.471418 0.693608 0.840004
0.608136 0.752303 0.849767
0.766503 0.792257 0.836213
0.903401 0.808982 0.804761
0.116216 0.411199 0.742046
0.203770 0.510986 0.785267
0.307818 0.601788 0.821529
0.427630 0.681400 0.849980
0.552090 0.747439 0.870048
0.675145 0.798785 0.879154
0.800004 0.833188 0.870075
0.908023 0.847870 0.843761
0.148206 0.465291 0.780094
0.263806 0.575332 0.823528
0.382580 0.664645 0.855795
0.510274 0.737328 0.878034
0.633879 0.794041 0.891492
0.742530 0.836860 0.897821
0.836194 0.866447 0.893895
0.914483 0.880419 0.875718
0.188116 0.519375 0.813911
0.329528 0.634656 0.857184
0.461373 0.720504 0.885184
0.592444 0.785100 0.901014
0.710788 0.832988 0.908177
0.805256 0.867647 0.909977
0.873547 0.893137 0.909141
0.925845 0.908567 0.900551
