filter/Red and Blue 2/lut/Impulse 03_S.cube
# LUT by SparkleStock. Enhanced with VOXCOLOR algorithms.
LUT_3D_SIZE 8
DOMAIN_MIN 0.000000 0.000000 0.000000
DOMAIN_MAX 0.903226 0.903226 0.903226
0.027350 0.023443 0.023443
0.098814 0.026279 0.028737
0.187554 0.033936 0.031084
0.291362 0.045390 0.033085
0.405554 0.059805 0.036890
0.514451 0.077199 0.044830
0.597196 0.095695 0.054504
0.655969 0.114617 0.065446
0.026972 0.032518 0.047454
0.107950 0.040769 0.037379
0.207240 0.057989 0.033481
0.322148 0.078884 0.034152
0.447043 0.099355 0.038579
0.562673 0.117041 0.049447
0.646174 0.133391 0.064975
0.700148 0.150153 0.081882
0.027130 0.043066 0.069321
0.098649 0.059947 0.065857
0.215513 0.089282 0.051183
0.349833 0.121985 0.040995
0.480752 0.150703 0.044917
0.599797 0.168785 0.058401
0.686007 0.181450 0.079732
0.739704 0.194356 0.103782
0.029083 0.057371 0.095742
0.084246 0.083047 0.109098
0.203485 0.121064 0.093006
0.355886 0.162753 0.070952
0.512507 0.200275 0.061280
0.632261 0.222456 0.077862
0.720387 0.234208 0.105584
0.775939 0.245847 0.137840
0.033928 0.077931 0.131663
0.074673 0.110962 0.163242
0.171214 0.151357 0.162832
0.331064 0.196219 0.137150
0.536342 0.241035 0.101607
0.664328 0.271486 0.115628
0.753186 0.288519 0.149510
0.810527 0.304960 0.190760
0.043570 0.111395 0.180818
0.074509 0.153061 0.229083
0.150149 0.195664 0.254068
0.289593 0.240209 0.253829
0.492474 0.285098 0.230197
0.694523 0.317158 0.196063
0.791456 0.349463 0.228506
0.847479 0.380974 0.278611
0.056836 0.153838 0.236276
0.083334 0.206214 0.298665
0.148280 0.258800 0.346483
0.274382 0.313507 0.376140
0.467441 0.369554 0.385199
0.685005 0.415056 0.369264
0.815423 0.444275 0.368229
0.886433 0.479609 0.401504
0.069495 0.196235 0.296577
0.095957 0.257435 0.368456
0.159678 0.322013 0.432451
0.283563 0.391951 0.485917
0.473917 0.465931 0.525621
0.690292 0.529302 0.540361
0.834595 0.563405 0.534391
0.913955 0.593599 0.548117
0.018087 0.043483 0.085643
0.080769 0.046027 0.069567
0.185297 0.047896 0.063297
0.312208 0.054349 0.064066
0.443963 0.068563 0.069115
0.559154 0.089469 0.074714
0.641362 0.116113 0.080826
0.697995 0.143634 0.089865
0.023124 0.059730 0.108190
0.081495 0.084347 0.115273
0.187004 0.100236 0.115119
0.320453 0.114005 0.113359
0.463676 0.130040 0.113804
0.591720 0.147499 0.116210
0.683636 0.168163 0.120925
0.741612 0.192802 0.129309
0.028386 0.077554 0.137096
0.081132 0.116862 0.155445
0.188254 0.155103 0.155126
0.328219 0.185993 0.147803
0.480589 0.206481 0.142375
0.617365 0.221882 0.143526
0.717396 0.235843 0.151580
0.780188 0.253191 0.166003
0.034950 0.098995 0.171372
0.080367 0.145964 0.196824
0.182370 0.203038 0.199638
0.327433 0.252990 0.188784
0.496427 0.284956 0.173945
0.639273 0.301585 0.173785
0.745154 0.311597 0.186197
0.813880 0.323222 0.208332
0.043674 0.126050 0.210915
0.080566 0.174793 0.244619
0.167619 0.239742 0.259905
0.313559 0.304358 0.252919
0.507218 0.355154 0.228112
0.660209 0.377857 0.222529
0.769914 0.389597 0.236823
0.843451 0.401603 0.264374
0.055658 0.163319 0.260363
0.087049 0.211746 0.303160
0.158872 0.275970 0.338657
0.289931 0.345009 0.355141
0.481915 0.407862 0.346027
0.683019 0.443960 0.314613
0.798173 0.467270 0.322595
0.871696 0.489203 0.350100
0.070167 0.210300 0.317943
0.101425 0.262089 0.367366
0.168491 0.327479 0.419738
0.292071 0.400129 0.461278
0.477375 0.472288 0.481438
0.685420 0.524735 0.469960
0.818986 0.553707 0.456384
0.899437 0.581112 0.467492
0.085992 0.258569 0.379385
0.119678 0.313201 0.432661
0.191756 0.382890 0.495283
0.318440 0.461997 0.554066
0.502027 0.543260 0.597848
0.703722 0.608081 0.611966
0.840298 0.643066 0.600458
0.920130 0.668675 0.600818
0.011903 0.064595 0.148647
0.056990 0.072237 0.137121
0.160197 0.072387 0.119071
0.303894 0.075075 0.106711
0.465849 0.087209 0.106304
0.593347 0.110384 0.107487
0.678353 0.142808 0.109260
0.734690 0.177459 0.116327
0.016757 0.084489 0.175640
0.063696 0.118099 0.194336
0.161753 0.135563 0.199971
0.302752 0.145983 0.197367
0.470770 0.156867 0.190901
0.613386 0.174862 0.185422
0.713334 0.200616 0.180391
0.775986 0.232730 0.180782
0.025050 0.109882 0.210736
0.072274 0.158591 0.238167
0.167491 0.201457 0.253932
0.306413 0.231278 0.256249
0.476266 0.246151 0.246807
0.627998 0.260673 0.239760
0.739654 0.278315 0.236561
0.811821 0.301985 0.240372
0.035603 0.139806 0.252133
0.080599 0.195759 0.280696
0.170709 0.260204 0.301208
0.307149 0.313332 0.306280
0.480416 0.343380 0.294622
0.639476 0.357034 0.284682
0.759898 0.368411 0.284547
0.841899 0.383501 0.294788
0.047674 0.174198 0.298436
0.088131 0.232003 0.330133
0.168629 0.306153 0.356401
0.300811 0.379182 0.365598
0.480782 0.435742 0.353220
0.650354 0.453978 0.335196
0.776876 0.463890 0.333677
0.866384 0.474765 0.347418
0.062103 0.217657 0.350042
0.100162 0.272695 0.386693
0.171034 0.343550 0.423820
0.292989 0.421401 0.448446
0.470181 0.495400 0.450827
0.665850 0.537691 0.421911
0.795584 0.555819 0.410652
0.886103 0.570558 0.418615
0.078479 0.267500 0.406858
0.120042 0.323383 0.447360
0.191710 0.391149 0.493737
0.310704 0.468200 0.535192
0.482099 0.548495 0.561095
0.677993 0.608453 0.550080
0.813447 0.638584 0.524932
0.904248 0.660115 0.517829
0.097464 0.317750 0.465100
0.145271 0.375162 0.508010
0.225158 0.442929 0.559631
0.350111 0.520796 0.612184
0.521774 0.604517 0.656227
0.708211 0.672015 0.666721
0.838143 0.709515 0.647594
0.920658 0.733043 0.635335
0.007617 0.087250 0.215684
0.036055 0.101905 0.218038
0.119442 0.108059 0.200166
0.267683 0.111398 0.172660
0.467953 0.118269 0.146352
0.618590 0.143139 0.141230
0.710583 0.178428 0.140050
0.768430 0.217353 0.147572
0.010899 0.109462 0.249251
0.051093 0.148442 0.275180
0.131471 0.172232 0.289080
0.267989 0.185736 0.287666
0.456991 0.194808 0.271687
0.625362 0.212364 0.255303
0.736674 0.241421 0.241242
0.805445 0.278308 0.236164
0.019908 0.140291 0.290231
0.065210 0.192534 0.320855
0.147048 0.239577 0.349280
0.277426 0.272574 0.363137
0.454474 0.288466 0.356425
0.629941 0.301305 0.339613
0.755013 0.321611 0.325708
0.836848 0.349853 0.320498
0.032770 0.176936 0.337536
0.079003 0.236280 0.366004
0.161183 0.302594 0.398058
0.287056 0.357811 0.418442
0.454928 0.390462 0.418097
0.633664 0.402019 0.401491
0.767973 0.414662 0.390808
0.861965 0.432832 0.390117
0.047939 0.217862 0.389678
0.093300 0.281276 0.417705
0.171758 0.356391 0.448663
0.292169 0.430215 0.470281
0.455099 0.489474 0.473602
0.638071 0.506639 0.452213
0.777916 0.515876 0.440165
0.880645 0.526658 0.441831
0.064612 0.266541 0.443602
0.110607 0.328549 0.474146
0.185875 0.400852 0.508122
0.300646 0.478893 0.535980
0.458264 0.554989 0.548181
0.646793 0.602773 0.524587
0.788142 0.617590 0.501596
0.893241 0.627079 0.495243
0.083172 0.318788 0.497654
0.135472 0.381459 0.531107
0.216529 0.450221 0.568746
0.332369 0.525524 0.605081
0.484640 0.604432 0.631969
0.667107 0.669072 0.622388
0.803756 0.700080 0.590359
0.904185 0.717232 0.571059
0.105240 0.369262 0.550151
0.166915 0.433773 0.586210
0.258637 0.501383 0.626353
0.382209 0.574769 0.668757
0.535629 0.653107 0.707579
0.707099 0.721989 0.715627
0.831757 0.761943 0.691118
0.918110 0.784482 0.669895
0.004498 0.112253 0.289204
0.023568 0.133074 0.302810
0.073522 0.153040 0.303007
0.207838 0.163955 0.269047
0.437670 0.165822 0.201336
0.633973 0.189594 0.177990
0.739783 0.224502 0.174597
0.801182 0.264279 0.186189
0.007614 0.136935 0.328644
0.041402 0.180041 0.358303
0.098551 0.214560 0.381788
0.217292 0.238749 0.384603
0.411524 0.253590 0.360603
0.624854 0.269582 0.326535
0.754669 0.298298 0.303303
0.831905 0.335442 0.296102
0.015396 0.169819 0.375082
0.056179 0.224479 0.407504
0.123712 0.277132 0.441643
0.237398 0.319183 0.464971
0.406664 0.345488 0.467622
0.620641 0.357387 0.438420
0.764718 0.376982 0.413342
0.857179 0.404999 0.401890
0.028393 0.209431 0.426463
0.072671 0.270948 0.455344
0.148603 0.338022 0.490168
0.261301 0.397086 0.520880
0.414711 0.437730 0.537224
0.620533 0.450357 0.517244
0.771134 0.461932 0.497254
0.875891 0.479432 0.487955
0.046098 0.254455 0.480750
0.093597 0.321883 0.505576
0.173394 0.395424 0.535147
0.284905 0.466583 0.564391
0.429314 0.525469 0.585403
0.623538 0.546462 0.571154
0.775202 0.554369 0.553910
0.887915 0.563771 0.546162
0.064491 0.304543 0.535187
0.116405 0.373978 0.560490
0.200667 0.449154 0.589996
0.312194 0.524800 0.618815
0.449201 0.594977 0.639477
0.627905 0.645457 0.626720
0.778931 0.657514 0.600506
0.895441 0.663200 0.586000
0.085212 0.359053 0.585298
0.145350 0.429518 0.612381
0.239551 0.503334 0.643826
0.356313 0.576721 0.675105
0.489719 0.646697 0.699627
0.656003 0.710515 0.696105
0.793519 0.740991 0.664317
0.901869 0.754797 0.639751
0.110106 0.409542 0.631202
0.180870 0.481776 0.660938
0.288515 0.555637 0.694754
0.414554 0.626805 0.728671
0.548160 0.693251 0.757578
0.703302 0.759595 0.766914
0.823955 0.800570 0.742317
0.914466 0.822144 0.717561
0.003364 0.142881 0.371822
0.019214 0.166922 0.391430
0.052677 0.196120 0.404989
0.138265 0.224783 0.397180
0.307848 0.247068 0.352869
0.625636 0.250788 0.238043
0.765476 0.281622 0.220868
0.834456 0.320363 0.237783
0.007212 0.169904 0.415214
0.036080 0.214191 0.444642
0.076242 0.255422 0.470922
0.157681 0.295724 0.485743
0.310291 0.333789 0.477849
0.602159 0.352958 0.410546
0.766212 0.376467 0.374456
0.856921 0.407121 0.365969
0.014482 0.203264 0.463738
0.050731 0.257466 0.494512
0.103210 0.312892 0.526265
0.189676 0.366519 0.553305
0.331120 0.414538 0.567205
0.589839 0.445861 0.539254
0.765606 0.460694 0.502565
0.873643 0.479668 0.484745
0.026331 0.242278 0.515278
0.067701 0.302572 0.543267
0.131889 0.369407 0.574933
0.227016 0.434740 0.606182
0.364530 0.491480 0.630819
0.587614 0.529160 0.628106
0.764798 0.536841 0.599032
0.884734 0.545186 0.580827
0.042939 0.285638 0.567516
0.090022 0.352876 0.592087
0.162404 0.425857 0.620343
0.266222 0.499002 0.650382
0.406267 0.565191 0.677795
0.593899 0.604254 0.684212
0.764831 0.608920 0.662535
0.890916 0.611111 0.646547
0.061771 0.329578 0.615805
0.118142 0.405509 0.638813
0.202751 0.483842 0.665606
0.316859 0.560189 0.693003
0.457179 0.629497 0.716822
0.605835 0.678669 0.724958
0.767308 0.688883 0.702564
0.894735 0.691437 0.684151
0.083907 0.383064 0.661720
0.149692 0.460856 0.685129
0.246446 0.539569 0.712524
0.370327 0.615497 0.740207
0.512916 0.684870 0.763935
0.645621 0.739335 0.773222
0.783442 0.767870 0.749447
0.898468 0.779177 0.725168
0.110569 0.433631 0.702471
0.187249 0.513344 0.728391
0.297750 0.592635 0.757761
0.431490 0.667178 0.786600
0.575432 0.733547 0.811087
0.699535 0.787521 0.824224
0.816010 0.826670 0.806233
0.910534 0.846880 0.783161
0.002860 0.175714 0.453338
0.018173 0.203341 0.477605
0.044481 0.236609 0.499296
0.103581 0.274104 0.508877
0.223039 0.313271 0.494644
0.488013 0.345484 0.422021
0.732852 0.358786 0.330503
0.864157 0.382854 0.303481
0.008415 0.205567 0.498608
0.035235 0.250456 0.529863
0.067401 0.293294 0.556573
0.126877 0.339891 0.576415
0.240469 0.392601 0.583491
0.486813 0.443001 0.550156
0.735172 0.465126 0.479854
0.877948 0.486577 0.447554
0.016580 0.239027 0.547144
0.050422 0.292051 0.578183
0.094891 0.347380 0.607108
0.162623 0.404965 0.632985
0.273004 0.464407 0.652211
0.496819 0.524055 0.646234
0.736988 0.551049 0.598493
0.885817 0.567238 0.568548
0.028615 0.276051 0.596159
0.067832 0.334394 0.624271
0.124617 0.399940 0.652888
0.204497 0.467140 0.681086
0.318639 0.531945 0.706174
0.517192 0.592844 0.715640
0.739866 0.620342 0.687170
0.889280 0.630330 0.662967
0.044963 0.316220 0.643222
0.090321 0.381456 0.668861
0.156293 0.452370 0.695412
0.249283 0.525715 0.723029
0.374827 0.597095 0.749857
0.546665 0.653798 0.764404
0.745179 0.678393 0.748600
0.889975 0.683116 0.729772
0.064113 0.358039 0.685120
0.119004 0.431948 0.708950
0.198130 0.508368 0.734569
0.304649 0.584631 0.760606
0.437438 0.656988 0.784963
0.583482 0.713677 0.800700
0.755109 0.738340 0.789001
0.890596 0.742874 0.770573
0.082866 0.401209 0.722022
0.151996 0.483619 0.746196
0.247183 0.564310 0.772255
0.367762 0.641413 0.797904
0.508298 0.712235 0.820549
0.644822 0.767321 0.833793
0.776617 0.799945 0.825618
0.891721 0.810759 0.805852
0.108471 0.447236 0.756379
0.191087 0.534350 0.782616
0.301170 0.617282 0.810109
0.432814 0.693646 0.835976
0.576726 0.760976 0.857461
0.706035 0.812541 0.869284
0.812504 0.850021 0.865162
0.904636 0.868487 0.848086
0.001560 0.206018 0.522652
0.017825 0.237701 0.553925
0.041425 0.273224 0.580884
0.085368 0.314683 0.600571
0.169025 0.363601 0.608427
0.360913 0.422045 0.587301
0.645252 0.450854 0.498059
0.840266 0.467965 0.433549
0.010287 0.239116 0.570495
0.036524 0.283967 0.606666
0.065748 0.326732 0.633791
0.112634 0.374716 0.655228
0.196914 0.432975 0.671403
0.381923 0.503581 0.669999
0.655794 0.546178 0.612164
0.851165 0.569080 0.561088
0.021291 0.273647 0.619009
0.053891 0.325469 0.653520
0.094836 0.379125 0.681739
0.151247 0.436054 0.705727
0.237218 0.498189 0.725910
0.412227 0.572075 0.735540
0.667250 0.622336 0.701544
0.857694 0.647021 0.661578
0.035468 0.309982 0.665272
0.073087 0.366896 0.696106
0.125678 0.430020 0.724676
0.195531 0.495441 0.750775
0.290425 0.561238 0.773524
0.451842 0.632206 0.787894
0.681364 0.683475 0.770067
0.861848 0.706471 0.738819
0.053063 0.348242 0.707021
0.096369 0.411404 0.735290
0.157563 0.479860 0.762727
0.242294 0.551299 0.789648
0.354500 0.622913 0.814931
0.500536 0.687880 0.830417
0.699732 0.734316 0.821632
0.865512 0.753327 0.796625
0.072664 0.388109 0.741924
0.124946 0.459014 0.768744
0.198804 0.532502 0.795670
0.296625 0.606840 0.821932
0.418284 0.679409 0.846273
0.559037 0.741675 0.864110
0.725545 0.782920 0.859117
0.871383 0.799732 0.837074
0.090471 0.424286 0.770144
0.157756 0.505784 0.797300
0.248961 0.585286 0.824438
0.362356 0.661469 0.850006
0.493942 0.732300 0.872259
0.631910 0.790142 0.886636
0.760747 0.830416 0.887334
0.880642 0.849110 0.869043
0.112527 0.461572 0.795659
0.195638 0.550830 0.824361
0.303593 0.634878 0.852281
0.430311 0.711846 0.877195
0.568343 0.779730 0.897004
0.701952 0.832392 0.907382
0.807143 0.870903 0.910207
0.900389 0.892851 0.897713
