filter/Red and Blue 2/lut/Impulse 02.cube
# LUT by SparkleStock. Enhanced with VOXCOLOR algorithms.
LUT_3D_SIZE 32
0.019536 0.015629 0.015629
0.038450 0.016511 0.016401
0.057363 0.017393 0.017173
0.076277 0.018276 0.017945
0.095191 0.019158 0.018717
0.118642 0.020513 0.019363
0.145496 0.022222 0.019914
0.172350 0.023932 0.020466
0.199204 0.025641 0.021017
0.226484 0.027587 0.021647
0.256316 0.030950 0.022750
0.286148 0.034314 0.023853
0.315979 0.037678 0.024956
0.345811 0.041041 0.026059
0.374855 0.044996 0.027595
0.403584 0.049187 0.029304
0.432313 0.053377 0.031013
0.461042 0.057568 0.032723
0.488259 0.061822 0.034574
0.511694 0.066233 0.036780
0.535129 0.070645 0.038985
0.558565 0.075056 0.041191
0.582000 0.079467 0.043397
0.598629 0.084210 0.045744
0.614124 0.089007 0.048115
0.629619 0.093804 0.050486
0.645114 0.098602 0.052858
0.658411 0.104014 0.055394
0.668778 0.110245 0.058151
0.679145 0.116476 0.060908
0.689511 0.122707 0.063665
0.699878 0.128938 0.066422
0.021025 0.017504 0.019489
0.040175 0.018249 0.019613
0.059325 0.018994 0.019738
0.078476 0.019740 0.019862
0.097626 0.020485 0.019987
0.121470 0.021888 0.020370
0.148835 0.023784 0.020946
0.176199 0.025680 0.021522
0.203564 0.027576 0.022098
0.231377 0.029721 0.022778
0.261882 0.033359 0.024081
0.292386 0.036996 0.025383
0.322890 0.040634 0.026685
0.353394 0.044272 0.027987
0.383030 0.048589 0.029713
0.412320 0.053178 0.031609
0.441609 0.057767 0.033505
0.470898 0.062357 0.035402
0.498597 0.067023 0.037447
0.522319 0.071883 0.039864
0.546040 0.076742 0.042281
0.569762 0.081602 0.044699
0.593484 0.086462 0.047116
0.610079 0.091577 0.049771
0.625487 0.096736 0.052466
0.640895 0.101894 0.055161
0.656303 0.107053 0.057856
0.669326 0.112633 0.060743
0.679169 0.118777 0.063886
0.689013 0.124921 0.067029
0.698857 0.131065 0.070172
0.708701 0.137209 0.073315
0.022514 0.019378 0.023349
0.041901 0.019987 0.022826
0.061287 0.020595 0.022303
0.080674 0.021203 0.021780
0.100061 0.021812 0.021257
0.124298 0.023263 0.021376
0.152174 0.025346 0.021978
0.180049 0.027429 0.022579
0.207924 0.029512 0.023180
0.236271 0.031856 0.023910
0.267447 0.035767 0.025411
0.298624 0.039679 0.026912
0.329800 0.043590 0.028414
0.360977 0.047502 0.029915
0.391206 0.052182 0.031832
0.421055 0.057170 0.033915
0.450905 0.062157 0.035998
0.480755 0.067145 0.038080
0.508935 0.072224 0.040319
0.532943 0.077532 0.042948
0.556951 0.082840 0.045578
0.580959 0.088148 0.048207
0.604968 0.093456 0.050836
0.621529 0.098945 0.053799
0.636850 0.104465 0.056817
0.652170 0.109984 0.059836
0.667491 0.115504 0.062854
0.680240 0.121253 0.066092
0.689561 0.127310 0.069621
0.698882 0.133367 0.073150
0.708203 0.139424 0.076679
0.717523 0.145480 0.080208
0.024003 0.021253 0.027209
0.043626 0.021725 0.026038
0.063249 0.022196 0.024868
0.082873 0.022667 0.023697
0.102496 0.023139 0.022527
0.127127 0.024638 0.022383
0.155512 0.026908 0.023009
0.183898 0.029177 0.023635
0.212284 0.031447 0.024261
0.241164 0.033990 0.025041
0.273013 0.038176 0.026742
0.304862 0.042361 0.028442
0.336711 0.046547 0.030143
0.368560 0.050732 0.031843
0.399381 0.055775 0.033950
0.429791 0.061161 0.036220
0.460201 0.066547 0.038490
0.490611 0.071934 0.040759
0.519273 0.077425 0.043192
0.543568 0.083182 0.046033
0.567862 0.088938 0.048874
0.592157 0.094694 0.051714
0.616451 0.100450 0.054555
0.632979 0.106313 0.057826
0.648213 0.112193 0.061168
0.663446 0.118074 0.064510
0.678679 0.123955 0.067853
0.691155 0.129873 0.071440
0.699953 0.135843 0.075355
0.708750 0.141812 0.079271
0.717548 0.147782 0.083186
0.726346 0.153752 0.087101
0.025491 0.023128 0.031069
0.045351 0.023463 0.029251
0.065211 0.023797 0.027433
0.085071 0.024131 0.025615
0.104931 0.024466 0.023797
0.129955 0.026013 0.023390
0.158851 0.028469 0.024041
0.187747 0.030926 0.024692
0.216643 0.033382 0.025343
0.246058 0.036125 0.026172
0.278579 0.040584 0.028072
0.311100 0.045044 0.029972
0.343622 0.049503 0.031872
0.376143 0.053962 0.033771
0.407556 0.059368 0.036069
0.438526 0.065153 0.038525
0.469497 0.070938 0.040982
0.500467 0.076722 0.043438
0.529612 0.082627 0.046065
0.554193 0.088831 0.049117
0.578773 0.095035 0.052170
0.603354 0.101240 0.055222
0.627935 0.107444 0.058274
0.644429 0.113680 0.061853
0.659575 0.119922 0.065519
0.674722 0.126164 0.069185
0.689868 0.132406 0.072851
0.702069 0.138493 0.076789
0.710344 0.144376 0.081090
0.718619 0.150258 0.085391
0.726894 0.156141 0.089692
0.735169 0.162023 0.093993
0.026287 0.024908 0.034960
0.045622 0.025469 0.033398
0.064958 0.026029 0.031836
0.084293 0.026589 0.030275
0.103628 0.027150 0.028713
0.129426 0.028754 0.027954
0.160071 0.031141 0.027798
0.190715 0.033528 0.027641
0.221360 0.035915 0.027485
0.252365 0.038636 0.027643
0.285530 0.043363 0.029692
0.318695 0.048089 0.031741
0.351861 0.052815 0.033791
0.385026 0.057541 0.035840
0.416795 0.063283 0.038354
0.448005 0.069430 0.041054
0.479215 0.075578 0.043754
0.510426 0.081725 0.046454
0.539755 0.088013 0.049340
0.564380 0.094651 0.052690
0.589005 0.101289 0.056039
0.613631 0.107928 0.059388
0.638256 0.114566 0.062738
0.654706 0.121217 0.066691
0.669794 0.127869 0.070745
0.684881 0.134522 0.074799
0.699969 0.141175 0.078853
0.712041 0.147570 0.083147
0.720091 0.153621 0.087763
0.728142 0.159672 0.092379
0.736193 0.165724 0.096995
0.744244 0.171775 0.101611
0.026563 0.026618 0.038875
0.044802 0.027676 0.038247
0.063042 0.028735 0.037619
0.081281 0.029793 0.036991
0.099521 0.030851 0.036363
0.126379 0.032520 0.035187
0.159701 0.034645 0.033598
0.193022 0.036771 0.032010
0.226344 0.038896 0.030421
0.259732 0.041431 0.029369
0.293520 0.046419 0.031530
0.327308 0.051406 0.033691
0.361096 0.056394 0.035852
0.394884 0.061382 0.038013
0.426831 0.067438 0.040764
0.458041 0.073922 0.043751
0.489251 0.080405 0.046737
0.520462 0.086889 0.049724
0.549751 0.093538 0.052917
0.574240 0.100599 0.056628
0.598728 0.107661 0.060338
0.623217 0.114723 0.064049
0.647705 0.121785 0.067759
0.664103 0.128880 0.072138
0.679154 0.135981 0.076627
0.694204 0.143082 0.081117
0.709254 0.150182 0.085607
0.721305 0.156988 0.090262
0.729355 0.163401 0.095140
0.737406 0.169813 0.100017
0.745457 0.176226 0.104895
0.753507 0.182638 0.109772
0.026838 0.028327 0.042790
0.043982 0.029884 0.043096
0.061126 0.031440 0.043402
0.078270 0.032997 0.043708
0.095414 0.034553 0.044014
0.123332 0.036285 0.042419
0.159331 0.038149 0.039399
0.195329 0.040014 0.036378
0.231328 0.041878 0.033358
0.267100 0.044225 0.031094
0.301511 0.049475 0.033367
0.335921 0.054724 0.035641
0.370331 0.059973 0.037914
0.404742 0.065222 0.040187
0.436866 0.071593 0.043174
0.468077 0.078413 0.046447
0.499287 0.085233 0.049720
0.530497 0.092053 0.052993
0.559748 0.099062 0.056494
0.584100 0.106548 0.060566
0.608451 0.114033 0.064638
0.632802 0.121518 0.068709
0.657154 0.129003 0.072781
0.673501 0.136543 0.077584
0.688514 0.144092 0.082510
0.703526 0.151641 0.087435
0.718539 0.159190 0.092361
0.730568 0.166407 0.097377
0.738619 0.173180 0.102516
0.746670 0.179954 0.107655
0.754721 0.186728 0.112794
0.762771 0.193501 0.117933
0.027114 0.030037 0.046705
0.043162 0.032091 0.047945
0.059210 0.034146 0.049185
0.075258 0.036200 0.050425
0.091306 0.038255 0.051664
0.120285 0.040051 0.049652
0.158961 0.041654 0.045199
0.197637 0.043256 0.040747
0.236312 0.044859 0.036295
0.274468 0.047020 0.032819
0.309501 0.052530 0.035205
0.344534 0.058041 0.037590
0.379567 0.063552 0.039975
0.414600 0.069062 0.042361
0.446902 0.075748 0.045585
0.478113 0.082904 0.049144
0.509323 0.090060 0.052703
0.540533 0.097216 0.056263
0.569745 0.104587 0.060071
0.593959 0.112496 0.064504
0.618174 0.120404 0.068937
0.642388 0.128313 0.073370
0.666603 0.136221 0.077802
0.682898 0.144206 0.083031
0.697873 0.152203 0.088392
0.712849 0.160200 0.093753
0.727824 0.168198 0.099115
0.739832 0.175825 0.104493
0.747883 0.182960 0.109893
0.755934 0.190095 0.115293
0.763984 0.197229 0.120694
0.772035 0.204364 0.126094
0.027539 0.031951 0.050920
0.042567 0.034539 0.053092
0.057594 0.037127 0.055263
0.072621 0.039715 0.057435
0.087648 0.042303 0.059607
0.117285 0.044228 0.057362
0.157880 0.045654 0.051803
0.198476 0.047081 0.046244
0.239071 0.048507 0.040686
0.279053 0.050540 0.036229
0.315358 0.056207 0.038381
0.351663 0.061874 0.040533
0.387967 0.067541 0.042685
0.424272 0.073208 0.044838
0.456956 0.080178 0.048204
0.488191 0.087668 0.052055
0.519426 0.095159 0.055906
0.550662 0.102649 0.059757
0.579847 0.110381 0.063879
0.603909 0.118714 0.068680
0.627970 0.127048 0.073481
0.652032 0.135381 0.078282
0.676093 0.143715 0.083083
0.692329 0.152152 0.088748
0.707260 0.160607 0.094558
0.722191 0.169061 0.100367
0.737122 0.177516 0.106177
0.749112 0.185568 0.111936
0.757183 0.193083 0.117628
0.765253 0.200598 0.123320
0.773323 0.208113 0.129012
0.781394 0.215629 0.134704
0.028863 0.035094 0.056930
0.043317 0.038429 0.060023
0.057772 0.041764 0.063117
0.072226 0.045100 0.066210
0.086680 0.048435 0.069303
0.114571 0.050871 0.067936
0.152539 0.052634 0.063224
0.190507 0.054397 0.058513
0.228475 0.056160 0.053801
0.266943 0.058413 0.049740
0.308415 0.063607 0.049589
0.349887 0.068801 0.049438
0.391359 0.073995 0.049287
0.432832 0.079189 0.049135
0.467116 0.086254 0.052074
0.498526 0.094068 0.056249
0.529935 0.101883 0.060424
0.561345 0.109697 0.064598
0.590584 0.117784 0.069070
0.614396 0.126553 0.074281
0.638209 0.135323 0.079493
0.662021 0.144092 0.084705
0.685834 0.152861 0.089917
0.701959 0.161798 0.096089
0.716803 0.170763 0.102422
0.731647 0.179728 0.108754
0.746490 0.188693 0.115086
0.758490 0.197251 0.121347
0.766697 0.205264 0.127512
0.774905 0.213277 0.133678
0.783112 0.221291 0.139843
0.791319 0.229304 0.146008
0.030186 0.038237 0.062941
0.044068 0.042319 0.066955
0.057949 0.046402 0.070970
0.071831 0.050484 0.074985
0.085713 0.054566 0.078999
0.111856 0.057515 0.078511
0.147197 0.059614 0.074646
0.182538 0.061713 0.070781
0.217878 0.063812 0.066915
0.254833 0.066286 0.063252
0.301473 0.071006 0.060797
0.348112 0.075727 0.058342
0.394752 0.080448 0.055888
0.441391 0.085169 0.053433
0.477277 0.092331 0.055945
0.508860 0.100468 0.060443
0.540444 0.108606 0.064942
0.572028 0.116744 0.069440
0.601321 0.125187 0.074260
0.624884 0.134392 0.079883
0.648447 0.143597 0.085505
0.672011 0.152803 0.091128
0.695574 0.162008 0.096751
0.711589 0.171445 0.103430
0.726346 0.180920 0.110286
0.741103 0.190396 0.117141
0.755859 0.199871 0.123996
0.767868 0.208934 0.130759
0.776212 0.217445 0.137397
0.784556 0.225956 0.144035
0.792900 0.234468 0.150674
0.801245 0.242979 0.157312
0.031510 0.041380 0.068951
0.044818 0.046209 0.073887
0.058127 0.051039 0.078823
0.071436 0.055868 0.083759
0.084745 0.060698 0.088696
0.109142 0.064159 0.089086
0.141855 0.066594 0.086067
0.174569 0.069029 0.083049
0.207282 0.071464 0.080030
0.242723 0.074158 0.076763
0.294530 0.078406 0.072005
0.346337 0.082654 0.067247
0.398144 0.086901 0.062489
0.449951 0.091149 0.057730
0.487437 0.098407 0.059815
0.519195 0.106868 0.064638
0.550953 0.115330 0.069460
0.582712 0.123792 0.074282
0.612057 0.132590 0.079450
0.635372 0.142231 0.085484
0.658686 0.151872 0.091518
0.682000 0.161513 0.097551
0.705315 0.171154 0.103585
0.721219 0.181091 0.110771
0.735889 0.191077 0.118149
0.750558 0.201063 0.125528
0.765228 0.211049 0.132906
0.777245 0.220616 0.140170
0.785727 0.229626 0.147282
0.794208 0.238635 0.154393
0.802689 0.247645 0.161505
0.811170 0.256654 0.168616
0.032833 0.044523 0.074962
0.045569 0.050100 0.080819
0.058305 0.055676 0.086677
0.071041 0.061253 0.092534
0.083777 0.066829 0.098392
0.106428 0.070803 0.099661
0.136514 0.073574 0.097489
0.166600 0.076345 0.095317
0.196686 0.079117 0.093145
0.230613 0.082031 0.090275
0.287588 0.085806 0.083213
0.344562 0.089580 0.076151
0.401536 0.093355 0.069090
0.458510 0.097129 0.062028
0.497597 0.104483 0.063686
0.529530 0.113269 0.068832
0.561462 0.122054 0.073978
0.593395 0.130839 0.079124
0.622794 0.139994 0.084641
0.645859 0.150070 0.091085
0.668925 0.160147 0.097530
0.691990 0.170224 0.103974
0.715055 0.180301 0.110419
0.730850 0.190737 0.118112
0.745432 0.201234 0.126013
0.760014 0.211730 0.133915
0.774597 0.222227 0.141816
0.786623 0.232299 0.149582
0.795241 0.241807 0.157166
0.803859 0.251315 0.164751
0.812478 0.260822 0.172336
0.821096 0.270330 0.179920
0.035929 0.049557 0.082744
0.048243 0.055836 0.089363
0.060558 0.062115 0.095982
0.072872 0.068394 0.102601
0.085187 0.074673 0.109220
0.106521 0.079353 0.111482
0.134620 0.082834 0.110477
0.162720 0.086316 0.109472
0.190819 0.089797 0.108467
0.223024 0.093385 0.106632
0.279865 0.097621 0.099820
0.336706 0.101856 0.093007
0.393546 0.106091 0.086194
0.450387 0.110326 0.079382
0.492585 0.117490 0.079684
0.528925 0.125826 0.082832
0.565265 0.134161 0.085981
0.601606 0.142496 0.089129
0.634107 0.151469 0.093421
0.657013 0.162035 0.100570
0.679918 0.172601 0.107718
0.702823 0.183167 0.114867
0.725729 0.193733 0.122016
0.741402 0.204761 0.130464
0.755871 0.215865 0.139129
0.770339 0.226970 0.147793
0.784808 0.238075 0.156457
0.796801 0.248766 0.165022
0.805494 0.258905 0.173453
0.814187 0.269044 0.181885
0.822880 0.279183 0.190316
0.831573 0.289322 0.198747
0.039734 0.055347 0.091236
0.051687 0.062311 0.098552
0.063640 0.069275 0.105869
0.075594 0.076239 0.113185
0.087547 0.083202 0.120501
0.107738 0.088667 0.123802
0.134106 0.093007 0.124092
0.160475 0.097347 0.124382
0.186843 0.101688 0.124672
0.217243 0.106132 0.124128
0.271830 0.111202 0.118586
0.326417 0.116271 0.113043
0.381004 0.121341 0.107500
0.435591 0.126410 0.101958
0.481503 0.133270 0.100533
0.523944 0.140846 0.100755
0.566386 0.148421 0.100978
0.608828 0.155997 0.101200
0.645652 0.164573 0.103636
0.668432 0.175650 0.111607
0.691213 0.186726 0.119578
0.713994 0.197802 0.127548
0.736775 0.208879 0.135519
0.752324 0.220535 0.144821
0.766668 0.232287 0.154344
0.781012 0.244039 0.163868
0.795356 0.255792 0.173391
0.807300 0.267146 0.182874
0.816042 0.277970 0.192301
0.824785 0.288794 0.201729
0.833528 0.299618 0.211156
0.842270 0.310442 0.220584
0.043539 0.061137 0.099728
0.055131 0.068785 0.107742
0.066723 0.076434 0.115755
0.078315 0.084083 0.123768
0.089908 0.091732 0.131782
0.108954 0.097981 0.136122
0.133592 0.103180 0.137707
0.158230 0.108379 0.139291
0.182868 0.113579 0.140876
0.211462 0.118879 0.141624
0.263795 0.124783 0.137352
0.316129 0.130686 0.133079
0.368462 0.136590 0.128807
0.420795 0.142494 0.124534
0.470421 0.149049 0.121382
0.518964 0.155866 0.118678
0.567507 0.162682 0.115975
0.616049 0.169498 0.113271
0.657196 0.177677 0.113852
0.679852 0.189264 0.122644
0.702508 0.200851 0.131437
0.725165 0.212438 0.140229
0.747821 0.224025 0.149022
0.763246 0.236309 0.159177
0.777465 0.248709 0.169560
0.791685 0.261109 0.179943
0.805904 0.273508 0.190325
0.817798 0.285526 0.200725
0.826590 0.297035 0.211149
0.835383 0.308544 0.221573
0.844175 0.320052 0.231996
0.852968 0.331561 0.242420
0.047343 0.066927 0.108220
0.058575 0.075260 0.116931
0.069806 0.083594 0.125641
0.081037 0.091927 0.134352
0.092268 0.100261 0.143063
0.110171 0.107294 0.148441
0.133078 0.113353 0.151321
0.155985 0.119411 0.154201
0.178892 0.125470 0.157081
0.205681 0.131625 0.159120
0.255761 0.138363 0.156118
0.305840 0.145101 0.153115
0.355920 0.151839 0.150113
0.406000 0.158577 0.147110
0.459339 0.164829 0.142231
0.513983 0.170886 0.136601
0.568627 0.176942 0.130971
0.623271 0.182999 0.125342
0.668740 0.190782 0.124067
0.691272 0.202879 0.133681
0.713804 0.214977 0.143296
0.736335 0.227074 0.152910
0.758867 0.239171 0.162524
0.774167 0.252083 0.173534
0.788262 0.265130 0.184775
0.802357 0.278178 0.196017
0.816452 0.291225 0.207259
0.828296 0.303906 0.218577
0.837139 0.316100 0.229997
0.845981 0.328293 0.241417
0.854823 0.340487 0.252836
0.863665 0.352680 0.264256
0.051810 0.073504 0.117295
0.062683 0.082512 0.126706
0.073557 0.091520 0.136118
0.084431 0.100527 0.145529
0.095304 0.109535 0.154941
0.112214 0.117422 0.161421
0.133650 0.124467 0.165702
0.155086 0.131513 0.169984
0.176522 0.138559 0.174265
0.201760 0.145706 0.177721
0.249810 0.153459 0.176224
0.297860 0.161213 0.174726
0.345910 0.168967 0.173228
0.393960 0.176720 0.171730
0.449667 0.183200 0.166215
0.508438 0.189169 0.159093
0.567209 0.195139 0.151971
0.625980 0.201108 0.144849
0.674754 0.208799 0.142381
0.698538 0.220791 0.151551
0.722322 0.232784 0.160720
0.746106 0.244776 0.169890
0.769890 0.256769 0.179060
0.785253 0.270202 0.190794
0.799213 0.283876 0.202955
0.813173 0.297549 0.215117
0.827133 0.311222 0.227278
0.838890 0.324547 0.239573
0.847711 0.337408 0.252046
0.856532 0.350269 0.264518
0.865353 0.363129 0.276991
0.874174 0.375990 0.289464
0.057931 0.082051 0.127827
0.068456 0.091706 0.137948
0.078981 0.101362 0.148069
0.089506 0.111017 0.158191
0.100031 0.120672 0.168312
0.116321 0.129583 0.176050
0.136935 0.137936 0.182000
0.157549 0.146289 0.187950
0.178164 0.154643 0.193900
0.202487 0.163120 0.199084
0.249068 0.172343 0.199679
0.295649 0.181566 0.200273
0.342229 0.190789 0.200867
0.388810 0.200012 0.201461
0.443520 0.208049 0.198038
0.501481 0.215613 0.193007
0.559443 0.223176 0.187977
0.617404 0.230739 0.182946
0.666942 0.239098 0.180941
0.695420 0.249447 0.186500
0.723898 0.259796 0.192059
0.752376 0.270145 0.197617
0.780854 0.280494 0.203176
0.796749 0.294184 0.215312
0.810547 0.308430 0.228544
0.824345 0.322676 0.241777
0.838143 0.336922 0.255009
0.849723 0.350841 0.268428
0.858345 0.364324 0.282096
0.866966 0.377808 0.295764
0.875588 0.391291 0.309432
0.884210 0.404774 0.323101
0.064051 0.090598 0.138359
0.074228 0.100901 0.149190
0.084404 0.111204 0.160021
0.094580 0.121506 0.170852
0.104757 0.131809 0.181683
0.120428 0.141745 0.190678
0.140220 0.151405 0.198297
0.160013 0.161066 0.205915
0.179805 0.170726 0.213534
0.203215 0.180534 0.220448
0.248326 0.191226 0.223133
0.293438 0.201919 0.225819
0.338549 0.212611 0.228505
0.383661 0.223303 0.231191
0.437373 0.232899 0.229860
0.494525 0.242056 0.226921
0.551677 0.251213 0.223983
0.608829 0.260370 0.221044
0.659129 0.269398 0.219502
0.692302 0.278103 0.221449
0.725474 0.286809 0.223397
0.758646 0.295514 0.225345
0.791819 0.304219 0.227293
0.808246 0.318165 0.239831
0.821882 0.332984 0.254134
0.835518 0.347803 0.268437
0.849154 0.362622 0.282740
0.860556 0.377135 0.297283
0.868978 0.391241 0.312147
0.877401 0.405346 0.327010
0.885823 0.419452 0.341874
0.894246 0.433558 0.356737
0.070172 0.099145 0.148891
0.080000 0.110095 0.160432
0.089828 0.121046 0.171973
0.099655 0.131996 0.183513
0.109483 0.142946 0.195054
0.124535 0.153906 0.205307
0.143506 0.164874 0.214594
0.162477 0.175842 0.223881
0.181447 0.186810 0.233168
0.203942 0.197948 0.241811
0.247584 0.210110 0.246588
0.291227 0.222271 0.251366
0.334869 0.234433 0.256144
0.378511 0.246594 0.260922
0.431225 0.257748 0.261682
0.487568 0.268499 0.260835
0.543910 0.279250 0.259989
0.600253 0.290001 0.259142
0.651317 0.299698 0.258062
0.689183 0.306759 0.256399
0.727050 0.313821 0.254736
0.764916 0.320883 0.253073
0.802783 0.327945 0.251409
0.819742 0.342146 0.264349
0.833216 0.357538 0.279723
0.846690 0.372930 0.295097
0.860164 0.388322 0.310471
0.871388 0.403429 0.326139
0.879612 0.418157 0.342197
0.887835 0.432885 0.358256
0.896058 0.447614 0.374315
0.904281 0.462342 0.390374
0.076293 0.107692 0.159423
0.085772 0.119290 0.171674
0.095251 0.130888 0.183924
0.104730 0.142485 0.196175
0.114209 0.154083 0.208425
0.128642 0.166068 0.219935
0.146791 0.178343 0.230891
0.164940 0.190618 0.241846
0.183089 0.202894 0.252802
0.204670 0.215363 0.263174
0.246843 0.228993 0.270043
0.289016 0.242624 0.276913
0.331189 0.256255 0.283783
0.373362 0.269885 0.290652
0.425078 0.282598 0.293504
0.480611 0.294942 0.294749
0.536144 0.307287 0.295995
0.591678 0.319632 0.297240
0.643504 0.329997 0.296622
0.686065 0.335416 0.291348
0.728626 0.340834 0.286074
0.771187 0.346252 0.280800
0.813747 0.351670 0.275526
0.831238 0.366128 0.288868
0.844550 0.382092 0.305313
0.857863 0.398057 0.321758
0.871175 0.414021 0.338202
0.882221 0.429723 0.354994
0.890245 0.445074 0.372248
0.898269 0.460424 0.389502
0.906293 0.475775 0.406756
0.914317 0.491126 0.424010
0.083028 0.117657 0.171184
0.092169 0.130062 0.184433
0.101310 0.142468 0.197681
0.110451 0.154873 0.210929
0.119593 0.167278 0.224178
0.133814 0.180447 0.237100
0.151845 0.194190 0.249777
0.169877 0.207933 0.262454
0.187908 0.221676 0.275132
0.209300 0.235655 0.287307
0.250858 0.251054 0.296471
0.292415 0.266453 0.305636
0.333973 0.281852 0.314800
0.375530 0.297251 0.323964
0.426523 0.311675 0.329157
0.481290 0.325710 0.332760
0.536056 0.339744 0.336364
0.590823 0.353779 0.339968
0.642395 0.365760 0.341510
0.685978 0.372608 0.337897
0.729562 0.379456 0.334284
0.773145 0.386305 0.330672
0.816729 0.393153 0.327059
0.835599 0.405607 0.337568
0.850350 0.418996 0.350430
0.865102 0.432385 0.363292
0.879853 0.445774 0.376155
0.891544 0.459973 0.390927
0.899156 0.475253 0.408245
0.906767 0.490532 0.425563
0.914378 0.505812 0.442881
0.921990 0.521092 0.460199
0.089866 0.127859 0.183150
0.098671 0.141098 0.197444
0.107476 0.154337 0.211739
0.116280 0.167577 0.226033
0.125085 0.180816 0.240327
0.139163 0.195197 0.254686
0.157194 0.210434 0.269094
0.175225 0.225671 0.283503
0.193257 0.240908 0.297911
0.214582 0.256428 0.311902
0.255666 0.273645 0.323395
0.296750 0.290861 0.334887
0.337835 0.308078 0.346380
0.378919 0.325295 0.357873
0.429234 0.341457 0.365447
0.483241 0.357197 0.371454
0.537248 0.372938 0.377461
0.591255 0.388678 0.383468
0.642402 0.402433 0.387452
0.686396 0.411224 0.386379
0.730390 0.420014 0.385307
0.774385 0.428805 0.384234
0.818379 0.437596 0.383162
0.838770 0.447670 0.390298
0.855228 0.457959 0.398802
0.871685 0.468247 0.407306
0.888142 0.478535 0.415811
0.900616 0.490883 0.428039
0.907779 0.505976 0.445233
0.914942 0.521069 0.462426
0.922105 0.536162 0.479620
0.929269 0.551254 0.496814
0.096703 0.138060 0.195116
0.105172 0.152133 0.210456
0.113641 0.166207 0.225796
0.122110 0.180281 0.241136
0.130578 0.194354 0.256477
0.144511 0.209947 0.272273
0.162543 0.226678 0.288412
0.180574 0.243409 0.304551
0.198606 0.260140 0.320690
0.219863 0.277200 0.336497
0.260474 0.296235 0.350318
0.301085 0.315270 0.364139
0.341696 0.334304 0.377960
0.382308 0.353339 0.391782
0.431945 0.371239 0.401738
0.485192 0.388685 0.410148
0.538440 0.406131 0.418558
0.591688 0.423578 0.426968
0.642409 0.439106 0.433394
0.686814 0.449839 0.434862
0.731219 0.460572 0.436329
0.775625 0.471305 0.437797
0.820030 0.482038 0.439264
0.841942 0.489733 0.443028
0.860105 0.496921 0.447174
0.878268 0.504109 0.451320
0.896431 0.511297 0.455467
0.909688 0.521793 0.465151
0.916403 0.536699 0.482221
0.923118 0.551605 0.499290
0.929832 0.566511 0.516359
0.936547 0.581417 0.533428
0.103541 0.148261 0.207082
0.111673 0.163169 0.223468
0.119806 0.178077 0.239854
0.127939 0.192985 0.256240
0.136071 0.207893 0.272626
0.149860 0.224696 0.289860
0.167892 0.242922 0.307729
0.185923 0.261147 0.325599
0.203954 0.279372 0.343469
0.225144 0.297973 0.361092
0.265282 0.318825 0.377242
0.305420 0.339678 0.393391
0.345558 0.360531 0.409541
0.385696 0.381383 0.425690
0.434656 0.401021 0.438028
0.487144 0.420173 0.448841
0.539632 0.439325 0.459654
0.592120 0.458477 0.470468
0.642416 0.475779 0.479336
0.687232 0.488454 0.483344
0.732048 0.501130 0.487352
0.776865 0.513805 0.491359
0.821681 0.526481 0.495367
0.845114 0.531795 0.495758
0.864982 0.535883 0.495546
0.884851 0.539971 0.495334
0.904720 0.544058 0.495123
0.918760 0.552702 0.502264
0.925026 0.567422 0.519208
0.931293 0.582141 0.536153
0.937559 0.596860 0.553098
0.943826 0.611580 0.570042
0.109528 0.158486 0.218953
0.117511 0.174346 0.236561
0.125494 0.190205 0.254169
0.133477 0.206065 0.271777
0.141460 0.221924 0.289385
0.155371 0.239883 0.307964
0.173728 0.259415 0.327271
0.192085 0.278948 0.346578
0.210442 0.298481 0.365885
0.231900 0.318423 0.385004
0.271965 0.340821 0.403002
0.312030 0.363220 0.421000
0.352096 0.385618 0.438997
0.392161 0.408016 0.456995
0.440664 0.429055 0.471166
0.492541 0.449550 0.483806
0.544419 0.470045 0.496446
0.596297 0.490540 0.509086
0.646098 0.509165 0.519753
0.690706 0.523116 0.525490
0.735314 0.537067 0.531226
0.779922 0.551018 0.536963
