filter/Red and Blue 2/lut/Impulse 02_S.cube
# LUT by SparkleStock. Enhanced with VOXCOLOR algorithms.
LUT_3D_SIZE 8
DOMAIN_MIN 0.000000 0.000000 0.000000
DOMAIN_MAX 0.903226 0.903226 0.903226
0.019536 0.015629 0.015629
0.095191 0.019158 0.018717
0.199204 0.025641 0.021017
0.316846 0.036811 0.024956
0.434582 0.051857 0.031013
0.538060 0.069313 0.038985
0.616133 0.088440 0.048115
0.669274 0.110245 0.058151
0.025491 0.023128 0.031069
0.105131 0.029247 0.022801
0.218999 0.047570 0.022106
0.348451 0.070124 0.024991
0.477123 0.091936 0.031063
0.588911 0.111100 0.041255
0.670058 0.128612 0.056653
0.716739 0.146987 0.076835
0.027114 0.030234 0.046705
0.092950 0.045702 0.050206
0.235731 0.082147 0.030252
0.377274 0.120354 0.028146
0.509265 0.149651 0.035185
0.623646 0.168388 0.048664
0.708343 0.180835 0.070655
0.756822 0.193633 0.100068
0.031510 0.041798 0.068951
0.086260 0.066800 0.087308
0.211425 0.111153 0.071055
0.391502 0.161188 0.048055
0.541014 0.200431 0.049014
0.654641 0.222935 0.067809
0.740474 0.234286 0.097343
0.793464 0.246024 0.135363
0.043539 0.063571 0.099279
0.090825 0.096179 0.130550
0.188204 0.140432 0.133265
0.367975 0.194854 0.114866
0.556890 0.240129 0.098174
0.691787 0.271998 0.111062
0.775756 0.293293 0.151206
0.830819 0.313500 0.200899
0.063673 0.096782 0.137122
0.105154 0.137189 0.179891
0.183005 0.184463 0.208589
0.341647 0.242137 0.218625
0.547527 0.295751 0.211310
0.717138 0.332767 0.209655
0.817432 0.364164 0.241664
0.869818 0.402966 0.304248
0.088621 0.136918 0.181338
0.125001 0.188573 0.237299
0.194541 0.249059 0.293704
0.339418 0.319287 0.340121
0.537412 0.388459 0.369085
0.727470 0.437543 0.376559
0.851975 0.471829 0.390754
0.906824 0.512042 0.438267
0.113057 0.175359 0.229375
0.146434 0.242782 0.304290
0.218817 0.322745 0.384604
0.362697 0.413845 0.461844
0.553890 0.501629 0.523120
0.740992 0.570643 0.560683
0.872208 0.607743 0.572124
0.932901 0.630100 0.585086
0.019536 0.028201 0.055552
0.078257 0.034918 0.047682
0.205537 0.036584 0.045073
0.346729 0.044951 0.050463
0.478397 0.060168 0.058158
0.587168 0.082121 0.065418
0.665462 0.110625 0.072926
0.714448 0.141807 0.083830
0.029476 0.044466 0.077167
0.075806 0.073747 0.094291
0.193674 0.089071 0.098204
0.344030 0.105634 0.101487
0.492520 0.123292 0.105038
0.617750 0.141735 0.109634
0.708327 0.163033 0.116784
0.760030 0.190400 0.127770
0.039530 0.060515 0.101648
0.084602 0.104177 0.124955
0.195705 0.153477 0.130414
0.349180 0.184492 0.128409
0.505114 0.206004 0.128183
0.639572 0.221991 0.132697
0.740045 0.235904 0.143906
0.799371 0.253981 0.163687
0.051325 0.080418 0.128049
0.095671 0.130491 0.155172
0.194331 0.201400 0.167005
0.355150 0.257184 0.160007
0.520052 0.290421 0.156235
0.660086 0.307702 0.162555
0.766456 0.317950 0.180231
0.833516 0.330642 0.210309
0.068164 0.106710 0.159274
0.108735 0.157698 0.193893
0.193293 0.236604 0.222122
0.348659 0.312367 0.226554
0.534015 0.364358 0.219873
0.687402 0.391392 0.222948
0.794169 0.404732 0.243679
0.864399 0.419408 0.279526
0.089352 0.142938 0.199052
0.126610 0.195195 0.244732
0.200468 0.274999 0.295087
0.345041 0.359995 0.325445
0.537808 0.429470 0.332843
0.711211 0.470641 0.330265
0.827032 0.493317 0.341868
0.893055 0.516617 0.376872
0.111916 0.190053 0.250725
0.151419 0.248386 0.308099
0.221908 0.329418 0.379603
0.360868 0.419174 0.439237
0.547328 0.500633 0.475005
0.729898 0.557165 0.482904
0.856240 0.589340 0.482205
0.918887 0.615265 0.498329
0.135071 0.243124 0.314400
0.181455 0.309833 0.380909
0.258910 0.397431 0.467180
0.400295 0.493084 0.546868
0.581166 0.580865 0.605076
0.754829 0.647454 0.635032
0.877295 0.684528 0.635730
0.937949 0.703870 0.630748
0.018748 0.044712 0.106109
0.059112 0.057285 0.105782
0.167260 0.057914 0.093575
0.342409 0.063058 0.094203
0.503293 0.077931 0.099716
0.622821 0.102856 0.103317
0.702714 0.137492 0.105931
0.750416 0.176743 0.114082
0.026803 0.064051 0.131232
0.070695 0.100363 0.156097
0.170264 0.121197 0.176140
0.333705 0.132337 0.182215
0.500795 0.145723 0.183809
0.638872 0.165270 0.182662
0.737922 0.193219 0.180135
0.795728 0.230794 0.181207
0.038942 0.089546 0.162524
0.089833 0.140818 0.190570
0.182737 0.196358 0.224505
0.334358 0.223476 0.233222
0.501162 0.241461 0.234135
0.649041 0.258564 0.234795
0.762008 0.278533 0.238210
0.832816 0.306675 0.248435
0.054528 0.120011 0.200348
0.105368 0.179288 0.229030
0.192709 0.258613 0.267085
0.334956 0.316714 0.280666
0.503099 0.347482 0.278767
0.658216 0.364007 0.276893
0.780142 0.377638 0.283586
0.862088 0.396185 0.302468
0.072124 0.158139 0.244425
0.122510 0.218389 0.276459
0.203144 0.305765 0.321052
0.338008 0.388376 0.343946
0.511330 0.443060 0.342679
0.672820 0.468921 0.335473
0.797614 0.480474 0.338499
0.884602 0.493971 0.358592
0.093196 0.204956 0.294957
0.145655 0.264858 0.334677
0.221879 0.349384 0.388678
0.350209 0.441047 0.428717
0.522685 0.516796 0.439272
0.691801 0.561327 0.428982
0.819825 0.580979 0.421263
0.903171 0.595135 0.432418
0.117359 0.260640 0.353914
0.176786 0.324531 0.403493
0.255993 0.403446 0.465537
0.381311 0.493999 0.525351
0.548177 0.578841 0.557116
0.717640 0.640121 0.556060
0.844299 0.672871 0.538461
0.919528 0.690391 0.529604
0.145028 0.321478 0.421400
0.215183 0.392196 0.478591
0.304934 0.468621 0.544300
0.434204 0.556955 0.615646
0.597363 0.641240 0.665304
0.755990 0.706968 0.682290
0.870603 0.746403 0.668721
0.934707 0.765602 0.647680
0.017346 0.063082 0.162622
0.043878 0.082770 0.172995
0.119924 0.096194 0.166661
0.307235 0.098546 0.143838
0.504373 0.111481 0.136637
0.648061 0.137496 0.137455
0.734364 0.174133 0.138371
0.783341 0.216858 0.146532
0.021558 0.084499 0.194376
0.062647 0.130381 0.227924
0.142897 0.159005 0.256998
0.297512 0.173936 0.267373
0.489326 0.187041 0.264495
0.653309 0.207909 0.255363
0.763605 0.241037 0.245313
0.826787 0.285720 0.242310
0.032091 0.116531 0.236797
0.080546 0.174767 0.271692
0.165845 0.235051 0.318132
0.304602 0.268065 0.343926
0.485928 0.286020 0.347145
0.654767 0.302575 0.341250
0.780050 0.325661 0.336112
0.859445 0.359554 0.338480
0.047660 0.156998 0.289398
0.100694 0.224227 0.320955
0.191130 0.303427 0.366122
0.317854 0.363068 0.398488
0.487989 0.392279 0.403408
0.655642 0.407028 0.397666
0.788629 0.421659 0.395671
0.880564 0.443449 0.403308
0.067074 0.205772 0.345923
0.123933 0.278018 0.378180
0.215662 0.363323 0.420990
0.335356 0.442582 0.455799
0.495154 0.494450 0.462506
0.660088 0.517877 0.452309
0.797065 0.528080 0.444831
0.895733 0.541125 0.452118
0.089477 0.263707 0.405560
0.152970 0.336616 0.441896
0.246654 0.419062 0.486389
0.361260 0.503377 0.526720
0.512620 0.574858 0.540326
0.674406 0.618047 0.527482
0.810091 0.635339 0.508581
0.907123 0.644114 0.504326
0.116289 0.329060 0.468657
0.191344 0.402657 0.510461
0.292216 0.479185 0.558154
0.404980 0.558111 0.605803
0.550442 0.635808 0.632240
0.704892 0.695782 0.625725
0.830212 0.727516 0.597498
0.916869 0.739482 0.574404
0.150518 0.395211 0.533535
0.239840 0.471737 0.580162
0.351395 0.543993 0.629192
0.467748 0.616113 0.680136
0.610156 0.689971 0.718449
0.753145 0.752582 0.725971
0.861269 0.792848 0.702508
0.930158 0.811661 0.672506
0.015802 0.085722 0.228493
0.033974 0.111159 0.250364
0.081890 0.139765 0.260007
0.225773 0.156403 0.237178
0.469764 0.166225 0.192070
0.665922 0.188096 0.170530
0.766169 0.225232 0.174899
0.817932 0.269013 0.190190
0.017858 0.109401 0.269710
0.053607 0.163352 0.310753
0.111135 0.204183 0.346331
0.234954 0.236650 0.363569
0.452630 0.260037 0.353431
0.656910 0.281816 0.332752
0.786798 0.312873 0.316126
0.855621 0.356910 0.313946
0.026566 0.144051 0.322293
0.068960 0.209200 0.363679
0.142394 0.278633 0.413713
0.262497 0.325110 0.448718
0.452600 0.355466 0.459262
0.648843 0.374857 0.448802
0.794668 0.395288 0.432801
0.880798 0.427194 0.429281
0.041070 0.189930 0.383608
0.091176 0.264905 0.421256
0.177229 0.347304 0.467844
0.295063 0.412912 0.508746
0.462836 0.450271 0.526153
0.645652 0.466355 0.520581
0.795950 0.477296 0.508386
0.894694 0.495914 0.506915
0.061537 0.243272 0.447266
0.121335 0.328100 0.482907
0.217049 0.414653 0.523520
0.336820 0.491398 0.561532
0.482502 0.542438 0.579481
0.648359 0.563539 0.572622
0.797490 0.569597 0.558062
0.902719 0.578755 0.555249
0.086555 0.306583 0.511735
0.157786 0.395787 0.548302
0.261967 0.480446 0.586234
0.382773 0.558144 0.621472
0.514286 0.621148 0.639793
0.663079 0.658399 0.630335
0.803349 0.671178 0.607280
0.908591 0.674847 0.594212
0.117430 0.378895 0.575097
0.203314 0.467072 0.613511
0.317431 0.546224 0.651281
0.438883 0.618250 0.686473
0.563857 0.683512 0.708484
0.697514 0.734851 0.701389
0.820110 0.762412 0.670997
0.914446 0.769843 0.643101
0.158039 0.450597 0.634818
0.260959 0.536398 0.674317
0.385377 0.610128 0.712138
0.508869 0.674598 0.746666
0.629920 0.734593 0.773763
0.751805 0.787612 0.776166
0.854091 0.825317 0.750641
0.926421 0.842925 0.718761
0.014762 0.113860 0.306763
0.029405 0.142456 0.338795
0.060019 0.181794 0.365027
0.149415 0.220045 0.363472
0.369011 0.245936 0.315638
0.631519 0.263680 0.251362
0.798749 0.291219 0.225682
0.854093 0.334784 0.251810
0.017445 0.140272 0.357885
0.048687 0.197947 0.402943
0.087891 0.249479 0.442357
0.175442 0.302870 0.468979
0.369849 0.348559 0.464875
0.620955 0.379912 0.430688
0.806202 0.406343 0.397892
0.882736 0.441015 0.396075
0.026016 0.175494 0.416281
0.063846 0.244657 0.460589
0.125449 0.322497 0.509213
0.221278 0.385500 0.547818
0.391582 0.437050 0.566437
0.617279 0.471782 0.555172
0.803731 0.492394 0.529371
0.898600 0.512847 0.518807
0.040493 0.222066 0.478937
0.087561 0.302019 0.521201
0.164901 0.389505 0.566884
0.271246 0.465073 0.608683
0.425504 0.518493 0.634371
0.622484 0.548523 0.634097
0.798249 0.560169 0.616458
0.905647 0.567175 0.604919
0.061472 0.276881 0.542503
0.122217 0.368734 0.582396
0.213960 0.459201 0.622685
0.331703 0.538727 0.659572
0.468377 0.596040 0.684086
0.635154 0.624543 0.685625
0.795514 0.629648 0.669975
0.907893 0.628366 0.656885
0.087946 0.338032 0.603399
0.166393 0.440211 0.643039
0.271677 0.530097 0.679212
0.397955 0.606834 0.709886
0.524665 0.666360 0.730261
0.661292 0.701526 0.729909
0.798483 0.710149 0.710632
0.909694 0.705958 0.690947
0.122042 0.408327 0.661069
0.219311 0.512859 0.700705
0.337098 0.598000 0.733989
0.468259 0.668935 0.761171
0.590638 0.726184 0.779037
0.704682 0.768777 0.778148
0.814856 0.789923 0.754987
0.913116 0.792452 0.726723
0.168062 0.483150 0.715484
0.283288 0.581571 0.753390
0.411170 0.659773 0.784532
0.543359 0.723326 0.809215
0.659602 0.775027 0.826817
0.761986 0.818225 0.829940
0.850732 0.849721 0.810743
0.924090 0.864538 0.781748
0.014510 0.145764 0.395455
0.029238 0.175875 0.433955
0.053610 0.219969 0.470142
0.109831 0.274433 0.491405
0.259637 0.328850 0.478855
0.527962 0.364471 0.414072
0.775962 0.384503 0.344991
0.887740 0.412026 0.336065
0.019925 0.175163 0.453457
0.050276 0.233661 0.499816
0.082237 0.289598 0.538573
0.144220 0.356521 0.572344
0.285128 0.425549 0.585534
0.532766 0.478951 0.558902
0.778083 0.509120 0.510159
0.905941 0.530529 0.487496
0.030491 0.211519 0.512425
0.067721 0.281774 0.556912
0.125265 0.362742 0.601397
0.200822 0.437151 0.640108
0.333686 0.507436 0.664796
0.551746 0.564335 0.660814
0.778102 0.595318 0.629688
0.912979 0.607408 0.604239
0.046803 0.257470 0.570732
0.094178 0.338789 0.614361
0.167818 0.428577 0.657201
0.263677 0.511895 0.696411
0.395089 0.580462 0.724204
0.581805 0.630600 0.730677
0.779397 0.654077 0.711794
0.913507 0.655591 0.688466
0.069326 0.312381 0.627687
0.131675 0.404859 0.670163
0.220174 0.497207 0.709582
0.331553 0.580926 0.744363
0.459938 0.647549 0.769837
0.618384 0.690913 0.778442
0.785428 0.705540 0.764932
0.911643 0.699460 0.743478
0.096784 0.370567 0.679907
0.180845 0.475412 0.722009
0.284653 0.568036 0.757895
0.407616 0.646812 0.786585
0.535164 0.708818 0.806676
0.664491 0.749311 0.814011
0.796545 0.761891 0.801629
0.910751 0.754490 0.779235
0.130135 0.432410 0.727268
0.238864 0.545759 0.769614
0.357306 0.635496 0.801843
0.488357 0.707489 0.825211
0.614881 0.763024 0.839908
0.721468 0.802469 0.844912
0.819199 0.821351 0.832901
0.912542 0.821787 0.809621
0.176332 0.501025 0.773319
0.306175 0.612081 0.814084
0.435671 0.695498 0.842578
0.568478 0.759476 0.861313
0.688453 0.808318 0.871965
0.782822 0.845297 0.875651
0.856935 0.871148 0.866820
0.922760 0.883532 0.847288
0.014967 0.177510 0.483871
0.031702 0.210524 0.525672
0.056898 0.255932 0.563217
0.100430 0.316776 0.595812
0.202228 0.389530 0.614200
0.404451 0.459078 0.600723
0.675220 0.497661 0.536493
0.882566 0.510088 0.471144
0.024608 0.209471 0.542172
0.056889 0.269856 0.590265
0.090665 0.326207 0.625862
0.143399 0.396502 0.660882
0.247080 0.476766 0.687567
0.435224 0.551687 0.689172
0.689000 0.598907 0.649049
0.892371 0.617225 0.598247
0.039172 0.249773 0.597449
0.079666 0.321749 0.644110
0.140320 0.401523 0.685958
0.208493 0.477583 0.721514
0.312498 0.554866 0.749357
0.482668 0.625875 0.757856
0.709288 0.673236 0.732314
0.897361 0.691166 0.690869
0.059465 0.298417 0.649518
0.110608 0.380221 0.695376
0.187122 0.468582 0.737191
0.281546 0.552833 0.773674
0.392016 0.626973 0.800634
0.542586 0.688492 0.810807
0.734733 0.728297 0.793891
0.899873 0.740500 0.760031
0.085461 0.354426 0.698667
0.151678 0.444979 0.743160
0.241930 0.535320 0.782478
0.352147 0.619419 0.815961
0.471689 0.690571 0.840452
0.608253 0.743988 0.850258
0.764753 0.773919 0.838222
0.902533 0.779133 0.810650
0.115271 0.413382 0.743410
0.203165 0.512313 0.786413
0.307477 0.602272 0.822260
0.427402 0.681070 0.850386
0.551327 0.745696 0.870010
0.673515 0.792832 0.878494
0.796534 0.816994 0.869776
0.906775 0.819186 0.846857
0.146662 0.468303 0.780839
0.262655 0.577431 0.824187
0.381587 0.665866 0.856226
0.509340 0.737734 0.878223
0.632399 0.793473 0.891290
0.739763 0.834164 0.896531
0.831782 0.857584 0.891158
0.912915 0.863574 0.874068
0.186841 0.521707 0.814124
0.328402 0.636487 0.857397
0.460263 0.721700 0.885354
0.591334 0.785683 0.901136
0.709436 0.833070 0.908012
0.803203 0.867100 0.908977
0.870535 0.891099 0.906370
0.924578 0.904738 0.896931
