filter/Red and Blue 2/lut/Midnight 05_S.cube
# LUT by SparkleStock. Enhanced with VOXCOLOR algorithms.
LUT_3D_SIZE 5
DOMAIN_MIN 0.000000 0.000000 0.000000
DOMAIN_MAX 0.903226 0.903226 0.903226
0.078144 0.066422 0.082051
0.144409 0.068636 0.078239
0.257639 0.074134 0.076364
0.404561 0.091150 0.082414
0.512348 0.112474 0.090228
0.085305 0.084304 0.105684
0.182566 0.109484 0.085803
0.350777 0.150858 0.077117
0.512913 0.166434 0.085187
0.581637 0.158739 0.107128
0.092000 0.108189 0.134436
0.190657 0.138537 0.119429
0.376606 0.213337 0.102459
0.543039 0.239292 0.111767
0.613615 0.212294 0.142576
0.102824 0.145228 0.177660
0.200690 0.161667 0.173800
0.377119 0.206137 0.164753
0.546548 0.262705 0.177535
0.632443 0.264814 0.205945
0.127047 0.184261 0.234661
0.234105 0.210737 0.246602
0.412617 0.237977 0.243274
0.580194 0.283809 0.256888
0.673987 0.343727 0.302607
0.091851 0.099437 0.138509
0.169569 0.086325 0.114169
0.322336 0.087978 0.122773
0.478225 0.110443 0.128414
0.564660 0.142517 0.119619
0.108000 0.136389 0.176363
0.198287 0.188526 0.215700
0.396646 0.217418 0.222346
0.588064 0.228952 0.217545
0.655890 0.225093 0.197437
0.134003 0.181616 0.233835
0.223375 0.265005 0.275690
0.419283 0.346366 0.262978
0.622921 0.372307 0.255606
0.717825 0.349725 0.254590
0.164477 0.234831 0.299876
0.253010 0.309521 0.352934
0.417974 0.380395 0.333049
0.620109 0.437154 0.298335
0.745211 0.460137 0.312000
0.211451 0.300638 0.381947
0.304707 0.374369 0.445245
0.449485 0.411166 0.441404
0.630786 0.444281 0.403543
0.752939 0.507313 0.408045
0.120934 0.149852 0.227839
0.173841 0.150384 0.213706
0.338096 0.129286 0.168651
0.504399 0.147030 0.170706
0.592980 0.182910 0.159586
0.152096 0.204715 0.283139
0.232715 0.255687 0.342339
0.400798 0.256753 0.344447
0.597779 0.263718 0.332592
0.688206 0.278650 0.293702
0.198481 0.279110 0.357164
0.282969 0.359076 0.426110
0.419305 0.428829 0.463341
0.635306 0.447120 0.451864
0.778297 0.440446 0.425155
0.250189 0.356966 0.441072
0.332908 0.434386 0.504891
0.432890 0.517506 0.538020
0.641824 0.572971 0.492169
0.815282 0.594565 0.479431
0.302942 0.434445 0.525012
0.384001 0.503952 0.582984
0.465640 0.558179 0.615280
0.644107 0.597267 0.573560
0.807989 0.647938 0.535971
0.172382 0.219473 0.348560
0.217688 0.248013 0.366615
0.310361 0.263877 0.344598
0.521157 0.213031 0.211012
0.622907 0.246015 0.216171
0.220951 0.290709 0.416172
0.290520 0.349889 0.471587
0.390227 0.376399 0.484520
0.585874 0.322297 0.376439
0.698333 0.348529 0.362657
0.276759 0.386251 0.496160
0.351340 0.447247 0.551082
0.433138 0.499764 0.595524
0.616326 0.484870 0.555987
0.781822 0.488933 0.539711
0.332924 0.475228 0.566985
0.405461 0.531302 0.612961
0.474544 0.585199 0.651712
0.586256 0.641261 0.682711
0.807202 0.645035 0.650781
0.381136 0.547708 0.636065
0.447154 0.591708 0.669730
0.509651 0.632594 0.698731
0.595078 0.683772 0.722355
0.798972 0.715116 0.674291
0.239781 0.299177 0.463618
0.291457 0.348985 0.508542
0.365123 0.406682 0.536363
0.490486 0.423904 0.493486
0.654707 0.367642 0.353618
0.294495 0.381320 0.538224
0.360925 0.446322 0.587429
0.427987 0.498652 0.614087
0.547176 0.515158 0.582249
0.711906 0.470985 0.467757
0.350597 0.480427 0.609287
0.412929 0.528324 0.645129
0.472856 0.572960 0.675849
0.587092 0.597845 0.667626
0.762111 0.571354 0.595492
0.397638 0.564187 0.664221
0.456102 0.598344 0.690436
0.514521 0.632415 0.714796
0.591785 0.670925 0.740032
0.775406 0.671863 0.704096
0.434557 0.617073 0.704046
0.489910 0.645692 0.725225
0.552414 0.677695 0.745581
0.625369 0.714041 0.766657
0.744215 0.742414 0.766400
