filter/Red and Blue 2/lut/Midnight 04_S.cube
# LUT by SparkleStock. Enhanced with VOXCOLOR algorithms.
LUT_3D_SIZE 32
0.085958 0.019536 0.062515
0.099949 0.019394 0.061192
0.113939 0.019252 0.059868
0.127929 0.019111 0.058545
0.141920 0.018969 0.057222
0.155910 0.018827 0.055898
0.176163 0.020103 0.055953
0.197668 0.021663 0.056284
0.219174 0.023223 0.056615
0.240679 0.024782 0.056946
0.262184 0.026342 0.057277
0.287093 0.028753 0.058710
0.313703 0.031588 0.060696
0.340313 0.034424 0.062681
0.366923 0.037260 0.064666
0.393533 0.040096 0.066651
0.420143 0.043594 0.069487
0.446753 0.047753 0.073173
0.473362 0.051912 0.076860
0.499972 0.056072 0.080547
0.526582 0.060231 0.084233
0.550845 0.064500 0.088109
0.570412 0.068991 0.092363
0.589980 0.073481 0.096617
0.609547 0.077971 0.100870
0.629115 0.082461 0.105124
0.647556 0.086951 0.109197
0.660365 0.091441 0.112364
0.673173 0.095931 0.115530
0.685982 0.100421 0.118697
0.698791 0.104912 0.121864
0.711600 0.109402 0.125031
0.085439 0.022514 0.066296
0.100435 0.022893 0.064598
0.115432 0.023273 0.062899
0.130428 0.023653 0.061201
0.145425 0.024032 0.059503
0.160422 0.024412 0.057804
0.181482 0.026537 0.057598
0.203756 0.029012 0.057691
0.226030 0.031486 0.057784
0.248304 0.033961 0.057877
0.270578 0.036435 0.057970
0.296297 0.039498 0.059215
0.323740 0.042856 0.061036
0.351182 0.046213 0.062856
0.378624 0.049570 0.064676
0.406067 0.052928 0.066497
0.433075 0.056599 0.069273
0.459648 0.060585 0.073006
0.486221 0.064570 0.076738
0.512795 0.068555 0.080470
0.539368 0.072541 0.084203
0.563390 0.076487 0.088216
0.582308 0.080355 0.092790
0.601226 0.084223 0.097364
0.620144 0.088091 0.101938
0.639062 0.091960 0.106512
0.656789 0.095834 0.110930
0.668564 0.099738 0.114573
0.680339 0.103643 0.118215
0.692114 0.107548 0.121858
0.703889 0.111452 0.125500
0.715664 0.115357 0.129143
0.084919 0.025491 0.070078
0.100922 0.026392 0.068004
0.116924 0.027294 0.065931
0.132927 0.028195 0.063857
0.148930 0.029096 0.061783
0.164933 0.029997 0.059710
0.186802 0.032971 0.059244
0.209844 0.036361 0.059099
0.232886 0.039750 0.058954
0.255929 0.043139 0.058809
0.278971 0.046529 0.058664
0.305502 0.050244 0.059720
0.333777 0.054123 0.061376
0.362051 0.058002 0.063031
0.390326 0.061880 0.064687
0.418601 0.065759 0.066343
0.446007 0.069604 0.069060
0.472544 0.073416 0.072838
0.499081 0.077228 0.076616
0.525617 0.081039 0.080394
0.552154 0.084851 0.084172
0.575935 0.088474 0.088322
0.594203 0.091720 0.093217
0.612472 0.094966 0.098111
0.630740 0.098212 0.103005
0.649009 0.101458 0.107899
0.666023 0.104716 0.112664
0.676764 0.108036 0.116782
0.687505 0.111355 0.120900
0.698247 0.114674 0.125018
0.708988 0.117993 0.129136
0.719729 0.121312 0.133255
0.084399 0.028469 0.073859
0.101408 0.029892 0.071410
0.118417 0.031314 0.068962
0.135426 0.032737 0.066513
0.152435 0.034159 0.064064
0.169444 0.035582 0.061616
0.192122 0.039405 0.060889
0.215932 0.043710 0.060506
0.239743 0.048014 0.060123
0.263554 0.052318 0.059741
0.287364 0.056622 0.059358
0.314706 0.060990 0.060224
0.343813 0.065390 0.061716
0.372921 0.069790 0.063207
0.402028 0.074191 0.064698
0.431135 0.078591 0.066189
0.458939 0.082610 0.068846
0.485439 0.086248 0.072670
0.511940 0.089886 0.076494
0.538440 0.093523 0.080318
0.564940 0.097161 0.084142
0.588480 0.100461 0.088429
0.606099 0.103085 0.093644
0.623718 0.105709 0.098858
0.641337 0.108333 0.104072
0.658956 0.110957 0.109287
0.675256 0.113599 0.114398
0.684964 0.116333 0.118991
0.694671 0.119067 0.123585
0.704379 0.121800 0.128179
0.714086 0.124534 0.132773
0.723794 0.127268 0.137367
0.083879 0.031447 0.077640
0.101894 0.033391 0.074816
0.119910 0.035335 0.071993
0.137925 0.037279 0.069169
0.155941 0.039222 0.066345
0.173956 0.041166 0.063522
0.197441 0.045840 0.062534
0.222020 0.051058 0.061913
0.246599 0.056277 0.061293
0.271178 0.061496 0.060672
0.295757 0.066715 0.060052
0.323910 0.071736 0.060729
0.353850 0.076658 0.062056
0.383790 0.081579 0.063382
0.413730 0.086501 0.064708
0.443670 0.091422 0.066035
0.471871 0.095615 0.068633
0.498335 0.099079 0.072503
0.524799 0.102543 0.076372
0.551262 0.106007 0.080242
0.577726 0.109471 0.084111
0.601025 0.112448 0.088536
0.617994 0.114450 0.094070
0.634964 0.116452 0.099605
0.651933 0.118454 0.105140
0.668903 0.120456 0.110674
0.684489 0.122482 0.116131
0.693163 0.124630 0.121201
0.701837 0.126778 0.126270
0.710511 0.128927 0.131340
0.719185 0.131075 0.136409
0.727859 0.133223 0.141479
0.083359 0.034424 0.081421
0.102381 0.036890 0.078222
0.121402 0.039355 0.075024
0.140424 0.041820 0.071825
0.159446 0.044286 0.068626
0.178467 0.046751 0.065427
0.202761 0.052274 0.064179
0.228108 0.058407 0.063321
0.253456 0.064541 0.062462
0.278803 0.070675 0.061604
0.304151 0.076808 0.060745
0.333115 0.082482 0.061234
0.363887 0.087925 0.062396
0.394659 0.093368 0.063557
0.425432 0.098811 0.064719
0.456204 0.104254 0.065881
0.484804 0.108621 0.068420
0.511231 0.111911 0.072335
0.537658 0.115201 0.076250
0.564085 0.118491 0.080166
0.590512 0.121781 0.084081
0.613570 0.124435 0.088643
0.629890 0.125815 0.094497
0.646209 0.127195 0.100352
0.662529 0.128574 0.106207
0.678849 0.129954 0.112061
0.693723 0.131364 0.117865
0.701363 0.132927 0.123410
0.709003 0.134490 0.128955
0.716643 0.136053 0.134500
0.724283 0.137616 0.140045
0.731923 0.139178 0.145591
0.081894 0.036536 0.084848
0.100824 0.039294 0.081648
0.119754 0.042052 0.078447
0.138684 0.044810 0.075247
0.157615 0.047568 0.072047
0.176545 0.050326 0.068846
0.202105 0.057219 0.067336
0.228991 0.064938 0.066164
0.255877 0.072657 0.064991
0.282763 0.080377 0.063819
0.309648 0.088096 0.062646
0.339314 0.094767 0.063012
0.370370 0.100915 0.064146
0.401426 0.107062 0.065280
0.432482 0.113210 0.066415
0.463538 0.119357 0.067549
0.492242 0.123997 0.070081
0.518594 0.127128 0.074012
0.544946 0.130260 0.077943
0.571299 0.133392 0.081873
0.597651 0.136523 0.085804
0.620572 0.138854 0.090437
0.636632 0.139581 0.096474
0.652691 0.140308 0.102512
0.668750 0.141035 0.108550
0.684809 0.141763 0.114587
0.699400 0.142532 0.120604
0.706647 0.143509 0.126519
0.713893 0.144486 0.132433
0.721140 0.145464 0.138347
0.728387 0.146441 0.144261
0.735634 0.147418 0.150175
0.080239 0.038473 0.088204
0.098859 0.041478 0.085076
0.117478 0.044484 0.081949
0.136097 0.047489 0.078822
0.154716 0.050494 0.075695
0.173335 0.053499 0.072568
0.200254 0.061866 0.070795
0.228832 0.071305 0.069294
0.257410 0.080744 0.067792
0.285989 0.090183 0.066290
0.314567 0.099623 0.064788
0.344913 0.107361 0.065044
0.376143 0.114250 0.066178
0.407372 0.121138 0.067313
0.438602 0.128026 0.068447
0.469832 0.134915 0.069581
0.498581 0.139847 0.072118
0.524851 0.142823 0.076058
0.551121 0.145799 0.079998
0.577391 0.148776 0.083938
0.603661 0.151752 0.087877
0.626467 0.153759 0.092568
0.642343 0.153827 0.098761
0.658219 0.153896 0.104955
0.674096 0.153965 0.111148
0.689972 0.154033 0.117341
0.704366 0.154156 0.123546
0.711347 0.154547 0.129807
0.718329 0.154939 0.136069
0.725310 0.155331 0.142331
0.732291 0.155723 0.148593
0.739273 0.156115 0.154854
0.078585 0.040411 0.091559
0.096893 0.043663 0.088505
0.115202 0.046915 0.085452
0.133510 0.050168 0.082398
0.151818 0.053420 0.079344
0.170126 0.056672 0.076290
0.198403 0.066513 0.074255
0.228674 0.077672 0.072424
0.258944 0.088831 0.070593
0.289215 0.099990 0.068762
0.319486 0.111149 0.066930
0.350511 0.119955 0.067076
0.381915 0.127584 0.068211
0.413318 0.135214 0.069345
0.444722 0.142843 0.070479
0.476125 0.150473 0.071614
0.504921 0.155698 0.074155
0.531109 0.158518 0.078104
0.557296 0.161339 0.082053
0.583484 0.164159 0.086002
0.609671 0.166980 0.089951
0.632361 0.168664 0.094700
0.648054 0.168074 0.101048
0.663748 0.167484 0.107397
0.679441 0.166894 0.113746
0.695134 0.166304 0.120094
0.709332 0.165780 0.126487
0.716048 0.165586 0.133096
0.722764 0.165392 0.139705
0.729480 0.165199 0.146315
0.736196 0.165005 0.152924
0.742912 0.164812 0.159534
0.076931 0.042349 0.094915
0.094928 0.045848 0.091934
0.112925 0.049347 0.088954
0.130922 0.052846 0.085973
0.148919 0.056345 0.082992
0.166917 0.059845 0.080012
0.196552 0.071160 0.077714
0.228515 0.084039 0.075554
0.260478 0.096918 0.073393
0.292441 0.109797 0.071233
0.324404 0.122675 0.069073
0.356110 0.132549 0.069109
0.387687 0.140919 0.070243
0.419265 0.149289 0.071377
0.450842 0.157660 0.072512
0.482419 0.166030 0.073646
0.511261 0.171548 0.076192
0.537366 0.174213 0.080150
0.563471 0.176878 0.084108
0.589576 0.179543 0.088066
0.615682 0.182208 0.092024
0.638255 0.183569 0.096831
0.653766 0.182320 0.103335
0.669276 0.181072 0.109840
0.684787 0.179823 0.116344
0.700297 0.178574 0.122848
0.714297 0.177404 0.129428
0.720748 0.176625 0.136385
0.727199 0.175846 0.143342
0.733650 0.175066 0.150299
0.740101 0.174287 0.157256
0.746552 0.173508 0.164213
0.075277 0.044287 0.098271
0.092963 0.048033 0.095363
0.110649 0.051779 0.092456
0.128335 0.055525 0.089548
0.146021 0.059271 0.086641
0.163707 0.063017 0.083733
0.194701 0.075807 0.081174
0.228356 0.090406 0.078684
0.262012 0.105005 0.076194
0.295667 0.119603 0.073705
0.329323 0.134202 0.071215
0.361709 0.145142 0.071141
0.393460 0.154254 0.072275
0.425211 0.163365 0.073410
0.456962 0.172477 0.074544
0.488713 0.181588 0.075678
0.517600 0.187398 0.078229
0.543623 0.189908 0.082196
0.569646 0.192418 0.086164
0.595669 0.194927 0.090131
0.621692 0.197437 0.094098
0.644150 0.198474 0.098963
0.659477 0.196567 0.105622
0.674805 0.194659 0.112282
0.690132 0.192752 0.118942
0.705459 0.190845 0.125602
0.719263 0.189028 0.132369
0.725449 0.187663 0.139673
0.731634 0.186299 0.146978
0.737820 0.184934 0.154283
0.744005 0.183569 0.161587
0.750191 0.182205 0.168892
0.073969 0.047076 0.102099
0.091198 0.050727 0.099320
0.108426 0.054379 0.096540
0.125655 0.058030 0.093761
0.142884 0.061682 0.090981
0.160113 0.065333 0.088202
0.191439 0.078407 0.085654
0.225586 0.093366 0.083152
0.259732 0.108324 0.080650
0.293878 0.123283 0.078148
0.328025 0.138241 0.075646
0.361259 0.150125 0.075597
0.394038 0.160471 0.076774
0.426817 0.170818 0.077951
0.459596 0.181164 0.079128
0.492374 0.191510 0.080305
0.521707 0.198059 0.082891
0.547592 0.200809 0.086885
0.573478 0.203560 0.090880
0.599364 0.206310 0.094874
0.625249 0.209061 0.098869
0.647573 0.210161 0.103784
0.662772 0.207961 0.110538
0.677972 0.205761 0.117292
0.693171 0.203561 0.124046
0.708371 0.201361 0.130801
0.722073 0.199262 0.137661
0.728292 0.197672 0.145051
0.734511 0.196082 0.152441
0.740730 0.194492 0.159831
0.746950 0.192901 0.167221
0.753169 0.191311 0.174611
0.072835 0.050289 0.106164
0.089533 0.053676 0.103540
0.106231 0.057062 0.100916
0.122929 0.060448 0.098292
0.139627 0.063835 0.095668
0.156325 0.067221 0.093044
0.187472 0.079984 0.090644
0.221509 0.094622 0.088288
0.255545 0.109260 0.085933
0.289582 0.123899 0.083577
0.323618 0.138537 0.081222
0.357786 0.151302 0.081264
0.392019 0.163130 0.082505
0.426253 0.174959 0.083746
0.460486 0.186787 0.084987
0.494719 0.198615 0.086228
0.524696 0.206124 0.088864
0.550417 0.209314 0.092895
0.576139 0.212504 0.096927
0.601860 0.215693 0.100958
0.627581 0.218883 0.104989
0.649761 0.220239 0.109949
0.664860 0.217929 0.116768
0.679958 0.215619 0.123586
0.695057 0.213310 0.130404
0.710156 0.211000 0.137222
0.723805 0.208802 0.144128
0.730207 0.207166 0.151473
0.736609 0.205530 0.158817
0.743011 0.203894 0.166161
0.749413 0.202258 0.173506
0.755816 0.200622 0.180850
0.071700 0.053503 0.110229
0.087868 0.056624 0.107760
0.104035 0.059745 0.105292
0.120203 0.062866 0.102824
0.136370 0.065987 0.100355
0.152538 0.069108 0.097887
0.183505 0.081560 0.095634
0.217432 0.095878 0.093425
0.251359 0.110197 0.091216
0.285285 0.124515 0.089007
0.319212 0.138833 0.086797
0.354313 0.152479 0.086931
0.390001 0.165789 0.088236
0.425689 0.179100 0.089541
0.461376 0.192410 0.090846
0.497064 0.205720 0.092151
0.527686 0.214190 0.094838
0.553243 0.217818 0.098906
0.578799 0.221447 0.102973
0.604355 0.225076 0.107041
0.629912 0.228705 0.111109
0.651949 0.230317 0.116115
0.666947 0.227898 0.122997
0.681945 0.225478 0.129880
0.696943 0.223058 0.136762
0.711941 0.220639 0.143644
0.725537 0.218342 0.150596
0.732122 0.216660 0.157895
0.738707 0.214979 0.165193
0.745292 0.213297 0.172492
0.751877 0.211615 0.179790
0.758462 0.209933 0.187089
0.070566 0.056717 0.114294
0.086203 0.059573 0.111981
0.101840 0.062429 0.109668
0.117477 0.065285 0.107355
0.133114 0.068140 0.105042
0.148751 0.070996 0.102729
0.179538 0.083137 0.100624
0.213355 0.097135 0.098562
0.247172 0.111133 0.096499
0.280989 0.125131 0.094436
0.314806 0.139129 0.092373
0.350840 0.153656 0.092598
0.387982 0.168448 0.093967
0.425124 0.183241 0.095336
0.462267 0.198033 0.096706
0.499409 0.212825 0.098075
0.530676 0.222255 0.100812
0.556068 0.226323 0.104916
0.581460 0.230391 0.109020
0.606851 0.234459 0.113125
0.632243 0.238526 0.117229
0.654137 0.240395 0.122281
0.669034 0.237866 0.129227
0.683932 0.235336 0.136174
0.698829 0.232807 0.143120
0.713727 0.230278 0.150066
0.727269 0.227882 0.157064
0.734037 0.226154 0.164317
0.740805 0.224427 0.171569
0.747573 0.222699 0.178822
0.754341 0.220972 0.186075
0.761109 0.219245 0.193328
0.069432 0.059931 0.118358
0.084538 0.062522 0.116201
0.099644 0.065112 0.114044
0.114751 0.067703 0.111886
0.129857 0.070293 0.109729
0.144963 0.072883 0.107571
0.175571 0.084713 0.105615
0.209278 0.098391 0.103698
0.242985 0.112069 0.101782
0.276692 0.125747 0.099865
0.310400 0.139424 0.097949
0.347367 0.154833 0.098265
0.385963 0.171107 0.099698
0.424560 0.187382 0.101132
0.463157 0.203656 0.102565
0.501754 0.219930 0.103998
0.533666 0.230321 0.106785
0.558893 0.234828 0.110926
0.584120 0.239335 0.115067
0.609347 0.243841 0.119208
0.634574 0.248348 0.123349
0.656325 0.250473 0.128447
0.671121 0.247834 0.135457
0.685918 0.245195 0.142467
0.700715 0.242556 0.149478
0.715512 0.239916 0.156488
0.729001 0.237422 0.163531
0.735952 0.235648 0.170738
0.742903 0.233875 0.177945
0.749854 0.232102 0.185153
0.756805 0.230329 0.192360
0.763756 0.228556 0.199567
0.068510 0.063925 0.122754
0.083209 0.066296 0.120734
0.097909 0.068667 0.118714
0.112608 0.071038 0.116693
0.127307 0.073409 0.114673
0.142006 0.075780 0.112653
0.172374 0.086952 0.110891
0.205876 0.099884 0.109180
0.239377 0.112816 0.107469
0.272878 0.125748 0.105759
0.306380 0.138680 0.104048
0.343873 0.154133 0.104577
0.383362 0.170847 0.106225
0.422850 0.187560 0.107873
0.462339 0.204273 0.109521
0.501828 0.220987 0.111169
0.534316 0.232091 0.114153
0.559804 0.237586 0.118472
0.585292 0.243081 0.122792
0.610780 0.248576 0.127111
0.636267 0.254070 0.131431
0.658173 0.256999 0.136618
0.672915 0.254794 0.143541
0.687657 0.252589 0.150465
0.702399 0.250385 0.157388
0.717141 0.248180 0.164312
0.730614 0.246092 0.171261
0.737738 0.244589 0.178335
0.744863 0.243086 0.185409
0.751988 0.241582 0.192484
0.759113 0.240079 0.199558
0.766237 0.238576 0.206633
0.067801 0.068699 0.127480
0.082217 0.070896 0.125579
0.096632 0.073093 0.123678
0.111048 0.075290 0.121777
0.125464 0.077487 0.119875
0.139879 0.079684 0.117974
0.169948 0.089851 0.116453
0.203148 0.101613 0.115007
0.236347 0.113374 0.113562
0.269547 0.125135 0.112117
0.302747 0.136896 0.110671
0.340358 0.151557 0.111532
0.380177 0.167666 0.113546
0.419995 0.183776 0.115560
0.459813 0.199885 0.117574
0.499631 0.215995 0.119588
0.532627 0.227566 0.122915
0.558801 0.234597 0.127555
0.584975 0.241629 0.132194
0.611149 0.248661 0.136834
0.637322 0.255693 0.141474
0.659683 0.259972 0.146795
0.674416 0.258746 0.153481
0.689148 0.257520 0.160166
0.703881 0.256294 0.166852
0.718614 0.255069 0.173538
0.732106 0.253894 0.180252
0.739396 0.252976 0.187106
0.746685 0.252058 0.193961
0.753974 0.251141 0.200816
0.761264 0.250223 0.207671
0.768553 0.249305 0.214526
0.067092 0.073473 0.132207
0.081224 0.075496 0.130425
0.095356 0.077519 0.128642
0.109488 0.079542 0.126860
0.123620 0.081566 0.125078
0.137753 0.083589 0.123295
0.167523 0.092751 0.122015
0.200420 0.103342 0.120835
0.233318 0.113932 0.119655
0.266216 0.124522 0.118474
0.299113 0.135113 0.117294
0.336844 0.148980 0.118488
0.376992 0.164486 0.120868
0.417139 0.179992 0.123248
0.457286 0.195497 0.125628
0.497434 0.211003 0.128008
0.530938 0.223040 0.131678
0.557798 0.231609 0.136637
0.584658 0.240178 0.141597
0.611518 0.248746 0.146557
0.638378 0.257315 0.151516
0.661192 0.262945 0.156972
0.675916 0.262698 0.163420
0.690639 0.262451 0.169868
0.705363 0.262204 0.176316
0.720087 0.261957 0.182763
0.733599 0.261696 0.189242
0.741053 0.261363 0.195878
0.748507 0.261031 0.202513
0.755961 0.260699 0.209148
0.763415 0.260366 0.215784
0.770869 0.260034 0.222419
0.066383 0.078246 0.136933
0.080232 0.080096 0.135270
0.094080 0.081945 0.133607
0.107929 0.083795 0.131943
0.121777 0.085644 0.130280
0.135626 0.087494 0.128616
0.165097 0.095651 0.127577
0.197693 0.105071 0.126662
0.230288 0.114490 0.125747
0.262884 0.123909 0.124832
0.295480 0.133329 0.123918
0.333330 0.146403 0.125443
0.373807 0.161305 0.128189
0.414283 0.176207 0.130935
0.454760 0.191109 0.133681
0.495237 0.206011 0.136427
0.529248 0.218515 0.140440
0.556794 0.228621 0.145720
0.584340 0.238726 0.151000
0.611887 0.248832 0.156280
0.639433 0.258937 0.161559
0.662702 0.265918 0.167149
0.677416 0.266650 0.173359
0.692131 0.267382 0.179569
0.706845 0.268114 0.185779
0.721560 0.268845 0.191989
0.735092 0.269497 0.198233
0.742710 0.269751 0.204649
0.750329 0.270004 0.211065
0.757948 0.270257 0.217481
0.765566 0.270510 0.223897
0.773185 0.270763 0.230312
0.065674 0.083020 0.141660
0.079239 0.084696 0.140115
0.092804 0.086371 0.138571
0.106369 0.088047 0.137026
0.119934 0.089723 0.135482
0.133499 0.091398 0.133937
0.162671 0.098551 0.133139
0.194965 0.106800 0.132489
0.227259 0.115048 0.131840
0.259553 0.123296 0.131190
0.291847 0.131545 0.130541
0.329815 0.143827 0.132399
0.370622 0.158125 0.135511
0.411428 0.172423 0.138622
0.452234 0.186721 0.141734
0.493040 0.201020 0.144846
0.527559 0.213990 0.149202
0.555791 0.225632 0.154802
0.584023 0.237275 0.160402
0.612255 0.248917 0.166002
0.640488 0.260559 0.171602
0.664211 0.268891 0.177326
0.678916 0.270602 0.183299
0.693622 0.272312 0.189271
0.708327 0.274023 0.195243
0.723032 0.275734 0.201215
0.736584 0.277299 0.207224
0.744368 0.278138 0.213421
0.752151 0.278976 0.219617
0.759934 0.279815 0.225813
0.767718 0.280653 0.232009
0.775501 0.281492 0.238206
0.064997 0.087936 0.146575
0.078363 0.089523 0.145141
0.091730 0.091110 0.143706
0.105097 0.092697 0.142271
0.118464 0.094284 0.140836
0.131830 0.095872 0.139402
0.160779 0.102240 0.138804
0.192844 0.109564 0.138374
0.224909 0.116889 0.137944
0.256975 0.124213 0.137514
0.289040 0.131538 0.137085
0.327117 0.143103 0.139233
0.368201 0.156788 0.142671
0.409284 0.170474 0.146110
0.450368 0.184159 0.149548
0.491452 0.197844 0.152986
0.526427 0.211025 0.157663
0.555293 0.223701 0.163581
0.584160 0.236377 0.169498
0.613026 0.249053 0.175415
0.641892 0.261729 0.181332
0.666036 0.271178 0.187257
0.680736 0.274173 0.193195
0.695435 0.277167 0.199134
0.710134 0.280161 0.205072
0.724834 0.283156 0.211011
0.738408 0.285900 0.216947
0.746359 0.287394 0.222872
0.754310 0.288889 0.228797
0.762262 0.290383 0.234722
0.770213 0.291877 0.240647
0.778164 0.293371 0.246571
0.064382 0.093135 0.151869
0.077721 0.094804 0.150526
0.091061 0.096474 0.149182
0.104400 0.098143 0.147839
0.117739 0.099813 0.146496
0.131079 0.101482 0.145153
0.159954 0.107506 0.144677
0.191937 0.114401 0.144375
0.223920 0.121295 0.144074
0.255903 0.128190 0.143772
0.287886 0.135084 0.143470
0.326052 0.146085 0.145826
0.367309 0.159139 0.149511
0.408566 0.172193 0.153196
0.449824 0.185248 0.156881
0.491081 0.198302 0.160566
0.526408 0.211181 0.165523
0.555805 0.223884 0.171751
0.585202 0.236588 0.177980
0.614599 0.249291 0.184208
0.643996 0.261995 0.190436
0.668494 0.272093 0.196693
0.683194 0.276981 0.203006
0.697893 0.281869 0.209320
0.712592 0.286757 0.215634
0.727291 0.291645 0.221947
0.740895 0.296100 0.228134
0.749020 0.298390 0.233683
0.757145 0.300680 0.239233
0.765270 0.302970 0.244783
0.773395 0.305260 0.250333
0.781520 0.307551 0.255882
0.063768 0.098334 0.157163
0.077080 0.100086 0.155911
0.090391 0.101838 0.154659
0.103703 0.103589 0.153407
0.117015 0.105341 0.152156
0.130327 0.107093 0.150904
0.159129 0.112772 0.150550
0.191030 0.119237 0.150377
0.222930 0.125701 0.150203
0.254831 0.132166 0.150029
0.286731 0.138631 0.149855
0.324986 0.149067 0.152419
0.366417 0.161490 0.156351
0.407848 0.173913 0.160283
0.449279 0.186336 0.164215
0.490711 0.198759 0.168147
0.526390 0.211336 0.173383
0.556318 0.224067 0.179922
0.586245 0.236798 0.186461
0.616173 0.249529 0.193001
0.646100 0.262260 0.199540
0.670952 0.273008 0.206129
0.685651 0.279789 0.212818
0.700351 0.286571 0.219506
0.715050 0.293353 0.226195
0.729749 0.300135 0.232884
0.743382 0.306300 0.239320
0.751680 0.309386 0.244495
0.759979 0.312472 0.249669
0.768278 0.315558 0.254844
0.776577 0.318644 0.260019
0.784875 0.321730 0.265194
0.063153 0.103533 0.162456
0.076438 0.105367 0.161296
0.089722 0.107201 0.160136
0.103007 0.109036 0.158975
0.116291 0.110870 0.157815
0.129575 0.112704 0.156655
0.158305 0.118038 0.156423
0.190123 0.124073 0.156378
0.221941 0.130108 0.156332
0.253759 0.136142 0.156286
0.285577 0.142177 0.156240
0.323920 0.152050 0.159011
0.365525 0.163841 0.163190
0.407130 0.175633 0.167369
0.448735 0.187425 0.171549
0.490340 0.199217 0.175728
0.526372 0.211492 0.181242
0.556830 0.224250 0.188093
0.587288 0.237008 0.194943
0.617746 0.249767 0.201793
0.648205 0.262525 0.208644
0.673410 0.273923 0.215565
0.688109 0.282598 0.222629
0.702808 0.291273 0.229693
0.717508 0.299949 0.236756
0.732207 0.308624 0.243820
0.745868 0.316500 0.250507
0.754341 0.320382 0.255306
0.762813 0.324264 0.260106
0.771286 0.328146 0.264905
0.779759 0.332027 0.269705
0.788231 0.335909 0.274505
0.062539 0.108732 0.167750
0.075796 0.110649 0.166681
0.089053 0.112565 0.165612
0.102310 0.114482 0.164543
0.115567 0.116398 0.163475
0.128824 0.118315 0.162406
0.157480 0.123305 0.162296
0.189216 0.128909 0.162379
0.220951 0.134514 0.162461
0.252687 0.140119 0.162543
0.284423 0.145723 0.162626
0.322854 0.155032 0.165604
0.364633 0.166192 0.170030
0.406412 0.177353 0.174456
0.448191 0.188513 0.178882
0.489970 0.199674 0.183308
0.526353 0.211647 0.189102
0.557342 0.224433 0.196263
0.588331 0.237219 0.203425
0.619320 0.250005 0.210586
0.650309 0.262790 0.217747
0.675868 0.274837 0.225001
0.690567 0.285406 0.232440
0.705266 0.295975 0.239879
0.719965 0.306544 0.247318
0.734665 0.317113 0.254757
0.748355 0.326700 0.261693
0.757001 0.331378 0.266118
0.765648 0.336056 0.270542
0.774294 0.340733 0.274967
0.782941 0.345411 0.279391
0.791587 0.350089 0.283816
0.061791 0.113325 0.173169
0.075055 0.115354 0.172218
0.088320 0.117383 0.171267
0.101584 0.119413 0.170315
0.114849 0.121442 0.169364
0.128113 0.123471 0.168413
0.156717 0.128197 0.168417
0.188389 0.133461 0.168612
0.220061 0.138726 0.168807
0.251733 0.143991 0.169002
0.283405 0.149255 0.169197
0.321951 0.158131 0.172359
0.363934 0.168813 0.177005
0.405917 0.179495 0.181651
0.447900 0.190177 0.186296
0.489883 0.200859 0.190942
0.526625 0.212629 0.196983
0.558126 0.225488 0.204421
0.589627 0.238347 0.211858
0.621129 0.251206 0.219295
0.652630 0.264065 0.226733
0.678541 0.276700 0.234278
0.693274 0.288887 0.242040
0.708007 0.301073 0.249802
0.722740 0.313260 0.257564
0.737473 0.325447 0.265326
0.751205 0.336538 0.272504
0.759937 0.342151 0.276758
0.768669 0.347765 0.281011
0.777400 0.353379 0.285265
0.786132 0.358993 0.289519
0.794864 0.364607 0.293773
0.060373 0.114884 0.179219
0.073820 0.117179 0.178515
0.087268 0.119474 0.177811
0.100715 0.121768 0.177106
0.114163 0.124063 0.176402
0.127610 0.126357 0.175697
0.156268 0.131219 0.175773
0.187967 0.136593 0.176005
0.219666 0.141968 0.176237
0.251365 0.147342 0.176468
0.283065 0.152716 0.176700
0.321858 0.161818 0.179929
0.364198 0.172783 0.184657
0.406538 0.183749 0.189385
0.448877 0.194714 0.194113
0.491217 0.205680 0.198841
0.528348 0.217743 0.204974
0.560270 0.230904 0.212512
0.592192 0.244065 0.220050
0.624114 0.257225 0.227588
0.656036 0.270386 0.235126
0.682295 0.283302 0.242760
