filter/Red and Blue 2/lut/Midnight 05_S.cube
# LUT by SparkleStock. Enhanced with VOXCOLOR algorithms.
LUT_3D_SIZE 32
0.078144 0.066422 0.082051
0.086793 0.066801 0.081531
0.095443 0.067179 0.081011
0.104092 0.067557 0.080492
0.112742 0.067935 0.079972
0.121391 0.068313 0.079452
0.132640 0.068494 0.078853
0.144409 0.068636 0.078239
0.156178 0.068778 0.077624
0.167947 0.068920 0.077010
0.179716 0.069061 0.076395
0.197093 0.070022 0.076222
0.217275 0.071393 0.076269
0.237457 0.072764 0.076317
0.257639 0.074134 0.076364
0.277821 0.075505 0.076411
0.298688 0.077538 0.076978
0.320241 0.080232 0.078065
0.341794 0.082926 0.079152
0.363346 0.085620 0.080239
0.384899 0.088314 0.081327
0.404561 0.091150 0.082414
0.420442 0.094269 0.083501
0.436323 0.097389 0.084588
0.452204 0.100508 0.085675
0.468085 0.103628 0.086762
0.483706 0.106708 0.087865
0.498027 0.109591 0.089046
0.512348 0.112474 0.090228
0.526669 0.115357 0.091410
0.540990 0.118240 0.092591
0.555311 0.121123 0.093773
0.079278 0.068927 0.085502
0.088486 0.069662 0.084396
0.097693 0.070397 0.083291
0.106901 0.071132 0.082185
0.116108 0.071867 0.081080
0.125316 0.072602 0.079975
0.137824 0.073483 0.079217
0.150992 0.074393 0.078530
0.164161 0.075303 0.077842
0.177330 0.076214 0.077155
0.190498 0.077124 0.076467
0.209129 0.078683 0.076208
0.230491 0.080565 0.076164
0.251853 0.082448 0.076120
0.273215 0.084331 0.076076
0.294577 0.086214 0.076031
0.316144 0.088430 0.076571
0.337916 0.090977 0.077695
0.359689 0.093525 0.078818
0.381461 0.096073 0.079942
0.403233 0.098621 0.081066
0.422788 0.101161 0.082287
0.437910 0.103685 0.083704
0.453032 0.106210 0.085120
0.468153 0.108735 0.086536
0.483275 0.111260 0.087953
0.497993 0.113767 0.089373
0.510695 0.116183 0.090810
0.523397 0.118600 0.092248
0.536099 0.121017 0.093686
0.548801 0.123433 0.095124
0.561503 0.125850 0.096562
0.080413 0.071433 0.088952
0.090178 0.072524 0.087261
0.099944 0.073616 0.085570
0.109709 0.074707 0.083879
0.119475 0.075799 0.082189
0.129240 0.076891 0.080498
0.143008 0.078472 0.079582
0.157576 0.080150 0.078821
0.172144 0.081829 0.078060
0.186712 0.083508 0.077299
0.201280 0.085186 0.076539
0.221165 0.087343 0.076195
0.243707 0.089738 0.076059
0.266249 0.092133 0.075923
0.288791 0.094528 0.075787
0.311333 0.096924 0.075652
0.333600 0.099322 0.076164
0.355592 0.101723 0.077324
0.377584 0.104125 0.078485
0.399575 0.106526 0.079645
0.421567 0.108927 0.080805
0.441016 0.111172 0.082161
0.455378 0.113102 0.083906
0.469740 0.115032 0.085652
0.484103 0.116962 0.087398
0.498465 0.118892 0.089144
0.512281 0.120826 0.090881
0.523364 0.122776 0.092575
0.534446 0.124726 0.094268
0.545529 0.126676 0.095962
0.556612 0.128626 0.097656
0.567695 0.130576 0.099350
0.081547 0.073938 0.092402
0.091871 0.075386 0.090126
0.102194 0.076834 0.087850
0.112518 0.078283 0.085573
0.122841 0.079731 0.083297
0.133165 0.081180 0.081021
0.148192 0.083460 0.079946
0.164159 0.085907 0.079112
0.180127 0.088354 0.078278
0.196095 0.090802 0.077444
0.212063 0.093249 0.076610
0.233200 0.096003 0.076181
0.256923 0.098910 0.075954
0.280645 0.101818 0.075726
0.304367 0.104725 0.075499
0.328089 0.107633 0.075272
0.351056 0.110214 0.075757
0.373267 0.112469 0.076954
0.395479 0.114724 0.078151
0.417690 0.116979 0.079348
0.439901 0.119234 0.080544
0.459243 0.121183 0.082034
0.472846 0.122518 0.084109
0.486449 0.123854 0.086184
0.500052 0.125189 0.088259
0.513655 0.126525 0.090334
0.526568 0.127885 0.092388
0.536032 0.129369 0.094339
0.545496 0.130852 0.096289
0.554959 0.132336 0.098239
0.564423 0.133819 0.100189
0.573886 0.135303 0.102139
0.082681 0.076443 0.095853
0.093563 0.078248 0.092991
0.104445 0.080053 0.090129
0.115326 0.081858 0.087267
0.126208 0.083663 0.084405
0.137089 0.085469 0.081544
0.153376 0.088449 0.080311
0.170743 0.091665 0.079403
0.188110 0.094880 0.078496
0.205478 0.098096 0.077589
0.222845 0.101311 0.076682
0.245236 0.104663 0.076167
0.270138 0.108083 0.075848
0.295041 0.111502 0.075530
0.319943 0.114922 0.075211
0.344845 0.118342 0.074892
0.368512 0.121106 0.075350
0.390943 0.123215 0.076583
0.413374 0.125324 0.077817
0.435804 0.127432 0.079050
0.458235 0.129541 0.080284
0.477470 0.131193 0.081907
0.490314 0.131934 0.084312
0.503158 0.132675 0.086716
0.516002 0.133416 0.089121
0.528845 0.134157 0.091525
0.540856 0.134944 0.093896
0.548700 0.135961 0.096103
0.556545 0.136978 0.098309
0.564389 0.137995 0.100515
0.572234 0.139012 0.102721
0.580078 0.140029 0.104927
0.083816 0.078948 0.099303
0.095255 0.081110 0.095856
0.106695 0.083272 0.092408
0.118134 0.085433 0.088961
0.129574 0.087595 0.085514
0.141014 0.089757 0.082067
0.158559 0.093438 0.080675
0.177326 0.097422 0.079695
0.196094 0.101406 0.078714
0.214861 0.105390 0.077734
0.233628 0.109374 0.076754
0.257272 0.113323 0.076153
0.283354 0.117255 0.075743
0.309437 0.121187 0.075333
0.335519 0.125119 0.074923
0.361601 0.129051 0.074513
0.385968 0.131998 0.074943
0.408618 0.133961 0.076213
0.431269 0.135923 0.077483
0.453919 0.137885 0.078753
0.476569 0.139847 0.080023
0.495698 0.141204 0.081781
0.507782 0.141351 0.084515
0.519867 0.141497 0.087248
0.531951 0.141644 0.089982
0.544036 0.141790 0.092716
0.555144 0.142004 0.095404
0.561369 0.142554 0.097867
0.567594 0.143104 0.100329
0.573819 0.143655 0.102791
0.580044 0.144205 0.105254
0.586270 0.144756 0.107716
0.084596 0.081610 0.102517
0.096067 0.083938 0.099170
0.107539 0.086266 0.095824
0.119010 0.088595 0.092477
0.130482 0.090923 0.089130
0.141954 0.093251 0.085784
0.160430 0.098088 0.083986
0.180307 0.103428 0.082498
0.200184 0.108767 0.081010
0.220061 0.114107 0.079522
0.239938 0.119446 0.078034
0.264256 0.124229 0.077239
0.290794 0.128735 0.076790
0.317332 0.133240 0.076342
0.343871 0.137745 0.075894
0.370409 0.142251 0.075446
0.395052 0.145400 0.075909
0.417800 0.147193 0.077284
0.440548 0.148986 0.078660
0.463296 0.150779 0.080035
0.486044 0.152572 0.081410
0.505180 0.153582 0.083318
0.517092 0.153027 0.086289
0.529004 0.152472 0.089261
0.540917 0.151917 0.092232
0.552829 0.151362 0.095204
0.563696 0.150890 0.098136
0.569339 0.150829 0.100869
0.574982 0.150768 0.103603
0.580624 0.150707 0.106337
0.586267 0.150646 0.109071
0.591910 0.150585 0.111804
0.085305 0.084304 0.105684
0.096703 0.086760 0.102575
0.108101 0.089217 0.099466
0.119500 0.091673 0.096357
0.130898 0.094129 0.093248
0.142297 0.096585 0.090140
0.161637 0.102672 0.087886
0.182566 0.109484 0.085803
0.203495 0.116296 0.083721
0.224424 0.123108 0.081638
0.245353 0.129920 0.079555
0.270229 0.135585 0.078544
0.297079 0.140676 0.078068
0.323928 0.145767 0.077592
0.350777 0.150858 0.077117
0.377627 0.155948 0.076641
0.402462 0.159303 0.077150
0.425283 0.160923 0.078644
0.448104 0.162542 0.080139
0.470925 0.164161 0.081633
0.493746 0.165780 0.083127
0.512913 0.166434 0.085187
0.524770 0.165156 0.088378
0.536628 0.163878 0.091569
0.548485 0.162601 0.094760
0.560342 0.161323 0.097951
0.571101 0.160141 0.101112
0.576369 0.159440 0.104120
0.581637 0.158739 0.107128
0.586904 0.158037 0.110136
0.592172 0.157336 0.113145
0.597440 0.156635 0.116153
0.086014 0.086998 0.108850
0.097339 0.089583 0.105979
0.108664 0.092167 0.103108
0.119989 0.094751 0.100237
0.131314 0.097336 0.097367
0.142640 0.099920 0.094496
0.162845 0.107255 0.091786
0.184826 0.115540 0.089109
0.206807 0.123825 0.086431
0.228788 0.132110 0.083754
0.250769 0.140395 0.081077
0.276203 0.146941 0.079849
0.303363 0.152617 0.079346
0.330524 0.158293 0.078843
0.357684 0.163970 0.078339
0.384844 0.169646 0.077836
0.409872 0.173207 0.078391
0.432766 0.174652 0.080004
0.455660 0.176098 0.081618
0.478555 0.177543 0.083231
0.501449 0.178988 0.084844
0.520646 0.179285 0.087056
0.532449 0.177285 0.090467
0.544251 0.175284 0.093877
0.556053 0.173284 0.097288
0.567856 0.171284 0.100699
0.578507 0.169393 0.104088
0.583399 0.168051 0.107371
0.588292 0.166710 0.110653
0.593185 0.165368 0.113936
0.598077 0.164026 0.117218
0.602970 0.162685 0.120501
0.086723 0.089692 0.112017
0.097975 0.092405 0.109384
0.109227 0.095117 0.106751
0.120479 0.097830 0.104118
0.131731 0.100542 0.101485
0.142983 0.103254 0.098852
0.164052 0.111838 0.095686
0.187085 0.121596 0.092414
0.210118 0.131354 0.089142
0.233152 0.141111 0.085870
0.256185 0.150869 0.082598
0.282177 0.158296 0.081154
0.309648 0.164558 0.080623
0.337119 0.170820 0.080093
0.364591 0.177082 0.079562
0.392062 0.183344 0.079032
0.417282 0.187110 0.079632
0.440249 0.188382 0.081364
0.463217 0.189653 0.083096
0.486184 0.190925 0.084828
0.509152 0.192197 0.086560
0.528379 0.192137 0.088925
0.540127 0.189414 0.092555
0.551874 0.186690 0.096186
0.563622 0.183967 0.099816
0.575369 0.181244 0.103446
0.585912 0.178645 0.107064
0.590429 0.176663 0.110621
0.594947 0.174681 0.114178
0.599465 0.172699 0.117735
0.603982 0.170717 0.121292
0.608500 0.168734 0.124849
0.087432 0.092386 0.115184
0.098610 0.095227 0.112788
0.109789 0.098067 0.110393
0.120968 0.100908 0.107998
0.132147 0.103748 0.105603
0.143326 0.106589 0.103208
0.165260 0.116421 0.099586
0.189345 0.127652 0.095720
0.213430 0.138882 0.091853
0.237515 0.150113 0.087987
0.261600 0.161344 0.084120
0.288150 0.169652 0.082459
0.315933 0.176499 0.081901
0.343715 0.183347 0.081343
0.371497 0.190194 0.080785
0.399280 0.197041 0.080227
0.424691 0.201014 0.080873
0.447732 0.202111 0.082724
0.470773 0.203209 0.084575
0.493814 0.204307 0.086426
0.516854 0.205405 0.088277
0.536112 0.204988 0.090794
0.547805 0.201542 0.094644
0.559498 0.198096 0.098494
0.571190 0.194651 0.102344
0.582883 0.191205 0.106194
0.593317 0.187896 0.110040
0.597460 0.185274 0.113872
0.601602 0.182652 0.117703
0.605745 0.180029 0.121535
0.609887 0.177407 0.125366
0.614030 0.174784 0.129198
0.088456 0.095994 0.119548
0.099555 0.098749 0.117342
0.110655 0.101504 0.115135
0.121754 0.104260 0.112929
0.132854 0.107015 0.110723
0.143953 0.109770 0.108517
0.165983 0.119799 0.104869
0.190200 0.131282 0.100932
0.214416 0.142766 0.096995
0.238632 0.154250 0.093059
0.262848 0.165734 0.089122
0.289719 0.174728 0.087310
0.317916 0.182478 0.086559
0.346113 0.190228 0.085809
0.374310 0.197978 0.085059
0.402507 0.205728 0.084309
0.428117 0.210220 0.084885
0.451139 0.211455 0.086788
0.474162 0.212690 0.088691
0.497184 0.213925 0.090594
0.520206 0.215160 0.092496
0.539481 0.214730 0.095117
0.551259 0.210970 0.099175
0.563037 0.207210 0.103232
0.574815 0.203451 0.107289
0.586593 0.199691 0.111346
0.597115 0.196070 0.115378
0.601358 0.193142 0.119282
0.605601 0.190215 0.123187
0.609844 0.187288 0.127092
0.614088 0.184360 0.130996
0.618331 0.181433 0.134901
0.089637 0.100059 0.124511
0.100654 0.102622 0.122469
0.111672 0.105185 0.120428
0.122689 0.107748 0.118386
0.133706 0.110311 0.116345
0.144723 0.112874 0.114303
0.166465 0.122574 0.110842
0.190352 0.133701 0.107098
0.214239 0.144828 0.103353
0.238126 0.155955 0.099609
0.262013 0.167082 0.095864
0.289084 0.176665 0.093933
0.317748 0.185476 0.092908
0.346412 0.194287 0.091884
0.375075 0.203098 0.090859
0.403739 0.211909 0.089834
0.429550 0.217078 0.090283
0.452508 0.218606 0.092204
0.475467 0.220133 0.094125
0.498425 0.221661 0.096046
0.521384 0.223189 0.097967
0.540667 0.222917 0.100667
0.552601 0.219048 0.104926
0.564534 0.215178 0.109184
0.576468 0.211309 0.113442
0.588401 0.207439 0.117701
0.599109 0.203704 0.121896
0.603691 0.200639 0.125773
0.608273 0.197575 0.129650
0.612854 0.194510 0.133527
0.617436 0.191445 0.137404
0.622017 0.188381 0.141282
0.090819 0.104124 0.129473
0.101754 0.106495 0.127597
0.112689 0.108866 0.125720
0.123624 0.111236 0.123843
0.134558 0.113607 0.121966
0.145493 0.115978 0.120089
0.166947 0.125348 0.116816
0.190505 0.136119 0.113263
0.214062 0.146889 0.109711
0.237620 0.157659 0.106158
0.261177 0.168429 0.102606
0.288450 0.178601 0.100556
0.317580 0.188473 0.099257
0.346710 0.198345 0.097958
0.375841 0.208217 0.096659
0.404971 0.218090 0.095360
0.430983 0.223936 0.095680
0.453878 0.225756 0.097619
0.476772 0.227577 0.099559
0.499666 0.229397 0.101498
0.522561 0.231218 0.103437
0.541853 0.231105 0.106217
0.553942 0.227126 0.110677
0.566031 0.223146 0.115136
0.578120 0.219167 0.119596
0.590209 0.215187 0.124056
0.601104 0.211338 0.128413
0.606024 0.208136 0.132263
0.610944 0.204934 0.136113
0.615864 0.201732 0.139963
0.620784 0.198530 0.143813
0.625704 0.195329 0.147662
0.092000 0.108189 0.134436
0.102853 0.110367 0.132724
0.113706 0.112546 0.131012
0.124558 0.114725 0.129300
0.135411 0.116904 0.127587
0.146263 0.119082 0.125875
0.167429 0.128123 0.122790
0.190657 0.138537 0.119429
0.213885 0.148950 0.116069
0.237114 0.159364 0.112708
0.260342 0.169777 0.109348
0.287816 0.180537 0.107179
0.317413 0.191471 0.105606
0.347009 0.202404 0.104032
0.376606 0.213337 0.102459
0.406203 0.224271 0.100885
0.432416 0.230794 0.101077
0.455247 0.232907 0.103035
0.478077 0.235020 0.104993
0.500907 0.237133 0.106950
0.523738 0.239247 0.108908
0.543039 0.239292 0.111767
0.555284 0.235203 0.116428
0.567528 0.231114 0.121089
0.579773 0.227025 0.125749
0.592018 0.222936 0.130410
0.603098 0.218972 0.134931
0.608356 0.215633 0.138754
0.613615 0.212294 0.142576
0.618874 0.208955 0.146398
0.624132 0.205616 0.150221
0.629391 0.202277 0.154043
0.093182 0.112253 0.139399
0.103952 0.114240 0.137851
0.114723 0.116227 0.136304
0.125493 0.118213 0.134756
0.136263 0.120200 0.133209
0.147033 0.122187 0.131661
0.167911 0.130898 0.128763
0.190810 0.140955 0.125595
0.213709 0.151012 0.122427
0.236607 0.161068 0.119258
0.259506 0.171125 0.116090
0.287182 0.182473 0.113802
0.317245 0.194468 0.111954
0.347308 0.206463 0.110106
0.377371 0.218457 0.108258
0.407435 0.230452 0.106411
0.433850 0.237652 0.106475
0.456616 0.240058 0.108451
0.479382 0.242464 0.110427
0.502148 0.244870 0.112403
0.524915 0.247275 0.114378
0.544226 0.247480 0.117316
0.556626 0.243281 0.122179
0.569026 0.239082 0.127041
0.581426 0.234883 0.131903
0.593826 0.230684 0.136765
0.605092 0.226606 0.141449
0.610689 0.223129 0.145244
0.616286 0.219653 0.149039
0.621883 0.216177 0.152834
0.627480 0.212701 0.156629
0.633077 0.209224 0.160424
0.094553 0.117074 0.145094
0.105337 0.118947 0.143757
0.116121 0.120819 0.142420
0.126905 0.122691 0.141083
0.137689 0.124563 0.139746
0.148472 0.126436 0.138409
0.169101 0.134507 0.135706
0.191698 0.143818 0.132730
0.214295 0.153129 0.129753
0.236892 0.162440 0.126777
0.259489 0.171752 0.123801
0.287118 0.182967 0.121571
0.317264 0.195136 0.119714
0.347410 0.207304 0.117857
0.377555 0.219472 0.116000
0.407701 0.231641 0.114143
0.434182 0.239289 0.114225
0.456999 0.242418 0.116247
0.479815 0.245547 0.118269
0.502632 0.248675 0.120290
0.525448 0.251804 0.122312
0.544866 0.252610 0.125285
0.557486 0.248773 0.130161
0.570105 0.244935 0.135037
0.582725 0.241098 0.139913
0.595344 0.237260 0.144789
0.606862 0.233518 0.149481
0.612871 0.230252 0.153258
0.618880 0.226986 0.157034
0.624888 0.223720 0.160811
0.630897 0.220454 0.164588
0.636906 0.217189 0.168364
0.096112 0.122652 0.151522
0.107006 0.124487 0.150441
0.117900 0.126323 0.149360
0.128794 0.128159 0.148279
0.139687 0.129994 0.147198
0.150581 0.131830 0.146117
0.170999 0.138950 0.143617
0.193321 0.147127 0.140833
0.215644 0.155303 0.138049
0.237967 0.163480 0.135265
0.260289 0.171657 0.132481
0.287626 0.182019 0.130486
0.317470 0.193474 0.128885
0.347313 0.204929 0.127284
0.377157 0.216384 0.125683
0.407001 0.227838 0.124082
0.433414 0.235706 0.124329
0.456395 0.239988 0.126424
0.479376 0.244269 0.128519
0.502357 0.248550 0.130614
0.525339 0.252831 0.132709
0.544960 0.254684 0.135673
0.557864 0.251679 0.140375
0.570767 0.248674 0.145077
0.583670 0.245668 0.149779
0.596573 0.242663 0.154481
0.608408 0.239708 0.159027
0.614902 0.237000 0.162795
0.621395 0.234292 0.166562
0.627889 0.231584 0.170330
0.634382 0.228877 0.174097
0.640876 0.226169 0.177864
0.097672 0.128229 0.157950
0.108676 0.130028 0.157125
0.119679 0.131827 0.156301
0.130683 0.133626 0.155476
0.141686 0.135425 0.154651
0.152690 0.137224 0.153826
0.172897 0.143393 0.151529
0.194945 0.150435 0.148937
0.216993 0.157478 0.146345
0.239042 0.164520 0.143753
0.261090 0.171562 0.141161
0.288134 0.181071 0.139400
0.317676 0.191812 0.138056
0.347217 0.202553 0.136711
0.376759 0.213295 0.135366
0.406301 0.224036 0.134021
0.432645 0.232123 0.134433
0.455791 0.237557 0.136601
0.478937 0.242991 0.138769
0.502083 0.248425 0.140937
0.525229 0.253859 0.143105
0.545055 0.256757 0.146060
0.558242 0.254585 0.150588
0.571429 0.252412 0.155117
0.584615 0.250239 0.159645
0.597802 0.248067 0.164173
0.609954 0.245898 0.168573
0.616933 0.243748 0.172331
0.623911 0.241598 0.176090
0.630889 0.239449 0.179848
0.637868 0.237299 0.183606
0.644846 0.235149 0.187365
0.099232 0.133806 0.164378
0.110345 0.135568 0.163810
0.121458 0.137331 0.163241
0.132572 0.139094 0.162672
0.143685 0.140856 0.162103
0.154798 0.142619 0.161535
0.174795 0.147836 0.159440
0.196569 0.153744 0.157040
0.218343 0.159652 0.154641
0.240116 0.165560 0.152241
0.261890 0.171468 0.149841
0.288641 0.180122 0.148315
0.317881 0.190150 0.147227
0.347121 0.200178 0.146138
0.376361 0.210206 0.145049
0.405601 0.220233 0.143961
0.431877 0.228540 0.144537
0.455187 0.235127 0.146778
0.478498 0.241714 0.149020
0.501808 0.248300 0.151261
0.525119 0.254887 0.153502
0.545149 0.258831 0.156448
0.558620 0.257491 0.160802
0.572090 0.256151 0.165157
0.585561 0.254810 0.169511
0.599031 0.253470 0.173865
0.611500 0.252088 0.178119
0.618964 0.250496 0.181868
0.626427 0.248905 0.185617
0.633890 0.247313 0.189366
0.641353 0.245721 0.193116
0.648816 0.244129 0.196865
0.100792 0.139383 0.170806
0.112015 0.141109 0.170494
0.123238 0.142835 0.170181
0.134461 0.144561 0.169869
0.145684 0.146287 0.169556
0.156907 0.148013 0.169243
0.176693 0.152279 0.167352
0.198193 0.157052 0.165144
0.219692 0.161826 0.162936
0.241191 0.166600 0.160728
0.262691 0.171373 0.158521
0.289149 0.179174 0.157230
0.318087 0.188488 0.156397
0.347025 0.197802 0.155565
0.375963 0.207117 0.154732
0.404902 0.216431 0.153900
0.431108 0.224957 0.154641
0.454583 0.232697 0.156955
0.478059 0.240436 0.159270
0.501534 0.248175 0.161584
0.525009 0.255914 0.163899
0.545244 0.260904 0.166835
0.558998 0.260397 0.171016
0.572752 0.259889 0.175197
0.586506 0.259381 0.179377
0.600260 0.258874 0.183558
0.613046 0.258278 0.187665
0.620994 0.257245 0.191405
0.628942 0.256211 0.195145
0.636890 0.255177 0.198885
0.644839 0.254143 0.202625
0.652787 0.253110 0.206365
0.102824 0.145228 0.177660
0.114197 0.147021 0.177625
0.125569 0.148814 0.177589
0.136941 0.150607 0.177554
0.148314 0.152400 0.177519
0.159686 0.154193 0.177484
0.179358 0.157754 0.175806
0.200690 0.161667 0.173800
0.222021 0.165581 0.171793
0.243353 0.169495 0.169787
0.264684 0.173409 0.167781
0.290945 0.180427 0.166683
0.319669 0.188997 0.166039
0.348394 0.197567 0.165396
0.377119 0.206137 0.164753
0.405843 0.214707 0.164109
0.431980 0.223202 0.164981
0.455528 0.231621 0.167369
0.479077 0.240040 0.169757
0.502625 0.248460 0.172144
0.526174 0.256879 0.174532
0.546548 0.262705 0.177535
0.560573 0.263343 0.181771
0.574598 0.263982 0.186006
0.588624 0.264621 0.190242
0.602649 0.265260 0.194477
0.615730 0.265717 0.198618
0.624086 0.265266 0.202281
0.632443 0.264814 0.205945
0.640800 0.264363 0.209609
0.649156 0.263912 0.213273
0.657513 0.263461 0.216936
0.105802 0.151609 0.185364
0.117403 0.153676 0.185649
0.129004 0.155744 0.185934
0.140605 0.157811 0.186219
0.152206 0.159879 0.186504
0.163808 0.161946 0.186789
0.183555 0.165293 0.185348
0.204933 0.168896 0.183561
0.226310 0.172499 0.181774
0.247687 0.176101 0.179987
0.269065 0.179704 0.178200
0.295316 0.186082 0.177212
0.324004 0.193847 0.176624
0.352692 0.201612 0.176035
0.381380 0.209377 0.175447
0.410068 0.217142 0.174858
0.436131 0.225102 0.175794
0.459570 0.233256 0.178255
0.483009 0.241410 0.180716
0.506447 0.249564 0.183177
0.529886 0.257717 0.185637
0.550269 0.263958 0.188861
0.564542 0.266371 0.193608
0.578814 0.268785 0.198356
0.593086 0.271198 0.203104
0.607359 0.273612 0.207852
0.620688 0.275653 0.212384
0.629301 0.275833 0.215837
0.637914 0.276013 0.219291
0.646526 0.276193 0.222744
0.655139 0.276373 0.226197
0.663752 0.276553 0.229651
0.108779 0.157990 0.193068
0.120609 0.160332 0.193673
0.132439 0.162673 0.194278
0.144269 0.165015 0.194884
0.156099 0.167357 0.195489
0.167929 0.169699 0.196094
0.187753 0.172833 0.194889
0.209176 0.176124 0.193322
0.230599 0.179416 0.191754
0.252022 0.182708 0.190187
0.273445 0.186000 0.188620
0.299687 0.191737 0.187741
0.328339 0.198697 0.187208
0.356990 0.205657 0.186674
0.385641 0.212617 0.186141
0.414293 0.219577 0.185607
0.440283 0.227002 0.186607
0.463612 0.234890 0.189141
0.486941 0.242779 0.191675
0.510270 0.250667 0.194209
0.533599 0.258556 0.196743
0.553991 0.265211 0.200186
0.568510 0.269399 0.205446
0.583030 0.273588 0.210706
0.597549 0.277776 0.215966
0.612068 0.281964 0.221226
0.625646 0.285590 0.226150
0.634515 0.286401 0.229393
0.643384 0.287212 0.232636
0.652253 0.288023 0.235879
0.661122 0.288834 0.239122
0.669991 0.289645 0.242365
0.111757 0.164370 0.200772
0.123816 0.166987 0.201697
0.135874 0.169603 0.202623
0.147933 0.172219 0.203548
0.159991 0.174836 0.204474
0.172050 0.177452 0.205399
0.191950 0.180372 0.204430
0.213419 0.183353 0.203083
0.234888 0.186333 0.201735
0.256357 0.189314 0.200387
0.277825 0.192295 0.199039
0.304058 0.197392 0.198271
0.332673 0.203547 0.197792
0.361288 0.209702 0.197313
0.389903 0.215857 0.196835
0.418518 0.222012 0.196356
0.444435 0.228901 0.197420
0.467654 0.236525 0.200027
0.490873 0.244148 0.202634
0.514092 0.251771 0.205242
0.537311 0.259395 0.207849
0.557713 0.266464 0.211511
0.572479 0.272427 0.217283
0.587245 0.278390 0.223056
0.602012 0.284353 0.228828
0.616778 0.290316 0.234600
0.630604 0.295526 0.239916
0.639729 0.296968 0.242949
0.648855 0.298410 0.245981
0.657980 0.299853 0.249014
0.667105 0.301295 0.252046
0.676230 0.302737 0.255079
0.114735 0.170751 0.208476
0.127022 0.173642 0.209722
0.139309 0.176533 0.210967
0.151597 0.179423 0.212213
0.163884 0.182314 0.213459
0.176171 0.185205 0.214704
0.196148 0.187911 0.213972
0.217662 0.190581 0.212844
0.239177 0.193251 0.211715
0.260691 0.195921 0.210587
0.282206 0.198590 0.209459
0.308429 0.203047 0.208800
0.337008 0.208397 0.208376
0.365586 0.213747 0.207952
0.394164 0.219097 0.207529
0.422743 0.224447 0.207105
0.448586 0.230801 0.208233
0.471696 0.238159 0.210913
0.494805 0.245517 0.213594
0.517914 0.252875 0.216274
0.541024 0.260233 0.218954
0.561434 0.267718 0.222836
0.576448 0.275455 0.229121
0.591461 0.283193 0.235405
0.606474 0.290931 0.241690
0.621488 0.298668 0.247975
0.635563 0.305462 0.253682
0.644944 0.307536 0.256505
0.654325 0.309609 0.259327
0.663706 0.311683 0.262149
0.673088 0.313756 0.264971
0.682469 0.315830 0.267793
0.117972 0.176699 0.216417
0.130487 0.179890 0.218002
0.143001 0.183081 0.219588
0.155516 0.186272 0.221174
0.168030 0.189463 0.222759
0.180545 0.192654 0.224345
0.200612 0.195234 0.223854
0.222191 0.197692 0.222949
0.243770 0.200150 0.222043
0.265348 0.202607 0.221137
0.286927 0.205065 0.220232
0.313164 0.209004 0.219671
0.341730 0.213683 0.219282
0.370296 0.218362 0.218893
0.398862 0.223041 0.218504
0.427428 0.227721 0.218116
0.453224 0.233620 0.219277
0.476249 0.240741 0.221990
0.499275 0.247861 0.224702
0.522300 0.254981 0.227414
0.545326 0.262101 0.230127
0.565740 0.269920 0.234167
0.580934 0.279135 0.240864
0.596127 0.288350 0.247560
0.611320 0.297565 0.254256
0.626513 0.306780 0.260952
0.640780 0.314950 0.267024
0.650413 0.317899 0.269973
0.660046 0.320848 0.272922
0.669678 0.323797 0.275870
0.679311 0.326745 0.278819
0.688944 0.329694 0.281768
0.122510 0.180480 0.225539
0.135244 0.184101 0.227563
0.147978 0.187722 0.229588
0.160712 0.191343 0.231613
0.173446 0.194964 0.233638
0.186180 0.198585 0.235662
0.206414 0.201473 0.235443
0.228148 0.204214 0.234776
0.249882 0.206956 0.234108
0.271616 0.209697 0.233440
0.293350 0.212438 0.232772
0.319712 0.216472 0.232248
0.348388 0.221151 0.231795
0.377064 0.225830 0.231342
0.405740 0.230509 0.230889
0.434415 0.235188 0.230436
0.460289 0.241038 0.231479
0.483360 0.248057 0.234018
0.506431 0.255077 0.236556
0.529503 0.262096 0.239095
0.552574 0.269116 0.241633
0.572967 0.276864 0.245527
