filter/Red and Blue 2/lut/Midnight 02_S.cube
# LUT by SparkleStock. Enhanced with VOXCOLOR algorithms.
LUT_3D_SIZE 32
0.035165 0.031258 0.019536
0.044523 0.030880 0.019536
0.053882 0.030501 0.019536
0.063240 0.030123 0.019536
0.072598 0.029745 0.019536
0.081957 0.029367 0.019536
0.093718 0.029974 0.019497
0.105959 0.030777 0.019449
0.118201 0.031581 0.019402
0.130442 0.032384 0.019355
0.142684 0.033188 0.019308
0.157572 0.034212 0.019292
0.173784 0.035346 0.019292
0.189996 0.036480 0.019292
0.206207 0.037615 0.019292
0.222419 0.038749 0.019292
0.239080 0.040262 0.019434
0.256190 0.042152 0.019717
0.273299 0.044043 0.020001
0.290409 0.045933 0.020284
0.307519 0.047824 0.020568
0.324125 0.050014 0.021088
0.339722 0.052802 0.022080
0.355319 0.055591 0.023073
0.370917 0.058380 0.024066
0.386514 0.061168 0.025058
0.402387 0.064217 0.026059
0.419638 0.068565 0.027098
0.436890 0.072913 0.028138
0.454142 0.077262 0.029178
0.471393 0.081610 0.030218
0.488645 0.085958 0.031258
0.036157 0.033432 0.023601
0.046238 0.033676 0.023098
0.056320 0.033920 0.022594
0.066401 0.034164 0.022091
0.076482 0.034408 0.021588
0.086563 0.034652 0.021085
0.099740 0.036193 0.021023
0.113537 0.037993 0.021049
0.127334 0.039794 0.021075
0.141130 0.041595 0.021101
0.154927 0.043395 0.021126
0.171535 0.045142 0.021172
0.189549 0.046862 0.021227
0.207563 0.048582 0.021282
0.225577 0.050301 0.021336
0.243591 0.052021 0.021391
0.261477 0.053749 0.021620
0.279236 0.055484 0.022022
0.296996 0.057219 0.022425
0.314755 0.058954 0.022828
0.332514 0.060689 0.023230
0.349211 0.062562 0.023884
0.363784 0.064710 0.025041
0.378357 0.066858 0.026199
0.392930 0.069007 0.027356
0.407502 0.071155 0.028513
0.422127 0.073571 0.029692
0.437009 0.077324 0.030979
0.451891 0.081078 0.032265
0.466773 0.084832 0.033552
0.481656 0.088585 0.034839
0.496538 0.092339 0.036126
0.037150 0.035606 0.027666
0.047954 0.036472 0.026659
0.058757 0.037338 0.025653
0.069561 0.038204 0.024647
0.080365 0.039070 0.023640
0.091169 0.039936 0.022634
0.105763 0.042412 0.022549
0.121114 0.045210 0.022648
0.136466 0.048007 0.022747
0.151818 0.050805 0.022846
0.167170 0.053603 0.022945
0.185498 0.056072 0.023052
0.205314 0.058378 0.023161
0.225130 0.060683 0.023271
0.244946 0.062988 0.023381
0.264762 0.065293 0.023491
0.283875 0.067236 0.023806
0.302283 0.068815 0.024328
0.320692 0.070395 0.024849
0.339101 0.071975 0.025371
0.357510 0.073554 0.025892
0.374298 0.075110 0.026680
0.387846 0.076618 0.028002
0.401395 0.078126 0.029324
0.414943 0.079633 0.030646
0.428491 0.081141 0.031968
0.441866 0.082924 0.033325
0.454379 0.086084 0.034859
0.466892 0.089243 0.036393
0.479405 0.092402 0.037927
0.491918 0.095561 0.039460
0.504431 0.098720 0.040994
0.038143 0.037780 0.031730
0.049669 0.039268 0.030221
0.061195 0.040756 0.028711
0.072722 0.042244 0.027202
0.084248 0.043732 0.025693
0.095775 0.045220 0.024183
0.111785 0.048631 0.024075
0.128692 0.052426 0.024247
0.145599 0.056221 0.024420
0.162506 0.060016 0.024592
0.179413 0.063810 0.024764
0.199461 0.067003 0.024932
0.221079 0.069893 0.025096
0.242697 0.072784 0.025261
0.264315 0.075675 0.025426
0.285934 0.078566 0.025590
0.306272 0.080723 0.025993
0.325330 0.082147 0.026633
0.344388 0.083571 0.027273
0.363447 0.084995 0.027914
0.382505 0.086419 0.028554
0.399385 0.087658 0.029477
0.411909 0.088525 0.030963
0.424432 0.089393 0.032450
0.436956 0.090260 0.033936
0.449479 0.091128 0.035423
0.461606 0.092278 0.036958
0.471750 0.094843 0.038739
0.481893 0.097407 0.040520
0.492037 0.099972 0.042301
0.502181 0.102536 0.044082
0.512324 0.105101 0.045862
0.039135 0.039954 0.035795
0.051384 0.042064 0.033782
0.063633 0.044175 0.031770
0.075882 0.046285 0.029757
0.088132 0.048395 0.027745
0.100381 0.050505 0.025732
0.117807 0.054850 0.025601
0.136270 0.059642 0.025847
0.154732 0.064434 0.026092
0.173194 0.069226 0.026338
0.191656 0.074018 0.026583
0.213424 0.077933 0.026811
0.236844 0.081409 0.027031
0.260264 0.084885 0.027251
0.283685 0.088362 0.027470
0.307105 0.091838 0.027690
0.328669 0.094210 0.028179
0.348377 0.095479 0.028938
0.368085 0.096747 0.029698
0.387793 0.098016 0.030457
0.407500 0.099284 0.031216
0.424472 0.100206 0.032273
0.435971 0.100433 0.033924
0.447470 0.100660 0.035575
0.458969 0.100887 0.037226
0.470468 0.101114 0.038878
0.481346 0.101632 0.040592
0.489120 0.103602 0.042619
0.496895 0.105572 0.044647
0.504669 0.107542 0.046675
0.512443 0.109511 0.048703
0.520217 0.111481 0.050731
0.040128 0.042128 0.039860
0.053099 0.044861 0.037344
0.066071 0.047593 0.034828
0.079043 0.050325 0.032313
0.092015 0.053057 0.029797
0.104987 0.055789 0.027281
0.123830 0.061069 0.027128
0.143847 0.066858 0.027446
0.163864 0.072647 0.027765
0.183882 0.078437 0.028084
0.203899 0.084226 0.028402
0.227387 0.088863 0.028691
0.252609 0.092925 0.028966
0.277832 0.096987 0.029240
0.303054 0.101048 0.029515
0.328277 0.105110 0.029789
0.351066 0.107697 0.030365
0.371424 0.108810 0.031244
0.391781 0.109923 0.032122
0.412138 0.111036 0.033000
0.432496 0.112149 0.033878
0.449559 0.112754 0.035069
0.460033 0.112340 0.036885
0.470508 0.111927 0.038701
0.480982 0.111514 0.040517
0.491456 0.111101 0.042333
0.501086 0.110986 0.044225
0.506491 0.112361 0.046500
0.511896 0.113736 0.048774
0.517301 0.115112 0.051049
0.522706 0.116487 0.053324
0.528111 0.117862 0.055599
0.040135 0.044342 0.043491
0.053197 0.047391 0.041090
0.066259 0.050441 0.038689
0.079321 0.053490 0.036287
0.092383 0.056539 0.033886
0.105444 0.059589 0.031485
0.125255 0.066140 0.030896
0.146416 0.073391 0.030671
0.167577 0.080642 0.030445
0.188738 0.087894 0.030219
0.209899 0.095145 0.029994
0.234232 0.100823 0.030204
0.260151 0.105714 0.030633
0.286070 0.110605 0.031061
0.311990 0.115496 0.031489
0.337909 0.120387 0.031918
0.361296 0.123346 0.032650
0.382150 0.124372 0.033685
0.403004 0.125398 0.034720
0.423859 0.126424 0.035755
0.444713 0.127450 0.036791
0.462061 0.127768 0.038174
0.472395 0.126669 0.040254
0.482729 0.125569 0.042333
0.493063 0.124470 0.044413
0.503397 0.123371 0.046493
0.512772 0.122561 0.048660
0.517347 0.123196 0.051266
0.521923 0.123832 0.053871
0.526498 0.124468 0.056477
0.531074 0.125104 0.059082
0.535649 0.125739 0.061688
0.039946 0.046563 0.047036
0.052972 0.049869 0.044873
0.065997 0.053174 0.042709
0.079022 0.056480 0.040546
0.092047 0.059785 0.038382
0.105072 0.063091 0.036219
0.125762 0.070980 0.035114
0.147984 0.079787 0.034220
0.170206 0.088593 0.033327
0.192428 0.097400 0.032433
0.214649 0.106206 0.031540
0.239653 0.112988 0.031643
0.266048 0.118757 0.032246
0.292443 0.124527 0.032848
0.318838 0.130296 0.033450
0.345233 0.136065 0.034052
0.369091 0.139426 0.034953
0.390412 0.140379 0.036153
0.411733 0.141332 0.037353
0.433054 0.142285 0.038553
0.454375 0.143238 0.039753
0.472046 0.143275 0.041341
0.482416 0.141481 0.043704
0.492787 0.139686 0.046067
0.503158 0.137892 0.048430
0.513529 0.136097 0.050794
0.522847 0.134579 0.053255
0.526901 0.134447 0.056208
0.530955 0.134314 0.059162
0.535009 0.134182 0.062115
0.539063 0.134049 0.065068
0.543117 0.133916 0.068022
0.039757 0.048785 0.050581
0.052746 0.052347 0.048655
0.065735 0.055908 0.046730
0.078723 0.059470 0.044804
0.091712 0.063031 0.042878
0.104700 0.066593 0.040953
0.126268 0.075821 0.039331
0.149551 0.086183 0.037769
0.172834 0.096544 0.036208
0.196117 0.106906 0.034647
0.219400 0.117268 0.033086
0.245075 0.125153 0.033083
0.271946 0.131801 0.033859
0.298816 0.138448 0.034635
0.325687 0.145096 0.035411
0.352558 0.151743 0.036187
0.376887 0.155507 0.037257
0.398674 0.156387 0.038622
0.420462 0.157266 0.039986
0.442249 0.158146 0.041351
0.464037 0.159026 0.042715
0.482031 0.158783 0.044507
0.492438 0.156293 0.047154
0.502845 0.153803 0.049801
0.513253 0.151313 0.052448
0.523660 0.148823 0.055095
0.532922 0.146598 0.057851
0.536454 0.145697 0.061151
0.539987 0.144796 0.064452
0.543520 0.143895 0.067753
0.547052 0.142994 0.071054
0.550585 0.142093 0.074355
0.039568 0.051006 0.054126
0.052520 0.054824 0.052438
0.065472 0.058642 0.050750
0.078424 0.062460 0.049062
0.091376 0.066277 0.047375
0.104328 0.070095 0.045687
0.126774 0.080662 0.043548
0.151118 0.092579 0.041319
0.175463 0.104496 0.039090
0.199807 0.116412 0.036861
0.224151 0.128329 0.034632
0.250497 0.137319 0.034522
0.277843 0.144844 0.035472
0.305190 0.152370 0.036422
0.332536 0.159896 0.037372
0.359882 0.167422 0.038321
0.384682 0.171588 0.039561
0.406936 0.172394 0.041090
0.429190 0.173201 0.042619
0.451444 0.174007 0.044149
0.473698 0.174814 0.045678
0.492016 0.174290 0.047674
0.502460 0.171105 0.050605
0.512904 0.167920 0.053535
0.523348 0.164735 0.056465
0.533791 0.161550 0.059396
0.542997 0.158617 0.062446
0.546008 0.156948 0.066094
0.549019 0.155278 0.069743
0.552030 0.153609 0.073391
0.555041 0.151939 0.077040
0.558053 0.150270 0.080688
0.039379 0.053228 0.057671
0.052295 0.057302 0.056221
0.065210 0.061376 0.054771
0.078126 0.065449 0.053321
0.091041 0.069523 0.051871
0.103956 0.073597 0.050421
0.127280 0.085503 0.047765
0.152686 0.098975 0.044868
0.178091 0.112447 0.041971
0.203497 0.125919 0.039075
0.228902 0.139391 0.036178
0.255919 0.149484 0.035961
0.283741 0.157888 0.037085
0.311563 0.166292 0.038209
0.339385 0.174696 0.039332
0.367207 0.183100 0.040456
0.392478 0.187668 0.041865
0.415199 0.188402 0.043559
0.437919 0.189135 0.045253
0.460640 0.189868 0.046946
0.483360 0.190602 0.048640
0.502001 0.189797 0.050841
0.512481 0.185917 0.054055
0.522962 0.182037 0.057269
0.533442 0.178156 0.060483
0.543923 0.174276 0.063697
0.553072 0.170636 0.067041
0.555561 0.168198 0.071037
0.558051 0.165760 0.075034
0.560541 0.163322 0.079030
0.563031 0.160885 0.083026
0.565521 0.158447 0.087022
0.039285 0.055859 0.061688
0.052072 0.059878 0.060378
0.064859 0.063897 0.059069
0.077647 0.067916 0.057759
0.090434 0.071935 0.056449
0.103221 0.075954 0.055140
0.126483 0.088059 0.052454
0.151840 0.101781 0.049493
0.177197 0.115503 0.046532
0.202553 0.129225 0.043571
0.227910 0.142947 0.040610
0.255215 0.153867 0.040236
0.283495 0.163387 0.041156
0.311774 0.172907 0.042075
0.340054 0.182427 0.042994
0.368333 0.191947 0.043914
0.393944 0.197251 0.045327
0.416887 0.198338 0.047235
0.439831 0.199425 0.049142
0.462774 0.200512 0.051049
0.485717 0.201599 0.052957
0.504616 0.200947 0.055378
0.515425 0.196817 0.058827
0.526235 0.192686 0.062275
0.537045 0.188556 0.065724
0.547855 0.184426 0.069173
0.557348 0.180540 0.072762
0.560255 0.177876 0.077051
0.563163 0.175213 0.081340
0.566070 0.172549 0.085628
0.568978 0.169886 0.089917
0.571885 0.167222 0.094206
0.039237 0.058695 0.065942
0.051851 0.062503 0.064724
0.064465 0.066312 0.063506
0.077078 0.070121 0.062287
0.089692 0.073929 0.061069
0.102305 0.077738 0.059851
0.125035 0.089472 0.057379
0.149788 0.102792 0.054656
0.174541 0.116111 0.051933
0.199294 0.129430 0.049210
0.224046 0.142750 0.046486
0.251449 0.154360 0.045929
0.280177 0.165115 0.046455
0.308905 0.175870 0.046981
0.337632 0.186625 0.047507
0.366360 0.197380 0.048034
0.392246 0.203584 0.049369
0.415290 0.205238 0.051514
0.438333 0.206893 0.053660
0.461377 0.208547 0.055805
0.484421 0.210201 0.057950
0.503545 0.209918 0.060600
0.514831 0.205760 0.064259
0.526116 0.201603 0.067918
0.537402 0.197445 0.071577
0.548687 0.193287 0.075237
0.558725 0.189386 0.079045
0.562519 0.186768 0.083599
0.566314 0.184150 0.088153
0.570109 0.181533 0.092707
0.573904 0.178915 0.097262
0.577699 0.176297 0.101816
0.039190 0.061531 0.070196
0.051630 0.065129 0.069069
0.064070 0.068727 0.067942
0.076509 0.072325 0.066816
0.088949 0.075923 0.065689
0.101389 0.079522 0.064562
0.123586 0.090885 0.062303
0.147736 0.103802 0.059818
0.171885 0.116719 0.057333
0.196034 0.129636 0.054848
0.220183 0.142553 0.052363
0.247683 0.154852 0.051623
0.276859 0.166842 0.051755
0.306035 0.178832 0.051888
0.335211 0.190822 0.052020
0.364387 0.202812 0.052153
0.390547 0.209918 0.053411
0.413692 0.212139 0.055794
0.436836 0.214361 0.058177
0.459981 0.216582 0.060560
0.483125 0.218803 0.062943
0.502475 0.218889 0.065822
0.514236 0.214704 0.069691
0.525997 0.210519 0.073561
0.537759 0.206334 0.077431
0.549520 0.202149 0.081300
0.560101 0.198232 0.085328
0.564784 0.195660 0.090147
0.569466 0.193088 0.094967
0.574148 0.190516 0.099786
0.578830 0.187944 0.104606
0.583513 0.185372 0.109425
0.039143 0.064366 0.074450
0.051409 0.067754 0.073414
0.063675 0.071142 0.072379
0.075941 0.074530 0.071344
0.088207 0.077918 0.070309
0.100473 0.081305 0.069273
0.122138 0.092299 0.067228
0.145683 0.104813 0.064981
0.169229 0.117328 0.062733
0.192774 0.129842 0.060486
0.216319 0.142357 0.058239
0.243917 0.155345 0.057316
0.273542 0.168570 0.057055
0.303166 0.181795 0.056794
0.332790 0.195019 0.056534
0.362414 0.208244 0.056273
0.388849 0.216251 0.057453
0.412094 0.219040 0.060074
0.435339 0.221828 0.062695
0.458584 0.224617 0.065316
0.481829 0.227406 0.067936
0.501405 0.227860 0.071044
0.513642 0.223648 0.075124
0.525878 0.219435 0.079204
0.538115 0.215222 0.083284
0.550352 0.211010 0.087364
0.561478 0.207078 0.091611
0.567048 0.204552 0.096696
0.572617 0.202026 0.101781
0.578187 0.199499 0.106865
0.583756 0.196973 0.111950
0.589326 0.194446 0.117035
0.039096 0.067202 0.078703
0.051188 0.070380 0.077760
0.063280 0.073557 0.076816
0.075372 0.076735 0.075872
0.087464 0.079912 0.074928
0.099556 0.083089 0.073985
0.120690 0.093712 0.072153
0.143631 0.105824 0.070143
0.166573 0.117936 0.068134
0.189514 0.130048 0.066124
0.212456 0.142160 0.064115
0.240152 0.155837 0.063009
0.270224 0.170297 0.062355
0.300296 0.184757 0.061701
0.330369 0.199217 0.061047
0.360441 0.213677 0.060392
0.387150 0.222585 0.061495
0.410496 0.225940 0.064353
0.433842 0.229296 0.067212
0.457187 0.232652 0.070071
0.480533 0.236008 0.072930
0.500334 0.236832 0.076266
0.513047 0.232591 0.080556
0.525760 0.228351 0.084846
0.538472 0.224111 0.089137
0.551185 0.219871 0.093427
0.562855 0.215924 0.097894
0.569312 0.213444 0.103244
0.575769 0.210963 0.108594
0.582226 0.208482 0.113944
0.588683 0.206002 0.119294
0.595140 0.203521 0.124645
0.039072 0.070842 0.083264
0.051045 0.073800 0.082398
0.063018 0.076757 0.081532
0.074992 0.079715 0.080666
0.086965 0.082673 0.079800
0.098938 0.085631 0.078934
0.119575 0.095539 0.077302
0.141945 0.106836 0.075517
0.164315 0.118134 0.073731
0.186685 0.129432 0.071946
0.209054 0.140730 0.070161
0.236474 0.154251 0.069090
0.266418 0.168885 0.068376
0.296363 0.183519 0.067663
0.326307 0.198153 0.066949
0.356252 0.212786 0.066236
0.383066 0.222287 0.067375
0.406750 0.226653 0.070366
0.430434 0.231020 0.073357
0.454118 0.235386 0.076349
0.477802 0.239753 0.079340
0.498026 0.241449 0.082826
0.511329 0.237804 0.087299
0.524631 0.234158 0.091772
0.537934 0.230513 0.096246
0.551237 0.226867 0.100719
0.563550 0.223489 0.105382
0.570917 0.221447 0.110993
0.578284 0.219406 0.116603
0.585652 0.217364 0.122214
0.593019 0.215323 0.127825
0.600386 0.213281 0.133436
0.039072 0.075285 0.088133
0.050981 0.078014 0.087331
0.062890 0.080743 0.086529
0.074799 0.083472 0.085727
0.086709 0.086201 0.084925
0.098618 0.088930 0.084123
0.118794 0.097778 0.082677
0.140625 0.107850 0.081102
0.162455 0.117922 0.079527
0.184285 0.127994 0.077952
0.206115 0.138066 0.076377
0.232885 0.150588 0.075559
0.262125 0.164334 0.075120
0.291365 0.178080 0.074681
0.320605 0.191827 0.074242
0.349845 0.205573 0.073803
0.376595 0.215357 0.075092
0.400856 0.221178 0.078111
0.425116 0.226999 0.081130
0.449376 0.232820 0.084149
0.473637 0.238642 0.087168
0.494480 0.241713 0.090723
0.508487 0.239284 0.095352
0.522494 0.236855 0.099981
0.536501 0.234426 0.104610
0.550508 0.231998 0.109239
0.563564 0.229772 0.114074
0.571864 0.228563 0.119941
0.580164 0.227354 0.125808
0.588465 0.226145 0.131675
0.596765 0.224936 0.137542
0.605065 0.223727 0.143409
0.039072 0.079727 0.093001
0.050917 0.082228 0.092263
0.062762 0.084728 0.091525
0.074607 0.087229 0.090787
0.086452 0.089729 0.090049
0.098298 0.092230 0.089311
0.118014 0.100018 0.088051
0.139304 0.108864 0.086687
0.160595 0.117710 0.085322
0.181885 0.126556 0.083957
0.203175 0.135403 0.082593
0.229296 0.146924 0.082028
0.257831 0.159783 0.081863
0.286367 0.172642 0.081699
0.314903 0.185501 0.081534
0.343438 0.198360 0.081370
0.370124 0.208427 0.082810
0.394961 0.215703 0.085857
0.419798 0.222979 0.088903
0.444635 0.230254 0.091949
0.469472 0.237530 0.094995
0.490933 0.241977 0.098621
0.505645 0.240764 0.103405
0.520356 0.239552 0.108190
0.535068 0.238340 0.112974
0.549779 0.237128 0.117759
0.563578 0.236055 0.122766
0.572811 0.235679 0.128889
0.582044 0.235302 0.135012
0.591278 0.234925 0.141135
0.600511 0.234549 0.147258
0.609744 0.234172 0.153381
0.039072 0.084170 0.097869
0.050853 0.086442 0.097195
0.062634 0.088714 0.096521
0.074415 0.090986 0.095847
0.086196 0.093257 0.095174
0.097977 0.095529 0.094500
0.117233 0.102258 0.093426
0.137984 0.109878 0.092271
0.158734 0.117498 0.091117
0.179485 0.125119 0.089963
0.200236 0.132739 0.088809
0.225707 0.143260 0.088497
0.253538 0.155232 0.088607
0.281369 0.167203 0.088717
0.309200 0.179175 0.088827
0.337032 0.191147 0.088936
0.363654 0.201498 0.090528
0.389067 0.210228 0.093602
0.414480 0.218958 0.096676
0.439893 0.227688 0.099749
0.465306 0.236419 0.102823
0.487387 0.242240 0.106519
0.502803 0.242245 0.111459
0.518219 0.242249 0.116399
0.533634 0.242254 0.121339
0.549050 0.242259 0.126278
0.563591 0.242338 0.131458
0.573758 0.242794 0.137837
0.583924 0.243250 0.144217
0.594091 0.243706 0.150596
0.604257 0.244162 0.156975
0.614424 0.244618 0.163354
0.039072 0.088613 0.102737
0.050789 0.090656 0.102128
0.062506 0.092699 0.101518
0.074223 0.094742 0.100908
0.085940 0.096785 0.100298
0.097657 0.098828 0.099688
0.116453 0.104498 0.098800
0.136663 0.110892 0.097856
0.156874 0.117287 0.096912
0.177085 0.123681 0.095969
0.197296 0.130075 0.095025
0.222118 0.139596 0.094966
0.249245 0.150681 0.095351
0.276371 0.161765 0.095735
0.303498 0.172849 0.096119
0.330625 0.183934 0.096503
0.357183 0.194568 0.098246
0.383173 0.204753 0.101347
0.409162 0.214938 0.104448
0.435151 0.225122 0.107549
0.461141 0.235307 0.110651
0.483840 0.242504 0.114417
0.499961 0.243725 0.119512
0.516081 0.244947 0.124607
0.532201 0.246168 0.129703
0.548322 0.247389 0.134798
0.563605 0.248622 0.140150
0.574705 0.249910 0.146786
0.585804 0.251198 0.153421
0.596904 0.252487 0.160056
0.608003 0.253775 0.166692
0.619103 0.255063 0.173327
0.039041 0.093151 0.107684
0.050739 0.095059 0.107175
0.062438 0.096968 0.106666
0.074137 0.098877 0.106157
0.085835 0.100786 0.105647
0.097534 0.102695 0.105138
0.116039 0.107554 0.104404
0.135906 0.113003 0.103625
0.155772 0.118452 0.102846
0.175638 0.123902 0.102067
0.195505 0.129351 0.101288
0.219892 0.138000 0.101441
0.246540 0.148248 0.102060
0.273188 0.158497 0.102679
0.299836 0.168746 0.103298
0.326485 0.178995 0.103917
0.352992 0.189661 0.105847
0.379360 0.200746 0.109088
0.405727 0.211830 0.112330
0.432095 0.222914 0.115571
0.458462 0.233998 0.118813
0.481645 0.242284 0.122782
0.498457 0.244972 0.128207
0.515270 0.247660 0.133631
0.532082 0.250348 0.139056
0.548895 0.253036 0.144481
0.564880 0.255646 0.150138
0.576726 0.257868 0.156956
0.588573 0.260089 0.163775
0.600420 0.262310 0.170593
0.612266 0.264532 0.177411
0.624113 0.266753 0.184229
0.038946 0.097877 0.112789
0.050718 0.099841 0.112454
0.062490 0.101805 0.112118
0.074262 0.103768 0.111783
0.086034 0.105732 0.111447
0.097806 0.107696 0.111112
0.116361 0.112244 0.110468
0.136273 0.117309 0.109762
0.156185 0.122374 0.109056
0.176097 0.127439 0.108350
0.196009 0.132504 0.107644
0.220394 0.140537 0.107925
0.247015 0.150054 0.108700
0.273635 0.159571 0.109474
0.300256 0.169087 0.110249
0.326876 0.178604 0.111023
0.353361 0.188800 0.113214
0.379711 0.199674 0.116821
0.406060 0.210548 0.120429
0.432409 0.221422 0.124036
0.458758 0.232295 0.127644
0.482151 0.241096 0.132082
0.499631 0.245751 0.138184
0.517112 0.250406 0.144286
0.534592 0.255061 0.150387
0.552072 0.259715 0.156489
0.568676 0.264154 0.162716
0.580898 0.267510 0.169571
0.593119 0.270865 0.176426
0.605341 0.274221 0.183281
0.617563 0.277577 0.190136
0.629785 0.280933 0.196991
0.038851 0.102603 0.117894
0.050697 0.104622 0.117732
0.062542 0.106641 0.117570
0.074387 0.108659 0.117409
0.086232 0.110678 0.117247
0.098077 0.112697 0.117086
0.116683 0.116934 0.116531
0.136641 0.121615 0.115899
0.156598 0.126295 0.115266
0.176556 0.130976 0.114633
0.196514 0.135657 0.114000
0.220896 0.143074 0.114409
0.247489 0.151859 0.115340
0.274082 0.160644 0.116270
0.300675 0.169429 0.117200
0.327268 0.178214 0.118130
0.353730 0.187938 0.120581
0.380061 0.198602 0.124555
0.406392 0.209265 0.128528
0.432723 0.219929 0.132501
0.459054 0.230592 0.136474
0.482657 0.239909 0.141383
0.500805 0.246530 0.148161
0.518953 0.253152 0.154940
0.537102 0.259773 0.161719
0.555250 0.266395 0.168497
0.572472 0.272661 0.175295
0.585069 0.277152 0.182186
0.597666 0.281642 0.189078
0.610263 0.286132 0.195969
0.622860 0.290622 0.202861
0.635456 0.295112 0.209752
0.038757 0.107330 0.122998
0.050675 0.109403 0.123010
0.062594 0.111477 0.123023
0.074512 0.113551 0.123035
0.086430 0.115624 0.123047
0.098348 0.117698 0.123059
0.117004 0.121624 0.122595
0.137008 0.125920 0.122035
0.157012 0.130217 0.121476
0.177015 0.134513 0.120916
0.197019 0.138810 0.120357
0.221397 0.145611 0.120894
0.247963 0.153664 0.121979
0.274529 0.161717 0.123065
0.301094 0.169771 0.124151
0.327660 0.177824 0.125236
0.354099 0.187077 0.127948
0.380412 0.197530 0.132288
0.406725 0.207983 0.136627
0.433037 0.218436 0.140966
0.459350 0.228889 0.145305
0.483164 0.238721 0.150683
0.501979 0.247309 0.158139
0.520795 0.255898 0.165594
0.539611 0.264486 0.173050
0.558427 0.273075 0.180506
0.576269 0.281169 0.187873
0.589241 0.286793 0.194801
0.602213 0.292418 0.201729
0.615184 0.298042 0.208658
0.628156 0.303667 0.215586
0.641128 0.309291 0.222514
0.038662 0.112056 0.128103
0.050654 0.114185 0.128289
0.062645 0.116313 0.128475
0.074637 0.118442 0.128661
0.086628 0.120570 0.128847
0.098620 0.122699 0.129033
0.117326 0.126314 0.128658
0.137375 0.130226 0.128172
0.157425 0.134138 0.127686
0.177474 0.138050 0.127199
0.197523 0.141963 0.126713
0.221899 0.148148 0.127378
0.248437 0.155469 0.128619
0.274975 0.162791 0.129860
0.301514 0.170112 0.131101
0.328052 0.177433 0.132343
0.354468 0.186216 0.135316
0.380763 0.196458 0.140021
0.407057 0.206701 0.144726
0.433351 0.216944 0.149431
0.459646 0.227186 0.154136
0.483670 0.237533 0.159984
0.503153 0.248088 0.168116
0.522637 0.258644 0.176249
0.542121 0.269199 0.184381
0.561604 0.279754 0.192514
0.580065 0.289677 0.200452
0.593412 0.296435 0.207416
0.606759 0.303194 0.214381
0.620106 0.309953 0.221346
0.633453 0.316712 0.228310
0.646800 0.323471 0.235275
0.038473 0.116035 0.133381
0.050567 0.118251 0.133734
0.062661 0.120468 0.134088
0.074754 0.122685 0.134442
0.086848 0.124902 0.134795
0.098942 0.127119 0.135149
0.117695 0.130506 0.134868
0.137781 0.134127 0.134459
0.157867 0.137748 0.134050
0.177953 0.141369 0.133642
0.198039 0.144990 0.133233
0.222452 0.150697 0.134022
0.249028 0.157447 0.135409
0.275605 0.164196 0.136797
0.302181 0.170946 0.138184
0.328758 0.177696 0.139572
0.355230 0.186129 0.142787
0.381599 0.196245 0.147829
0.407968 0.206361 0.152871
0.434337 0.216477 0.157913
0.460707 0.226593 0.162955
0.484980 0.237419 0.169237
0.505063 0.249663 0.177999
0.525146 0.261908 0.186761
0.545229 0.274153 0.195524
0.565312 0.286397 0.204286
0.584310 0.297931 0.212793
0.597889 0.305913 0.220024
0.611468 0.313894 0.227256
0.625046 0.321876 0.234487
0.638625 0.329858 0.241719
0.652204 0.337839 0.248950
0.037812 0.116271 0.139525
0.050152 0.118744 0.140016
0.062493 0.121217 0.140507
0.074834 0.123690 0.140998
0.087174 0.126163 0.141489
0.099515 0.128636 0.141980
0.118302 0.132210 0.141805
0.138379 0.136005 0.141497
0.158456 0.139800 0.141189
0.178532 0.143595 0.140881
0.198609 0.147390 0.140573
0.223263 0.153307 0.141462
0.250205 0.160286 0.142950
0.277148 0.167264 0.144438
0.304090 0.174242 0.145927
0.331032 0.181221 0.147415
0.357958 0.189914 0.150776
0.384867 0.200323 0.156010
0.411775 0.210732 0.161244
0.438684 0.221141 0.166478
0.465593 0.231550 0.171712
0.490312 0.242671 0.178254
