filter/Red and Blue 2/lut/Midnight 04_S.cube
# LUT by SparkleStock. Enhanced with VOXCOLOR algorithms.
LUT_3D_SIZE 8
DOMAIN_MIN 0.000000 0.000000 0.000000
DOMAIN_MAX 0.903226 0.903226 0.903226
0.085958 0.019536 0.062515
0.141920 0.018969 0.057222
0.219174 0.023223 0.056615
0.313703 0.031588 0.060696
0.420143 0.043594 0.069487
0.526582 0.060231 0.084233
0.609547 0.077971 0.100870
0.673173 0.095931 0.115530
0.083879 0.031447 0.077640
0.155941 0.039222 0.066345
0.246599 0.056277 0.061293
0.353850 0.076658 0.062056
0.471871 0.095615 0.068633
0.577726 0.109471 0.084111
0.651933 0.118454 0.105140
0.701837 0.126778 0.126270
0.078585 0.040411 0.091559
0.151818 0.053420 0.079344
0.258944 0.088831 0.070593
0.381915 0.127584 0.068211
0.504921 0.155698 0.074155
0.609671 0.166980 0.089951
0.679441 0.166894 0.113746
0.722764 0.165392 0.139705
0.072835 0.050289 0.106164
0.139627 0.063835 0.095668
0.255545 0.109260 0.085933
0.392019 0.163130 0.082505
0.524696 0.206124 0.088864
0.627581 0.218883 0.104989
0.695057 0.213310 0.130404
0.736609 0.205530 0.158817
0.068510 0.063925 0.122754
0.127307 0.073409 0.114673
0.239377 0.112816 0.107469
0.383362 0.170847 0.106225
0.534316 0.232091 0.114153
0.636267 0.254070 0.131431
0.702399 0.250385 0.157388
0.744863 0.243086 0.185409
0.065674 0.083020 0.141660
0.119934 0.089723 0.135482
0.227259 0.115048 0.131840
0.370622 0.158125 0.135511
0.527559 0.213990 0.149202
0.640488 0.260559 0.171602
0.708327 0.274023 0.195243
0.752151 0.278976 0.219617
0.063153 0.103533 0.162456
0.116291 0.110870 0.157815
0.221941 0.130108 0.156332
0.365525 0.163841 0.163190
0.526372 0.211492 0.181242
0.648205 0.262525 0.208644
0.717508 0.299949 0.236756
0.762813 0.324264 0.260106
0.058955 0.116444 0.185269
0.113477 0.126684 0.183440
0.219271 0.145209 0.183666
0.364461 0.176754 0.192310
0.530071 0.222856 0.212965
0.659442 0.276708 0.243519
0.731455 0.327891 0.274912
0.776576 0.370364 0.302281
0.078585 0.030312 0.094844
0.153867 0.029452 0.075060
0.242147 0.032895 0.075515
0.345141 0.041090 0.086633
0.459888 0.054266 0.100785
0.565156 0.073099 0.113336
0.641462 0.095962 0.124362
0.696220 0.119314 0.135266
0.075042 0.046468 0.105285
0.126650 0.067549 0.115761
0.223878 0.089043 0.123149
0.351190 0.109602 0.130478
0.490917 0.127988 0.139583
0.606819 0.142000 0.149239
0.682469 0.153310 0.157442
0.727854 0.163895 0.165227
0.071499 0.061025 0.122297
0.114764 0.094997 0.139699
0.224584 0.141151 0.145740
0.367573 0.183463 0.149713
0.514659 0.211088 0.157570
0.633932 0.222734 0.167048
0.709983 0.223224 0.177211
0.752827 0.220221 0.187907
0.068090 0.076075 0.142158
0.107294 0.113010 0.157853
0.222039 0.175271 0.160198
0.374606 0.238389 0.161297
0.531119 0.283720 0.168833
0.649423 0.298353 0.179764
0.726108 0.293120 0.193671
0.771114 0.281939 0.208959
0.064954 0.093205 0.162499
0.097453 0.124110 0.178116
0.203839 0.184394 0.178553
0.360854 0.258111 0.177497
0.537796 0.327537 0.184054
0.656216 0.353827 0.197271
0.733536 0.352115 0.214376
0.783232 0.343110 0.232786
0.062411 0.113617 0.184771
0.089579 0.136302 0.202177
0.184487 0.178509 0.202852
0.334960 0.238548 0.201688
0.517941 0.310088 0.208895
0.657310 0.366180 0.225196
0.737245 0.385697 0.243515
0.790832 0.395007 0.262616
0.060061 0.136179 0.210154
0.087013 0.158025 0.230778
0.174210 0.186826 0.233754
0.318243 0.230423 0.234437
0.502417 0.291137 0.243464
0.653674 0.354735 0.262159
0.740244 0.402794 0.282564
0.797096 0.436623 0.302340
0.059577 0.155250 0.239224
0.086827 0.178766 0.262674
0.170852 0.204231 0.269952
0.312521 0.241721 0.274951
0.498255 0.296255 0.287250
0.656611 0.360121 0.307728
0.747230 0.419473 0.329399
0.803838 0.469352 0.352802
0.072819 0.043633 0.129584
0.128646 0.043206 0.110135
0.240290 0.046417 0.102756
0.369279 0.055132 0.111106
0.488185 0.070309 0.133120
0.591764 0.091440 0.145342
0.663311 0.117370 0.150636
0.713159 0.144523 0.156815
0.069367 0.062996 0.141043
0.107418 0.086791 0.160906
0.214245 0.106591 0.174421
0.356600 0.126046 0.188509
0.504946 0.146727 0.205573
0.624598 0.163246 0.212237
0.700889 0.178747 0.209862
0.745234 0.194345 0.205242
0.066412 0.084239 0.159432
0.100040 0.122723 0.190794
0.200097 0.170018 0.216892
0.343924 0.212452 0.236606
0.506701 0.241111 0.249427
0.641214 0.256525 0.255300
0.726816 0.262938 0.254371
0.775137 0.265457 0.250535
0.064360 0.105696 0.182503
0.096234 0.149169 0.212936
0.187513 0.217632 0.242547
0.330890 0.284443 0.263222
0.508003 0.330804 0.271776
0.650410 0.351044 0.279731
0.743655 0.353426 0.284145
0.799739 0.347581 0.286280
0.063244 0.126839 0.208460
0.089539 0.166668 0.236955
0.169736 0.238371 0.262378
0.314898 0.320678 0.277715
0.512440 0.393891 0.281682
0.657485 0.428174 0.292504
0.753584 0.435242 0.302154
0.816937 0.430832 0.310578
0.061823 0.151264 0.236691
0.083520 0.183614 0.265738
0.148282 0.239086 0.288430
0.281729 0.310406 0.299631
0.482698 0.389173 0.299846
0.656979 0.458070 0.310107
0.757188 0.486701 0.322830
0.825484 0.499949 0.335687
0.060386 0.177534 0.268733
0.082694 0.210006 0.301087
0.137864 0.252295 0.324261
0.260622 0.306333 0.335198
0.457756 0.372676 0.335573
0.645759 0.449644 0.344885
0.755498 0.506751 0.355838
0.828384 0.545078 0.369522
0.061702 0.201801 0.304851
0.084777 0.237876 0.340142
0.136551 0.276790 0.365935
0.254726 0.323145 0.380425
0.449218 0.380498 0.385358
0.643012 0.453381 0.395828
0.757058 0.517782 0.404817
0.828694 0.568368 0.418659
0.068975 0.060286 0.168467
0.097675 0.061323 0.155763
0.202081 0.065055 0.141988
0.350262 0.075104 0.140290
0.508104 0.093324 0.156155
0.610086 0.117712 0.172292
0.678316 0.145252 0.175789
0.725747 0.174241 0.179907
0.066255 0.081393 0.183536
0.094469 0.103705 0.205914
0.191422 0.120706 0.220929
0.339732 0.138977 0.235447
0.512850 0.161869 0.252374
0.633728 0.183250 0.261349
0.710124 0.204044 0.253651
0.755680 0.225488 0.242099
0.063885 0.108691 0.204524
0.094097 0.143610 0.239515
0.175347 0.186861 0.278862
0.313007 0.226644 0.309293
0.495003 0.255696 0.323750
0.640468 0.277237 0.331331
0.733629 0.291677 0.324486
0.788886 0.303013 0.311886
0.062693 0.137923 0.230983
0.093616 0.178853 0.267223
0.160284 0.244224 0.317742
0.285734 0.308388 0.356648
0.470361 0.354132 0.370389
0.637422 0.381393 0.379422
0.748448 0.393454 0.378327
0.818148 0.397084 0.371434
0.063021 0.166510 0.262282
0.091329 0.208510 0.296930
0.148931 0.280236 0.342678
0.265403 0.361717 0.379198
0.447608 0.435189 0.395527
0.631238 0.476965 0.405745
0.755583 0.494025 0.410015
0.838521 0.496840 0.409831
0.063857 0.196607 0.297721
0.088926 0.234745 0.331599
0.131757 0.295321 0.371936
0.233689 0.370210 0.401755
0.413480 0.451467 0.412319
0.630775 0.527592 0.417245
0.760557 0.563912 0.424823
0.848512 0.580274 0.431143
0.064179 0.229239 0.337053
0.090848 0.269323 0.373223
0.126171 0.320544 0.411597
0.216040 0.380890 0.438199
0.385806 0.449637 0.446159
0.615215 0.532719 0.447877
0.756274 0.594429 0.450291
0.849868 0.632918 0.456725
0.066698 0.259473 0.379447
0.095506 0.304852 0.417809
0.129429 0.353995 0.455900
0.214390 0.406508 0.482838
0.377624 0.464252 0.493304
0.609227 0.540773 0.496659
0.754313 0.606402 0.494652
0.845765 0.653243 0.497505
0.067179 0.080302 0.212706
0.081681 0.084029 0.207431
0.133166 0.089556 0.195434
0.273239 0.101719 0.181081
0.500615 0.123245 0.171393
0.620197 0.152574 0.190329
0.689501 0.181379 0.197587
0.735880 0.210482 0.204596
0.065300 0.101977 0.232167
0.085407 0.123409 0.254664
0.145193 0.140191 0.268322
0.283306 0.158315 0.274664
0.497273 0.181648 0.277174
0.634717 0.209527 0.288891
0.713549 0.236166 0.282725
0.761452 0.262971 0.273036
0.064187 0.133808 0.258531
0.088279 0.163956 0.291590
0.145651 0.201845 0.330536
0.273564 0.237502 0.358425
0.475256 0.265627 0.367655
0.636394 0.294150 0.378373
0.734037 0.316411 0.372277
0.794489 0.336862 0.360477
0.063812 0.171912 0.289925
0.091143 0.207678 0.325603
0.144208 0.263177 0.377677
0.252078 0.319118 0.422220
0.424698 0.362859 0.445150
0.617308 0.396497 0.456751
0.743145 0.416782 0.455460
0.824460 0.430401 0.447220
0.064495 0.212494 0.325304
0.094390 0.253946 0.362056
0.145717 0.314983 0.410019
0.226569 0.386054 0.461791
0.351345 0.456391 0.507446
0.580711 0.502264 0.518196
0.739145 0.526818 0.520413
0.844362 0.536984 0.515564
0.068423 0.249927 0.367128
0.096949 0.291625 0.402530
0.139859 0.347737 0.443407
0.208064 0.417584 0.487834
0.322775 0.497330 0.528850
0.573185 0.569932 0.533287
0.740548 0.609997 0.537982
0.853959 0.628686 0.538644
0.071395 0.291589 0.412815
0.102718 0.336484 0.448795
0.143300 0.387478 0.485745
0.201660 0.446943 0.523755
0.301558 0.515955 0.557978
0.555357 0.593381 0.559226
0.735245 0.653985 0.557036
0.855498 0.689488 0.556619
0.075613 0.329436 0.459318
0.110705 0.378894 0.495496
0.153172 0.429185 0.530148
0.208455 0.481508 0.564243
0.299950 0.538301 0.594597
0.549086 0.609821 0.598061
0.731969 0.672784 0.590801
0.849739 0.713729 0.584726
0.067368 0.101477 0.263563
0.076894 0.109302 0.267509
0.105363 0.120483 0.264526
0.183643 0.135036 0.251051
0.337177 0.154843 0.227385
0.605762 0.191928 0.207241
0.700387 0.225564 0.218109
0.746796 0.255582 0.232668
0.067099 0.125640 0.290489
0.082570 0.148791 0.313708
0.117190 0.169489 0.325874
0.200868 0.190371 0.326626
0.357113 0.214137 0.315994
0.617836 0.246374 0.292937
0.717419 0.279449 0.293837
0.767590 0.311125 0.297746
0.067285 0.161929 0.322762
0.087402 0.191656 0.353021
0.123752 0.227019 0.383980
0.208117 0.261535 0.403657
0.364413 0.291875 0.404542
0.619174 0.324005 0.387281
0.732476 0.353612 0.388109
0.795682 0.381308 0.390488
0.068325 0.208168 0.359914
0.092805 0.241427 0.391790
0.130573 0.287743 0.433511
0.206919 0.336156 0.469452
0.346034 0.379085 0.488080
0.600096 0.415772 0.481880
0.737670 0.443208 0.486716
0.822500 0.465147 0.490325
0.070691 0.261082 0.400781
0.099803 0.298682 0.433548
0.141122 0.347584 0.472620
0.202447 0.404795 0.516559
0.305577 0.465074 0.558837
0.554523 0.511037 0.567226
0.725790 0.541173 0.575994
0.839975 0.559223 0.579090
0.075790 0.312127 0.441434
0.108971 0.354279 0.473758
0.153975 0.404329 0.509700
0.217593 0.461542 0.548816
0.311224 0.524107 0.589004
0.480248 0.585806 0.620203
0.683089 0.628299 0.632336
0.833991 0.650217 0.632439
0.082372 0.362157 0.489122
0.119069 0.406145 0.519813
0.166515 0.453289 0.551465
0.229183 0.504370 0.584348
0.315107 0.560265 0.617944
0.458040 0.624013 0.648353
0.673260 0.680697 0.653104
0.834148 0.713439 0.649814
0.089896 0.407718 0.535325
0.131239 0.453654 0.564242
0.183590 0.499369 0.592489
0.248575 0.545384 0.620733
0.331303 0.592971 0.649040
0.458807 0.647715 0.675097
0.671625 0.705580 0.674321
0.828608 0.742180 0.665169
0.068817 0.122336 0.318201
0.077636 0.135479 0.332588
0.096602 0.152929 0.340961
0.143473 0.174914 0.338691
0.240697 0.202073 0.323033
0.457883 0.238378 0.293692
0.652579 0.274912 0.269342
0.758368 0.306160 0.266432
0.071013 0.151305 0.352713
0.086210 0.179283 0.380141
0.108873 0.206133 0.396696
0.160195 0.235383 0.402664
0.263667 0.269196 0.397157
0.481452 0.306885 0.371192
0.672868 0.337020 0.335704
0.777665 0.368956 0.326335
0.073178 0.192987 0.391191
0.092975 0.226355 0.421660
0.119784 0.264006 0.449364
0.175606 0.303707 0.467634
0.283588 0.343845 0.471356
0.500675 0.384221 0.454546
0.691655 0.410919 0.421172
0.800345 0.439480 0.412485
0.075887 0.246305 0.432636
0.100446 0.281605 0.462195
0.132404 0.325921 0.495883
0.188450 0.373608 0.524741
0.290260 0.420465 0.541436
0.506235 0.464857 0.536975
0.702228 0.491598 0.514910
0.820912 0.515354 0.510492
0.079723 0.308760 0.475699
0.110345 0.346548 0.504430
0.148883 0.390861 0.535211
0.200930 0.440612 0.568741
0.284680 0.493653 0.601654
0.489894 0.542778 0.611581
0.697194 0.573556 0.605786
0.833224 0.593723 0.605938
0.085993 0.372442 0.517011
0.123007 0.412383 0.543844
0.170136 0.456207 0.572088
0.230734 0.503592 0.602057
0.310875 0.553847 0.633506
0.436621 0.604979 0.664109
0.657360 0.645605 0.672701
0.822097 0.668302 0.673173
0.095271 0.431794 0.558160
0.139540 0.472196 0.582647
0.194663 0.513305 0.607789
0.262081 0.555794 0.633932
0.344170 0.600344 0.661442
0.452258 0.648640 0.691355
0.633673 0.695300 0.707162
0.792503 0.724273 0.709168
0.106720 0.483241 0.596889
0.156467 0.522558 0.619075
0.219295 0.560988 0.641420
0.293964 0.599161 0.664494
0.379784 0.637859 0.688719
0.480394 0.679180 0.714481
0.628153 0.723410 0.730064
0.772838 0.753695 0.728043
0.071543 0.143747 0.374926
0.082173 0.163483 0.396430
0.097183 0.187680 0.415420
0.127005 0.218053 0.426744
0.187284 0.255528 0.426305
0.333286 0.300206 0.408491
0.564592 0.346547 0.374205
0.728425 0.377165 0.342070
0.075739 0.177985 0.413323
0.092464 0.210723 0.444483
0.110918 0.244463 0.467178
0.144856 0.282970 0.482127
0.211819 0.328247 0.488605
0.365186 0.378232 0.477538
0.591874 0.420166 0.439285
0.751115 0.449845 0.404792
0.079667 0.225865 0.457146
0.101284 0.263453 0.488560
0.126573 0.304721 0.515569
0.167957 0.350689 0.535794
0.241755 0.401242 0.546908
0.399532 0.452662 0.542962
0.618766 0.490754 0.508804
0.773298 0.517359 0.477770
0.083990 0.286592 0.502466
0.111095 0.325015 0.530409
0.144545 0.369351 0.558336
0.192635 0.418251 0.582590
0.269361 0.470149 0.599750
0.428671 0.522172 0.603177
0.640246 0.557933 0.579604
0.792166 0.580791 0.556111
0.089402 0.357763 0.545976
0.123650 0.395920 0.570689
0.165448 0.438032 0.594612
0.218118 0.483629 0.619660
0.292755 0.532350 0.644808
0.445077 0.584747 0.656455
0.650438 0.620497 0.647702
0.803950 0.640603 0.633602
0.097477 0.431190 0.584031
0.139756 0.467823 0.605779
0.191896 0.506242 0.626989
0.254965 0.546580 0.649046
0.331306 0.588784 0.672763
0.433245 0.632469 0.697621
0.633081 0.671933 0.702240
0.796597 0.694229 0.693994
0.108844 0.494784 0.616288
0.159847 0.529435 0.635622
0.222794 0.564208 0.655016
0.296530 0.599669 0.675476
0.380108 0.636188 0.697700
0.475042 0.673857 0.722072
0.614086 0.711363 0.739568
0.759466 0.736251 0.738181
0.123193 0.545533 0.645069
0.180782 0.577421 0.662145
0.253582 0.609209 0.680059
0.337119 0.641150 0.699512
0.427412 0.673438 0.720766
0.521155 0.706236 0.742932
0.618639 0.739127 0.763813
0.739087 0.763995 0.765093
