filter/Red and Blue 2/lut/Midnight 01.cube
# LUT by SparkleStock. Enhanced with VOXCOLOR algorithms.
LUT_3D_SIZE 32
0.054701 0.046886 0.046886
0.065666 0.046225 0.046367
0.076632 0.045563 0.045847
0.087597 0.044901 0.045327
0.098562 0.044240 0.044807
0.109528 0.043578 0.044287
0.124865 0.043743 0.043570
0.141077 0.044074 0.042814
0.157289 0.044405 0.042058
0.173500 0.044736 0.041301
0.189712 0.045067 0.040545
0.207594 0.046028 0.040388
0.226311 0.047304 0.040529
0.245027 0.048580 0.040671
0.263744 0.049856 0.040813
0.282461 0.051132 0.040955
0.301036 0.052810 0.041569
0.319469 0.054890 0.042656
0.337902 0.056970 0.043743
0.356335 0.059049 0.044830
0.374769 0.061129 0.045918
0.392855 0.063587 0.047146
0.410249 0.066801 0.048659
0.427642 0.070015 0.050171
0.445035 0.073229 0.051684
0.462429 0.076443 0.053196
0.479704 0.079846 0.054843
0.496388 0.084194 0.057159
0.513073 0.088542 0.059475
0.529757 0.092891 0.061791
0.546441 0.097239 0.064107
0.563126 0.101587 0.066422
0.054606 0.049675 0.051707
0.066194 0.048867 0.050620
0.077781 0.048059 0.049533
0.089369 0.047251 0.048446
0.100956 0.046443 0.047359
0.112544 0.045635 0.046272
0.128091 0.045989 0.045613
0.144431 0.046576 0.045040
0.160771 0.047163 0.044467
0.177111 0.047750 0.043893
0.193451 0.048337 0.043320
0.211674 0.049579 0.043388
0.230839 0.051148 0.043777
0.250004 0.052717 0.044166
0.269169 0.054285 0.044554
0.288334 0.055854 0.044943
0.307371 0.057807 0.045732
0.326280 0.060142 0.046919
0.345189 0.062478 0.048107
0.364097 0.064814 0.049295
0.383006 0.067150 0.050482
0.401489 0.069818 0.051794
0.419121 0.073151 0.053352
0.436752 0.076484 0.054910
0.454383 0.079817 0.056468
0.472014 0.083150 0.058026
0.489453 0.086649 0.059726
0.505926 0.090979 0.062134
0.522400 0.095309 0.064541
0.538874 0.099639 0.066948
0.555348 0.103969 0.069356
0.571822 0.108299 0.071763
0.054512 0.052464 0.056528
0.066721 0.051509 0.054874
0.078931 0.050555 0.053220
0.091140 0.049600 0.051566
0.103350 0.048646 0.049911
0.115559 0.047691 0.048257
0.131317 0.048235 0.047656
0.147785 0.049078 0.047266
0.164253 0.049921 0.046876
0.180721 0.050764 0.046485
0.197189 0.051608 0.046095
0.215754 0.053130 0.046389
0.235367 0.054991 0.047024
0.254980 0.056853 0.047660
0.274594 0.058715 0.048296
0.294207 0.060576 0.048932
0.313706 0.062803 0.049894
0.333090 0.065395 0.051182
0.352475 0.067987 0.052471
0.371860 0.070579 0.053759
0.391244 0.073171 0.055047
0.410124 0.076049 0.056441
0.427993 0.079501 0.058045
0.445862 0.082953 0.059649
0.463731 0.086405 0.061253
0.481600 0.089857 0.062857
0.499201 0.093452 0.064610
0.515465 0.097763 0.067109
0.531728 0.102075 0.069607
0.547992 0.106387 0.072106
0.564256 0.110699 0.074605
0.580519 0.115010 0.077104
0.054417 0.055252 0.061349
0.067249 0.054151 0.059128
0.080080 0.053051 0.056907
0.092912 0.051950 0.054685
0.105744 0.050849 0.052464
0.118575 0.049748 0.050242
0.134544 0.050481 0.049699
0.151140 0.051580 0.049492
0.167736 0.052679 0.049284
0.184332 0.053779 0.049077
0.200928 0.054878 0.048870
0.219834 0.056681 0.049389
0.239895 0.058835 0.050272
0.259957 0.060989 0.051155
0.280018 0.063144 0.052038
0.300080 0.065298 0.052920
0.320041 0.067799 0.054056
0.339901 0.070647 0.055445
0.359761 0.073495 0.056834
0.379622 0.076343 0.058223
0.399482 0.079192 0.059612
0.418758 0.082280 0.061088
0.436865 0.085851 0.062738
0.454971 0.089422 0.064387
0.473078 0.092993 0.066037
0.491185 0.096564 0.067687
0.508950 0.100255 0.069493
0.525003 0.104548 0.072084
0.541056 0.108842 0.074674
0.557109 0.113135 0.077264
0.573163 0.117429 0.079855
0.589216 0.121722 0.082445
0.054323 0.058041 0.066170
0.067776 0.056794 0.063382
0.081230 0.055547 0.060593
0.094684 0.054299 0.057805
0.108137 0.053052 0.055016
0.121591 0.051805 0.052227
0.137770 0.052727 0.051742
0.154494 0.054082 0.051718
0.171218 0.055438 0.051693
0.187942 0.056793 0.051669
0.204666 0.058148 0.051645
0.223914 0.060232 0.052390
0.244424 0.062679 0.053519
0.264933 0.065126 0.054649
0.285443 0.067573 0.055779
0.305953 0.070020 0.056909
0.326376 0.072796 0.058219
0.346712 0.075900 0.059708
0.367048 0.079004 0.061198
0.387384 0.082108 0.062687
0.407720 0.085212 0.064177
0.427392 0.088512 0.065735
0.445737 0.092201 0.067431
0.464081 0.095891 0.069126
0.482426 0.099581 0.070821
0.500771 0.103271 0.072517
0.518699 0.107058 0.074377
0.534541 0.111333 0.077059
0.550384 0.115608 0.079740
0.566227 0.119883 0.082422
0.582070 0.124158 0.085104
0.597912 0.128434 0.087786
0.054228 0.060829 0.070991
0.068304 0.059436 0.067636
0.082380 0.058042 0.064280
0.096455 0.056649 0.060924
0.110531 0.055255 0.057568
0.124607 0.053862 0.054212
0.140996 0.054972 0.053785
0.157848 0.056584 0.053944
0.174700 0.058196 0.054102
0.191552 0.059807 0.054261
0.208404 0.061419 0.054420
0.227994 0.063783 0.055390
0.248952 0.066522 0.056767
0.269910 0.069262 0.058144
0.290868 0.072002 0.059521
0.311826 0.074742 0.060897
0.332711 0.077792 0.062381
0.353522 0.081152 0.063971
0.374334 0.084513 0.065561
0.395146 0.087873 0.067152
0.415957 0.091233 0.068742
0.436026 0.094743 0.070382
0.454609 0.098552 0.072123
0.473191 0.102360 0.073865
0.491774 0.106169 0.075606
0.510356 0.109978 0.077347
0.528447 0.113861 0.079260
0.544080 0.118118 0.082033
0.559712 0.122375 0.084807
0.575344 0.126631 0.087580
0.590977 0.130888 0.090354
0.606609 0.135145 0.093127
0.053582 0.063579 0.075261
0.067556 0.062260 0.071894
0.081529 0.060941 0.068528
0.095503 0.059622 0.065162
0.109476 0.058303 0.061795
0.123450 0.056985 0.058429
0.140698 0.058112 0.057739
0.158600 0.059728 0.057585
0.176503 0.061344 0.057431
0.194406 0.062960 0.057277
0.212308 0.064576 0.057123
0.232353 0.067111 0.058078
0.253470 0.070106 0.059588
0.274587 0.073100 0.061097
0.295703 0.076094 0.062606
0.316820 0.079089 0.064116
0.337930 0.082417 0.065766
0.359035 0.086079 0.067556
0.380139 0.089742 0.069346
0.401243 0.093404 0.071135
0.422348 0.097066 0.072925
0.442681 0.100857 0.074763
0.461471 0.104907 0.076694
0.480261 0.108957 0.078626
0.499051 0.113006 0.080558
0.517840 0.117056 0.082490
0.536084 0.121170 0.084585
0.551598 0.125606 0.087495
0.567111 0.130043 0.090406
0.582625 0.134480 0.093316
0.598138 0.138917 0.096227
0.613652 0.143353 0.099137
0.052826 0.066320 0.079420
0.066553 0.065120 0.076154
0.080279 0.063920 0.072889
0.094006 0.062720 0.069623
0.107732 0.061520 0.066357
0.121459 0.060321 0.063091
0.139694 0.061429 0.062075
0.158832 0.063000 0.061510
0.177970 0.064570 0.060944
0.197107 0.066140 0.060378
0.216245 0.067711 0.059813
0.236769 0.070395 0.060704
0.257986 0.073637 0.062323
0.279203 0.076878 0.063942
0.300420 0.080120 0.065561
0.321638 0.083361 0.067180
0.342927 0.086968 0.068995
0.364287 0.090942 0.071004
0.385648 0.094915 0.073014
0.407008 0.098888 0.075023
0.428369 0.102861 0.077033
0.448939 0.106949 0.079090
0.467931 0.111263 0.081241
0.486922 0.115578 0.083392
0.505913 0.119893 0.085544
0.524904 0.124208 0.087695
0.543299 0.128579 0.089997
0.558712 0.133236 0.093054
0.574125 0.137892 0.096111
0.589538 0.142548 0.099168
0.604950 0.147205 0.102225
0.620363 0.151861 0.105282
0.052070 0.069061 0.083580
0.065549 0.067980 0.080414
0.079029 0.066899 0.077249
0.092508 0.065818 0.074084
0.105988 0.064737 0.070919
0.119468 0.063656 0.067753
0.138691 0.064747 0.066412
0.159064 0.066272 0.065434
0.179436 0.067796 0.064457
0.199809 0.069321 0.063480
0.220181 0.070846 0.062502
0.241184 0.073679 0.063329
0.262502 0.077168 0.065058
0.283820 0.080656 0.066787
0.305138 0.084145 0.068516
0.326456 0.087633 0.070245
0.347923 0.091519 0.072224
0.369540 0.095804 0.074453
0.391156 0.100088 0.076682
0.412773 0.104372 0.078911
0.434390 0.108657 0.081140
0.455198 0.113040 0.083417
0.474391 0.117620 0.085787
0.493583 0.122200 0.088158
0.512776 0.126780 0.090529
0.531968 0.131360 0.092900
0.550514 0.135989 0.095410
0.565826 0.140865 0.098613
0.581138 0.145741 0.101816
0.596450 0.150617 0.105020
0.611763 0.155493 0.108223
0.627075 0.160369 0.111426
0.051314 0.071803 0.087739
0.064546 0.070841 0.084674
0.077779 0.069879 0.081610
0.091011 0.068917 0.078545
0.104244 0.067954 0.075480
0.117476 0.066992 0.072416
0.137688 0.068065 0.070748
0.159296 0.069543 0.069359
0.180903 0.071022 0.067970
0.202511 0.072501 0.066581
0.224118 0.073980 0.065192
0.245600 0.076963 0.065955
0.267018 0.080699 0.067793
0.288437 0.084434 0.069632
0.309855 0.088170 0.071471
0.331274 0.091905 0.073310
0.352919 0.096071 0.075453
0.374792 0.100666 0.077902
0.396665 0.105261 0.080351
0.418538 0.109857 0.082799
0.440410 0.114452 0.085248
0.461457 0.119131 0.087744
0.480851 0.123976 0.090334
0.500244 0.128821 0.092924
0.519638 0.133667 0.095515
0.539032 0.138512 0.098105
0.557728 0.143399 0.100822
0.572940 0.148495 0.104172
0.588152 0.153590 0.107522
0.603363 0.158685 0.110871
0.618575 0.163781 0.114221
0.633786 0.168876 0.117571
0.050557 0.074544 0.091898
0.063543 0.073701 0.088934
0.076528 0.072858 0.085970
0.089514 0.072015 0.083006
0.102500 0.071172 0.080042
0.115485 0.070328 0.077078
0.136685 0.071382 0.075084
0.159527 0.072815 0.073283
0.182370 0.074249 0.071483
0.205212 0.075682 0.069682
0.228055 0.077115 0.067881
0.250015 0.080248 0.068580
0.271534 0.084230 0.070529
0.293053 0.088212 0.072477
0.314572 0.092195 0.074426
0.336091 0.096177 0.076374
0.357915 0.100622 0.078683
0.380044 0.105528 0.081351
0.402173 0.110434 0.084019
0.424302 0.115341 0.086687
0.446431 0.120247 0.089355
0.467716 0.125222 0.092071
0.487311 0.130332 0.094881
0.506906 0.135443 0.097691
0.526501 0.140554 0.100500
0.546096 0.145664 0.103310
0.564943 0.150809 0.106235
0.580054 0.156124 0.109731
0.595165 0.161439 0.113227
0.610276 0.166754 0.116723
0.625387 0.172069 0.120219
0.640498 0.177384 0.123715
0.049675 0.077727 0.096341
0.062517 0.076947 0.093447
0.075360 0.076168 0.090553
0.088202 0.075389 0.087660
0.101044 0.074610 0.084766
0.113886 0.073831 0.081872
0.135314 0.074913 0.079785
0.158458 0.076368 0.077859
0.181602 0.077822 0.075934
0.204747 0.079277 0.074008
0.227891 0.080731 0.072082
0.250641 0.084024 0.072650
0.273194 0.088235 0.074464
0.295747 0.092446 0.076279
0.318300 0.096657 0.078093
0.340852 0.100868 0.079907
0.363224 0.105564 0.082240
0.385414 0.110745 0.085091
0.407604 0.115926 0.087942
0.429794 0.121107 0.090793
0.451984 0.126287 0.093645
0.473355 0.131566 0.096569
0.493091 0.137039 0.099642
0.512826 0.142513 0.102714
0.532561 0.147986 0.105786
0.552296 0.153460 0.108858
0.571245 0.158957 0.112028
0.586262 0.164571 0.115689
0.601278 0.170184 0.119350
0.616294 0.175798 0.123011
0.631311 0.181412 0.126671
0.646327 0.187026 0.130332
0.048730 0.081130 0.100926
0.061481 0.080387 0.098087
0.074231 0.079645 0.095248
0.086982 0.078902 0.092409
0.099733 0.078160 0.089570
0.112484 0.077417 0.086731
0.133758 0.078551 0.084668
0.156738 0.080061 0.082761
0.179718 0.081570 0.080854
0.202698 0.083079 0.078946
0.225677 0.084589 0.077039
0.249373 0.088046 0.077442
0.273426 0.092476 0.079000
0.297479 0.096907 0.080558
0.321532 0.101338 0.082117
0.345585 0.105768 0.083675
0.368688 0.110702 0.085962
0.390842 0.116139 0.088978
0.412995 0.121576 0.091993
0.435148 0.127013 0.095009
0.457302 0.132450 0.098025
0.478686 0.138036 0.101154
0.498531 0.143922 0.104510
0.518376 0.149807 0.107866
0.538221 0.155692 0.111221
0.558066 0.161577 0.114577
0.577091 0.167474 0.118013
0.592016 0.173426 0.121847
0.606941 0.179378 0.125682
0.621865 0.185330 0.129516
0.636790 0.191283 0.133351
0.651715 0.197235 0.137185
0.047784 0.084533 0.105510
0.060444 0.083827 0.102726
0.073103 0.083121 0.099942
0.085762 0.082415 0.097158
0.098422 0.081709 0.094374
0.111081 0.081003 0.091590
0.132203 0.082189 0.089552
0.155018 0.083753 0.087663
0.177833 0.085318 0.085774
0.200648 0.086882 0.083885
0.223464 0.088446 0.081996
0.248104 0.092068 0.082234
0.273658 0.096718 0.083536
0.299211 0.101368 0.084838
0.324764 0.106018 0.086140
0.350318 0.110669 0.087442
0.374153 0.115840 0.089683
0.396269 0.121533 0.092864
0.418386 0.127227 0.096044
0.440503 0.132920 0.099225
0.462620 0.138613 0.102405
0.484016 0.144507 0.105739
0.503971 0.150804 0.109378
0.523925 0.157101 0.113017
0.543880 0.163398 0.116657
0.563835 0.169695 0.120296
0.582936 0.175990 0.123997
0.597770 0.182281 0.128005
0.612603 0.188572 0.132014
0.627437 0.194863 0.136022
0.642270 0.201153 0.140030
0.657103 0.207444 0.144039
0.046839 0.087936 0.110095
0.059407 0.087266 0.107366
0.071975 0.086597 0.104637
0.084543 0.085928 0.101907
0.097110 0.085258 0.099178
0.109678 0.084589 0.096449
0.130648 0.085827 0.094435
0.153299 0.087446 0.092565
0.175949 0.089065 0.090694
0.198599 0.090684 0.088823
0.221250 0.092304 0.086952
0.246836 0.096090 0.087026
0.273889 0.100960 0.088072
0.300943 0.105829 0.089118
0.327997 0.110699 0.090164
0.355050 0.115569 0.091210
0.379617 0.120978 0.093405
0.401697 0.126928 0.096750
0.423777 0.132877 0.100095
0.445858 0.138826 0.103441
0.467938 0.144775 0.106786
0.489346 0.150978 0.110323
0.509411 0.157686 0.114246
0.529475 0.164395 0.118169
0.549540 0.171103 0.122092
0.569604 0.177812 0.126015
0.588782 0.184507 0.129981
0.603524 0.191136 0.134164
0.618266 0.197766 0.138346
0.633008 0.204395 0.142528
0.647750 0.211024 0.146710
0.662492 0.217653 0.150892
0.045894 0.091339 0.114680
0.058370 0.090706 0.112005
0.070847 0.090073 0.109331
0.083323 0.089441 0.106657
0.095799 0.088808 0.103983
0.108275 0.088175 0.101308
0.129093 0.089465 0.099319
0.151579 0.091139 0.097466
0.174064 0.092813 0.095614
0.196550 0.094487 0.093761
0.219036 0.096161 0.091909
0.245567 0.100112 0.091818
0.274121 0.105201 0.092608
0.302675 0.110291 0.093398
0.331229 0.115380 0.094187
0.359783 0.120469 0.094977
0.385081 0.126117 0.097127
0.407125 0.132322 0.100637
0.429169 0.138527 0.104146
0.451212 0.144733 0.107656
0.473256 0.150938 0.111166
0.494676 0.157448 0.114908
0.514851 0.164569 0.119115
0.535025 0.171689 0.123321
0.555199 0.178809 0.127528
0.575374 0.185929 0.131734
0.594627 0.193024 0.135966
0.609278 0.199992 0.140322
0.623928 0.206959 0.144678
0.638579 0.213927 0.149034
0.653229 0.220895 0.153390
0.667880 0.227862 0.157745
0.045421 0.094671 0.119619
0.057788 0.094107 0.116999
0.070154 0.093543 0.114380
0.082521 0.092979 0.111761
0.094887 0.092414 0.109141
0.107254 0.091850 0.106522
0.127962 0.093178 0.104507
0.150338 0.094884 0.102614
0.172714 0.096590 0.100720
0.195090 0.098296 0.098826
0.217466 0.100002 0.096933
0.244533 0.104113 0.096764
0.273947 0.109427 0.097458
0.303361 0.114740 0.098151
0.332775 0.120054 0.098845
0.362189 0.125367 0.099539
0.388210 0.131358 0.101730
0.410839 0.138025 0.105418
0.433468 0.144692 0.109106
0.456097 0.151360 0.112794
0.478726 0.158027 0.116483
0.500511 0.164957 0.120423
0.520608 0.172411 0.124867
0.540704 0.179865 0.129312
0.560801 0.187319 0.133756
0.580897 0.194773 0.138200
0.600072 0.202196 0.142660
0.614635 0.209466 0.147199
0.629199 0.216735 0.151738
0.643763 0.224005 0.156277
0.658326 0.231275 0.160816
0.672890 0.238544 0.165355
0.045421 0.097932 0.124912
0.057660 0.097469 0.122348
0.069898 0.097005 0.119783
0.082137 0.096542 0.117219
0.094375 0.096078 0.114654
0.106614 0.095615 0.112090
0.127254 0.096967 0.110001
0.149575 0.098682 0.108006
0.171896 0.100397 0.106012
0.194217 0.102113 0.104018
0.216539 0.103828 0.102024
0.243734 0.108094 0.101864
0.273368 0.113636 0.102622
0.303001 0.119179 0.103380
0.332635 0.124721 0.104137
0.362268 0.130263 0.104895
0.389003 0.136702 0.107214
0.412839 0.144037 0.111094
0.436676 0.151372 0.114975
0.460513 0.158707 0.118855
0.484349 0.166042 0.122735
0.506851 0.173502 0.126867
0.526682 0.181213 0.131504
0.546513 0.188923 0.136140
0.566345 0.196633 0.140777
0.586176 0.204343 0.145413
0.605115 0.212024 0.150066
0.619597 0.219559 0.154797
0.634078 0.227094 0.159528
0.648559 0.234629 0.164259
0.663041 0.242164 0.168990
0.677522 0.249699 0.173721
0.045421 0.101193 0.130206
0.057532 0.100831 0.127696
0.069642 0.100468 0.125187
0.081752 0.100105 0.122677
0.093863 0.099742 0.120168
0.105973 0.099379 0.117658
0.126547 0.100756 0.115494
0.148813 0.102480 0.113399
0.171079 0.104204 0.111304
0.193345 0.105929 0.109209
0.215612 0.107653 0.107114
0.242936 0.112075 0.106964
0.272788 0.117846 0.107786
0.302641 0.123617 0.108608
0.332494 0.129388 0.109429
0.362347 0.135159 0.110251
0.389796 0.142046 0.112698
0.414840 0.150048 0.116771
0.439884 0.158051 0.120843
0.464928 0.166054 0.124915
0.489972 0.174057 0.128988
0.513190 0.182048 0.133312
0.532756 0.190014 0.138141
0.552322 0.197981 0.142969
0.571888 0.205947 0.147798
0.591454 0.213914 0.152627
0.610159 0.221852 0.157471
0.624558 0.229652 0.162394
0.638957 0.237453 0.167317
0.653356 0.245253 0.172240
0.667755 0.253053 0.177164
0.682154 0.260853 0.182087
0.045421 0.104455 0.135500
0.057404 0.104192 0.133045
0.069386 0.103930 0.130590
0.081368 0.103668 0.128136
0.093351 0.103406 0.125681
0.105333 0.103143 0.123226
0.125839 0.104544 0.120987
0.148051 0.106278 0.118792
0.170262 0.108011 0.116596
0.192473 0.109745 0.114401
0.214685 0.111479 0.112205
0.242137 0.116056 0.112064
0.272209 0.122056 0.112950
0.302282 0.128055 0.113836
0.332354 0.134055 0.114722
0.362426 0.140054 0.115607
0.390589 0.147389 0.118182
0.416840 0.156060 0.122447
0.443092 0.164731 0.126711
0.469343 0.173402 0.130976
0.495595 0.182073 0.135240
0.519530 0.190594 0.139757
0.538831 0.198816 0.144778
0.558131 0.207039 0.149798
0.577432 0.215261 0.154819
0.596733 0.223484 0.159840
0.615203 0.231680 0.164876
0.629519 0.239746 0.169992
0.643836 0.247811 0.175107
0.658152 0.255877 0.180222
0.672469 0.263942 0.185337
0.686786 0.272008 0.190453
0.045421 0.107716 0.140793
0.057276 0.107554 0.138393
0.069130 0.107393 0.135994
0.080984 0.107231 0.133594
0.092838 0.107069 0.131194
0.104693 0.106908 0.128794
0.125132 0.108333 0.126481
0.147288 0.110076 0.124185
0.169445 0.111819 0.121888
0.191601 0.113561 0.119592
0.213758 0.115304 0.117296
0.241338 0.120037 0.117164
0.271630 0.126265 0.118114
0.301922 0.132493 0.119064
0.332214 0.138722 0.120014
0.362506 0.144950 0.120963
0.391381 0.152733 0.123667
0.418841 0.162072 0.128123
0.446300 0.171411 0.132580
0.473759 0.180749 0.137036
0.501218 0.190088 0.141493
0.525869 0.199140 0.146202
0.544905 0.207618 0.151415
0.563940 0.216097 0.156627
0.582976 0.224576 0.161840
0.602011 0.233054 0.167053
0.620246 0.241508 0.172282
0.634481 0.249839 0.177589
0.648715 0.258170 0.182896
0.662949 0.266500 0.188204
0.677183 0.274831 0.193511
0.691418 0.283162 0.198818
0.045500 0.111056 0.146166
0.057248 0.111019 0.143860
0.068995 0.110983 0.141555
0.080743 0.110946 0.139250
0.092490 0.110910 0.136944
0.104238 0.110873 0.134639
0.124649 0.112327 0.132265
0.146793 0.114079 0.129878
0.168938 0.115830 0.127490
0.191082 0.117582 0.125102
0.213226 0.119334 0.122715
0.240979 0.124204 0.122570
0.271536 0.130634 0.123548
0.302093 0.137063 0.124525
0.332651 0.143493 0.125502
0.363208 0.149922 0.126480
0.392706 0.158101 0.129300
0.421144 0.168028 0.133964
0.449582 0.177955 0.138628
0.478020 0.187882 0.143292
0.506458 0.197809 0.147956
0.531727 0.207409 0.152923
0.550659 0.216354 0.158496
0.569591 0.225299 0.164068
0.588522 0.234244 0.169641
0.607454 0.243190 0.175214
0.625581 0.252065 0.180767
0.639684 0.260594 0.186224
0.653787 0.269123 0.191680
0.667890 0.277652 0.197137
0.681994 0.286181 0.202594
0.696097 0.294710 0.208051
0.045736 0.114554 0.151696
0.057420 0.114691 0.149564
0.069103 0.114828 0.147433
0.080787 0.114965 0.145301
0.092470 0.115102 0.143170
0.104154 0.115240 0.141038
0.124616 0.116730 0.138632
0.146833 0.118491 0.136171
0.169050 0.120252 0.133711
0.191268 0.122013 0.131250
0.213485 0.123774 0.128789
0.241500 0.128745 0.128590
0.272414 0.135321 0.129521
0.303328 0.141897 0.130453
0.334243 0.148472 0.131385
0.365157 0.155048 0.132316
0.395093 0.163515 0.135233
0.424053 0.173872 0.140135
0.453012 0.184229 0.145036
0.481972 0.194586 0.149938
0.510931 0.204943 0.154840
0.536621 0.215125 0.160197
0.555773 0.224958 0.166465
0.574924 0.234790 0.172733
0.594075 0.244623 0.179001
0.613226 0.254455 0.185269
0.631498 0.264081 0.191412
0.645373 0.272674 0.196933
0.659247 0.281267 0.202454
0.673122 0.289860 0.207974
0.686996 0.298453 0.213495
0.700870 0.307046 0.219016
0.045973 0.118051 0.157226
0.057592 0.118362 0.155268
0.069212 0.118673 0.153310
0.080831 0.118984 0.151353
0.092451 0.119295 0.149395
0.104070 0.119606 0.147437
0.124582 0.121133 0.144999
0.146873 0.122903 0.142465
0.169163 0.124673 0.139931
0.191454 0.126444 0.137397
0.213744 0.128214 0.134863
0.242022 0.133285 0.134609
0.273293 0.140008 0.135495
0.304563 0.146730 0.136381
0.335834 0.153452 0.137267
0.367105 0.160174 0.138153
0.397481 0.168929 0.141165
0.426962 0.179716 0.146305
0.456443 0.190503 0.151445
0.485924 0.201290 0.156584
0.515405 0.212077 0.161724
0.541515 0.222841 0.167471
0.560886 0.233561 0.174434
0.580257 0.244281 0.181398
0.599628 0.255001 0.188361
0.618999 0.265721 0.195324
0.637415 0.276097 0.202057
0.651061 0.284754 0.207642
0.664707 0.293411 0.213227
0.678353 0.302068 0.218812
0.691998 0.310725 0.224397
0.705644 0.319382 0.229981
0.046209 0.121549 0.162756
0.057764 0.122034 0.160972
0.069320 0.122518 0.159188
0.080875 0.123003 0.157404
0.092431 0.123488 0.155620
0.103986 0.123973 0.153836
0.124548 0.125536 0.151366
0.146912 0.127316 0.148759
0.169276 0.129095 0.146152
0.191640 0.130874 0.143545
0.214004 0.132654 0.140938
0.242543 0.137826 0.140629
0.274171 0.144694 0.141469
0.305798 0.151563 0.142309
0.337426 0.158432 0.143149
0.369054 0.165300 0.143989
0.399869 0.174343 0.147098
0.429871 0.185560 0.152475
0.459873 0.196777 0.157853
0.489876 0.207994 0.163230
0.519878 0.219211 0.168608
0.546410 0.230558 0.174745
0.566000 0.242165 0.182404
0.585590 0.253772 0.190062
0.605181 0.265380 0.197721
0.624771 0.276987 0.205379
0.643333 0.288113 0.212702
0.656750 0.296834 0.218351
0.670167 0.305555 0.224000
0.683584 0.314276 0.229649
0.697001 0.322997 0.235298
0.710418 0.331718 0.240947
0.046445 0.125046 0.168285
0.057937 0.125705 0.166675
0.069428 0.126364 0.165065
0.080919 0.127022 0.163455
0.092411 0.127681 0.161845
0.103902 0.128340 0.160235
0.124515 0.129940 0.157733
0.146952 0.131728 0.155053
0.169389 0.133517 0.152373
0.191826 0.135305 0.149692
0.214263 0.137093 0.147012
0.243065 0.142366 0.146648
0.275049 0.149381 0.147442
0.307033 0.156396 0.148237
0.339018 0.163411 0.149031
0.371002 0.170426 0.149825
0.402256 0.179757 0.153030
0.432780 0.191404 0.158646
0.463304 0.203051 0.164261
0.493828 0.214698 0.169876
0.524351 0.226345 0.175492
0.551304 0.238274 0.182020
0.571114 0.250769 0.190373
0.590924 0.263263 0.198727
0.610734 0.275758 0.207081
0.630544 0.288253 0.215434
0.649250 0.300129 0.223348
0.662438 0.308914 0.229061
0.675627 0.317699 0.234774
0.688815 0.326484 0.240486
0.702003 0.335269 0.246199
0.715192 0.344055 0.251912
0.046650 0.128623 0.174004
0.058103 0.129458 0.172538
0.069557 0.130294 0.171071
0.081010 0.131129 0.169604
0.092463 0.131965 0.168138
0.103916 0.132800 0.166671
0.124589 0.134448 0.164136
0.147105 0.136257 0.161387
0.169621 0.138067 0.158638
0.192138 0.139877 0.155889
0.214654 0.141687 0.153140
0.243724 0.147070 0.152737
0.276071 0.154241 0.153507
0.308419 0.161411 0.154277
0.340766 0.168582 0.155047
0.373113 0.175752 0.155817
0.404808 0.185369 0.159126
0.435850 0.197432 0.164974
0.466892 0.209495 0.170823
0.497934 0.221558 0.176672
0.528976 0.233622 0.182520
0.556349 0.246093 0.189407
0.576381 0.259380 0.198369
0.596414 0.272668 0.207331
0.616446 0.285955 0.216293
0.636479 0.299243 0.225255
0.655338 0.311818 0.233711
0.668333 0.320835 0.239639
0.681328 0.329852 0.245567
0.694323 0.338869 0.251494
0.707317 0.347886 0.257422
0.720312 0.356903 0.263350
0.046697 0.132593 0.180669
0.058242 0.133620 0.179193
0.069787 0.134648 0.177717
0.081332 0.135676 0.176241
0.092876 0.136703 0.174765
0.104421 0.137731 0.173289
0.125200 0.139479 0.170715
0.147826 0.141371 0.167920
0.170452 0.143263 0.165125
0.193078 0.145155 0.162330
0.215704 0.147047 0.159536
0.245073 0.152593 0.159172
0.277814 0.159964 0.160025
0.310555 0.167336 0.160877
0.343295 0.174708 0.161729
0.376036 0.182080 0.162581
0.408179 0.191971 0.166037
0.439724 0.204382 0.172096
0.471269 0.216792 0.178155
0.502815 0.229203 0.184214
0.534360 0.241614 0.190273
0.562147 0.254424 0.197358
