filter/Red and Blue 2/lut/Midnight 01.cube
# LUT by SparkleStock. Enhanced with VOXCOLOR algorithms.
LUT_3D_SIZE 8
DOMAIN_MIN 0.000000 0.000000 0.000000
DOMAIN_MAX 0.903226 0.903226 0.903226
0.054701 0.046886 0.046886
0.098562 0.044240 0.044807
0.157289 0.044405 0.042058
0.226311 0.047304 0.040529
0.301036 0.052810 0.041569
0.374769 0.061129 0.045918
0.445035 0.073229 0.051684
0.513073 0.088542 0.059475
0.054323 0.058041 0.066170
0.108137 0.053052 0.055016
0.171218 0.055438 0.051693
0.244424 0.062679 0.053519
0.326376 0.072796 0.058219
0.407720 0.085212 0.064177
0.482426 0.099581 0.070821
0.550384 0.115608 0.079740
0.052070 0.069061 0.083580
0.105988 0.064737 0.070919
0.179436 0.067796 0.064457
0.262502 0.077168 0.065058
0.347923 0.091519 0.072224
0.434390 0.108657 0.081140
0.512776 0.126780 0.090529
0.581138 0.145741 0.101816
0.048730 0.081130 0.100926
0.099733 0.078160 0.089570
0.179718 0.081570 0.080854
0.273426 0.092476 0.079000
0.368688 0.110702 0.085962
0.457302 0.132450 0.098025
0.538221 0.155692 0.111221
0.606941 0.179378 0.125682
0.045421 0.094671 0.119619
0.094887 0.092414 0.109141
0.172714 0.096590 0.100720
0.273947 0.109427 0.097458
0.388210 0.131358 0.101730
0.478726 0.158027 0.116483
0.560801 0.187319 0.133756
0.629199 0.216735 0.151738
0.045421 0.107716 0.140793
0.092838 0.107069 0.131194
0.169445 0.111819 0.121888
0.271630 0.126265 0.118114
0.391381 0.152733 0.123667
0.501218 0.190088 0.141493
0.582976 0.224576 0.161840
0.648715 0.258170 0.182896
0.046209 0.121549 0.162756
0.092431 0.123488 0.155620
0.169276 0.129095 0.146152
0.274171 0.144694 0.141469
0.399869 0.174343 0.147098
0.519878 0.219211 0.168608
0.605181 0.265380 0.197721
0.670167 0.305555 0.224000
0.046745 0.136563 0.187333
0.093290 0.141442 0.181393
0.171283 0.148459 0.171613
0.279557 0.165688 0.166543
0.411550 0.198573 0.172948
0.539744 0.249606 0.198026
0.629470 0.304538 0.233238
0.695144 0.354247 0.267351
0.051865 0.061066 0.085832
0.107143 0.055199 0.058870
0.169718 0.055255 0.050108
0.241667 0.060422 0.051190
0.322485 0.069807 0.055834
0.402950 0.082517 0.062378
0.479340 0.098154 0.070340
0.549890 0.115645 0.080484
0.049730 0.075587 0.098383
0.079947 0.080749 0.097248
0.139312 0.084116 0.092714
0.223198 0.089659 0.088378
0.324302 0.099972 0.087078
0.423257 0.115080 0.091379
0.508166 0.132703 0.098727
0.578778 0.150907 0.107445
0.048728 0.090803 0.116732
0.071323 0.099407 0.124751
0.137927 0.103039 0.117937
0.232643 0.109764 0.109590
0.341045 0.124411 0.108627
0.447333 0.144145 0.114522
0.535880 0.165640 0.123738
0.606437 0.187330 0.134337
0.047998 0.106311 0.137993
0.070577 0.116099 0.148800
0.142302 0.119304 0.139033
0.246031 0.127207 0.127202
0.364687 0.146400 0.125899
0.472517 0.172019 0.135497
0.561632 0.198917 0.148362
0.631796 0.225969 0.162799
0.047086 0.121865 0.160217
0.070310 0.134250 0.174537
0.138365 0.137917 0.164760
0.247898 0.146405 0.149698
0.385806 0.168189 0.143888
0.496757 0.200628 0.157409
0.585248 0.234045 0.174957
0.654498 0.267450 0.194096
0.046793 0.137691 0.184027
0.071141 0.154066 0.202058
0.136895 0.158920 0.193186
0.243130 0.167110 0.177177
0.381895 0.189480 0.169716
0.518739 0.231924 0.183477
0.608669 0.272312 0.205515
0.676176 0.311792 0.229564
0.047288 0.155280 0.209721
0.073519 0.177093 0.232860
0.138337 0.184225 0.226296
0.243135 0.192408 0.209825
0.382505 0.214148 0.200063
0.527784 0.261254 0.214486
0.628320 0.312376 0.241875
0.699260 0.358935 0.270395
0.049038 0.176546 0.239678
0.076442 0.202525 0.266557
0.142046 0.213322 0.263443
0.247749 0.223244 0.248098
0.388815 0.244692 0.236578
0.538634 0.294125 0.250650
0.647172 0.352681 0.280789
0.722128 0.406770 0.314426
0.048761 0.077924 0.123707
0.091714 0.073087 0.098819
0.169865 0.069940 0.073178
0.258937 0.073765 0.060844
0.343178 0.086925 0.067926
0.428614 0.103922 0.077495
0.508068 0.122993 0.088222
0.579442 0.144129 0.101801
0.047462 0.095085 0.136472
0.067100 0.104857 0.142372
0.131327 0.104961 0.125274
0.225085 0.108106 0.108681
0.334235 0.121902 0.107108
0.441654 0.141444 0.112909
0.532008 0.163193 0.122320
0.604632 0.185629 0.133400
0.047070 0.114653 0.155876
0.062313 0.130004 0.173713
0.113366 0.138855 0.172254
0.200472 0.146306 0.162005
0.318458 0.156976 0.151967
0.443784 0.177665 0.151682
0.547568 0.203225 0.159254
0.626300 0.229389 0.169885
0.047413 0.134810 0.179998
0.065157 0.152666 0.201972
0.108524 0.169114 0.212895
0.192689 0.180532 0.207580
0.320247 0.188078 0.188340
0.455140 0.212128 0.186156
0.565999 0.242786 0.194490
0.648541 0.274237 0.207258
0.048237 0.154554 0.207153
0.067412 0.176109 0.233408
0.110465 0.195443 0.248055
0.201990 0.207414 0.240019
0.346718 0.213893 0.211286
0.485187 0.245115 0.213123
0.593239 0.281961 0.226023
0.673487 0.319424 0.243438
0.048896 0.175338 0.236085
0.070762 0.202620 0.268002
0.114342 0.225331 0.286336
0.203230 0.237418 0.278585
0.346229 0.242005 0.246311
0.511626 0.279743 0.243228
0.620211 0.322392 0.259708
0.697545 0.365424 0.282281
0.050083 0.199034 0.268260
0.076108 0.233696 0.307379
0.121862 0.260181 0.329593
0.209578 0.273367 0.323163
0.348963 0.277279 0.290064
0.518394 0.313616 0.282762
0.640400 0.364602 0.300098
0.722639 0.413520 0.325118
0.053417 0.228261 0.307013
0.082954 0.268311 0.351066
0.132300 0.299077 0.376774
0.221355 0.315260 0.373233
0.358953 0.320369 0.342088
0.527149 0.353382 0.330314
0.657145 0.408592 0.346592
0.744616 0.462128 0.373194
0.046729 0.096593 0.163740
0.072215 0.095514 0.150195
0.146896 0.091242 0.117789
0.250814 0.092806 0.089225
0.363877 0.105651 0.080122
0.452948 0.127380 0.093484
0.533547 0.150431 0.107537
0.604311 0.176131 0.124903
0.046723 0.115914 0.179517
0.062804 0.129225 0.191521
0.122688 0.128977 0.169513
0.222047 0.129645 0.140123
0.349214 0.141409 0.123678
0.460958 0.167157 0.132942
0.554059 0.194391 0.145773
0.627936 0.222389 0.160723
0.047062 0.140621 0.201606
0.064343 0.160384 0.224699
0.101539 0.176096 0.231783
0.180497 0.183841 0.218175
0.307909 0.185831 0.188577
0.445593 0.209256 0.185224
0.560084 0.239934 0.193014
0.645510 0.271735 0.205581
0.048383 0.167862 0.229879
0.070345 0.191342 0.257675
0.094241 0.221246 0.288635
0.157295 0.238291 0.292517
0.278761 0.236479 0.259091
0.433155 0.254608 0.242650
0.565016 0.286844 0.244214
0.661857 0.322307 0.254580
0.050975 0.195550 0.263540
0.076411 0.223769 0.295717
0.104556 0.258390 0.332283
0.167269 0.282376 0.345322
0.282993 0.288769 0.322530
0.441960 0.302066 0.297223
0.579358 0.334276 0.294113
0.681118 0.372519 0.303295
0.054256 0.223287 0.299778
0.083384 0.258139 0.338353
0.114784 0.296635 0.379177
0.178096 0.321457 0.393307
0.294220 0.326497 0.367541
0.476460 0.341758 0.333178
0.611831 0.378352 0.332462
0.708406 0.420650 0.345900
0.058107 0.254698 0.340061
0.093118 0.297301 0.385915
0.129902 0.339802 0.430119
0.195075 0.366400 0.445799
0.308630 0.371719 0.420585
0.489795 0.383522 0.381998
0.636380 0.424767 0.378625
0.736160 0.470101 0.392138
0.064727 0.292182 0.388095
0.105610 0.339942 0.437614
0.148695 0.385792 0.483004
0.217584 0.415133 0.500501
0.330247 0.422725 0.478809
0.505338 0.432152 0.439483
0.655944 0.473967 0.433336
0.759140 0.520088 0.445318
0.046398 0.116633 0.208051
0.061876 0.120823 0.203489
0.102432 0.120861 0.184913
0.204252 0.121584 0.148513
0.368925 0.128421 0.103174
0.474371 0.154596 0.113407
0.557592 0.182581 0.130248
0.626723 0.213302 0.151237
0.046923 0.138442 0.227451
0.062188 0.157221 0.246227
0.101304 0.163659 0.236904
0.196414 0.163133 0.200592
0.351981 0.164189 0.150601
0.478244 0.194750 0.155943
0.574756 0.228609 0.172150
0.649098 0.262939 0.191702
0.048713 0.169409 0.254846
0.067689 0.194166 0.283296
0.098942 0.216383 0.299868
0.177113 0.223035 0.279620
0.315320 0.214293 0.221736
0.463531 0.240070 0.213297
0.580511 0.276535 0.223599
0.666953 0.314640 0.240446
0.052069 0.206307 0.289784
0.077469 0.234774 0.322264
0.105817 0.270185 0.359074
0.162501 0.292059 0.366827
0.265553 0.292056 0.331659
0.427365 0.299593 0.298261
0.570249 0.330642 0.292623
0.676290 0.369186 0.301218
0.057278 0.245826 0.331129
0.090278 0.279897 0.367782
0.125899 0.319137 0.407140
0.163930 0.360013 0.445991
0.219320 0.392694 0.469943
0.383183 0.372845 0.405471
0.551218 0.391189 0.376296
0.679558 0.425957 0.371466
0.065224 0.282528 0.375692
0.103305 0.322920 0.417666
0.142956 0.363637 0.458338
0.185433 0.405148 0.497433
0.246696 0.440235 0.522278
0.418109 0.423865 0.457590
0.581732 0.443907 0.428811
0.705569 0.478750 0.423598
0.074487 0.322462 0.424300
0.119580 0.369019 0.470824
0.165350 0.412033 0.511987
0.213483 0.453938 0.549946
0.278878 0.489221 0.574320
0.444659 0.474722 0.513360
0.612993 0.495416 0.481138
0.735900 0.529427 0.474139
0.087046 0.367122 0.479221
0.139233 0.416534 0.525591
0.191837 0.460730 0.564693
0.246531 0.502468 0.599800
0.316594 0.537620 0.623031
0.475435 0.529705 0.572953
0.640847 0.549054 0.540322
0.762194 0.580276 0.530843
0.046398 0.139320 0.256828
0.058656 0.149804 0.262658
0.084483 0.159350 0.259140
0.145186 0.163585 0.236547
0.261302 0.164238 0.192434
0.478280 0.188072 0.146901
0.580944 0.221887 0.159570
0.648483 0.257774 0.183932
0.048093 0.167716 0.284717
0.065465 0.193582 0.312073
0.093653 0.210320 0.317759
0.154171 0.215517 0.296360
0.268249 0.212443 0.248289
0.484061 0.227744 0.191519
0.595879 0.266413 0.202969
0.670027 0.307698 0.227810
0.052610 0.205684 0.320291
0.075566 0.237438 0.355668
0.104543 0.266341 0.380142
0.161008 0.280049 0.373001
0.267081 0.275040 0.324664
0.475312 0.276412 0.253788
0.602138 0.315824 0.258480
0.688486 0.360517 0.280269
0.060125 0.251278 0.362608
0.089958 0.285298 0.399815
0.122028 0.322746 0.437277
0.171300 0.349478 0.451912
0.258164 0.356127 0.426303
0.448589 0.341062 0.343716
0.594573 0.373352 0.332882
0.699413 0.416439 0.344624
0.070896 0.301812 0.410100
0.109123 0.338545 0.448123
0.148506 0.376743 0.484947
0.190483 0.416632 0.521090
0.249422 0.449871 0.542678
0.406344 0.425890 0.464231
0.571211 0.441980 0.430110
0.699519 0.475902 0.422982
0.086453 0.350808 0.458761
0.132934 0.390578 0.496666
0.180243 0.430497 0.532977
0.229347 0.470738 0.567796
0.285079 0.509088 0.597432
0.372949 0.531648 0.598996
0.537729 0.528471 0.550880
0.685237 0.541405 0.517419
0.105035 0.398646 0.512322
0.157640 0.441011 0.549998
0.210768 0.480648 0.583828
0.265378 0.518819 0.615077
0.324437 0.555456 0.642908
0.402218 0.584703 0.656568
0.567205 0.582776 0.609329
0.712716 0.593272 0.574118
0.126937 0.446923 0.566419
0.185673 0.489559 0.600953
0.244669 0.528104 0.630960
0.304651 0.564084 0.658281
0.368215 0.598102 0.682882
0.448230 0.626987 0.696507
0.606807 0.630702 0.657435
0.744846 0.641981 0.626471
0.046240 0.165946 0.309859
0.058328 0.185529 0.328399
0.079129 0.206351 0.342342
0.119948 0.222760 0.340671
0.196624 0.231362 0.314540
0.363276 0.233582 0.251663
0.551004 0.266559 0.220011
0.668738 0.304720 0.222339
0.051180 0.203245 0.349652
0.073707 0.238437 0.387149
0.099265 0.265943 0.407689
0.142199 0.284271 0.407333
0.220010 0.292286 0.381172
0.383909 0.287032 0.310722
0.571713 0.314998 0.269018
0.691895 0.354763 0.268238
0.060756 0.250446 0.396302
0.090407 0.289264 0.437338
0.121675 0.324355 0.467623
0.167382 0.349348 0.476185
0.243945 0.359444 0.453479
0.401499 0.349171 0.381415
0.588502 0.370361 0.330788
0.712044 0.408817 0.324950
0.074361 0.304341 0.446242
0.110910 0.342445 0.484523
0.148712 0.381403 0.519667
0.195615 0.413837 0.539962
0.265397 0.432401 0.532825
0.411211 0.421249 0.466517
0.595934 0.433354 0.408235
0.725097 0.466731 0.394458
0.091822 0.361726 0.496420
0.136768 0.399879 0.531901
0.181760 0.437081 0.563421
0.228279 0.474347 0.593282
0.286319 0.507012 0.613428
0.410246 0.503007 0.565816
0.589466 0.504417 0.502951
0.727054 0.528368 0.477905
0.115479 0.417894 0.543691
0.168168 0.455609 0.575503
0.220696 0.491780 0.604632
0.273908 0.527163 0.631971
0.330061 0.561518 0.656741
0.399458 0.590172 0.670217
0.561592 0.585143 0.616423
0.708752 0.594427 0.577173
0.144375 0.468412 0.587567
0.202789 0.506222 0.617206
0.260891 0.540913 0.644114
0.319141 0.573707 0.669022
0.378280 0.605671 0.692490
0.440923 0.637833 0.714466
0.564133 0.647025 0.691237
0.696324 0.655243 0.659769
0.175793 0.516646 0.631973
0.238293 0.552137 0.657632
0.300646 0.584353 0.681218
0.363141 0.614636 0.703407
0.426244 0.644266 0.724798
0.491622 0.675059 0.745904
0.591853 0.694023 0.741734
0.710291 0.703805 0.718600
0.046461 0.195510 0.364764
0.060970 0.225149 0.397349
0.082632 0.257886 0.429265
0.116238 0.288569 0.449920
0.170163 0.311565 0.448461
0.278140 0.313370 0.399867
0.475696 0.327144 0.332804
0.639815 0.355594 0.294184
0.057756 0.242652 0.416828
0.086127 0.285805 0.461907
0.114063 0.322506 0.494466
0.150665 0.353669 0.512703
0.206953 0.377302 0.511310
0.314363 0.376468 0.462343
0.507964 0.384195 0.389835
0.668948 0.409991 0.347188
0.074373 0.298884 0.473467
0.111526 0.342801 0.516337
0.147386 0.382193 0.549087
0.189637 0.416152 0.568539
0.248301 0.441620 0.568989
0.354014 0.442662 0.525913
0.540254 0.446561 0.453890
0.696341 0.468777 0.409557
0.095585 0.359989 0.528331
0.139590 0.399967 0.563835
0.183273 0.438959 0.594367
0.230879 0.474689 0.616443
0.290281 0.503321 0.623853
0.392510 0.510250 0.591402
0.567946 0.511668 0.524511
0.718572 0.529632 0.480630
0.121032 0.422145 0.576917
0.171935 0.458991 0.606518
0.222207 0.494049 0.631999
0.273416 0.528432 0.655910
0.331461 0.560629 0.674930
0.425623 0.576944 0.658441
0.586492 0.577200 0.601010
0.731997 0.590558 0.559234
0.152568 0.480576 0.617418
0.209108 0.514575 0.642572
0.264985 0.546138 0.664949
0.321113 0.576708 0.686018
0.379243 0.607108 0.706217
0.446224 0.636213 0.721943
0.586151 0.640286 0.682670
0.727325 0.649406 0.643063
0.189613 0.530561 0.651470
0.249694 0.562248 0.673982
0.309816 0.591287 0.694741
0.370052 0.619125 0.714442
0.430772 0.646953 0.733710
0.493914 0.675791 0.753239
0.585134 0.695290 0.750162
0.703474 0.706102 0.724911
0.226948 0.574135 0.684532
0.288694 0.602471 0.703805
0.352358 0.629388 0.722875
0.416647 0.655682 0.741657
0.480617 0.682036 0.760159
0.543974 0.709174 0.778704
0.608354 0.736014 0.793607
0.704059 0.749138 0.780787
