filter/Red and Blue 2/lut/Midnight 02_S.cube
# LUT by SparkleStock. Enhanced with VOXCOLOR algorithms.
LUT_3D_SIZE 8
DOMAIN_MIN 0.000000 0.000000 0.000000
DOMAIN_MAX 0.903226 0.903226 0.903226
0.035165 0.031258 0.019536
0.072598 0.029745 0.019536
0.118201 0.031581 0.019402
0.173784 0.035346 0.019292
0.239080 0.040262 0.019434
0.307519 0.047824 0.020568
0.370917 0.058380 0.024066
0.436890 0.072913 0.028138
0.039135 0.039954 0.035795
0.088132 0.048395 0.027745
0.154732 0.064434 0.026092
0.236844 0.081409 0.027031
0.328669 0.094210 0.028179
0.407500 0.099284 0.031216
0.458969 0.100887 0.037226
0.496895 0.105572 0.044647
0.039757 0.048785 0.050581
0.091712 0.063031 0.042878
0.172834 0.096544 0.036208
0.271946 0.131801 0.033859
0.376887 0.155507 0.037257
0.464037 0.159026 0.042715
0.513253 0.151313 0.052448
0.539987 0.144796 0.064452
0.039237 0.058695 0.065942
0.089692 0.073929 0.061069
0.174541 0.116111 0.051933
0.280177 0.165115 0.046455
0.392246 0.203584 0.049369
0.484421 0.210201 0.057950
0.537402 0.197445 0.071577
0.566314 0.184150 0.088153
0.039072 0.070842 0.083264
0.086965 0.082673 0.079800
0.164315 0.118134 0.073731
0.266418 0.168885 0.068376
0.383066 0.222287 0.067375
0.477802 0.239753 0.079340
0.537934 0.230513 0.096246
0.578284 0.219406 0.116603
0.039072 0.088613 0.102737
0.085940 0.096785 0.100298
0.156874 0.117287 0.096912
0.249245 0.150681 0.095351
0.357183 0.194568 0.098246
0.461141 0.235307 0.110651
0.532201 0.246168 0.129703
0.585804 0.251198 0.153421
0.038757 0.107330 0.122998
0.086430 0.115624 0.123047
0.157012 0.130217 0.121476
0.247963 0.153664 0.121979
0.354099 0.187077 0.127948
0.459350 0.228889 0.145305
0.539611 0.264486 0.173050
0.602213 0.292418 0.201729
0.037150 0.116507 0.145669
0.087500 0.127424 0.148182
0.159044 0.141852 0.148327
0.251382 0.163124 0.150491
0.360686 0.193700 0.158765
0.470480 0.236507 0.180470
0.557429 0.286469 0.215917
0.622506 0.334532 0.255237
0.037434 0.040900 0.051487
0.082625 0.037777 0.036850
0.140235 0.038521 0.039601
0.211407 0.042506 0.049163
0.293370 0.049306 0.057062
0.368103 0.059649 0.056733
0.425475 0.075303 0.052790
0.478440 0.094765 0.051398
0.038623 0.055305 0.063355
0.084045 0.077320 0.078856
0.168017 0.097659 0.092751
0.274792 0.115128 0.103910
0.388044 0.128581 0.111087
0.478722 0.135303 0.110734
0.529812 0.138699 0.104262
0.553950 0.143406 0.095887
0.040196 0.068703 0.081422
0.084308 0.104484 0.104235
0.183802 0.150814 0.117919
0.310324 0.191312 0.127401
0.438792 0.215010 0.135402
0.539488 0.220809 0.137390
0.591257 0.213752 0.134185
0.607371 0.203903 0.128636
0.040884 0.082345 0.102064
0.080908 0.120890 0.122853
0.182805 0.184084 0.132301
0.316308 0.245807 0.138116
0.454085 0.286877 0.145220
0.561713 0.297276 0.151199
0.619241 0.285976 0.154143
0.641570 0.268706 0.156315
0.040023 0.097328 0.123101
0.073166 0.129283 0.142012
0.164809 0.190335 0.148272
0.294964 0.261622 0.149852
0.440855 0.324784 0.153184
0.555536 0.348186 0.163596
0.622745 0.343063 0.173404
0.659794 0.330873 0.184471
0.038560 0.115246 0.146672
0.066258 0.137082 0.164115
0.143856 0.178161 0.168157
0.259480 0.233621 0.167827
0.398178 0.296561 0.170353
0.527065 0.348561 0.181658
0.609717 0.368959 0.198504
0.665420 0.380249 0.218281
0.037391 0.136061 0.171275
0.064119 0.155243 0.190696
0.133501 0.180118 0.194571
0.238740 0.215947 0.193829
0.369514 0.264980 0.197123
0.499770 0.322057 0.211189
0.596655 0.373651 0.235749
0.666216 0.414189 0.262953
0.036955 0.152562 0.199051
0.064071 0.170915 0.220332
0.130941 0.189603 0.225861
0.232358 0.216211 0.226931
0.359647 0.255846 0.232482
0.489918 0.310414 0.249527
0.592246 0.374006 0.280322
0.665487 0.431930 0.317016
0.037426 0.052684 0.084911
0.075341 0.051477 0.070359
0.144541 0.050762 0.065454
0.230678 0.053385 0.073423
0.320989 0.061162 0.091334
0.400772 0.074287 0.091615
0.457095 0.094089 0.082133
0.507372 0.119079 0.076918
0.038218 0.071139 0.098919
0.077073 0.094842 0.123878
0.169457 0.113767 0.145804
0.289644 0.130181 0.165930
0.414137 0.145115 0.182596
0.512286 0.155010 0.180445
0.565780 0.163517 0.163711
0.588705 0.174097 0.143360
0.039309 0.090310 0.118133
0.078656 0.128915 0.155047
0.177035 0.176924 0.191112
0.311447 0.218743 0.219409
0.457758 0.244358 0.235211
0.572455 0.255146 0.236260
0.633430 0.255135 0.223941
0.653186 0.251477 0.204727
0.039883 0.108817 0.141379
0.076567 0.151980 0.176291
0.169446 0.221465 0.214746
0.306791 0.289139 0.244161
0.469026 0.335073 0.257896
0.596489 0.352806 0.264762
0.668826 0.350732 0.261790
0.699299 0.339609 0.252470
0.039389 0.126415 0.167503
0.069427 0.164617 0.197021
0.149794 0.236394 0.228722
0.283526 0.319678 0.251607
0.457759 0.393925 0.261283
0.595610 0.427656 0.273700
0.679515 0.433673 0.280313
0.726569 0.427128 0.283732
0.037706 0.147071 0.195277
0.062295 0.174635 0.221234
0.124378 0.227080 0.246104
0.239344 0.296721 0.261951
0.405973 0.374982 0.266961
0.567271 0.445447 0.280162
0.667761 0.478592 0.296738
0.733930 0.495210 0.312664
0.036150 0.169293 0.223807
0.060268 0.194155 0.251300
0.111599 0.229891 0.273501
0.211189 0.277779 0.285584
0.364054 0.338802 0.288067
0.526702 0.416542 0.301143
0.644816 0.483875 0.323524
0.727270 0.531723 0.347721
0.036017 0.189188 0.254709
0.061208 0.213857 0.284370
0.109239 0.242575 0.307253
0.201824 0.278391 0.319751
0.345557 0.325144 0.323063
0.502860 0.395229 0.336504
0.625488 0.472456 0.362118
0.712222 0.536427 0.393069
0.036244 0.067242 0.121698
0.061852 0.069218 0.113538
0.127428 0.069388 0.102713
0.221531 0.071564 0.100525
0.329198 0.078855 0.111311
0.413518 0.095004 0.117507
0.473839 0.118147 0.108228
0.528351 0.147669 0.103673
0.036890 0.088026 0.139927
0.067263 0.108529 0.165998
0.151867 0.124765 0.189595
0.273515 0.139527 0.210688
0.411055 0.154650 0.227517
0.515630 0.169533 0.229053
0.574972 0.185005 0.208547
0.605717 0.203905 0.184383
0.037343 0.112344 0.161305
0.071335 0.144655 0.200066
0.155075 0.187390 0.248492
0.284833 0.226447 0.288763
0.445553 0.253045 0.309714
0.572772 0.270533 0.314336
0.644977 0.280556 0.298840
0.676802 0.288333 0.274773
0.037918 0.136445 0.186463
0.072492 0.174103 0.225398
0.147117 0.237989 0.283168
0.273827 0.303307 0.332801
0.446926 0.352272 0.358139
0.595944 0.378580 0.369151
0.686765 0.388862 0.365197
0.733375 0.389980 0.351277
0.038519 0.158497 0.215565
0.070068 0.195391 0.249637
0.134549 0.264182 0.300247
0.252278 0.347809 0.346840
0.425097 0.428667 0.376432
0.594582 0.473467 0.393134
0.703745 0.492951 0.400392
0.769692 0.496229 0.399452
0.037312 0.182592 0.247949
0.065745 0.212144 0.277620
0.113464 0.266611 0.318593
0.211618 0.340893 0.354975
0.374378 0.428306 0.377527
0.572919 0.513985 0.393871
0.697997 0.558323 0.411579
0.781056 0.579699 0.424459
0.036252 0.207806 0.280958
0.066011 0.236237 0.311851
0.105309 0.278580 0.348505
0.187677 0.334542 0.378266
0.332396 0.404647 0.394524
0.529996 0.496427 0.407042
0.673871 0.573835 0.427828
0.773521 0.624046 0.448325
0.036691 0.230208 0.314699
0.069588 0.260352 0.348198
0.107373 0.297979 0.384597
0.182483 0.342889 0.412768
0.314729 0.397232 0.427047
0.500851 0.476454 0.436436
0.647750 0.561474 0.456429
0.751559 0.626105 0.480072
0.034661 0.084611 0.163078
0.050224 0.089606 0.161651
0.092343 0.094325 0.153956
0.181456 0.098751 0.138618
0.315834 0.104784 0.120393
0.413675 0.123806 0.131566
0.483706 0.149775 0.129367
0.545895 0.181947 0.131590
0.034191 0.106384 0.184582
0.055539 0.124141 0.208250
0.115146 0.139501 0.228610
0.224532 0.153100 0.240609
0.376820 0.166648 0.243351
0.495979 0.187422 0.249863
0.566234 0.210578 0.234526
0.610478 0.237769 0.217745
0.034603 0.134191 0.210570
0.060932 0.158884 0.243501
0.122323 0.193277 0.287939
0.237930 0.226272 0.325320
0.405643 0.251607 0.344751
0.548246 0.276135 0.354129
0.632240 0.296768 0.343057
0.679999 0.317665 0.326461
0.036030 0.164160 0.238539
0.066237 0.193361 0.273684
0.124544 0.243595 0.329553
0.232425 0.298546 0.384889
0.394914 0.346066 0.424171
0.567228 0.380217 0.439941
0.676012 0.402747 0.440478
0.741271 0.418735 0.432067
0.038114 0.193414 0.267746
0.070791 0.226287 0.303787
0.127291 0.281454 0.355035
0.216611 0.353257 0.416701
0.348863 0.431893 0.478498
0.556137 0.485272 0.500473
0.695299 0.517130 0.512410
0.784210 0.532521 0.512671
0.038388 0.220821 0.304302
0.071264 0.251806 0.337203
0.119213 0.300679 0.379371
0.194128 0.369800 0.430895
0.313374 0.457364 0.485598
0.539520 0.547797 0.508262
0.694422 0.598843 0.528415
0.799610 0.624963 0.539768
0.039130 0.251633 0.342641
0.075513 0.283634 0.376585
0.121008 0.326344 0.414522
0.184573 0.384044 0.458218
0.285012 0.458998 0.503408
0.503255 0.551058 0.518726
0.675369 0.629696 0.538452
0.795696 0.678198 0.555070
0.041317 0.277752 0.379913
0.082976 0.312739 0.416516
0.130729 0.354315 0.453899
0.190110 0.405069 0.494274
0.278283 0.466963 0.533930
0.478638 0.543497 0.542375
0.650710 0.626641 0.556806
0.774030 0.685964 0.572572
0.032581 0.103139 0.209587
0.042583 0.111793 0.214893
0.069808 0.122244 0.214138
0.129330 0.132465 0.203142
0.234069 0.142523 0.179776
0.408314 0.160959 0.145721
0.498641 0.190246 0.150133
0.566417 0.224058 0.164657
0.031380 0.126668 0.233725
0.046599 0.144798 0.255287
0.083202 0.161401 0.270056
0.155981 0.176894 0.275888
0.276122 0.192526 0.270117
0.459560 0.213847 0.243300
0.553662 0.244949 0.241089
0.613369 0.279842 0.245486
0.031681 0.157372 0.262866
0.052359 0.178991 0.290069
0.091352 0.206792 0.322456
0.170501 0.234831 0.348109
0.304001 0.260059 0.358245
0.498357 0.288194 0.346673
0.605067 0.319982 0.350441
0.670803 0.352818 0.356953
0.033438 0.192537 0.295909
0.060033 0.216379 0.324986
0.100906 0.253709 0.367481
0.177534 0.296336 0.409722
0.307261 0.338197 0.440471
0.515898 0.377211 0.447398
0.644393 0.411907 0.461644
0.726981 0.442312 0.473725
0.036876 0.229329 0.331337
0.069751 0.257240 0.363067
0.115627 0.298685 0.403960
0.182796 0.353218 0.454716
0.288376 0.417016 0.509858
0.506618 0.472028 0.536035
0.663861 0.514120 0.558970
0.770824 0.543876 0.573750
0.043883 0.262737 0.365404
0.082056 0.295899 0.399320
0.131624 0.340276 0.438707
0.200092 0.397301 0.485223
0.298544 0.467393 0.538285
0.467668 0.550281 0.589401
0.648111 0.604837 0.615245
0.782915 0.637432 0.628181
0.048797 0.299063 0.407964
0.091799 0.334335 0.442677
0.144101 0.377739 0.479634
0.210800 0.430579 0.520297
0.300042 0.494609 0.565119
0.443510 0.577311 0.611798
0.635358 0.649715 0.632520
0.782505 0.695130 0.644631
0.054801 0.330201 0.448419
0.104260 0.369329 0.485598
0.162080 0.414397 0.522163
0.230359 0.465019 0.559375
0.313877 0.521712 0.597782
0.435312 0.590450 0.635737
0.619814 0.661318 0.647177
0.766093 0.710948 0.653847
0.029871 0.120722 0.253889
0.036994 0.133889 0.267148
0.055898 0.149803 0.275763
0.097000 0.166610 0.275594
0.172786 0.183529 0.262989
0.321343 0.203575 0.230666
0.482341 0.236546 0.205707
0.589333 0.272329 0.207314
0.028060 0.148080 0.283712
0.042289 0.169042 0.307882
0.066987 0.189026 0.323987
0.115228 0.209472 0.331741
0.200615 0.231477 0.329205
0.357572 0.255919 0.303931
0.519994 0.290043 0.278109
0.622873 0.329823 0.279260
0.029152 0.181681 0.317154
0.049430 0.204893 0.344631
0.078130 0.232103 0.371814
0.132334 0.261120 0.392223
0.227494 0.290609 0.400372
0.393372 0.321824 0.387894
0.559172 0.357989 0.370837
0.664804 0.398029 0.377867
0.032610 0.220477 0.353757
0.059523 0.244980 0.382122
0.093531 0.278349 0.416469
0.149771 0.316722 0.448914
0.244631 0.357016 0.472357
0.420582 0.397485 0.475547
0.593838 0.437504 0.472851
0.708658 0.476145 0.487438
0.038392 0.262855 0.392692
0.073343 0.290832 0.422963
0.115622 0.327277 0.457021
0.170483 0.372733 0.496654
0.252626 0.425797 0.538822
0.432008 0.477985 0.559375
0.616852 0.524002 0.572364
0.746628 0.561219 0.592012
0.048961 0.304582 0.431589
0.091759 0.338338 0.463896
0.143009 0.379462 0.498343
0.206365 0.428288 0.536395
0.288262 0.485035 0.578629
0.415410 0.551482 0.623442
0.608676 0.604310 0.645380
0.758450 0.641103 0.661739
0.062803 0.348128 0.473693
0.113688 0.387215 0.507763
0.172889 0.431246 0.541534
0.242432 0.480008 0.576546
0.325541 0.533842 0.614077
0.435831 0.596763 0.655883
0.601413 0.657346 0.683525
0.745802 0.698465 0.699064
0.077514 0.384748 0.513957
0.135545 0.429516 0.549832
0.202534 0.477047 0.583460
0.278252 0.526091 0.616326
0.362964 0.576076 0.649613
0.461256 0.628977 0.684259
0.596499 0.683994 0.708496
0.728292 0.723228 0.717597
0.028059 0.140265 0.295191
0.033316 0.158433 0.317359
0.047542 0.178558 0.335869
0.077598 0.200419 0.347223
0.132615 0.223904 0.348104
0.243391 0.249646 0.331028
0.423824 0.286585 0.299259
0.571903 0.326076 0.282403
0.025345 0.170997 0.332258
0.040518 0.195170 0.360815
0.060247 0.219247 0.382064
0.094847 0.245045 0.396558
0.155922 0.273709 0.403263
0.274975 0.305188 0.392164
0.457023 0.344487 0.363147
0.601833 0.388002 0.350471
0.027595 0.207970 0.371521
0.050295 0.234123 0.402081
0.076871 0.263558 0.429195
0.118414 0.295883 0.450574
0.187026 0.330734 0.463625
0.314078 0.368167 0.460658
0.495335 0.410098 0.439432
0.637288 0.453788 0.432111
0.033657 0.250421 0.412113
0.063542 0.277715 0.442801
0.098388 0.311514 0.474033
0.146528 0.350282 0.502609
0.219210 0.392463 0.524884
0.353445 0.436085 0.531277
0.533314 0.480556 0.521607
0.674514 0.522179 0.520744
0.042984 0.297103 0.453278
0.081085 0.327108 0.484128
0.125564 0.363348 0.515250
0.179134 0.406611 0.548435
0.250844 0.456150 0.582007
0.386157 0.505957 0.599157
0.564749 0.552423 0.602734
0.708461 0.591016 0.608348
0.057828 0.344916 0.494267
0.105080 0.380583 0.526213
0.160200 0.421210 0.557356
0.224145 0.466639 0.589126
0.299507 0.516587 0.622387
0.400056 0.571120 0.656719
0.574278 0.617740 0.668829
0.724385 0.653013 0.674986
0.079197 0.392999 0.534875
0.136524 0.435912 0.567900
0.202046 0.481132 0.598595
0.275355 0.527693 0.628687
0.356520 0.574920 0.659449
0.449449 0.622958 0.691416
0.578934 0.669117 0.715566
0.711901 0.702837 0.724756
0.103851 0.437512 0.574257
0.169067 0.485912 0.606430
0.243182 0.534068 0.636349
0.324051 0.580436 0.665253
0.409692 0.623956 0.693813
0.498456 0.664081 0.720793
0.592789 0.703631 0.746662
0.702028 0.733132 0.755304
