filter/Red and Blue 2/lut/Midnight 02_S.cube
# LUT by SparkleStock. Enhanced with VOXCOLOR algorithms.
LUT_3D_SIZE 5
DOMAIN_MIN 0.000000 0.000000 0.000000
DOMAIN_MAX 0.903226 0.903226 0.903226
0.035165 0.031258 0.019536
0.105959 0.030777 0.019449
0.206207 0.037615 0.019292
0.324125 0.050014 0.021088
0.436890 0.072913 0.028138
0.039946 0.046563 0.047036
0.147984 0.079787 0.034220
0.318838 0.130296 0.033450
0.472046 0.143275 0.041341
0.530955 0.134314 0.059162
0.039143 0.064366 0.074450
0.145683 0.104813 0.064981
0.332790 0.195019 0.056534
0.501405 0.227860 0.071044
0.572617 0.202026 0.101781
0.039041 0.093151 0.107684
0.135906 0.113003 0.103625
0.299836 0.168746 0.103298
0.481645 0.242284 0.122782
0.588573 0.260089 0.163775
0.037150 0.116507 0.145669
0.138977 0.137884 0.148535
0.305999 0.177539 0.153669
0.495644 0.247924 0.187271
0.622506 0.334532 0.255237
0.037662 0.049518 0.076403
0.126123 0.047055 0.057425
0.273035 0.053753 0.076614
0.412883 0.074088 0.082184
0.501438 0.112747 0.070306
0.039254 0.080335 0.102911
0.148419 0.147596 0.160763
0.383503 0.204486 0.197220
0.580444 0.224595 0.201558
0.630523 0.220391 0.172253
0.040134 0.110197 0.143434
0.136323 0.202127 0.194258
0.387752 0.331675 0.224790
0.618933 0.383492 0.240532
0.700329 0.365249 0.240602
0.037541 0.143730 0.189411
0.104389 0.200909 0.227803
0.317244 0.314107 0.241472
0.584884 0.436070 0.260174
0.718366 0.480899 0.294389
0.036328 0.179973 0.240560
0.097294 0.222142 0.283345
0.279812 0.283022 0.296027
0.534479 0.390157 0.317747
0.700152 0.509572 0.372587
0.035488 0.075844 0.142022
0.092286 0.081164 0.130567
0.267625 0.087009 0.113707
0.433421 0.113936 0.125799
0.536910 0.164248 0.117264
0.035838 0.116143 0.179376
0.115923 0.165921 0.244840
0.347479 0.215138 0.299788
0.578535 0.251100 0.315127
0.661549 0.279290 0.275270
0.037857 0.163074 0.226037
0.115036 0.240381 0.301880
0.324100 0.364233 0.396531
0.617985 0.441784 0.436410
0.760792 0.462078 0.430060
0.037375 0.208079 0.284603
0.100411 0.272410 0.344579
0.256148 0.400275 0.419670
0.600168 0.559899 0.459337
0.794365 0.622862 0.489561
0.038371 0.253630 0.347071
0.107232 0.315249 0.409883
0.231056 0.402281 0.470708
0.537276 0.531629 0.493018
0.764966 0.658525 0.527124
0.031998 0.107677 0.220993
0.057424 0.125997 0.229628
0.160853 0.146099 0.209792
0.436327 0.176585 0.150485
0.571787 0.235202 0.173883
0.030720 0.154676 0.268120
0.073283 0.193544 0.313599
0.209086 0.234949 0.342571
0.512915 0.280839 0.320534
0.654163 0.343150 0.332732
0.034583 0.219067 0.328836
0.093664 0.270488 0.386685
0.217194 0.353351 0.465198
0.545230 0.436581 0.503973
0.746974 0.498681 0.536137
0.047114 0.282268 0.390629
0.125427 0.349126 0.453363
0.249345 0.447744 0.532083
0.484533 0.584414 0.628106
0.779588 0.659357 0.655679
0.059095 0.343523 0.465249
0.154865 0.417646 0.529597
0.280917 0.506972 0.593378
0.465644 0.617988 0.662128
0.761123 0.715924 0.672413
0.028059 0.140265 0.295191
0.043062 0.173326 0.331618
0.101124 0.212000 0.348946
0.278051 0.257202 0.325289
0.571903 0.326076 0.282403
0.026522 0.198084 0.361479
0.065753 0.244926 0.411518
0.140981 0.298940 0.443482
0.340460 0.361170 0.439624
0.627856 0.436944 0.410304
0.037926 0.273681 0.432708
0.100963 0.327617 0.486738
0.193201 0.401327 0.541510
0.409690 0.482940 0.567380
0.692775 0.557086 0.566043
0.062191 0.356896 0.504477
0.154305 0.424981 0.560135
0.272972 0.506270 0.615403
0.438176 0.598927 0.675783
0.725525 0.667295 0.689959
0.103851 0.437512 0.574257
0.223737 0.522054 0.629101
0.366649 0.602439 0.679646
0.521204 0.674055 0.727427
0.702028 0.733132 0.755304
