filter/Red and Blue 2/lut/Midnight 04_S.cube
# LUT by SparkleStock. Enhanced with VOXCOLOR algorithms.
LUT_3D_SIZE 5
DOMAIN_MIN 0.000000 0.000000 0.000000
DOMAIN_MAX 0.903226 0.903226 0.903226
0.085958 0.019536 0.062515
0.197668 0.021663 0.056284
0.366923 0.037260 0.064666
0.550845 0.064500 0.088109
0.673173 0.095931 0.115530
0.080239 0.038473 0.088204
0.228832 0.071305 0.069294
0.438602 0.128026 0.068447
0.626467 0.153759 0.092568
0.718329 0.154939 0.136069
0.070566 0.056717 0.114294
0.213355 0.097135 0.098562
0.462267 0.198033 0.096706
0.654137 0.240395 0.122281
0.740805 0.224427 0.171569
0.064997 0.087936 0.146575
0.192844 0.109564 0.138374
0.450368 0.184159 0.149548
0.666036 0.271178 0.187257
0.754310 0.288889 0.228797
0.058955 0.116444 0.185269
0.187545 0.139725 0.183398
0.449855 0.199252 0.201930
0.686049 0.289904 0.251242
0.776576 0.370364 0.302281
0.074095 0.040041 0.120651
0.213075 0.041445 0.094509
0.424160 0.058024 0.115583
0.609206 0.091911 0.139532
0.709553 0.138033 0.151241
0.068156 0.073221 0.144151
0.172717 0.139365 0.189660
0.432459 0.199402 0.214011
0.665070 0.228426 0.226708
0.763588 0.236319 0.224406
0.064341 0.107721 0.183998
0.157034 0.198953 0.226166
0.433229 0.328199 0.244937
0.685332 0.383425 0.260862
0.801630 0.372167 0.275898
0.061252 0.147116 0.229792
0.129380 0.210837 0.270337
0.390808 0.329626 0.278814
0.692911 0.452971 0.295433
0.818836 0.488909 0.321856
0.061016 0.189366 0.287243
0.124411 0.248344 0.337358
0.367171 0.328743 0.354593
0.685930 0.446008 0.374535
0.822728 0.543611 0.400616
0.067935 0.070212 0.190114
0.140087 0.075545 0.171385
0.421320 0.097590 0.158427
0.638808 0.141613 0.185009
0.730757 0.191729 0.192010
0.064209 0.112786 0.224209
0.139873 0.167935 0.282573
0.404587 0.221394 0.321778
0.669913 0.265287 0.339728
0.783052 0.297784 0.316245
0.063065 0.172124 0.275860
0.132884 0.258451 0.348219
0.337383 0.378349 0.422146
0.656146 0.449935 0.448393
0.832705 0.467083 0.441107
0.066475 0.231350 0.342233
0.121925 0.312212 0.406455
0.276419 0.440194 0.469007
0.655171 0.577420 0.482453
0.854839 0.625345 0.491024
0.070772 0.293860 0.419658
0.130666 0.379194 0.484837
0.260463 0.472517 0.537749
0.635310 0.595199 0.548824
0.849545 0.685774 0.541600
0.067541 0.106739 0.276655
0.092719 0.124823 0.283364
0.223960 0.152885 0.257969
0.642521 0.211667 0.215173
0.749591 0.267404 0.240255
0.068157 0.158594 0.330282
0.109135 0.211378 0.378819
0.256590 0.265119 0.397826
0.657060 0.321295 0.366841
0.788917 0.375046 0.371003
0.070954 0.245377 0.398737
0.124311 0.313529 0.458159
0.242704 0.403883 0.524901
0.623859 0.479969 0.537603
0.832161 0.520793 0.547428
0.079463 0.340863 0.470953
0.148824 0.419583 0.526955
0.265394 0.515028 0.590889
0.489564 0.619108 0.656434
0.828179 0.674928 0.661389
0.093721 0.427012 0.552883
0.176792 0.505030 0.600106
0.298218 0.582604 0.647248
0.484490 0.669752 0.695186
0.819861 0.747599 0.683522
0.071543 0.143747 0.374926
0.092980 0.181171 0.410931
0.151021 0.236276 0.427766
0.378317 0.311542 0.402390
0.728425 0.377165 0.342070
0.078712 0.212491 0.445632
0.116374 0.279155 0.498015
0.191613 0.358077 0.528788
0.436379 0.446043 0.522513
0.767804 0.501012 0.458470
0.086506 0.322016 0.524610
0.144523 0.392383 0.570343
0.236305 0.476222 0.613634
0.483570 0.565998 0.630153
0.799425 0.611139 0.596078
0.099825 0.448564 0.592965
0.184188 0.512762 0.629538
0.302140 0.581580 0.667528
0.468994 0.654015 0.711051
0.791781 0.706475 0.707472
0.123193 0.545533 0.645069
0.233816 0.601272 0.675494
0.382019 0.657258 0.710074
0.544965 0.714445 0.748345
0.739087 0.763995 0.765093
