filter/Red and Blue 2/lut/Midnight 01_S.cube
# LUT by SparkleStock. Enhanced with VOXCOLOR algorithms.
LUT_3D_SIZE 5
DOMAIN_MIN 0.000000 0.000000 0.000000
DOMAIN_MAX 0.903226 0.903226 0.903226
0.054701 0.046886 0.046886
0.142361 0.043901 0.042814
0.271598 0.047808 0.040813
0.402852 0.061515 0.047146
0.514632 0.088400 0.059475
0.052826 0.066407 0.079420
0.177468 0.090992 0.054621
0.365044 0.137113 0.047602
0.531115 0.153602 0.059927
0.603980 0.152243 0.088313
0.046839 0.089393 0.109748
0.166181 0.117939 0.086404
0.378372 0.203317 0.070301
0.564405 0.239622 0.086308
0.647829 0.226282 0.127674
0.045500 0.119217 0.143724
0.150226 0.127998 0.126980
0.346678 0.182101 0.118021
0.557036 0.262353 0.142036
0.667102 0.289984 0.185602
0.046745 0.144220 0.185915
0.149599 0.154101 0.172843
0.347645 0.189136 0.166408
0.570807 0.271971 0.202872
0.697645 0.361858 0.263626
0.049565 0.073433 0.114349
0.158584 0.063266 0.081350
0.332149 0.065823 0.092860
0.488863 0.090237 0.103461
0.585316 0.132868 0.102455
0.047298 0.103836 0.140043
0.154067 0.164135 0.186022
0.395157 0.207680 0.203969
0.605528 0.228071 0.205682
0.681909 0.235150 0.188366
0.047785 0.137370 0.181911
0.143080 0.223818 0.225951
0.396915 0.333315 0.232182
0.636271 0.381335 0.240152
0.742376 0.374514 0.247939
0.048430 0.174665 0.229749
0.117832 0.237608 0.272869
0.334746 0.324840 0.256731
0.621883 0.438729 0.261235
0.765337 0.487116 0.293734
0.052108 0.218845 0.289038
0.118067 0.276890 0.344803
0.302677 0.309320 0.324077
0.583140 0.394419 0.313020
0.764964 0.514924 0.358191
0.046540 0.106424 0.185576
0.108650 0.105143 0.165411
0.324435 0.103451 0.131260
0.519941 0.135558 0.143242
0.625654 0.190280 0.146430
0.047405 0.147461 0.221513
0.126502 0.198942 0.284699
0.361049 0.225364 0.309049
0.605203 0.256446 0.314064
0.713515 0.295832 0.283416
0.051636 0.204510 0.278566
0.133799 0.290871 0.358727
0.333655 0.394211 0.428741
0.619872 0.437111 0.431323
0.789720 0.460040 0.419684
0.060272 0.264887 0.349122
0.133638 0.348820 0.426237
0.283792 0.458760 0.482795
0.608795 0.555945 0.457959
0.821689 0.614160 0.473179
0.074530 0.334647 0.435576
0.159003 0.418256 0.515456
0.279951 0.489348 0.560240
0.562467 0.544988 0.509128
0.809450 0.654334 0.510669
0.046382 0.145386 0.269447
0.074632 0.166661 0.279800
0.180102 0.173634 0.244525
0.519357 0.202260 0.168286
0.656178 0.268201 0.196304
0.052307 0.205118 0.328699
0.103261 0.261740 0.390296
0.230139 0.284461 0.395597
0.562538 0.291855 0.321938
0.718672 0.361976 0.333027
0.068338 0.293112 0.411454
0.139997 0.361420 0.481811
0.258971 0.433483 0.547198
0.561710 0.442402 0.506034
0.784901 0.496960 0.520188
0.096913 0.381940 0.493886
0.189864 0.456276 0.558609
0.307921 0.540984 0.624306
0.504730 0.630560 0.682915
0.795865 0.654679 0.650617
0.137070 0.469849 0.587518
0.243621 0.538556 0.640293
0.355571 0.601216 0.685185
0.505570 0.674830 0.724922
0.787617 0.724380 0.680155
0.046461 0.195510 0.364764
0.076480 0.249383 0.421355
0.139340 0.301581 0.452658
0.314376 0.314877 0.386183
0.639980 0.355512 0.294595
0.069177 0.283991 0.460396
0.131309 0.358661 0.530998
0.208373 0.415062 0.561839
0.384855 0.426665 0.504681
0.695211 0.453738 0.406008
0.106551 0.392366 0.556966
0.191600 0.458372 0.610330
0.283978 0.520154 0.651183
0.457942 0.550204 0.632149
0.746728 0.566176 0.561296
0.159580 0.497087 0.630046
0.261752 0.553200 0.670499
0.366213 0.605752 0.706617
0.497296 0.661582 0.744262
0.757638 0.680620 0.704562
0.225814 0.575787 0.686005
0.336093 0.624406 0.719274
0.450207 0.670637 0.751896
0.567419 0.720085 0.785424
0.724808 0.761204 0.791377
