filter/Red and Blue 2/lut/Midnight 01.cube
# LUT by SparkleStock. Enhanced with VOXCOLOR algorithms.
LUT_3D_SIZE 5
DOMAIN_MIN 0.000000 0.000000 0.000000
DOMAIN_MAX 0.903226 0.903226 0.903226
0.054701 0.046886 0.046886
0.141077 0.044074 0.042814
0.263744 0.049856 0.040813
0.392855 0.063587 0.047146
0.513073 0.088542 0.059475
0.052826 0.066320 0.079420
0.158832 0.063000 0.061510
0.300420 0.080120 0.065561
0.448939 0.106949 0.079090
0.574125 0.137892 0.096111
0.046839 0.087936 0.110095
0.153299 0.087446 0.092565
0.327997 0.110699 0.090164
0.489346 0.150978 0.110323
0.618266 0.197766 0.138346
0.045500 0.111056 0.146166
0.146793 0.114079 0.129878
0.332651 0.143493 0.125502
0.531727 0.207409 0.152923
0.653787 0.269123 0.191680
0.046745 0.136563 0.187333
0.148547 0.146485 0.174453
0.345825 0.180834 0.168412
0.567945 0.262754 0.205309
0.695144 0.354247 0.267351
0.049565 0.073433 0.114349
0.150301 0.066020 0.070129
0.296201 0.076255 0.061678
0.443014 0.102782 0.076160
0.572802 0.136866 0.096440
0.047298 0.103663 0.139957
0.099592 0.122612 0.153332
0.268318 0.134433 0.133767
0.471824 0.166503 0.134758
0.616251 0.208199 0.151985
0.047785 0.136519 0.181762
0.100087 0.164528 0.209468
0.281950 0.182062 0.187789
0.506609 0.225384 0.186545
0.657344 0.284048 0.212664
0.048430 0.170227 0.229299
0.104252 0.210764 0.270038
0.284685 0.227013 0.243625
0.555160 0.286008 0.236664
0.698802 0.363646 0.278404
0.052108 0.214125 0.288636
0.116499 0.270814 0.344761
0.295547 0.291490 0.322840
0.568114 0.348523 0.309112
0.739457 0.447997 0.357298
0.046540 0.106424 0.185576
0.104982 0.106449 0.158929
0.305406 0.110135 0.098620
0.486551 0.146752 0.106404
0.615564 0.194195 0.137616
0.047405 0.146761 0.220469
0.090601 0.179323 0.249527
0.258995 0.183324 0.199161
0.491823 0.220506 0.184766
0.652346 0.280071 0.210072
0.051636 0.203569 0.277494
0.099968 0.257888 0.336634
0.203120 0.301385 0.359837
0.451716 0.312541 0.309734
0.672263 0.372881 0.309451
0.060446 0.260631 0.347798
0.122708 0.330718 0.421445
0.219691 0.388638 0.466252
0.497218 0.394108 0.395106
0.715596 0.461864 0.395177
0.074631 0.329305 0.433938
0.157434 0.412873 0.514968
0.268462 0.474243 0.558856
0.531865 0.483491 0.497341
0.762124 0.550074 0.487359
0.046382 0.145386 0.269447
0.074308 0.166823 0.279314
0.177405 0.174577 0.240063
0.513076 0.204303 0.154818
0.653772 0.269139 0.192677
0.052318 0.204620 0.327454
0.095722 0.258830 0.381509
0.198015 0.276265 0.356733
0.517766 0.279464 0.243370
0.689687 0.358629 0.276439
0.068520 0.289859 0.406204
0.131374 0.354318 0.471887
0.212670 0.413055 0.515406
0.471459 0.395204 0.405271
0.706826 0.458071 0.394647
0.097268 0.380422 0.492419
0.185586 0.450121 0.554866
0.277397 0.518915 0.611837
0.391204 0.580412 0.653404
0.683736 0.571519 0.558679
0.137806 0.465865 0.586054
0.243099 0.534964 0.639324
0.350191 0.595001 0.683848
0.473670 0.651865 0.719914
0.738788 0.657419 0.650028
0.046461 0.195510 0.364764
0.076480 0.249383 0.421355
0.139340 0.301581 0.452557
0.314092 0.315019 0.385872
0.639815 0.355594 0.294184
0.069671 0.283891 0.458837
0.130616 0.358704 0.529588
0.205019 0.415014 0.558413
0.378529 0.426274 0.495853
0.689672 0.453628 0.393001
0.107873 0.391333 0.553201
0.190754 0.457614 0.607022
0.278165 0.518737 0.646653
0.441755 0.545882 0.615051
0.726577 0.560244 0.519559
0.161003 0.494339 0.626898
0.261661 0.551032 0.667688
0.362068 0.603047 0.703471
0.476652 0.654330 0.734446
0.724239 0.663903 0.663822
0.226948 0.574135 0.684532
0.336245 0.622805 0.718129
0.448676 0.668803 0.750905
0.559916 0.715929 0.782976
0.704059 0.749138 0.780787
