filter/Red and Blue 2/lut/Midnight 05_S.cube
# LUT by SparkleStock. Enhanced with VOXCOLOR algorithms.
LUT_3D_SIZE 8
DOMAIN_MIN 0.000000 0.000000 0.000000
DOMAIN_MAX 0.903226 0.903226 0.903226
0.078144 0.066422 0.082051
0.112742 0.067935 0.079972
0.156178 0.068778 0.077624
0.217275 0.071393 0.076269
0.298688 0.077538 0.076978
0.384899 0.088314 0.081327
0.452204 0.100508 0.085675
0.512348 0.112474 0.090228
0.082681 0.076443 0.095853
0.126208 0.083663 0.084405
0.188110 0.094880 0.078496
0.270138 0.108083 0.075848
0.368512 0.121106 0.075350
0.458235 0.129541 0.080284
0.516002 0.133416 0.089121
0.556545 0.136978 0.098309
0.086014 0.086998 0.108850
0.131314 0.097336 0.097367
0.206807 0.123825 0.086431
0.303363 0.152617 0.079346
0.409872 0.173207 0.078391
0.501449 0.178988 0.084844
0.556053 0.173284 0.097288
0.588292 0.166710 0.110653
0.089637 0.100059 0.124511
0.133706 0.110311 0.116345
0.214239 0.144828 0.103353
0.317748 0.185476 0.092908
0.429550 0.217078 0.090283
0.521384 0.223189 0.097967
0.576468 0.211309 0.113442
0.608273 0.197575 0.129650
0.094553 0.117074 0.145094
0.137689 0.124563 0.139746
0.214295 0.153129 0.129753
0.317264 0.195136 0.119714
0.434182 0.239289 0.114225
0.525448 0.251804 0.122312
0.582725 0.241098 0.139913
0.618880 0.226986 0.157034
0.100792 0.139383 0.170806
0.145684 0.146287 0.169556
0.219692 0.161826 0.162936
0.318087 0.188488 0.156397
0.431108 0.224957 0.154641
0.525009 0.255914 0.163899
0.586506 0.259381 0.179377
0.628942 0.256211 0.195145
0.111757 0.164370 0.200772
0.159991 0.174836 0.204474
0.234888 0.186333 0.201735
0.332673 0.203547 0.197792
0.444435 0.228901 0.197420
0.537311 0.259395 0.207849
0.602012 0.284353 0.228828
0.648855 0.298410 0.245981
0.127047 0.184261 0.234661
0.178861 0.200465 0.244516
0.255994 0.213762 0.246172
0.355046 0.228619 0.244308
0.467354 0.248455 0.243681
0.559822 0.276131 0.253140
0.624841 0.311400 0.276428
0.673987 0.343727 0.302607
0.084194 0.083060 0.110599
0.122597 0.075790 0.094615
0.178133 0.073657 0.094121
0.253709 0.076662 0.100255
0.346703 0.084600 0.106087
0.434377 0.097425 0.107362
0.496193 0.113254 0.105953
0.545890 0.129172 0.105798
0.089756 0.098934 0.125571
0.127569 0.115617 0.134328
0.199758 0.127574 0.139900
0.298144 0.137484 0.142824
0.411158 0.147017 0.143666
0.508578 0.154894 0.143034
0.566521 0.160082 0.140599
0.597505 0.164224 0.136688
0.098363 0.116693 0.147619
0.135416 0.146308 0.164120
0.217837 0.178604 0.164795
0.328442 0.205297 0.161037
0.449641 0.221066 0.160351
0.551856 0.226092 0.160750
0.610952 0.220982 0.161224
0.637469 0.212149 0.160261
0.108159 0.136291 0.174050
0.144980 0.170845 0.192225
0.228841 0.217409 0.187375
0.342571 0.260005 0.176359
0.467927 0.287202 0.171105
0.571749 0.293965 0.173690
0.634571 0.283197 0.178581
0.666060 0.266429 0.182998
0.118216 0.158008 0.203013
0.156058 0.192434 0.224544
0.232840 0.239395 0.220252
0.342234 0.288321 0.204125
0.471278 0.329066 0.188972
0.575411 0.343861 0.192384
0.642827 0.335884 0.201077
0.684509 0.321190 0.210198
0.130748 0.184123 0.235312
0.172501 0.216830 0.262868
0.242817 0.251798 0.263633
0.342046 0.288534 0.249052
0.463214 0.325504 0.230421
0.569868 0.355908 0.225713
0.642996 0.365787 0.234984
0.696395 0.368984 0.247298
0.148129 0.215233 0.272718
0.195943 0.251502 0.306397
0.263982 0.278575 0.314180
0.356389 0.301454 0.304254
0.469862 0.324574 0.285853
0.573584 0.353381 0.277179
0.648669 0.383367 0.284878
0.707191 0.407338 0.297982
0.173269 0.247339 0.318102
0.223322 0.286566 0.354044
0.291483 0.312557 0.367915
0.381317 0.329946 0.363854
0.489783 0.344027 0.348140
0.589357 0.365848 0.337504
0.662260 0.400062 0.343435
0.719846 0.435907 0.360608
0.095065 0.105723 0.149191
0.125869 0.099106 0.132986
0.190031 0.089845 0.121081
0.277243 0.087167 0.121442
0.376026 0.095991 0.134807
0.464542 0.110139 0.136326
0.524135 0.128273 0.129713
0.569562 0.147140 0.124681
0.103518 0.126623 0.169481
0.137698 0.146872 0.189090
0.211310 0.151229 0.195425
0.314661 0.153679 0.199596
0.434206 0.162577 0.206868
0.534767 0.171178 0.203505
0.594360 0.179424 0.191341
0.624728 0.187740 0.176013
0.116696 0.152076 0.197603
0.153844 0.187702 0.229032
0.229571 0.218339 0.245229
0.337537 0.240487 0.252418
0.465940 0.252581 0.254722
0.577127 0.257353 0.249660
0.644375 0.255965 0.239312
0.675486 0.251275 0.224828
0.133061 0.180027 0.231443
0.172364 0.222959 0.264582
0.244522 0.275184 0.283840
0.350064 0.317941 0.288641
0.481413 0.339872 0.281607
0.598848 0.346296 0.277384
0.675240 0.340075 0.272128
0.716242 0.327055 0.264256
0.151317 0.209401 0.269149
0.192212 0.254389 0.303964
0.257140 0.312272 0.322156
0.356243 0.365923 0.318648
0.487514 0.403121 0.296876
0.606038 0.418665 0.292801
0.689074 0.416194 0.292396
0.743569 0.405081 0.292493
0.170662 0.242639 0.309485
0.215532 0.285657 0.347998
0.273670 0.334773 0.369077
0.360704 0.381180 0.365582
0.480650 0.419165 0.338620
0.601341 0.449331 0.317855
0.689801 0.464627 0.318241
0.757143 0.471372 0.324208
0.193854 0.279907 0.352845
0.244081 0.325497 0.395870
0.299357 0.366216 0.421166
0.377522 0.399088 0.421512
0.485826 0.424256 0.396774
0.601169 0.452736 0.369435
0.689854 0.486024 0.361942
0.761823 0.513521 0.366772
0.224925 0.319675 0.403497
0.276009 0.366730 0.446623
0.329857 0.403714 0.474295
0.403321 0.428958 0.479265
0.503733 0.444120 0.460172
0.611671 0.463110 0.432769
0.695729 0.496475 0.420633
0.763693 0.531598 0.424692
0.110914 0.133782 0.198535
0.133144 0.132983 0.189515
0.191678 0.123165 0.170970
0.281863 0.114061 0.156514
0.392313 0.113501 0.154491
0.480926 0.129346 0.160974
0.540932 0.148890 0.153857
0.586445 0.169283 0.146989
0.123880 0.159427 0.224875
0.156596 0.181953 0.250327
0.221643 0.183515 0.257411
0.319590 0.178076 0.255819
0.441966 0.176699 0.252909
0.543399 0.187789 0.251668
0.605494 0.199914 0.234741
0.640513 0.213195 0.213736
0.142064 0.192623 0.258382
0.181849 0.228289 0.296179
0.245315 0.256265 0.324711
0.341322 0.271167 0.337770
0.467767 0.272794 0.334135
0.583932 0.278587 0.327871
0.658393 0.282134 0.311002
0.699058 0.284524 0.288955
0.164892 0.229912 0.297754
0.208705 0.272523 0.337320
0.267081 0.323198 0.376110
0.355775 0.361265 0.396352
0.479055 0.375718 0.390674
0.606083 0.380989 0.382202
0.695306 0.379501 0.369464
0.750093 0.373391 0.353069
0.191213 0.268876 0.341653
0.236871 0.314896 0.381006
0.289888 0.372632 0.417056
0.369049 0.425691 0.433276
0.482999 0.462084 0.423472
0.613959 0.474925 0.412523
0.714414 0.475916 0.403441
0.785233 0.468961 0.394462
0.217522 0.309932 0.388674
0.265749 0.354238 0.428305
0.313265 0.406605 0.463410
0.380875 0.457078 0.477590
0.481509 0.498368 0.462648
0.613522 0.526454 0.430655
0.718468 0.543121 0.421812
0.800781 0.550203 0.419805
0.244589 0.352854 0.435526
0.296034 0.398042 0.476629
0.341244 0.443094 0.511582
0.400712 0.482704 0.526725
0.488847 0.514269 0.514072
0.612777 0.542292 0.476164
0.716685 0.574947 0.455660
0.802743 0.600425 0.450633
0.277535 0.396072 0.486158
0.328433 0.441231 0.525517
0.371414 0.481133 0.558617
0.425774 0.512455 0.574866
0.505563 0.534373 0.567219
0.619896 0.553326 0.532178
0.717496 0.584624 0.505776
0.797515 0.615387 0.496460
0.132396 0.167104 0.258821
0.151936 0.173843 0.259388
0.189287 0.175346 0.249367
0.269649 0.164936 0.219633
0.395346 0.145403 0.175305
0.488753 0.157643 0.179281
0.551982 0.177273 0.176717
0.600107 0.197865 0.173218
0.151161 0.197634 0.289808
0.184304 0.224043 0.318997
0.233021 0.234658 0.332689
0.316134 0.226052 0.320986
0.436240 0.204024 0.286876
0.541035 0.212657 0.282236
0.606575 0.227845 0.266467
0.648519 0.245136 0.248518
0.175184 0.238073 0.328999
0.216104 0.273236 0.367974
0.267758 0.301782 0.401054
0.347597 0.309525 0.409756
0.461264 0.294517 0.389268
0.578839 0.297435 0.379576
0.657081 0.304971 0.361818
0.707946 0.314655 0.341823
0.203669 0.284591 0.372805
0.248806 0.323916 0.412563
0.299162 0.366886 0.453966
0.369650 0.395724 0.478925
0.469494 0.401857 0.478243
0.598610 0.402247 0.465849
0.695289 0.403281 0.449791
0.763296 0.404480 0.432176
0.235451 0.333650 0.418821
0.282907 0.376336 0.457492
0.330705 0.422793 0.494262
0.387454 0.468584 0.526588
0.464954 0.506618 0.548450
0.601373 0.512109 0.532939
0.716519 0.512079 0.517238
0.803269 0.508015 0.501568
0.267798 0.380927 0.468184
0.315670 0.422310 0.504895
0.359596 0.465665 0.537358
0.407113 0.511546 0.565024
0.471558 0.556830 0.581728
0.603378 0.581122 0.551561
0.722911 0.593866 0.535913
0.820005 0.598303 0.525813
0.296222 0.428132 0.515320
0.345112 0.468283 0.550261
0.387320 0.505685 0.579687
0.428979 0.543888 0.604579
0.483204 0.583145 0.619565
0.603816 0.610858 0.587393
0.722088 0.638290 0.559799
0.822226 0.657479 0.545635
0.327458 0.471046 0.561741
0.374458 0.509060 0.592800
0.414422 0.541585 0.618735
0.452087 0.572569 0.641330
0.499552 0.603298 0.656147
0.609735 0.625189 0.628559
0.721095 0.652657 0.595464
0.814547 0.676346 0.575569
0.163969 0.208697 0.330852
0.185558 0.222461 0.340494
0.218530 0.237315 0.344835
0.272899 0.244200 0.331702
0.357925 0.235535 0.291015
0.493778 0.200499 0.207317
0.567253 0.214322 0.200874
0.617915 0.235738 0.206687
0.189174 0.244496 0.366230
0.223120 0.274871 0.395769
0.263241 0.296739 0.413973
0.321203 0.305430 0.412951
0.406841 0.296111 0.383870
0.536292 0.255540 0.301074
0.609490 0.267057 0.285467
0.658720 0.288424 0.282233
0.217771 0.290205 0.407946
0.258086 0.326033 0.442960
0.300635 0.357469 0.473129
0.358818 0.375263 0.486355
0.443559 0.371625 0.471111
0.570005 0.333929 0.403056
0.651980 0.339540 0.386332
0.710571 0.355071 0.380549
0.248903 0.342845 0.453325
0.292434 0.379153 0.487385
0.334871 0.416193 0.522246
0.388201 0.444372 0.546694
0.464342 0.454481 0.549175
0.588977 0.427882 0.503149
0.686243 0.428027 0.488556
0.761300 0.435663 0.481917
0.281599 0.398509 0.499379
0.326983 0.434623 0.531699
0.368421 0.470220 0.562259
0.412596 0.505246 0.591181
0.471387 0.534613 0.612715
0.589741 0.527875 0.591477
0.704957 0.526665 0.578658
0.799879 0.527779 0.569376
0.314093 0.447396 0.539813
0.358533 0.482320 0.569720
0.398591 0.516293 0.596643
0.439596 0.550286 0.621095
0.489199 0.584013 0.641876
0.572019 0.611828 0.649156
0.696476 0.619217 0.636219
0.808967 0.620243 0.621460
0.342785 0.494382 0.582900
0.385844 0.525826 0.609167
0.424234 0.555171 0.631973
0.462186 0.584304 0.652501
0.505567 0.614992 0.670682
0.572400 0.650175 0.680791
0.696074 0.671856 0.658477
0.811062 0.683433 0.638690
0.371143 0.533618 0.622441
0.411485 0.561741 0.644515
0.448016 0.587080 0.663632
0.483816 0.611707 0.681301
0.523238 0.637594 0.697663
0.579788 0.668050 0.707130
0.696257 0.692141 0.680243
0.804171 0.708309 0.655291
0.200740 0.254071 0.399890
0.224867 0.273885 0.418241
0.257317 0.298348 0.434246
0.302730 0.321004 0.439593
0.367407 0.333773 0.424212
0.473499 0.313788 0.358713
0.573442 0.284929 0.282993
0.641126 0.281701 0.251322
0.230923 0.294651 0.440025
0.266725 0.329622 0.471247
0.302475 0.358803 0.492698
0.347567 0.381494 0.501702
0.411176 0.393597 0.491572
0.512622 0.371817 0.430071
0.610205 0.341605 0.353905
0.677389 0.340822 0.322923
0.262716 0.344450 0.483335
0.302510 0.381641 0.515348
0.339619 0.414740 0.541835
0.384484 0.440736 0.557269
0.446993 0.454617 0.553948
0.546187 0.436789 0.505376
0.646673 0.408517 0.439189
0.719420 0.406745 0.412816
0.295255 0.400022 0.527402
0.335540 0.433836 0.555495
0.372558 0.467052 0.582902
0.414608 0.495755 0.603764
0.471423 0.514540 0.610444
0.569099 0.505705 0.579241
0.676593 0.482747 0.529315
0.759866 0.478873 0.509094
0.327448 0.457168 0.569680
0.367608 0.487327 0.594320
0.403691 0.516021 0.617331
0.439991 0.544354 0.639879
0.485563 0.570045 0.658385
0.577469 0.574879 0.646587
0.693776 0.560901 0.615108
0.791052 0.555960 0.600142
0.356429 0.505957 0.604845
0.395417 0.533151 0.626713
0.431073 0.558873 0.646786
0.466796 0.584357 0.665838
0.507176 0.610233 0.683960
0.566040 0.635247 0.698338
0.684780 0.636097 0.681098
0.796193 0.634390 0.665809
0.380714 0.547154 0.637072
0.418708 0.571611 0.656751
0.454082 0.594411 0.674044
0.489666 0.617055 0.690332
0.528541 0.641044 0.706561
0.577798 0.669283 0.722591
0.674040 0.688465 0.717226
0.781182 0.697414 0.704292
0.405542 0.580664 0.667635
0.440962 0.601972 0.684167
0.475385 0.622227 0.698766
0.510730 0.642698 0.712916
0.548846 0.664629 0.727489
0.593291 0.690415 0.741637
0.671143 0.715192 0.740726
0.767753 0.728441 0.725715
0.239781 0.299177 0.463618
0.267176 0.325639 0.490129
0.300343 0.357509 0.514368
0.341097 0.390710 0.531780
0.392652 0.419494 0.536089
0.468733 0.426154 0.506395
0.572146 0.393670 0.421853
0.654707 0.367642 0.353618
0.270604 0.343014 0.505967
0.308249 0.381473 0.537804
0.342295 0.415352 0.561890
0.380214 0.446539 0.577977
0.429154 0.473591 0.582824
0.502756 0.479585 0.556119
0.603954 0.447990 0.476321
0.687544 0.427366 0.416355
0.302623 0.395240 0.549081
0.342348 0.432935 0.578177
0.376807 0.466126 0.601947
0.413826 0.496107 0.618776
0.461074 0.521589 0.625149
0.533595 0.528887 0.604850
0.634313 0.502031 0.536619
0.719970 0.485276 0.485814
0.334774 0.451678 0.590266
0.372828 0.483042 0.613807
0.406855 0.512542 0.635465
0.442359 0.540224 0.653237
0.486214 0.564487 0.663447
0.557803 0.575134 0.651232
0.659574 0.555944 0.599313
0.749389 0.542590 0.558649
0.365705 0.507745 0.627303
0.401621 0.532664 0.646247
0.434428 0.556134 0.663606
0.466926 0.579616 0.681031
0.505000 0.602902 0.696817
0.572598 0.618838 0.694108
0.675862 0.609557 0.660813
0.772211 0.600154 0.630595
0.391630 0.553796 0.657296
0.425946 0.574518 0.673374
0.458406 0.594155 0.688048
0.491279 0.614092 0.702502
0.527279 0.635292 0.717350
0.573653 0.658007 0.731458
0.673463 0.661216 0.714002
0.776675 0.657976 0.690365
0.412819 0.588631 0.681556
0.446093 0.607240 0.696118
0.478947 0.625261 0.709072
0.513164 0.643846 0.721838
0.550303 0.663907 0.735337
0.592849 0.686379 0.749321
0.663099 0.703671 0.751841
0.757290 0.710105 0.738023
0.434557 0.617073 0.704046
0.465483 0.633097 0.716627
0.498313 0.650013 0.727914
0.533600 0.668094 0.739366
0.571791 0.687535 0.751746
0.613926 0.708651 0.763777
0.665148 0.730869 0.774525
0.744215 0.742414 0.766400
