filter/Red and Blue 2/lut/Midnight 01_S.cube
# LUT by SparkleStock. Enhanced with VOXCOLOR algorithms.
LUT_3D_SIZE 32
0.054701 0.046886 0.046886
0.065713 0.046225 0.046367
0.076726 0.045563 0.045847
0.087739 0.044901 0.045327
0.098751 0.044240 0.044807
0.109764 0.043578 0.044287
0.125582 0.043665 0.043570
0.142361 0.043901 0.042814
0.159140 0.044137 0.042058
0.175919 0.044374 0.041301
0.192698 0.044610 0.040545
0.211619 0.045256 0.040388
0.231612 0.046107 0.040529
0.251605 0.046957 0.040671
0.271598 0.047808 0.040813
0.291591 0.048659 0.040955
0.310875 0.050171 0.041569
0.329450 0.052346 0.042656
0.348025 0.054520 0.043743
0.366600 0.056694 0.044830
0.385175 0.058868 0.045918
0.402852 0.061515 0.047146
0.418733 0.065107 0.048659
0.434613 0.068699 0.050171
0.450494 0.072291 0.051684
0.466375 0.075883 0.053196
0.482303 0.079609 0.054843
0.498468 0.084005 0.057159
0.514632 0.088400 0.059475
0.530797 0.092796 0.061791
0.546961 0.097192 0.064107
0.563126 0.101587 0.066422
0.054606 0.049675 0.051707
0.066534 0.049452 0.050483
0.078461 0.049230 0.049259
0.090389 0.049007 0.048035
0.102316 0.048785 0.046810
0.114244 0.048562 0.045586
0.131159 0.049522 0.044683
0.149072 0.050719 0.043844
0.166986 0.051916 0.043006
0.184899 0.053113 0.042167
0.202812 0.054310 0.041329
0.223100 0.055660 0.041144
0.244575 0.057087 0.041286
0.266050 0.058514 0.041427
0.287525 0.059941 0.041569
0.308999 0.061368 0.041711
0.329377 0.063123 0.042399
0.348656 0.065206 0.043632
0.367935 0.067289 0.044866
0.387215 0.069371 0.046099
0.406494 0.071454 0.047332
0.424397 0.073845 0.048763
0.439546 0.076851 0.050586
0.454695 0.079858 0.052410
0.469844 0.082865 0.054233
0.484993 0.085871 0.056057
0.500018 0.089026 0.058025
0.514426 0.092918 0.060716
0.528835 0.096811 0.063407
0.543243 0.100703 0.066098
0.557651 0.104595 0.068789
0.572059 0.108488 0.071480
0.054512 0.052464 0.056528
0.067354 0.052680 0.054600
0.080196 0.052897 0.052671
0.093039 0.053113 0.050742
0.105881 0.053330 0.048814
0.118723 0.053546 0.046885
0.136736 0.055380 0.045796
0.155784 0.057537 0.044875
0.174832 0.059695 0.043954
0.193879 0.061852 0.043033
0.212927 0.064010 0.042112
0.234581 0.066064 0.041900
0.257537 0.068068 0.042042
0.280494 0.070071 0.042184
0.303451 0.072075 0.042325
0.326408 0.074078 0.042467
0.347878 0.076075 0.043228
0.367862 0.078067 0.044608
0.387846 0.080058 0.045988
0.407830 0.082049 0.047367
0.427813 0.084040 0.048747
0.445942 0.086175 0.050379
0.460359 0.088596 0.052513
0.474776 0.091017 0.054648
0.489193 0.093438 0.056782
0.503611 0.095859 0.058917
0.517733 0.098442 0.061207
0.530385 0.101831 0.064273
0.543037 0.105221 0.067339
0.555688 0.108610 0.070405
0.568340 0.111999 0.073471
0.580992 0.115389 0.076537
0.054417 0.055252 0.061349
0.068174 0.055908 0.058716
0.081931 0.056563 0.056083
0.095688 0.057219 0.053450
0.109445 0.057875 0.050817
0.123202 0.058530 0.048184
0.142314 0.061238 0.046909
0.162496 0.064356 0.045906
0.182678 0.067474 0.044903
0.202860 0.070592 0.043899
0.223041 0.073710 0.042896
0.246061 0.076469 0.042656
0.270500 0.079048 0.042798
0.294939 0.081628 0.042940
0.319378 0.084208 0.043082
0.343817 0.086788 0.043223
0.366380 0.089027 0.044057
0.387068 0.090927 0.045584
0.407756 0.092827 0.047110
0.428445 0.094727 0.048636
0.449133 0.096626 0.050162
0.467487 0.098505 0.051995
0.481172 0.100340 0.054440
0.494857 0.102176 0.056886
0.508543 0.104012 0.059332
0.522228 0.105847 0.061777
0.535449 0.107858 0.064389
0.546344 0.110744 0.067830
0.557239 0.113631 0.071271
0.568134 0.116517 0.074712
0.579030 0.119403 0.078153
0.589925 0.122289 0.081594
0.054323 0.058041 0.066170
0.068995 0.059136 0.062833
0.083666 0.060230 0.059495
0.098338 0.061325 0.056158
0.113010 0.062420 0.052820
0.127682 0.063514 0.049483
0.147891 0.067096 0.048022
0.169207 0.071174 0.046937
0.190523 0.075253 0.045851
0.211840 0.079331 0.044765
0.233156 0.083410 0.043680
0.257542 0.086873 0.043413
0.283463 0.090029 0.043554
0.309384 0.093185 0.043696
0.335304 0.096341 0.043838
0.361225 0.099497 0.043980
0.384882 0.101979 0.044887
0.406274 0.103788 0.046559
0.427667 0.105596 0.048232
0.449060 0.107404 0.049905
0.470452 0.109212 0.051577
0.489032 0.110835 0.053611
0.501985 0.112085 0.056368
0.514939 0.113335 0.059124
0.527892 0.114585 0.061881
0.540846 0.115836 0.064637
0.553164 0.117275 0.067571
0.562302 0.119658 0.071387
0.571441 0.122041 0.075203
0.580580 0.124424 0.079019
0.589719 0.126807 0.082835
0.598858 0.129190 0.086652
0.054228 0.060829 0.070991
0.069815 0.062363 0.066949
0.085401 0.063897 0.062908
0.100988 0.065431 0.058866
0.116575 0.066965 0.054824
0.132161 0.068499 0.050782
0.153468 0.072953 0.049135
0.175919 0.077992 0.047967
0.198369 0.083031 0.046799
0.220820 0.088070 0.045631
0.243271 0.093109 0.044464
0.269023 0.097277 0.044169
0.296426 0.101010 0.044311
0.323828 0.104742 0.044452
0.351231 0.108474 0.044594
0.378634 0.112207 0.044736
0.403384 0.114931 0.045716
0.425481 0.116648 0.047535
0.447578 0.118365 0.049354
0.469675 0.120082 0.051173
0.491772 0.121798 0.052992
0.510577 0.123165 0.055227
0.522798 0.123829 0.058295
0.535020 0.124494 0.061362
0.547242 0.125159 0.064430
0.559464 0.125824 0.067498
0.570879 0.126691 0.070753
0.578261 0.128571 0.074944
0.585644 0.130451 0.079135
0.593026 0.132331 0.083326
0.600408 0.134211 0.087518
0.607791 0.136090 0.091709
0.053582 0.063618 0.075261
0.069108 0.065370 0.071193
0.084634 0.067122 0.067125
0.100159 0.068874 0.063058
0.115685 0.070625 0.058990
0.131210 0.072377 0.054922
0.153541 0.078056 0.052808
0.177233 0.084521 0.051085
0.200925 0.090986 0.049363
0.224616 0.097450 0.047640
0.248308 0.103915 0.045917
0.274888 0.109074 0.045467
0.302911 0.113581 0.045655
0.330934 0.118088 0.045843
0.358958 0.122595 0.046030
0.386981 0.127102 0.046218
0.412298 0.130202 0.047286
0.434909 0.131896 0.049236
0.457519 0.133590 0.051187
0.480130 0.135284 0.053137
0.502741 0.136978 0.055087
0.521871 0.138121 0.057510
0.534039 0.138162 0.060881
0.546208 0.138203 0.064252
0.558376 0.138244 0.067623
0.570544 0.138285 0.070994
0.581806 0.138535 0.074562
0.588538 0.139828 0.079113
0.595269 0.141121 0.083664
0.602001 0.142414 0.088215
0.608732 0.143707 0.092767
0.615463 0.145000 0.097318
0.052826 0.066407 0.079420
0.068096 0.068332 0.075462
0.083365 0.070258 0.071504
0.098635 0.072184 0.067546
0.113904 0.074109 0.063588
0.129174 0.076035 0.059630
0.152514 0.083009 0.056993
0.177468 0.090992 0.054621
0.202422 0.098975 0.052249
0.227376 0.106958 0.049876
0.252330 0.114941 0.047504
0.279629 0.121149 0.046875
0.308101 0.126471 0.047117
0.336572 0.131792 0.047360
0.365044 0.137113 0.047602
0.393516 0.142434 0.047844
0.419295 0.145937 0.049005
0.442381 0.147621 0.051083
0.465468 0.149306 0.053161
0.488554 0.150991 0.055239
0.511640 0.152676 0.057317
0.531115 0.153602 0.059927
0.543366 0.153012 0.063600
0.555616 0.152422 0.067273
0.567867 0.151832 0.070946
0.580118 0.151242 0.074619
0.591377 0.150865 0.078497
0.597678 0.151554 0.083405
0.603980 0.152243 0.088313
0.610281 0.152933 0.093221
0.616582 0.153622 0.098129
0.622884 0.154311 0.103037
0.052070 0.069195 0.083580
0.067083 0.071295 0.079731
0.082097 0.073394 0.075883
0.097110 0.075494 0.072035
0.112123 0.077593 0.068187
0.127137 0.079693 0.064338
0.151486 0.087961 0.061179
0.177703 0.097462 0.058157
0.203919 0.106964 0.055135
0.230136 0.116466 0.052113
0.256352 0.125967 0.049091
0.284371 0.133225 0.048282
0.313291 0.139360 0.048579
0.342211 0.145495 0.048877
0.371130 0.151631 0.049174
0.400050 0.157766 0.049471
0.426291 0.161671 0.050723
0.449853 0.163347 0.052929
0.473416 0.165022 0.055135
0.496978 0.166698 0.057342
0.520540 0.168374 0.059548
0.540359 0.169084 0.062343
0.552692 0.167862 0.066318
0.565025 0.166641 0.070293
0.577358 0.165420 0.074268
0.589691 0.164199 0.078243
0.600947 0.163195 0.082432
0.606819 0.163281 0.087697
0.612690 0.163366 0.092962
0.618562 0.163451 0.098226
0.624433 0.163537 0.103491
0.630304 0.163622 0.108756
0.051314 0.071984 0.087739
0.066071 0.074257 0.084000
0.080828 0.076530 0.080262
0.095585 0.078804 0.076523
0.110342 0.081077 0.072785
0.125100 0.083350 0.069046
0.150458 0.092913 0.065364
0.177937 0.103933 0.061692
0.205416 0.114953 0.058021
0.232895 0.125974 0.054350
0.260374 0.136994 0.050678
0.289113 0.145300 0.049689
0.318481 0.152250 0.050041
0.347849 0.159199 0.050394
0.377217 0.166148 0.050746
0.406585 0.173098 0.051098
0.433288 0.177406 0.052441
0.457326 0.179072 0.054776
0.481364 0.180739 0.057110
0.505402 0.182405 0.059444
0.529439 0.184072 0.061778
0.549603 0.184565 0.064760
0.562018 0.182713 0.069037
0.574434 0.180860 0.073313
0.586849 0.179008 0.077590
0.599264 0.177155 0.081867
0.610517 0.175525 0.086368
0.615959 0.175007 0.091989
0.621400 0.174488 0.097610
0.626842 0.173970 0.103232
0.632283 0.173452 0.108853
0.637725 0.172933 0.114475
0.050557 0.074773 0.091898
0.065058 0.077220 0.088269
0.079559 0.079667 0.084641
0.094061 0.082114 0.081012
0.108562 0.084561 0.077383
0.123063 0.087008 0.073755
0.149431 0.097865 0.069549
0.178172 0.110404 0.065228
0.206914 0.122942 0.060907
0.235655 0.135481 0.056586
0.264396 0.148020 0.052265
0.293854 0.157375 0.051097
0.323671 0.165139 0.051504
0.353487 0.172903 0.051911
0.383303 0.180666 0.052318
0.413120 0.188430 0.052725
0.440285 0.193140 0.054160
0.464798 0.194798 0.056622
0.489312 0.196455 0.059084
0.513825 0.198112 0.061547
0.538339 0.199770 0.064009
0.558847 0.200047 0.067177
0.571345 0.197563 0.071755
0.583842 0.195079 0.076334
0.596340 0.192595 0.080912
0.608838 0.190112 0.085491
0.620088 0.187855 0.090303
0.625099 0.186733 0.096281
0.630111 0.185611 0.102259
0.635122 0.184489 0.108237
0.640134 0.183366 0.114216
0.645146 0.182244 0.120194
0.049675 0.078191 0.096278
0.063920 0.080501 0.092771
0.078165 0.082811 0.089264
0.092410 0.085121 0.085758
0.106655 0.087431 0.082251
0.120900 0.089741 0.078744
0.147266 0.100768 0.074470
0.176056 0.113538 0.070043
0.204846 0.126309 0.065615
0.233636 0.139080 0.061187
0.262427 0.151850 0.056760
0.292395 0.162041 0.055417
0.322952 0.170942 0.055617
0.353509 0.179843 0.055816
0.384067 0.188744 0.056016
0.414624 0.197645 0.056216
0.442309 0.203087 0.057611
0.467121 0.205071 0.060201
0.491934 0.207054 0.062792
0.516746 0.209038 0.065382
0.541558 0.211022 0.067973
0.562379 0.211464 0.071314
0.575215 0.208825 0.076158
0.588051 0.206186 0.081002
0.600887 0.203547 0.085846
0.613723 0.200907 0.090690
0.625288 0.198503 0.095759
0.630498 0.197271 0.101953
0.635708 0.196039 0.108148
0.640918 0.194807 0.114343
0.646127 0.193575 0.120537
0.651337 0.192343 0.126732
0.048730 0.081925 0.100768
0.062719 0.083942 0.097389
0.076707 0.085960 0.094011
0.090696 0.087977 0.090632
0.104685 0.089994 0.087253
0.118674 0.092011 0.083875
0.144532 0.102646 0.079759
0.172764 0.115005 0.075496
0.200996 0.127364 0.071233
0.229229 0.139723 0.066970
0.257461 0.152082 0.062707
0.287835 0.163002 0.061194
0.319279 0.173202 0.061055
0.350724 0.183401 0.060916
0.382169 0.193601 0.060778
0.413613 0.203801 0.060639
0.441847 0.210140 0.061929
0.466870 0.212618 0.064647
0.491892 0.215095 0.067366
0.516915 0.217573 0.070084
0.541938 0.220051 0.072803
0.563054 0.220850 0.076312
0.576357 0.218293 0.081403
0.589659 0.215736 0.086494
0.602962 0.213179 0.091584
0.616265 0.210623 0.096675
0.628304 0.208309 0.101975
0.634026 0.207215 0.108316
0.639748 0.206120 0.114657
0.645470 0.205025 0.120998
0.651192 0.203931 0.127339
0.656914 0.202836 0.133680
0.047784 0.085659 0.105258
0.061517 0.087384 0.102008
0.075250 0.089108 0.098757
0.088982 0.090832 0.095506
0.102715 0.092557 0.092256
0.116448 0.094281 0.089005
0.141798 0.104525 0.085048
0.169472 0.116472 0.080950
0.197147 0.128419 0.076852
0.224821 0.140366 0.072753
0.252495 0.152314 0.068655
0.283274 0.163962 0.066971
0.315606 0.175461 0.066494
0.347938 0.186960 0.066016
0.380270 0.198459 0.065539
0.412602 0.209958 0.065062
0.441385 0.217193 0.066247
0.466618 0.220165 0.069093
0.491851 0.223137 0.071940
0.517084 0.226108 0.074786
0.542318 0.229080 0.077633
0.563730 0.230236 0.081310
0.577499 0.227761 0.086648
0.591268 0.225287 0.091985
0.605037 0.222812 0.097323
0.618806 0.220338 0.102661
0.631320 0.218116 0.108191
0.637554 0.217159 0.114678
0.643789 0.216201 0.121166
0.650023 0.215244 0.127653
0.656257 0.214286 0.134140
0.662492 0.213329 0.140628
0.046839 0.089393 0.109748
0.060316 0.090825 0.106626
0.073792 0.092256 0.103503
0.087269 0.093688 0.100381
0.100745 0.095120 0.097258
0.114222 0.096551 0.094136
0.139065 0.106403 0.090337
0.166181 0.117939 0.086404
0.193297 0.129474 0.082470
0.220413 0.141010 0.078536
0.247529 0.152545 0.074603
0.278714 0.164923 0.072748
0.311933 0.177721 0.071932
0.345153 0.190519 0.071116
0.378372 0.203317 0.070301
0.411592 0.216115 0.069485
0.440923 0.224246 0.070564
0.466367 0.227712 0.073539
0.491810 0.231178 0.076514
0.517254 0.234643 0.079488
0.542697 0.238109 0.082463
0.564405 0.239622 0.086308
0.578641 0.237229 0.091892
0.592877 0.234837 0.097477
0.607112 0.232445 0.103062
0.621348 0.230053 0.108647
0.634336 0.227923 0.114407
0.641082 0.227102 0.121040
0.647829 0.226282 0.127674
0.654576 0.225462 0.134308
0.661322 0.224642 0.140942
0.668069 0.223821 0.147576
0.045894 0.093127 0.114238
0.059114 0.094266 0.111244
0.072335 0.095405 0.108250
0.085555 0.096544 0.105255
0.098775 0.097683 0.102261
0.111996 0.098822 0.099266
0.136331 0.108281 0.095626
0.162889 0.119405 0.091857
0.189447 0.130529 0.088088
0.216005 0.141653 0.084319
0.242563 0.152777 0.080551
0.274154 0.165883 0.078525
0.308260 0.179980 0.077371
0.342367 0.194077 0.076216
0.376474 0.208174 0.075062
0.410581 0.222271 0.073908
0.440461 0.231300 0.074882
0.466115 0.235259 0.077985
0.491769 0.239219 0.081088
0.517423 0.243178 0.084190
0.543077 0.247138 0.087293
0.565080 0.249008 0.091305
0.579783 0.246698 0.097137
0.594485 0.244388 0.102969
0.609187 0.242078 0.108801
0.623890 0.239768 0.114633
0.637351 0.237729 0.120623
0.644610 0.237046 0.127403
0.651869 0.236363 0.134183
0.659128 0.235680 0.140963
0.666387 0.234997 0.147743
0.673646 0.234314 0.154524
0.045421 0.097192 0.118941
0.058413 0.098102 0.116075
0.071405 0.099012 0.113209
0.084396 0.099922 0.110342
0.097388 0.100833 0.107476
0.110380 0.101743 0.104609
0.134200 0.110471 0.101124
0.160186 0.120762 0.097515
0.186173 0.131054 0.093907
0.212159 0.141345 0.090298
0.238146 0.151637 0.086689
0.269707 0.164663 0.084698
0.304056 0.179058 0.083516
0.338405 0.193452 0.082335
0.372755 0.207846 0.081153
0.407104 0.222241 0.079972
0.437366 0.231923 0.081010
0.463541 0.236894 0.084268
0.489717 0.241864 0.087526
0.515892 0.246834 0.090785
0.542068 0.251805 0.094043
0.564585 0.254550 0.098192
0.579786 0.252844 0.104125
0.594987 0.251137 0.110057
0.610188 0.249431 0.115990
0.625388 0.247725 0.121922
0.639362 0.246262 0.128010
0.647202 0.246014 0.134872
0.655042 0.245765 0.141735
0.662882 0.245517 0.148597
0.670722 0.245268 0.155460
0.678562 0.245019 0.162322
0.045421 0.101587 0.123857
0.058212 0.102333 0.121118
0.071002 0.103078 0.118380
0.083792 0.103824 0.115642
0.096583 0.104570 0.112904
0.109373 0.105315 0.110165
0.132672 0.112971 0.106831
0.158073 0.122009 0.103378
0.183474 0.131048 0.099924
0.208875 0.140086 0.096471
0.234276 0.149124 0.093018
0.265374 0.161263 0.091268
0.299321 0.174953 0.090370
0.333267 0.188643 0.089472
0.367214 0.202333 0.088574
0.401161 0.216023 0.087676
0.431638 0.226117 0.088947
0.458646 0.232615 0.092388
0.485654 0.239113 0.095830
0.512661 0.245612 0.099271
0.539669 0.252110 0.102712
0.562918 0.256248 0.106968
0.578650 0.255667 0.112855
0.594381 0.255086 0.118742
0.610113 0.254505 0.124629
0.625844 0.253925 0.130515
0.640369 0.253521 0.136568
0.648858 0.254004 0.143448
0.657347 0.254488 0.150329
0.665837 0.254971 0.157210
0.674326 0.255454 0.164091
0.682815 0.255938 0.170972
0.045421 0.105983 0.128772
0.058010 0.106564 0.126162
0.070600 0.107145 0.123552
0.083189 0.107726 0.120942
0.095778 0.108306 0.118331
0.108367 0.108887 0.115721
0.131145 0.115472 0.112538
0.155960 0.123257 0.109240
0.180776 0.131042 0.105942
0.205591 0.138826 0.102644
0.230406 0.146611 0.099347
0.261041 0.157863 0.097838
0.294585 0.170849 0.097223
0.328129 0.183835 0.096609
0.361673 0.196820 0.095994
0.395217 0.209806 0.095380
0.425910 0.220311 0.096885
0.453750 0.228337 0.100509
0.481590 0.236363 0.104133
0.509431 0.244389 0.107757
0.537271 0.252415 0.111381
0.561252 0.257947 0.115744
0.577514 0.258491 0.121585
0.593776 0.259035 0.127426
0.610038 0.259580 0.133267
0.626300 0.260124 0.139108
0.641375 0.260780 0.145126
0.650514 0.261995 0.152025
0.659653 0.263210 0.158924
0.668792 0.264425 0.165823
0.677930 0.265641 0.172722
0.687069 0.266856 0.179621
0.045421 0.110379 0.133688
0.057809 0.110795 0.131206
0.070197 0.111211 0.128724
0.082585 0.111627 0.126241
0.094973 0.112043 0.123759
0.107361 0.112460 0.121277
0.129617 0.117972 0.118245
0.153847 0.124504 0.115102
0.178077 0.131035 0.111960
0.202307 0.137567 0.108818
0.226537 0.144099 0.105675
0.256708 0.154463 0.104407
0.289849 0.166745 0.104077
0.322991 0.179026 0.103746
0.356133 0.191307 0.103415
0.389274 0.203588 0.103084
0.420181 0.214505 0.104822
0.448854 0.224059 0.108629
0.477527 0.233612 0.112436
0.506200 0.243166 0.116243
0.534873 0.252720 0.120050
0.559585 0.259645 0.124520
0.576378 0.261315 0.130316
0.593171 0.262984 0.136111
0.609963 0.264654 0.141906
0.626756 0.266323 0.147701
0.642381 0.268039 0.153684
0.652170 0.269986 0.160601
0.661958 0.271933 0.167518
0.671746 0.273880 0.174436
0.681535 0.275827 0.181353
0.691323 0.277774 0.188271
0.045421 0.114774 0.138603
0.057608 0.115026 0.136249
0.069795 0.115277 0.133895
0.081981 0.115529 0.131541
0.094168 0.115780 0.129187
0.106354 0.116032 0.126833
0.128089 0.120473 0.123952
0.151734 0.125751 0.120965
0.175378 0.131029 0.117978
0.199023 0.136308 0.114991
0.222667 0.141586 0.112004
0.252375 0.151063 0.110977
0.285114 0.162640 0.110930
0.317853 0.174217 0.110883
0.350592 0.185794 0.110835
0.383331 0.197370 0.110788
0.414453 0.208699 0.112760
0.443959 0.219781 0.116750
0.473464 0.230862 0.120740
0.502969 0.241943 0.124730
0.532474 0.253024 0.128720
0.557919 0.261344 0.133296
0.575242 0.264138 0.139046
0.592565 0.266933 0.144795
0.609889 0.269728 0.150545
0.627212 0.272522 0.156294
0.643388 0.275298 0.162241
0.653825 0.277977 0.169177
0.664263 0.280655 0.176113
0.674701 0.283334 0.183049
0.685139 0.286013 0.189984
0.695577 0.288692 0.196920
0.045500 0.119217 0.143724
0.057531 0.119398 0.141504
0.069562 0.119580 0.139284
0.081593 0.119761 0.137064
0.093624 0.119943 0.134844
0.105656 0.120124 0.132624
0.127009 0.123720 0.129857
0.150226 0.127998 0.126980
0.173444 0.132276 0.124103
0.196661 0.136554 0.121225
0.219879 0.140832 0.118348
0.249265 0.149503 0.117504
0.281736 0.160369 0.117677
0.314207 0.171235 0.117849
0.346678 0.182101 0.118021
0.379148 0.192968 0.118193
0.410452 0.204455 0.120387
0.440589 0.216564 0.124603
0.470725 0.228673 0.128819
0.500862 0.240782 0.133034
0.530998 0.252891 0.137250
0.557036 0.262353 0.142036
0.574878 0.266523 0.147962
0.592719 0.270693 0.153889
0.610561 0.274863 0.159815
0.628403 0.279033 0.165742
0.645104 0.283083 0.171828
0.656103 0.286534 0.178715
0.667102 0.289984 0.185602
0.678101 0.293434 0.192489
0.689100 0.296884 0.199376
0.700098 0.300335 0.206263
0.045736 0.123754 0.149254
0.057703 0.124055 0.147180
0.069671 0.124355 0.145107
0.081638 0.124655 0.143033
0.093605 0.124956 0.140959
0.105572 0.125256 0.138886
0.126823 0.128460 0.136158
0.149931 0.132244 0.133299
0.173038 0.136028 0.130441
0.196146 0.139812 0.127582
0.219254 0.143597 0.124723
0.248604 0.151620 0.123946
0.281074 0.161764 0.124210
0.313545 0.171908 0.124474
0.346016 0.182051 0.124737
0.378487 0.192195 0.125001
0.409905 0.203335 0.127396
0.440270 0.215471 0.131923
0.470635 0.227607 0.136450
0.501000 0.239744 0.140976
0.531366 0.251880 0.145503
0.557721 0.261986 0.150704
0.576056 0.268031 0.157252
0.594392 0.274077 0.163801
0.612728 0.280122 0.170349
0.631063 0.286167 0.176898
0.648240 0.291922 0.183472
0.659623 0.296223 0.190176
0.671006 0.300524 0.196880
0.682390 0.304825 0.203584
0.693773 0.309126 0.210288
0.705156 0.313427 0.216992
0.045973 0.128292 0.154784
0.057876 0.128711 0.152856
0.069779 0.129130 0.150929
0.081682 0.129550 0.149002
0.093585 0.129969 0.147075
0.105488 0.130388 0.145148
0.126637 0.133200 0.142459
0.149635 0.136490 0.139619
0.172633 0.139780 0.136779
0.195631 0.143071 0.133938
0.218629 0.146361 0.131098
0.247942 0.153738 0.130388
0.280413 0.163159 0.130743
0.312884 0.172580 0.131098
0.345354 0.182001 0.131453
0.377825 0.191422 0.131809
0.409357 0.202214 0.134405
0.439951 0.214378 0.139243
0.470545 0.226542 0.144081
0.501139 0.238705 0.148918
0.531733 0.250869 0.153756
0.558405 0.261619 0.159372
0.577235 0.269539 0.166542
0.596065 0.277460 0.173713
0.614894 0.285380 0.180883
0.633724 0.293301 0.188054
0.651376 0.300760 0.195116
0.663144 0.305912 0.201637
0.674911 0.311064 0.208158
0.686678 0.316216 0.214679
0.698446 0.321368 0.221200
0.710213 0.326519 0.227721
0.046209 0.132829 0.160314
0.058048 0.133367 0.158533
0.069887 0.133906 0.156752
0.081726 0.134444 0.154971
0.093565 0.134982 0.153190
0.105404 0.135520 0.151409
0.126451 0.137940 0.148761
0.149339 0.140736 0.145939
0.172227 0.143533 0.143117
0.195115 0.146329 0.140294
0.218004 0.149125 0.137472
0.247280 0.155856 0.136829
0.279751 0.164554 0.137276
0.312222 0.173252 0.137723
0.344693 0.181951 0.138170
0.377163 0.190649 0.138616
0.408810 0.201093 0.141414
0.439633 0.213285 0.146563
0.470455 0.225476 0.151712
0.501278 0.237667 0.156860
0.532100 0.249858 0.162009
0.559090 0.261251 0.168039
0.578414 0.271047 0.175832
0.597737 0.280843 0.183624
0.617061 0.290639 0.191417
0.636384 0.300435 0.199209
0.654513 0.309599 0.206760
0.666664 0.315601 0.213098
0.678816 0.321604 0.219436
0.690967 0.327606 0.225774
0.703119 0.333609 0.232112
0.715270 0.339612 0.238450
0.046445 0.137367 0.165843
0.058220 0.138024 0.164209
0.069995 0.138681 0.162575
0.081770 0.139338 0.160940
0.093545 0.139995 0.159306
0.105320 0.140652 0.157671
0.126265 0.142680 0.155062
0.149043 0.144983 0.152258
0.171822 0.147285 0.149455
0.194600 0.149587 0.146651
0.217379 0.151889 0.143847
0.246619 0.157974 0.143271
0.279089 0.165949 0.143809
0.311560 0.173925 0.144348
0.344031 0.181900 0.144886
0.376502 0.189876 0.145424
0.408263 0.199973 0.148423
0.439314 0.212191 0.153883
0.470365 0.224410 0.159343
0.501417 0.236629 0.164802
0.532468 0.248847 0.170262
0.559775 0.260884 0.176707
0.579592 0.272555 0.185122
0.599410 0.284226 0.193536
0.619227 0.295898 0.201951
0.639045 0.307569 0.210365
0.657649 0.318437 0.218403
0.670185 0.325290 0.224559
0.682720 0.332144 0.230714
0.695256 0.338997 0.236869
0.707792 0.345851 0.243024
0.720328 0.352704 0.249179
0.046650 0.141384 0.171641
0.058378 0.142174 0.170129
0.070106 0.142964 0.168616
0.081833 0.143753 0.167104
0.093561 0.144543 0.165591
0.105289 0.145333 0.164079
0.126159 0.147049 0.161498
0.148858 0.148950 0.158703
0.171558 0.150851 0.155909
0.194257 0.152753 0.153114
0.216956 0.154654 0.150319
0.246209 0.160221 0.149809
0.278739 0.167620 0.150442
0.311270 0.175019 0.151075
0.343800 0.182418 0.151708
0.376330 0.189817 0.152340
0.408254 0.199663 0.155535
0.439570 0.211955 0.161292
0.470887 0.224246 0.167049
0.502203 0.236538 0.172807
0.533520 0.248830 0.178564
0.561150 0.261454 0.185387
0.581406 0.274741 0.194343
0.601663 0.288029 0.203299
0.621920 0.301316 0.212255
0.642177 0.314604 0.221211
0.661197 0.326973 0.229693
0.674034 0.334755 0.235807
0.686872 0.342537 0.241921
0.699710 0.350319 0.248035
0.712547 0.358101 0.254148
0.725385 0.365883 0.260262
0.046697 0.142802 0.178778
0.058462 0.143793 0.177266
0.070226 0.144784 0.175753
0.081990 0.145775 0.174241
0.093755 0.146766 0.172728
0.105519 0.147757 0.171216
0.126457 0.149560 0.168604
0.149229 0.151525 0.165773
0.172001 0.153491 0.162942
0.194774 0.155456 0.160110
0.217546 0.157421 0.157279
0.247062 0.163113 0.156830
0.279949 0.170668 0.157573
0.312836 0.178222 0.158315
0.345722 0.185777 0.159058
0.378609 0.193332 0.159800
0.410935 0.203406 0.163165
0.442700 0.216000 0.169150
0.474465 0.228593 0.175136
0.506230 0.241187 0.181122
0.537995 0.253781 0.187108
0.565978 0.266712 0.194130
