filter/Red and Blue 2/lut/Midnight 01_S.cube
# LUT by SparkleStock. Enhanced with VOXCOLOR algorithms.
LUT_3D_SIZE 8
DOMAIN_MIN 0.000000 0.000000 0.000000
DOMAIN_MAX 0.903226 0.903226 0.903226
0.054701 0.046886 0.046886
0.098751 0.044240 0.044807
0.159140 0.044137 0.042058
0.231612 0.046107 0.040529
0.310875 0.050171 0.041569
0.385175 0.058868 0.045918
0.450494 0.072291 0.051684
0.514632 0.088400 0.059475
0.054323 0.058041 0.066170
0.113010 0.062420 0.052820
0.190523 0.075253 0.045851
0.283463 0.090029 0.043554
0.384882 0.101979 0.044887
0.470452 0.109212 0.051577
0.527892 0.114585 0.061881
0.571441 0.122041 0.075203
0.052070 0.069195 0.083580
0.112123 0.077593 0.068187
0.203919 0.106964 0.055135
0.313291 0.139360 0.048579
0.426291 0.161671 0.050723
0.520540 0.168374 0.059548
0.577358 0.165420 0.074268
0.612690 0.163366 0.092962
0.048730 0.081925 0.100768
0.104685 0.089994 0.087253
0.200996 0.127364 0.071233
0.319279 0.173202 0.061055
0.441847 0.210140 0.061929
0.541938 0.220051 0.072803
0.602962 0.213179 0.091584
0.639748 0.206120 0.114657
0.045421 0.097192 0.118941
0.097388 0.100833 0.107476
0.186173 0.131054 0.093907
0.304056 0.179058 0.083516
0.437366 0.231923 0.081010
0.542068 0.251805 0.094043
0.610188 0.249431 0.115990
0.655042 0.245765 0.141735
0.045421 0.114774 0.138603
0.094168 0.115780 0.129187
0.175378 0.131029 0.117978
0.285114 0.162640 0.110930
0.414453 0.208699 0.112760
0.532474 0.253024 0.128720
0.609889 0.269728 0.150545
0.664263 0.280655 0.176113
0.046209 0.132829 0.160314
0.093565 0.134982 0.153190
0.172227 0.143533 0.143117
0.279751 0.164554 0.137276
0.408810 0.201093 0.141414
0.532100 0.249858 0.162009
0.617061 0.290639 0.191417
0.678816 0.321604 0.219436
0.046745 0.144220 0.185915
0.093948 0.148989 0.179865
0.172445 0.156130 0.169975
0.281158 0.173715 0.164704
0.413617 0.207149 0.170794
0.542470 0.258731 0.195652
0.632565 0.313754 0.230563
0.697645 0.361858 0.263626
0.051865 0.061066 0.085832
0.108942 0.054613 0.062237
0.180076 0.051950 0.060469
0.264856 0.053760 0.068089
0.358920 0.060478 0.075661
0.440977 0.072980 0.078984
0.503565 0.091673 0.079701
0.559464 0.112868 0.083778
0.049730 0.075587 0.098383
0.098101 0.094971 0.106918
0.186936 0.110006 0.113348
0.301333 0.122707 0.118254
0.424679 0.134237 0.121940
0.523446 0.142895 0.123526
0.583687 0.150686 0.122245
0.619025 0.159852 0.120899
0.048728 0.090937 0.116732
0.092619 0.122796 0.133955
0.194935 0.161401 0.137704
0.326801 0.195330 0.138199
0.462411 0.216855 0.141848
0.570400 0.224611 0.145101
0.632931 0.222761 0.147120
0.663608 0.219443 0.148971
0.047998 0.106863 0.137958
0.087782 0.141074 0.154718
0.192477 0.194601 0.152721
0.331552 0.248283 0.147842
0.476785 0.287259 0.150349
0.590134 0.299714 0.157144
0.658160 0.293952 0.164929
0.694682 0.284225 0.173622
0.047086 0.123392 0.160064
0.080955 0.153190 0.177245
0.174482 0.203886 0.171786
0.311677 0.265737 0.161478
0.470116 0.326207 0.159290
0.590045 0.352033 0.170114
0.665896 0.352197 0.183866
0.714037 0.347090 0.199264
0.046793 0.141852 0.183532
0.075516 0.165163 0.202421
0.154806 0.197195 0.195612
0.278027 0.242284 0.182083
0.431986 0.300439 0.176682
0.574640 0.357281 0.190319
0.661919 0.381205 0.208653
0.723329 0.396532 0.228864
0.047288 0.162981 0.209170
0.075244 0.186796 0.232373
0.145465 0.204357 0.226486
0.257673 0.229085 0.210978
0.404669 0.270442 0.202141
0.554253 0.332724 0.216900
0.657005 0.387943 0.241995
0.730319 0.429467 0.266767
0.049038 0.182007 0.239358
0.076930 0.208132 0.266127
0.143711 0.220692 0.263084
0.251252 0.234699 0.247934
0.394697 0.262850 0.236665
0.546949 0.321085 0.250881
0.658151 0.388911 0.279859
0.736671 0.446274 0.310337
0.048761 0.077924 0.123707
0.093672 0.072435 0.102130
0.180394 0.066397 0.088674
0.284280 0.065760 0.090219
0.386329 0.074133 0.106422
0.476040 0.090440 0.111002
0.539421 0.113452 0.107567
0.592285 0.139885 0.108776
0.047462 0.095189 0.136575
0.086088 0.117330 0.156656
0.182570 0.128452 0.167638
0.309980 0.137711 0.177380
0.443518 0.150641 0.188929
0.550321 0.163054 0.188575
0.614508 0.176244 0.177693
0.650647 0.192091 0.164954
0.047070 0.114921 0.156010
0.084991 0.152292 0.189328
0.182494 0.192775 0.214539
0.317847 0.225604 0.230677
0.467874 0.244788 0.237726
0.590131 0.256034 0.237351
0.663808 0.261029 0.229195
0.700899 0.264685 0.217122
0.047413 0.135424 0.180176
0.083851 0.178124 0.213598
0.175136 0.241040 0.242612
0.311112 0.298018 0.258585
0.473852 0.332485 0.259225
0.607289 0.349154 0.262532
0.692201 0.351629 0.262068
0.739786 0.348199 0.258291
0.048237 0.155989 0.207460
0.079092 0.196768 0.239403
0.158441 0.262790 0.263845
0.291604 0.332941 0.271623
0.467400 0.390713 0.262848
0.609947 0.423229 0.271231
0.704026 0.432704 0.279307
0.765321 0.432612 0.285869
0.048896 0.179371 0.236703
0.075567 0.214465 0.270096
0.138670 0.265458 0.292341
0.253831 0.321456 0.292744
0.421547 0.377038 0.272804
0.593976 0.444815 0.279553
0.700708 0.478867 0.294518
0.776032 0.498572 0.309921
0.050083 0.205803 0.269189
0.077895 0.242404 0.308060
0.131629 0.280115 0.331286
0.231430 0.314843 0.328105
0.384289 0.349634 0.300767
0.561727 0.418581 0.299988
0.688104 0.486121 0.318308
0.777961 0.534198 0.338991
0.053417 0.232927 0.307635
0.083393 0.272835 0.351217
0.134580 0.305651 0.376901
0.227007 0.328218 0.374087
0.369417 0.345758 0.344594
0.543167 0.399933 0.335386
0.678393 0.476056 0.352666
0.774187 0.538939 0.376861
0.046729 0.096593 0.163740
0.073490 0.095068 0.152043
0.153934 0.088779 0.131386
0.269313 0.086433 0.119261
0.398037 0.094121 0.124849
0.494445 0.114173 0.134674
0.562051 0.140746 0.131981
0.616323 0.171722 0.133937
0.046723 0.116103 0.179706
0.076406 0.137232 0.204634
0.163509 0.145212 0.216686
0.292839 0.150736 0.224063
0.442950 0.161474 0.231691
0.556402 0.179718 0.234929
0.626554 0.200312 0.220492
0.669367 0.224751 0.203531
0.047062 0.141258 0.202412
0.081153 0.175784 0.240895
0.162898 0.213589 0.280789
0.291334 0.241580 0.306181
0.453714 0.254520 0.310119
0.588432 0.271490 0.311690
0.673840 0.286289 0.299313
0.722919 0.301111 0.281107
0.048383 0.168830 0.230896
0.084742 0.210157 0.271111
0.157550 0.272974 0.324439
0.279143 0.326809 0.359683
0.446102 0.354484 0.361923
0.599611 0.373786 0.363267
0.703570 0.386203 0.358129
0.767937 0.393722 0.347403
0.050968 0.196883 0.264099
0.085731 0.240462 0.303160
0.150638 0.310217 0.352580
0.264156 0.382298 0.386035
0.428887 0.438719 0.390446
0.597378 0.468363 0.389801
0.716796 0.485537 0.391259
0.798288 0.492977 0.390214
0.054188 0.227400 0.300904
0.087251 0.268676 0.341377
0.138121 0.328776 0.387052
0.233330 0.391745 0.411223
0.386731 0.448725 0.402254
0.584822 0.511627 0.393035
0.717050 0.550819 0.401524
0.811649 0.573613 0.411369
0.058028 0.261770 0.342009
0.094644 0.305558 0.387349
0.139523 0.356615 0.432543
0.219905 0.402750 0.452013
0.354112 0.440805 0.434680
0.550483 0.499878 0.411220
0.702332 0.569359 0.417814
0.811794 0.618121 0.431712
0.064681 0.297086 0.389458
0.106039 0.344335 0.438173
0.151111 0.391707 0.483331
0.224597 0.427246 0.501585
0.344911 0.448731 0.482188
0.529551 0.488286 0.448527
0.687447 0.561112 0.448305
0.801955 0.621956 0.461445
0.046398 0.116633 0.208051
0.062218 0.120652 0.204001
0.105828 0.119647 0.190370
0.212940 0.118462 0.165392
0.384735 0.122637 0.135936
0.499128 0.145836 0.147682
0.575861 0.175632 0.151591
0.634782 0.210005 0.159420
0.046923 0.138613 0.227640
0.069150 0.160980 0.254238
0.126364 0.171212 0.267639
0.242430 0.174233 0.264926
0.414831 0.177104 0.250161
0.545999 0.200648 0.255689
0.626260 0.229498 0.245613
0.678944 0.262176 0.234310
0.048713 0.170554 0.256819
0.076705 0.201710 0.294817
0.136657 0.235244 0.336175
0.250995 0.255611 0.356666
0.420429 0.258775 0.347749
0.571520 0.280149 0.351025
0.667789 0.305279 0.342131
0.730260 0.332181 0.329103
0.052061 0.207870 0.292424
0.085807 0.244732 0.333209
0.145505 0.298095 0.389794
0.248972 0.342536 0.431105
0.401533 0.364226 0.440136
0.573543 0.380673 0.436653
0.693958 0.401317 0.431456
0.776039 0.421159 0.422631
0.057233 0.246895 0.332200
0.096518 0.289999 0.374747
0.156830 0.349663 0.427734
0.243317 0.416434 0.482750
0.364408 0.476894 0.525865
0.556043 0.490332 0.507910
0.702764 0.509438 0.501874
0.807560 0.524581 0.496214
0.065008 0.285408 0.376891
0.105838 0.330160 0.420779
0.158306 0.384120 0.466870
0.231555 0.448099 0.512939
0.340877 0.516800 0.548832
0.546006 0.557534 0.522571
0.704778 0.592033 0.520530
0.822411 0.615168 0.522884
0.074182 0.329725 0.426735
0.120651 0.376845 0.472787
0.171862 0.424888 0.514955
0.235320 0.478364 0.554964
0.327458 0.535793 0.584339
0.519484 0.571373 0.544756
0.693466 0.628244 0.535128
0.823797 0.670459 0.538162
0.086849 0.372643 0.481023
0.139585 0.421417 0.526568
0.193626 0.466293 0.565281
0.253285 0.511515 0.600495
0.333319 0.556200 0.625149
0.506182 0.577980 0.582612
0.680307 0.633508 0.562283
0.812813 0.682857 0.559764
0.046398 0.139320 0.256828
0.058705 0.149779 0.262731
0.085428 0.158947 0.260608
0.148007 0.162518 0.241497
0.266964 0.162284 0.203076
0.487327 0.185044 0.163593
0.588064 0.219280 0.170796
0.651822 0.256452 0.188383
0.048093 0.167740 0.284906
0.067714 0.194621 0.314885
0.103489 0.212618 0.330011
0.174646 0.219111 0.324138
0.299491 0.216950 0.295421
0.518612 0.231103 0.252667
0.622802 0.266583 0.251097
0.686536 0.306357 0.257550
0.052610 0.206536 0.322160
0.078742 0.240119 0.360578
0.120047 0.273220 0.396126
0.195285 0.292451 0.409927
0.321865 0.293090 0.391374
0.536551 0.297565 0.347869
0.653811 0.330888 0.348239
0.729508 0.368444 0.354994
0.060056 0.253500 0.366584
0.093189 0.289645 0.406174
0.139052 0.333745 0.452772
0.212366 0.369782 0.486002
0.329621 0.387101 0.490053
0.536840 0.384505 0.449148
0.674286 0.413434 0.452208
0.770299 0.445771 0.460852
0.070680 0.305259 0.415270
0.111802 0.343864 0.454767
0.162697 0.389499 0.497607
0.229274 0.440354 0.543640
0.325862 0.487777 0.582441
0.518257 0.488406 0.552814
0.678688 0.512195 0.552529
0.799352 0.537635 0.557268
0.086213 0.352408 0.460546
0.134205 0.394133 0.499231
0.188762 0.440595 0.539282
0.255634 0.492076 0.580127
0.343781 0.546635 0.618618
0.486666 0.592690 0.638364
0.658750 0.614309 0.628362
0.800941 0.631079 0.619265
0.104242 0.403897 0.514391
0.157912 0.446441 0.551859
0.214554 0.488555 0.586654
0.278257 0.532502 0.619987
0.355948 0.579819 0.651342
0.474379 0.631013 0.672384
0.652574 0.666600 0.653659
0.802740 0.692977 0.640289
0.126301 0.451236 0.567892
0.185586 0.493405 0.602025
0.245658 0.532137 0.631828
0.308521 0.569749 0.659305
0.378885 0.608297 0.684697
0.477564 0.650489 0.700811
0.647894 0.686149 0.675782
0.794750 0.716776 0.657179
0.046240 0.165946 0.309859
0.058328 0.185529 0.328399
0.079319 0.206256 0.342627
0.120602 0.222503 0.341773
0.198063 0.230880 0.317181
0.365831 0.232709 0.256841
0.553186 0.265734 0.224016
0.669827 0.304277 0.224155
0.051180 0.203245 0.349841
0.074227 0.238645 0.387867
0.102190 0.266381 0.411344
0.148918 0.285059 0.416204
0.231047 0.293507 0.397109
0.396931 0.288164 0.334083
0.582453 0.314945 0.289828
0.698934 0.354059 0.282619
0.060583 0.250904 0.397548
0.091283 0.290101 0.439291
0.126562 0.326268 0.473074
0.179323 0.352873 0.489155
0.264880 0.364942 0.478445
0.427171 0.356749 0.421568
0.611674 0.376421 0.375776
0.732502 0.411747 0.368515
0.074069 0.305788 0.449032
0.111939 0.344197 0.487853
0.154389 0.384910 0.525826
0.210558 0.420184 0.553059
0.293832 0.442600 0.558753
0.450858 0.437610 0.515502
0.634972 0.450786 0.475273
0.764095 0.479700 0.470612
0.091532 0.364457 0.500591
0.137682 0.402595 0.536188
0.186860 0.441663 0.569411
0.243060 0.482442 0.603047
0.317536 0.520620 0.631553
0.463334 0.527589 0.610517
0.646431 0.536604 0.580116
0.786712 0.558072 0.576311
0.114823 0.420607 0.546819
0.168447 0.458523 0.578507
0.224059 0.496453 0.608626
0.284720 0.535476 0.638322
0.355772 0.575744 0.667540
0.458086 0.614068 0.691231
0.632860 0.625760 0.670846
0.783855 0.640652 0.659142
0.143028 0.472519 0.590699
0.202446 0.510240 0.619834
0.262505 0.545535 0.646669
0.325145 0.580321 0.672243
0.393637 0.616511 0.697555
0.480385 0.657740 0.724097
0.623411 0.687111 0.721081
0.765042 0.707545 0.711354
0.174810 0.519477 0.633848
0.237929 0.554813 0.659107
0.301118 0.587016 0.682348
0.365303 0.617933 0.704460
0.432178 0.649510 0.726298
0.508400 0.685664 0.749121
0.623134 0.719559 0.752704
0.750520 0.741937 0.740823
0.046461 0.195510 0.364764
0.060970 0.225149 0.397349
0.082632 0.257886 0.429265
0.116238 0.288569 0.449965
0.170191 0.311551 0.448617
0.278387 0.313247 0.400132
0.475979 0.327002 0.333362
0.639980 0.355512 0.294595
0.057676 0.242652 0.417335
0.086232 0.285744 0.462205
0.114610 0.322367 0.495109
0.151875 0.353526 0.514079
0.208996 0.377242 0.513717
0.317281 0.376322 0.466281
0.510714 0.383944 0.394991
0.670938 0.409724 0.351594
0.073665 0.299040 0.475521
0.111602 0.342877 0.518155
0.148431 0.382192 0.550955
0.192376 0.416190 0.571431
0.253578 0.441879 0.574348
0.361382 0.443279 0.535445
0.547641 0.447486 0.468551
0.703525 0.469120 0.426621
0.094326 0.360613 0.531791
0.139528 0.400441 0.567068
0.184547 0.439391 0.597322
0.234617 0.475304 0.620223
0.298068 0.504474 0.630604
0.404957 0.512644 0.605147
0.581699 0.515681 0.549688
0.733745 0.532814 0.514071
0.119660 0.423620 0.580833
0.171634 0.460156 0.610176
0.223315 0.495182 0.635382
0.277116 0.529954 0.659531
0.339784 0.563170 0.680464
0.442560 0.581869 0.672545
0.607560 0.586060 0.633383
0.756796 0.599388 0.606650
0.151184 0.483137 0.620712
0.208389 0.516741 0.645683
0.265583 0.548082 0.667845
0.323971 0.578888 0.689055
0.386306 0.610313 0.710406
0.464507 0.642190 0.730718
0.612997 0.652740 0.708863
0.759441 0.664910 0.686122
0.187861 0.533368 0.654238
0.248732 0.564910 0.676509
0.310017 0.593773 0.696942
0.372039 0.621779 0.716552
0.435907 0.650510 0.736374
0.507132 0.681912 0.758325
0.611762 0.707441 0.764157
0.737444 0.723733 0.751311
0.225814 0.575787 0.686005
0.288080 0.604123 0.705115
0.352375 0.630961 0.723957
0.417567 0.657339 0.742617
0.483057 0.684184 0.761290
0.550012 0.712771 0.780763
0.623652 0.743033 0.798167
0.724808 0.761204 0.791377
