filter/Red and Blue 2/lut/Spotlight 03_S.cube
# LUT by SparkleStock. Enhanced with VOXCOLOR algorithms.
LUT_3D_SIZE 8
DOMAIN_MIN 0.000000 0.000000 0.000000
DOMAIN_MAX 0.903226 0.903226 0.903226
0.078144 0.062515 0.113309
0.106503 0.063082 0.117468
0.191106 0.068337 0.121494
0.316594 0.081035 0.128457
0.463185 0.102540 0.140911
0.583804 0.131655 0.162464
0.656371 0.162819 0.189531
0.704478 0.198078 0.217598
0.081547 0.068943 0.123329
0.103905 0.080634 0.127196
0.189868 0.093384 0.124085
0.319747 0.109827 0.121889
0.471022 0.131387 0.127281
0.598374 0.156843 0.148687
0.676576 0.186420 0.184146
0.724787 0.223125 0.226039
0.090709 0.086888 0.145937
0.112353 0.106593 0.153036
0.188514 0.136065 0.151016
0.314524 0.165937 0.145370
0.475718 0.190598 0.143116
0.614676 0.214261 0.163339
0.703558 0.242737 0.206067
0.758020 0.282610 0.261936
0.105313 0.118161 0.182867
0.129092 0.143562 0.195747
0.197962 0.191224 0.204614
0.317591 0.238545 0.204818
0.480813 0.271135 0.198148
0.633688 0.293773 0.212065
0.734059 0.320990 0.256749
0.796906 0.363292 0.320590
0.126181 0.164646 0.234432
0.153472 0.194200 0.254503
0.225530 0.255682 0.283092
0.340867 0.319967 0.300632
0.492770 0.366206 0.298238
0.657172 0.387509 0.298982
0.765959 0.412354 0.336318
0.835679 0.454008 0.397116
0.160778 0.233463 0.298901
0.194656 0.266530 0.325266
0.273612 0.334117 0.372590
0.390546 0.411672 0.419781
0.536175 0.476555 0.448527
0.692379 0.494345 0.434049
0.800532 0.512506 0.446405
0.870417 0.546207 0.486535
0.217275 0.315830 0.369042
0.257740 0.352043 0.399626
0.344198 0.422173 0.455059
0.460992 0.502021 0.514856
0.594017 0.570606 0.561020
0.728974 0.601959 0.569253
0.832894 0.610589 0.558580
0.899188 0.630433 0.570683
0.294844 0.401111 0.446461
0.341975 0.440240 0.480138
0.430576 0.508277 0.534943
0.540466 0.582521 0.593808
0.655362 0.645041 0.642565
0.764003 0.681322 0.666032
0.854171 0.690860 0.655647
0.916146 0.704584 0.652928
0.077388 0.068187 0.135429
0.106625 0.073584 0.136807
0.195943 0.077759 0.140747
0.326565 0.086884 0.148125
0.476431 0.105315 0.159866
0.598660 0.135455 0.178784
0.673325 0.174839 0.205656
0.722122 0.221027 0.237504
0.085328 0.082519 0.146620
0.111397 0.101533 0.156204
0.197844 0.116017 0.160946
0.326427 0.130511 0.164933
0.476473 0.148289 0.171807
0.607474 0.170690 0.186726
0.692836 0.201293 0.213132
0.744456 0.242519 0.249316
0.099027 0.106709 0.171436
0.124807 0.135347 0.183922
0.202148 0.171156 0.190794
0.324833 0.201988 0.192640
0.479280 0.221506 0.192389
0.619753 0.239560 0.204038
0.716616 0.264126 0.233563
0.776735 0.302218 0.278966
0.119145 0.143483 0.210695
0.146682 0.177694 0.225280
0.217103 0.234059 0.237677
0.332112 0.285150 0.242000
0.484523 0.314180 0.237640
0.634825 0.329849 0.242803
0.741974 0.349720 0.272667
0.812173 0.384673 0.323294
0.146892 0.194944 0.264127
0.177828 0.231042 0.282998
0.248635 0.299162 0.305683
0.356581 0.368480 0.319849
0.496089 0.416332 0.319140
0.653469 0.431403 0.313170
0.767432 0.446911 0.335258
0.845671 0.477323 0.380311
0.188369 0.265664 0.330205
0.225778 0.301422 0.355144
0.301524 0.371714 0.393528
0.408536 0.450856 0.428904
0.539205 0.516204 0.447493
0.683743 0.537620 0.432307
0.795353 0.549032 0.431549
0.874771 0.572502 0.454285
0.251135 0.349202 0.401956
0.293224 0.384159 0.429094
0.374992 0.452564 0.477579
0.482009 0.530679 0.527986
0.601961 0.598298 0.563979
0.725138 0.632277 0.566367
0.825808 0.641624 0.545296
0.898315 0.657256 0.542257
0.337785 0.437965 0.480986
0.377214 0.468005 0.505644
0.459727 0.531358 0.555264
0.562459 0.603202 0.609446
0.667802 0.664289 0.652017
0.767114 0.701312 0.669333
0.851666 0.714035 0.653122
0.914993 0.726797 0.641195
0.081319 0.079483 0.181386
0.104280 0.091370 0.186826
0.196446 0.104936 0.188343
0.335582 0.118928 0.192309
0.495838 0.134753 0.202779
0.622891 0.166020 0.218958
0.701485 0.213211 0.244926
0.753537 0.271382 0.281243
0.090790 0.099542 0.196236
0.115664 0.123123 0.210033
0.203260 0.145285 0.221493
0.335303 0.163032 0.230166
0.490502 0.176642 0.236730
0.625317 0.198821 0.246422
0.716687 0.235372 0.266639
0.774094 0.287077 0.299509
0.110132 0.139109 0.225601
0.139266 0.171329 0.241979
0.216939 0.210428 0.258842
0.337420 0.241067 0.269507
0.488532 0.255931 0.271630
0.630420 0.271038 0.276647
0.734246 0.296450 0.294745
0.802564 0.338209 0.328912
0.139556 0.191328 0.268563
0.173192 0.228457 0.285705
0.243442 0.284032 0.305706
0.351324 0.332356 0.317595
0.491794 0.357741 0.316418
0.639336 0.368040 0.314804
0.752863 0.383742 0.329720
0.832764 0.415013 0.363922
0.180078 0.252380 0.323926
0.217252 0.290393 0.342842
0.287085 0.355578 0.366353
0.384478 0.421476 0.381351
0.505500 0.467509 0.380280
0.653625 0.477142 0.368679
0.771754 0.485932 0.375058
0.859961 0.508051 0.402646
0.239321 0.329979 0.391408
0.280366 0.364924 0.413676
0.352737 0.429869 0.447191
0.446532 0.502458 0.475070
0.554595 0.563194 0.484566
0.678971 0.587106 0.465982
0.791718 0.592527 0.451422
0.881103 0.606128 0.457353
0.316651 0.415517 0.462920
0.359116 0.447306 0.485822
0.432983 0.506931 0.525744
0.524514 0.575692 0.565625
0.623203 0.637446 0.591097
0.725597 0.672933 0.584790
0.819507 0.683781 0.554514
0.897980 0.694632 0.537737
0.413755 0.502989 0.537731
0.449113 0.527799 0.557061
0.518258 0.579307 0.596440
0.603566 0.639929 0.640190
0.691352 0.695357 0.674800
0.774451 0.732839 0.683501
0.849576 0.750222 0.661487
0.913594 0.762507 0.640452
0.089858 0.094592 0.247950
0.106525 0.112431 0.259232
0.187844 0.142974 0.266351
0.332117 0.172083 0.266903
0.519696 0.193147 0.263004
0.654361 0.223207 0.275488
0.736663 0.273876 0.299753
0.791992 0.339653 0.339369
0.100110 0.118566 0.266142
0.122948 0.145824 0.282826
0.202780 0.180740 0.302931
0.337516 0.210269 0.315181
0.511360 0.228245 0.315048
0.650859 0.249036 0.319024
0.745732 0.290437 0.333903
0.808046 0.350570 0.364459
0.124872 0.173289 0.300845
0.154999 0.206622 0.319255
0.228885 0.251393 0.345070
0.348621 0.288192 0.363811
0.505417 0.306239 0.367632
0.648889 0.317311 0.366217
0.756213 0.343643 0.374390
0.830760 0.388673 0.398652
0.164005 0.243641 0.347238
0.200711 0.280066 0.365441
0.271417 0.334626 0.392218
0.374999 0.382464 0.412562
0.506749 0.407477 0.417351
0.650681 0.411737 0.410888
0.766962 0.423778 0.413025
0.853983 0.452158 0.431850
0.218077 0.319429 0.402012
0.259464 0.356087 0.419686
0.333047 0.416103 0.445695
0.423065 0.475216 0.464761
0.522731 0.514610 0.467111
0.658777 0.519054 0.454161
0.777618 0.522105 0.448268
0.873312 0.537545 0.459719
0.294445 0.404189 0.467518
0.338674 0.436786 0.486504
0.412467 0.494714 0.516826
0.496306 0.557434 0.541341
0.579641 0.608314 0.547421
0.680294 0.631578 0.527129
0.790687 0.631734 0.503471
0.887273 0.637228 0.496769
0.387273 0.491163 0.535346
0.430131 0.519236 0.553791
0.499658 0.569456 0.585678
0.577521 0.626549 0.616812
0.652247 0.678007 0.634828
0.730945 0.712061 0.622652
0.815603 0.723663 0.588056
0.897932 0.730203 0.562640
0.493050 0.573821 0.601838
0.526990 0.595271 0.617188
0.585494 0.635376 0.646378
0.653545 0.683254 0.679384
0.720446 0.729742 0.706277
0.784854 0.765588 0.708805
0.848713 0.786864 0.683954
0.912254 0.799021 0.657466
0.103116 0.112340 0.330970
0.118027 0.134185 0.346314
0.173342 0.184883 0.370428
0.311799 0.238776 0.373168
0.533821 0.278570 0.344824
0.689032 0.304788 0.343732
0.775307 0.352316 0.363889
0.831920 0.417491 0.404087
0.114941 0.138692 0.350278
0.137638 0.169815 0.368687
0.198618 0.220540 0.399878
0.328735 0.271285 0.416792
0.527266 0.308031 0.406575
0.681660 0.325703 0.397938
0.778195 0.366456 0.406037
0.842006 0.426939 0.433990
0.144426 0.202494 0.389519
0.172986 0.236651 0.408119
0.238431 0.292018 0.440262
0.356310 0.345020 0.465741
0.524003 0.378642 0.471672
0.675392 0.385371 0.460724
0.782265 0.409110 0.459605
0.857840 0.452065 0.476234
0.191575 0.288037 0.438084
0.225844 0.322262 0.454831
0.298070 0.381042 0.484593
0.401399 0.436135 0.512312
0.528552 0.467369 0.526262
0.670828 0.466825 0.516366
0.784740 0.473489 0.508792
0.872785 0.496637 0.515773
0.256191 0.381793 0.489241
0.296857 0.415172 0.503453
0.378363 0.472607 0.530148
0.467177 0.526600 0.554840
0.548520 0.557622 0.566634
0.670756 0.558631 0.558140
0.785361 0.555274 0.545388
0.882988 0.563667 0.544029
0.341212 0.471071 0.547574
0.386860 0.501098 0.562929
0.467604 0.554535 0.589713
0.549067 0.608555 0.613862
0.613118 0.647068 0.623938
0.689891 0.665764 0.607450
0.793400 0.661058 0.582857
0.891901 0.660605 0.569607
0.444021 0.557838 0.607392
0.487426 0.582586 0.621446
0.559138 0.626939 0.646854
0.630724 0.674448 0.672404
0.685944 0.713595 0.687849
0.742057 0.742397 0.676985
0.815579 0.752863 0.645397
0.898070 0.756072 0.618484
0.553790 0.633516 0.662990
0.587902 0.652150 0.674145
0.644242 0.686084 0.696175
0.702796 0.724960 0.721465
0.751350 0.761243 0.742384
0.797910 0.792669 0.744627
0.850074 0.815336 0.722121
0.911337 0.827372 0.696089
0.123156 0.133893 0.423420
0.139384 0.158080 0.440520
0.189278 0.219103 0.473337
0.291973 0.299049 0.502033
0.461027 0.377008 0.504810
0.712987 0.404251 0.429949
0.814656 0.443045 0.434152
0.868725 0.497298 0.470117
0.137323 0.160830 0.441411
0.161564 0.194749 0.460329
0.216145 0.256894 0.496247
0.317147 0.332313 0.530241
0.476197 0.403486 0.541598
0.709096 0.428755 0.481969
0.814300 0.461019 0.476399
0.873971 0.509437 0.499595
0.173297 0.230194 0.481303
0.202343 0.265753 0.499408
0.263733 0.330539 0.534135
0.362188 0.403159 0.569603
0.502630 0.464257 0.588625
0.704247 0.485877 0.552351
0.812865 0.500892 0.538791
0.882601 0.530222 0.547555
0.227972 0.324141 0.531455
0.260385 0.357379 0.547224
0.328501 0.420929 0.577972
0.422085 0.488700 0.610701
0.537389 0.539917 0.632424
0.699231 0.556191 0.618109
0.808802 0.553342 0.600493
0.889996 0.561917 0.597143
0.298296 0.426642 0.582739
0.333990 0.456670 0.595606
0.407478 0.512905 0.621042
0.494380 0.572280 0.647545
0.582161 0.616190 0.665580
0.697136 0.626836 0.664607
0.802621 0.613348 0.647356
0.893474 0.608168 0.636485
0.382878 0.519287 0.629802
0.422421 0.546075 0.640072
0.501157 0.596580 0.660895
0.588055 0.649760 0.682605
0.660867 0.689219 0.697180
0.713267 0.702141 0.695692
0.803012 0.691346 0.678423
0.895286 0.684270 0.662706
0.481345 0.603200 0.677618
0.521194 0.625011 0.686719
0.592899 0.665892 0.704866
0.669107 0.710381 0.724971
0.729427 0.746751 0.740588
0.762942 0.767870 0.742099
0.822381 0.774447 0.721757
0.898871 0.774302 0.699020
0.585357 0.672005 0.720989
0.619383 0.688901 0.728097
0.676839 0.720050 0.743291
0.737129 0.755428 0.761903
0.785426 0.787741 0.779469
0.816536 0.814672 0.788828
0.856659 0.834658 0.775919
0.911825 0.845174 0.756294
0.149340 0.162535 0.507204
0.167618 0.187722 0.524841
0.218696 0.252977 0.562549
0.309800 0.342795 0.604648
0.447950 0.439602 0.633042
0.655536 0.506290 0.603458
0.811487 0.530151 0.538262
0.896545 0.564171 0.527573
0.166215 0.189326 0.524000
0.192826 0.224981 0.544286
0.247242 0.292068 0.582662
0.337028 0.378191 0.625022
0.469120 0.468722 0.655082
0.662915 0.530377 0.633005
0.814954 0.551385 0.569796
0.900288 0.581657 0.554179
0.208698 0.260582 0.564149
0.239553 0.297304 0.583020
0.300732 0.366080 0.618975
0.390054 0.448140 0.658968
0.508438 0.526572 0.688927
0.676822 0.578763 0.678012
0.818484 0.591659 0.623258
0.904463 0.608679 0.602840
0.271235 0.357801 0.615072
0.303893 0.391008 0.630726
0.370148 0.456308 0.661554
0.456703 0.530494 0.695978
0.557407 0.595189 0.722825
0.693803 0.635870 0.722622
0.819710 0.639303 0.681114
0.906230 0.640992 0.658326
0.348136 0.464092 0.666408
0.381527 0.492738 0.678661
0.448481 0.547637 0.702489
0.529114 0.609157 0.728610
0.612062 0.661548 0.749268
0.712618 0.691085 0.755934
0.818185 0.687393 0.730083
0.904257 0.677893 0.708523
0.432401 0.558883 0.709276
0.466429 0.582610 0.718120
0.533804 0.628652 0.735893
0.612445 0.679831 0.755348
0.685155 0.722536 0.770650
0.740493 0.745642 0.776443
0.820244 0.743192 0.762270
0.901423 0.733524 0.743814
0.517398 0.635674 0.745557
0.552441 0.655527 0.753065
0.616834 0.693166 0.766398
0.689034 0.735332 0.781028
0.751932 0.771738 0.793147
0.791656 0.795248 0.798479
0.837858 0.804189 0.790263
0.902210 0.802583 0.773633
0.607913 0.697880 0.778092
0.639371 0.713652 0.783417
0.694451 0.743024 0.793218
0.754492 0.776675 0.804898
0.805419 0.807663 0.816215
0.839263 0.832943 0.824651
0.869023 0.852581 0.823932
0.914242 0.862241 0.813639
0.182591 0.199149 0.578707
0.203143 0.226099 0.597351
0.258043 0.294779 0.639339
0.345402 0.387988 0.689047
0.463888 0.489404 0.731552
0.620757 0.576267 0.742194
0.786587 0.609589 0.675612
0.894654 0.629837 0.621318
0.202168 0.227154 0.595997
0.230289 0.262971 0.616756
0.286995 0.332549 0.657334
0.372414 0.422034 0.704676
0.486429 0.517696 0.745720
0.634568 0.597732 0.756367
0.792781 0.628747 0.694460
0.898206 0.647951 0.641133
0.250523 0.299391 0.638044
0.282581 0.336035 0.657349
0.344435 0.404415 0.693748
0.428710 0.487717 0.735754
0.531134 0.571298 0.772040
0.661132 0.638667 0.782321
0.802713 0.664614 0.730571
0.901943 0.677524 0.679573
0.319621 0.396957 0.690397
0.352648 0.429695 0.706422
0.417150 0.492226 0.736424
0.497971 0.565287 0.770545
0.586252 0.633764 0.799671
0.693836 0.687178 0.809861
0.813298 0.706828 0.771946
0.904381 0.711738 0.725969
0.401380 0.502530 0.741234
0.433240 0.529407 0.753511
0.494758 0.580886 0.775808
0.568632 0.639795 0.800478
0.643968 0.693198 0.821218
0.728111 0.734526 0.831619
0.822876 0.748398 0.809053
0.904884 0.746938 0.771367
0.484639 0.594387 0.780369
0.514799 0.615655 0.789133
0.571898 0.656833 0.805101
0.640195 0.704060 0.822332
0.707260 0.746674 0.836388
0.764665 0.778072 0.844910
0.834072 0.790667 0.834338
0.905335 0.789785 0.806976
0.560960 0.664377 0.808420
0.590542 0.682034 0.815233
0.644723 0.715735 0.826245
0.707692 0.754504 0.837649
0.766826 0.789908 0.846693
0.812247 0.816810 0.852305
0.853803 0.833201 0.850264
0.908333 0.838353 0.832943
0.638161 0.720571 0.832381
0.664404 0.734498 0.836673
0.712330 0.761328 0.843776
0.766814 0.792748 0.851341
0.816291 0.822502 0.857720
0.853921 0.847673 0.862622
0.882169 0.868881 0.865874
0.919779 0.882156 0.858325
