filter/Red and Blue 2/lut/Spotlight 03_S.cube
# LUT by SparkleStock. Enhanced with VOXCOLOR algorithms.
LUT_3D_SIZE 32
0.078144 0.062515 0.113309
0.085234 0.062657 0.114349
0.092323 0.062799 0.115389
0.099413 0.062941 0.116428
0.106503 0.063082 0.117468
0.113593 0.063224 0.118508
0.137225 0.064745 0.119508
0.164166 0.066541 0.120501
0.191106 0.068337 0.121494
0.218047 0.070133 0.122486
0.244988 0.071929 0.123479
0.279018 0.075931 0.125669
0.316594 0.081035 0.128457
0.354169 0.086140 0.131246
0.391744 0.091244 0.134034
0.429320 0.096349 0.136823
0.463185 0.102540 0.140911
0.493340 0.109819 0.146300
0.523494 0.117098 0.151688
0.553649 0.124377 0.157076
0.583804 0.131655 0.162464
0.609154 0.139139 0.168404
0.624893 0.147032 0.175446
0.640632 0.154925 0.182488
0.656371 0.162819 0.189531
0.672110 0.170712 0.196573
0.686707 0.178888 0.203608
0.695593 0.188483 0.210603
0.704478 0.198078 0.217598
0.713364 0.207673 0.224593
0.722250 0.217267 0.231588
0.731136 0.226862 0.238584
0.078995 0.064122 0.115814
0.085709 0.064959 0.116835
0.092424 0.065796 0.117857
0.099139 0.066633 0.118879
0.105853 0.067470 0.119900
0.112568 0.068307 0.120922
0.136366 0.070256 0.121401
0.163582 0.072427 0.121771
0.190797 0.074598 0.122142
0.218012 0.076770 0.122512
0.245227 0.078941 0.122883
0.279532 0.083092 0.124530
0.317382 0.088233 0.126815
0.355232 0.093374 0.129101
0.393082 0.098515 0.131386
0.430931 0.103657 0.133672
0.465144 0.109752 0.137504
0.495720 0.116802 0.142883
0.526295 0.123852 0.148262
0.556871 0.130902 0.153641
0.587446 0.137952 0.159020
0.613189 0.145259 0.165164
0.629267 0.153079 0.172837
0.645345 0.160899 0.180511
0.661422 0.168719 0.188185
0.677500 0.176539 0.195858
0.692333 0.184693 0.203596
0.700944 0.194516 0.211652
0.709555 0.204340 0.219708
0.718167 0.214163 0.227765
0.726778 0.223987 0.235821
0.735389 0.233810 0.243877
0.079846 0.065729 0.118319
0.086185 0.067262 0.119322
0.092525 0.068794 0.120325
0.098864 0.070326 0.121329
0.105204 0.071858 0.122332
0.111543 0.073391 0.123335
0.135508 0.075768 0.123293
0.162998 0.078314 0.123041
0.190487 0.080860 0.122790
0.217977 0.083406 0.122538
0.245467 0.085953 0.122286
0.280046 0.090253 0.123391
0.318170 0.095431 0.125173
0.356295 0.100609 0.126955
0.394419 0.105786 0.128738
0.432543 0.110964 0.130520
0.467103 0.116964 0.134096
0.498100 0.123785 0.139466
0.529096 0.130606 0.144836
0.560092 0.137428 0.150206
0.591089 0.144249 0.155576
0.617225 0.151379 0.161924
0.633641 0.159126 0.170229
0.650057 0.166873 0.178534
0.666473 0.174619 0.186838
0.682889 0.182366 0.195143
0.697959 0.190497 0.203583
0.706296 0.200549 0.212701
0.714633 0.210601 0.221818
0.722969 0.220654 0.230936
0.731306 0.230706 0.240053
0.739643 0.240758 0.249171
0.080696 0.067336 0.120824
0.086661 0.069564 0.121809
0.092625 0.071791 0.122794
0.098590 0.074019 0.123779
0.104554 0.076246 0.124764
0.110519 0.078474 0.125749
0.134650 0.081280 0.125185
0.162414 0.084201 0.124311
0.190178 0.087122 0.123438
0.217942 0.090043 0.122564
0.245706 0.092965 0.121690
0.280560 0.097415 0.122252
0.318959 0.102629 0.123531
0.357357 0.107843 0.124810
0.395756 0.113058 0.126089
0.434154 0.118272 0.127369
0.469062 0.124175 0.130689
0.500480 0.130768 0.136049
0.531897 0.137361 0.141410
0.563314 0.143953 0.146771
0.594731 0.150546 0.152131
0.621261 0.157499 0.158684
0.638015 0.165173 0.167620
0.654770 0.172846 0.176556
0.671524 0.180520 0.185492
0.688279 0.188194 0.194428
0.703585 0.196302 0.203571
0.711647 0.206582 0.213750
0.719710 0.216863 0.223929
0.727772 0.227144 0.234107
0.735835 0.237425 0.244286
0.743897 0.247706 0.254465
0.081547 0.068943 0.123329
0.087137 0.071866 0.124296
0.092726 0.074789 0.125262
0.098315 0.077712 0.126229
0.103905 0.080634 0.127196
0.109494 0.083557 0.128162
0.133791 0.086791 0.127077
0.161830 0.090088 0.125581
0.189868 0.093384 0.124085
0.217907 0.096680 0.122590
0.245945 0.099976 0.121094
0.281074 0.104576 0.121113
0.319747 0.109827 0.121889
0.358420 0.115078 0.122665
0.397093 0.120329 0.123441
0.435766 0.125580 0.124217
0.471022 0.131387 0.127281
0.502860 0.137751 0.132632
0.534698 0.144115 0.137984
0.566536 0.150479 0.143336
0.598374 0.156843 0.148687
0.625297 0.163619 0.155444
0.642390 0.171219 0.165011
0.659483 0.178820 0.174579
0.676576 0.186420 0.184146
0.693669 0.194021 0.193713
0.709211 0.202106 0.203559
0.716999 0.212616 0.214799
0.724787 0.223125 0.226039
0.732575 0.233635 0.237279
0.740363 0.244144 0.248518
0.748151 0.254654 0.259758
0.082398 0.070550 0.125834
0.087612 0.074168 0.126782
0.092827 0.077786 0.127731
0.098041 0.081404 0.128679
0.103255 0.085022 0.129627
0.108470 0.088640 0.130576
0.132933 0.092303 0.128969
0.161246 0.095974 0.126851
0.189559 0.099646 0.124733
0.217872 0.103317 0.122616
0.246185 0.106988 0.120498
0.281588 0.111737 0.119974
0.320535 0.117025 0.120247
0.359483 0.122312 0.120520
0.398430 0.127600 0.120793
0.437378 0.132887 0.121066
0.472981 0.138599 0.123873
0.505240 0.144734 0.129216
0.537498 0.150869 0.134558
0.569757 0.157004 0.139901
0.602016 0.163140 0.145243
0.629332 0.169739 0.152204
0.646764 0.177266 0.162403
0.664195 0.184794 0.172601
0.681627 0.192321 0.182800
0.699058 0.199848 0.192998
0.714837 0.207910 0.203547
0.722350 0.218649 0.215848
0.729864 0.229387 0.228149
0.737378 0.240125 0.240450
0.744891 0.250863 0.252751
0.752405 0.261601 0.265052
0.084942 0.075545 0.132041
0.090170 0.079629 0.133231
0.095398 0.083714 0.134420
0.100627 0.087798 0.135609
0.105855 0.091883 0.136798
0.111083 0.095967 0.137988
0.134678 0.100897 0.136525
0.161946 0.105995 0.134532
0.189215 0.111094 0.132540
0.216484 0.116192 0.130547
0.243752 0.121291 0.128554
0.279249 0.126697 0.127711
0.318860 0.132258 0.127443
0.358470 0.137818 0.127174
0.398081 0.143379 0.126906
0.437692 0.148939 0.126638
0.474016 0.154741 0.129132
0.507054 0.160785 0.134389
0.540092 0.166829 0.139646
0.573130 0.172872 0.144903
0.606168 0.178916 0.150160
0.634241 0.185435 0.157247
0.652385 0.192904 0.167993
0.670528 0.200374 0.178739
0.688672 0.207843 0.189484
0.706815 0.215312 0.200230
0.723228 0.223402 0.211427
0.730985 0.234590 0.224881
0.738743 0.245778 0.238335
0.746500 0.256965 0.251788
0.754258 0.268153 0.265242
0.762015 0.279341 0.278695
0.087825 0.081216 0.138989
0.093145 0.085722 0.140471
0.098465 0.090227 0.141953
0.103784 0.094732 0.143435
0.109104 0.099238 0.144917
0.114423 0.103743 0.146399
0.136943 0.110107 0.145214
0.162904 0.116843 0.143496
0.188864 0.123579 0.141778
0.214825 0.130315 0.140059
0.240785 0.137051 0.138341
0.276340 0.143217 0.137224
0.316692 0.149098 0.136406
0.357043 0.154978 0.135589
0.397395 0.160859 0.134772
0.437747 0.166739 0.133955
0.474867 0.172670 0.136124
0.508756 0.178649 0.141281
0.542644 0.184629 0.146437
0.576533 0.190609 0.151593
0.610422 0.196589 0.156750
0.639324 0.203047 0.163946
0.658255 0.210461 0.175223
0.677185 0.217875 0.186499
0.696115 0.225290 0.197776
0.715045 0.232704 0.209052
0.732171 0.240830 0.220886
0.740276 0.252512 0.235511
0.748382 0.264194 0.250136
0.756487 0.275876 0.264760
0.764592 0.287558 0.279385
0.772697 0.299240 0.294009
0.090709 0.086888 0.145937
0.096120 0.091814 0.147712
0.101531 0.096740 0.149487
0.106942 0.101667 0.151261
0.112353 0.106593 0.153036
0.117764 0.111519 0.154811
0.139209 0.119318 0.153903
0.163861 0.127691 0.152459
0.188514 0.136065 0.151016
0.213166 0.144438 0.149572
0.237818 0.152812 0.148128
0.273431 0.159737 0.146736
0.314524 0.165937 0.145370
0.355616 0.172138 0.144004
0.396709 0.178339 0.142638
0.437802 0.184540 0.141271
0.475718 0.190598 0.143116
0.510457 0.196514 0.148172
0.545197 0.202430 0.153228
0.579936 0.208345 0.158284
0.614676 0.214261 0.163339
0.644408 0.220658 0.170646
0.664125 0.228017 0.182453
0.683841 0.235377 0.194260
0.703558 0.242737 0.206067
0.723275 0.250096 0.217874
0.741115 0.258258 0.230345
0.749568 0.270434 0.246141
0.758020 0.282610 0.261936
0.766473 0.294786 0.277732
0.774926 0.306962 0.293527
0.783379 0.319138 0.309323
0.093592 0.092560 0.152885
0.099094 0.097907 0.154953
0.104597 0.103254 0.157020
0.110099 0.108601 0.159087
0.115602 0.113948 0.161155
0.121104 0.119295 0.163222
0.141475 0.128528 0.162592
0.164819 0.138539 0.161423
0.188163 0.148550 0.160254
0.211507 0.158561 0.159084
0.234851 0.168572 0.157915
0.270522 0.176256 0.156248
0.312355 0.182777 0.154333
0.354189 0.189298 0.152418
0.396023 0.195819 0.150503
0.437857 0.202340 0.148588
0.476569 0.208527 0.150108
0.512159 0.214378 0.155064
0.547749 0.220230 0.160019
0.583339 0.226082 0.164974
0.618929 0.231933 0.169929
0.649491 0.238269 0.177345
0.669994 0.245574 0.189683
0.690498 0.252879 0.202020
0.711002 0.260183 0.214358
0.731506 0.267488 0.226695
0.750059 0.275687 0.239804
0.758859 0.288357 0.256771
0.767659 0.301027 0.273737
0.776460 0.313697 0.290704
0.785260 0.326367 0.307670
0.794060 0.339037 0.324637
0.096475 0.098232 0.159833
0.102069 0.103999 0.162193
0.107663 0.109767 0.164553
0.113257 0.115535 0.166914
0.118851 0.121303 0.169274
0.124445 0.127071 0.171634
0.143740 0.137739 0.171281
0.165776 0.149387 0.170386
0.187812 0.161036 0.169491
0.209848 0.172684 0.168597
0.231884 0.184333 0.167702
0.267613 0.192776 0.165761
0.310187 0.199617 0.163297
0.352762 0.206458 0.160833
0.395337 0.213300 0.158369
0.437912 0.220141 0.155905
0.477419 0.226455 0.157101
0.513860 0.232243 0.161955
0.550301 0.238030 0.166810
0.586742 0.243818 0.171664
0.623183 0.249606 0.176519
0.654574 0.255881 0.184044
0.675864 0.263130 0.196913
0.697155 0.270380 0.209781
0.718445 0.277630 0.222649
0.739736 0.284880 0.235517
0.759002 0.293115 0.249263
0.768150 0.306279 0.267401
0.777298 0.319443 0.285538
0.786446 0.332607 0.303676
0.795594 0.345771 0.321813
0.804742 0.358935 0.339950
0.100587 0.107338 0.170436
0.106339 0.113423 0.173199
0.112092 0.119508 0.175961
0.117845 0.125593 0.178724
0.123597 0.131678 0.181487
0.129350 0.137762 0.184249
0.148395 0.149609 0.184909
0.170098 0.162609 0.185149
0.191802 0.175608 0.185388
0.213505 0.188607 0.185628
0.235209 0.201606 0.185867
0.270552 0.210986 0.184247
0.312715 0.218556 0.181698
0.354878 0.226126 0.179149
0.397041 0.233696 0.176599
0.439204 0.241266 0.174050
0.478947 0.247913 0.174918
0.516269 0.253636 0.179202
0.553592 0.259360 0.183486
0.590914 0.265084 0.187771
0.628236 0.270807 0.192055
0.660424 0.277007 0.199215
0.682342 0.284159 0.212126
0.704261 0.291311 0.225036
0.726179 0.298464 0.237947
0.748098 0.305616 0.250858
0.767956 0.313814 0.264717
0.777513 0.327240 0.283318
0.787069 0.340666 0.301919
0.796626 0.354092 0.320520
0.806183 0.367518 0.339121
0.815739 0.380945 0.357722
0.105313 0.118161 0.182867
0.111258 0.124512 0.186087
0.117203 0.130862 0.189307
0.123147 0.137212 0.192527
0.129092 0.143562 0.195747
0.135037 0.149913 0.198967
0.154243 0.162810 0.201007
0.176102 0.177017 0.202810
0.197962 0.191224 0.204614
0.219821 0.205430 0.206418
0.241680 0.219637 0.208221
0.276416 0.230041 0.207221
0.317591 0.238545 0.204818
0.358766 0.247048 0.202415
0.399941 0.255551 0.200012
0.441116 0.264054 0.197609
0.480813 0.271135 0.198148
0.519032 0.276794 0.201627
0.557251 0.282454 0.205106
0.595469 0.288114 0.208585
0.633688 0.293773 0.212065
0.666657 0.299891 0.218621
0.689124 0.306924 0.231330
0.711591 0.313957 0.244040
0.734059 0.320990 0.256749
0.756526 0.328024 0.269459
0.776915 0.336147 0.283169
0.786911 0.349719 0.301880
0.796906 0.363292 0.320590
0.806902 0.376865 0.339301
0.816898 0.390437 0.358012
0.826894 0.404010 0.376722
0.110040 0.128985 0.195297
0.116177 0.135601 0.198975
0.122313 0.142216 0.202652
0.128450 0.148832 0.206330
0.134587 0.155447 0.210007
0.140724 0.162063 0.213685
0.160092 0.176010 0.217104
0.182107 0.191425 0.220472
0.204121 0.206839 0.223840
0.226136 0.222253 0.227208
0.248150 0.237668 0.230576
0.282280 0.249097 0.230194
0.322467 0.258533 0.227938
0.362654 0.267969 0.225681
0.402841 0.277405 0.223425
0.443028 0.286841 0.221168
0.482679 0.294357 0.221377
0.521795 0.299953 0.224052
0.560910 0.305548 0.226726
0.600025 0.311144 0.229400
0.639140 0.316739 0.232074
0.672889 0.322774 0.238027
0.695906 0.329689 0.250535
0.718922 0.336603 0.263043
0.741938 0.343517 0.275552
0.764955 0.350432 0.288060
0.785874 0.358480 0.301620
0.796309 0.372199 0.320441
0.806744 0.385918 0.339261
0.817178 0.399637 0.358082
0.827613 0.413356 0.376902
0.838048 0.427075 0.395723
0.114766 0.139809 0.207728
0.121095 0.146689 0.211863
0.127424 0.153570 0.215998
0.133753 0.160451 0.220132
0.140082 0.167332 0.224267
0.146411 0.174213 0.228402
0.165941 0.189211 0.233202
0.188111 0.205833 0.238134
0.210281 0.222455 0.243066
0.232451 0.239077 0.247998
0.254621 0.255698 0.252931
0.288144 0.268152 0.253168
0.327343 0.278521 0.251058
0.366542 0.288890 0.248948
0.405741 0.299260 0.246838
0.444940 0.309629 0.244728
0.484546 0.317579 0.244607
0.524557 0.323111 0.246476
0.564569 0.328642 0.248346
0.604581 0.334174 0.250215
0.644593 0.339705 0.252084
0.679122 0.345658 0.257433
0.702687 0.352453 0.269740
0.726253 0.359249 0.282047
0.749818 0.366044 0.294354
0.773383 0.372840 0.306661
0.794833 0.380813 0.320072
0.805707 0.394679 0.339002
0.816581 0.408544 0.357932
0.827455 0.422409 0.376862
0.838329 0.436275 0.395793
0.849202 0.450140 0.414723
0.119493 0.150632 0.220158
0.126014 0.157778 0.224751
0.132535 0.164924 0.229343
0.139056 0.172070 0.233935
0.145577 0.179217 0.238527
0.152098 0.186363 0.243120
0.171789 0.202412 0.249299
0.194115 0.220241 0.255796
0.216440 0.238070 0.262292
0.238766 0.255900 0.268789
0.261092 0.273729 0.275285
0.294008 0.287207 0.276142
0.332219 0.298510 0.274178
0.370430 0.309812 0.272214
0.408641 0.321114 0.270250
0.446852 0.332417 0.268287
0.486412 0.340801 0.267837
0.527320 0.346269 0.268901
0.568228 0.351736 0.269965
0.609137 0.357204 0.271029
0.650045 0.362671 0.272094
0.685355 0.368542 0.276838
0.709469 0.375218 0.288944
0.733583 0.381895 0.301050
0.757697 0.388571 0.313156
0.781811 0.395248 0.325262
0.803792 0.403147 0.338523
0.815105 0.417158 0.357563
0.826418 0.431170 0.376603
0.837731 0.445182 0.395643
0.849044 0.459193 0.414683
0.860357 0.473205 0.433723
0.126181 0.164646 0.234432
0.133003 0.172035 0.239450
0.139826 0.179423 0.244468
0.146649 0.186812 0.249485
0.153472 0.194200 0.254503
0.160295 0.201589 0.259521
0.180285 0.218368 0.267044
0.202908 0.237025 0.275068
0.225530 0.255682 0.283092
0.248153 0.274340 0.291117
0.270776 0.292997 0.299141
0.303337 0.307516 0.301342
0.340867 0.319967 0.300632
0.378396 0.332417 0.299921
0.415926 0.344868 0.299211
0.453455 0.357318 0.298500
0.492770 0.366206 0.298238
0.533871 0.371532 0.298424
0.574971 0.376857 0.298610
0.616071 0.382183 0.298796
0.657172 0.387509 0.298982
0.692711 0.393189 0.302827
0.717127 0.399577 0.313991
0.741543 0.405965 0.325154
0.765959 0.412354 0.336318
0.790375 0.418742 0.347481
0.812641 0.426369 0.359887
0.824160 0.440188 0.378501
0.835679 0.454008 0.397116
0.847197 0.467827 0.415731
0.858716 0.481647 0.434345
0.870235 0.495467 0.452960
0.134830 0.181850 0.250549
0.142065 0.189458 0.255960
0.149299 0.197067 0.261372
0.156534 0.204675 0.266783
0.163768 0.212283 0.272194
0.171003 0.219891 0.277605
0.191427 0.237080 0.286436
0.214489 0.256186 0.295951
0.237551 0.275291 0.305467
0.260613 0.294397 0.314982
0.283675 0.313502 0.324498
0.316132 0.329080 0.328769
0.353287 0.342893 0.330419
0.390441 0.356707 0.332069
0.427596 0.370520 0.333718
0.464750 0.384334 0.335368
0.503621 0.393793 0.335810
0.544210 0.398899 0.335045
0.584798 0.404006 0.334279
0.625386 0.409112 0.333514
0.665974 0.414218 0.332749
0.701189 0.419599 0.335398
0.725660 0.425530 0.344879
0.750131 0.431461 0.354359
0.774602 0.437392 0.363840
0.799073 0.443323 0.373320
0.821380 0.450480 0.384163
0.832872 0.463769 0.401817
0.844363 0.477058 0.419471
0.855855 0.490347 0.437125
0.867346 0.503636 0.454779
0.878837 0.516925 0.472433
0.143479 0.199055 0.266667
0.151126 0.206882 0.272471
0.158772 0.214710 0.278275
0.166418 0.222538 0.284080
0.174064 0.230365 0.289884
0.181710 0.238193 0.295689
0.202569 0.255792 0.305828
0.226070 0.275346 0.316835
0.249571 0.294900 0.327841
0.273073 0.314454 0.338848
0.296574 0.334007 0.349854
0.328927 0.350643 0.356196
0.365707 0.365820 0.360206
0.402486 0.380996 0.364216
0.439265 0.396173 0.368226
0.476045 0.411349 0.372236
0.514472 0.421381 0.373382
0.554548 0.426267 0.371666
0.594624 0.431154 0.369949
0.634700 0.436040 0.368232
0.674776 0.440927 0.366515
0.709668 0.446009 0.367970
0.734194 0.451483 0.375767
0.758719 0.456956 0.383564
0.783245 0.462430 0.391361
0.807771 0.467903 0.399158
0.830120 0.474591 0.408438
0.841584 0.487349 0.425132
0.853048 0.500108 0.441825
0.864512 0.512866 0.458519
0.875975 0.525624 0.475212
0.887439 0.538383 0.491906
0.152129 0.216259 0.282784
0.160187 0.224306 0.288982
0.168245 0.232353 0.295179
0.176302 0.240401 0.301377
0.184360 0.248448 0.307575
0.192418 0.256495 0.313773
0.213711 0.274504 0.325220
0.237652 0.294507 0.337718
0.261592 0.314509 0.350216
0.285532 0.334511 0.362713
0.309472 0.354513 0.375211
0.341722 0.372206 0.383624
0.378126 0.388746 0.389994
0.414531 0.405285 0.396364
0.450935 0.421825 0.402734
0.487340 0.438365 0.409104
0.525324 0.448968 0.410955
0.564887 0.453635 0.408287
0.604450 0.458302 0.405618
0.644014 0.462969 0.402950
0.683577 0.467636 0.400282
0.718147 0.472419 0.400541
0.742727 0.477435 0.406655
0.767308 0.482452 0.412769
0.791889 0.487468 0.418883
0.816469 0.492484 0.424997
0.838859 0.498702 0.432714
0.850296 0.510930 0.448447
0.861732 0.523157 0.464180
0.873169 0.535385 0.479913
0.884605 0.547613 0.495646
0.896042 0.559841 0.511379
0.160778 0.233463 0.298901
0.169248 0.241730 0.305492
0.177717 0.249997 0.312083
0.186187 0.258263 0.318674
0.194656 0.266530 0.325266
0.203126 0.274797 0.331857
0.224854 0.293217 0.344613
0.249233 0.313667 0.358601
0.273612 0.334117 0.372590
0.297992 0.354568 0.386579
0.322371 0.375018 0.400568
0.354517 0.393770 0.411051
0.390546 0.411672 0.419781
0.426576 0.429575 0.428511
0.462605 0.447478 0.437241
0.498634 0.465380 0.445972
0.536175 0.476555 0.448527
0.575226 0.481003 0.444907
0.614277 0.485450 0.441288
0.653328 0.489897 0.437668
0.692379 0.494345 0.434049
0.726625 0.498829 0.433113
0.751261 0.503388 0.437543
0.775896 0.507947 0.441974
0.800532 0.512506 0.446405
0.825167 0.517064 0.450835
0.847598 0.522813 0.456990
0.859008 0.534510 0.471762
0.870417 0.546207 0.486535
0.881826 0.557905 0.501307
0.893235 0.569602 0.516079
0.904644 0.581299 0.530852
0.171618 0.252023 0.315585
0.180499 0.260500 0.322518
0.189380 0.268977 0.329451
0.198261 0.277454 0.336383
0.207142 0.285931 0.343316
0.216023 0.294408 0.350249
0.238203 0.313135 0.364009
0.263043 0.333911 0.379135
0.287883 0.354688 0.394262
0.312723 0.375465 0.409388
0.337563 0.396241 0.424514
0.369523 0.415685 0.436598
0.405043 0.434463 0.447161
0.440563 0.453241 0.457724
0.476083 0.472018 0.468287
0.511603 0.490796 0.478849
0.548469 0.502513 0.482320
0.586682 0.507167 0.478697
0.624895 0.511822 0.475074
0.663107 0.516477 0.471452
0.701320 0.521132 0.467829
0.735011 0.525545 0.466286
0.759659 0.529476 0.468903
0.784306 0.533406 0.471519
0.808954 0.537337 0.474135
0.833602 0.541267 0.476752
0.856016 0.546383 0.481196
0.867260 0.557421 0.494779
0.878504 0.568460 0.508362
0.889749 0.579498 0.521945
0.900993 0.590537 0.535529
0.912238 0.601575 0.549112
0.186837 0.273292 0.333404
0.196130 0.281961 0.340575
0.205422 0.290630 0.347745
0.214715 0.299299 0.354916
0.224008 0.307969 0.362086
0.233301 0.316638 0.369257
0.255969 0.335465 0.383415
0.281312 0.356324 0.398971
0.306655 0.377183 0.414528
0.331998 0.398042 0.430084
0.357341 0.418901 0.445640
0.388950 0.438305 0.458385
0.423693 0.456982 0.469726
0.458435 0.475659 0.481066
0.493178 0.494337 0.492407
0.527920 0.513014 0.503747
0.563652 0.525210 0.508553
0.600374 0.530926 0.506824
0.637095 0.536642 0.505095
0.673817 0.542358 0.503366
0.710538 0.548074 0.501637
0.743211 0.552872 0.500664
0.767785 0.555833 0.501204
0.792360 0.558793 0.501744
0.816934 0.561754 0.502284
0.841509 0.564715 0.502823
0.863788 0.568870 0.505263
0.874594 0.578994 0.517199
0.885399 0.589117 0.529136
0.896204 0.599241 0.541072
0.907010 0.609365 0.553009
0.917815 0.619489 0.564945
0.202056 0.294561 0.351223
0.211760 0.303422 0.358631
0.221465 0.312283 0.366040
0.231169 0.321145 0.373448
0.240874 0.330006 0.380856
0.250578 0.338867 0.388265
0.273734 0.357795 0.402821
0.299580 0.378737 0.418807
0.325426 0.399678 0.434793
0.351273 0.420619 0.450779
0.377119 0.441560 0.466766
0.408377 0.460925 0.480173
0.442342 0.479502 0.492291
0.476307 0.498078 0.504409
0.510272 0.516655 0.516527
0.544237 0.535231 0.528645
0.578835 0.547908 0.534786
0.614065 0.554685 0.534951
0.649295 0.561462 0.535116
0.684526 0.568239 0.535280
0.719756 0.575016 0.535445
0.751410 0.580198 0.535042
0.775912 0.582189 0.533506
0.800413 0.584181 0.531969
0.824914 0.586172 0.530432
0.849416 0.588163 0.528895
0.871561 0.591357 0.529329
0.881927 0.600566 0.539619
0.892293 0.609775 0.549909
0.902660 0.618984 0.560199
0.913026 0.628193 0.570489
0.923392 0.637402 0.580779
0.217275 0.315830 0.369042
0.227391 0.324883 0.376688
0.237507 0.333937 0.384334
0.247624 0.342990 0.391980
0.257740 0.352043 0.399626
0.267856 0.361097 0.407273
0.291500 0.380126 0.422227
0.317849 0.401149 0.438643
0.344198 0.422173 0.455059
0.370547 0.443196 0.471475
0.396897 0.464220 0.487891
0.427805 0.483545 0.501960
0.460992 0.502021 0.514856
0.494179 0.520497 0.527752
0.527367 0.538973 0.540647
0.560554 0.557448 0.553543
0.594017 0.570606 0.561020
0.627756 0.578444 0.563078
0.661496 0.586282 0.565136
0.695235 0.594120 0.567195
0.728974 0.601959 0.569253
0.759610 0.607525 0.569421
0.784038 0.608546 0.565807
0.808466 0.609568 0.562194
0.832894 0.610589 0.558580
0.857323 0.611611 0.554967
0.879334 0.613844 0.553396
0.889261 0.622139 0.562039
0.899188 0.630433 0.570683
0.909115 0.638727 0.579326
0.919042 0.647021 0.587969
0.928969 0.655315 0.596613
0.232494 0.337099 0.386860
0.243022 0.346344 0.394744
0.253550 0.355590 0.402629
0.264078 0.364835 0.410513
0.274606 0.374081 0.418397
0.285133 0.383327 0.426281
0.309265 0.402456 0.441633
0.336117 0.423562 0.458479
0.362970 0.444668 0.475325
0.389822 0.465773 0.492171
0.416674 0.486879 0.509017
0.447232 0.506165 0.523748
0.479642 0.524540 0.537421
0.512051 0.542915 0.551094
0.544461 0.561291 0.564767
0.576871 0.579666 0.578440
0.609200 0.593303 0.587253
0.641448 0.602203 0.591205
0.673696 0.611102 0.595157
0.705944 0.620002 0.599109
0.738192 0.628901 0.603061
0.767810 0.634851 0.603799
0.792165 0.634903 0.598109
0.816519 0.634955 0.592419
0.840874 0.635007 0.586729
0.865229 0.635059 0.581039
0.887107 0.636332 0.577463
0.896595 0.643711 0.584460
0.906083 0.651090 0.591456
0.915570 0.658470 0.598453
0.925058 0.665849 0.605450
0.934546 0.673229 0.612446
0.248998 0.358384 0.405152
0.259939 0.367818 0.413260
0.270880 0.377253 0.421368
0.281821 0.386687 0.429476
0.292762 0.396122 0.437584
0.303703 0.405557 0.445693
0.328198 0.424698 0.461296
0.355404 0.445781 0.478398
0.382610 0.466864 0.495500
0.409816 0.487947 0.512602
0.437022 0.509030 0.529704
0.467121 0.528164 0.544890
0.498666 0.546323 0.559116
0.530212 0.564481 0.573343
0.561757 0.582640 0.587569
0.593302 0.600799 0.601796
0.624430 0.614743 0.611687
0.655139 0.624472 0.617243
0.685849 0.634200 0.622799
0.716559 0.643929 0.628355
0.747269 0.653658 0.633911
0.775771 0.659938 0.635222
0.799859 0.659321 0.628042
0.823948 0.658703 0.620862
0.848036 0.658086 0.613683
0.872124 0.657468 0.606503
0.893733 0.658042 0.601416
0.902947 0.664569 0.606790
0.912160 0.671096 0.612165
0.921374 0.677623 0.617539
0.930587 0.684150 0.622913
0.939801 0.690677 0.628288
0.271921 0.379747 0.425806
0.283283 0.389356 0.434070
0.294644 0.398964 0.442334
0.306006 0.408572 0.450597
0.317368 0.418181 0.458861
0.328730 0.427789 0.467125
0.352967 0.446502 0.482243
0.379780 0.467037 0.498732
0.406593 0.487571 0.515222
0.433406 0.508105 0.531711
0.460218 0.528639 0.548200
0.489320 0.547059 0.562803
0.519566 0.564422 0.576462
0.549813 0.581785 0.590122
0.580059 0.599148 0.603781
0.610305 0.616511 0.617441
0.639896 0.629892 0.627126
0.668831 0.639291 0.632837
0.697766 0.648691 0.638549
0.726701 0.658090 0.644260
0.755636 0.667490 0.649972
0.782544 0.673828 0.651868
