filter/Red and Blue 2/lut/Spotlight 03_S.cube
# LUT by SparkleStock. Enhanced with VOXCOLOR algorithms.
LUT_3D_SIZE 5
DOMAIN_MIN 0.000000 0.000000 0.000000
DOMAIN_MAX 0.903226 0.903226 0.903226
0.078144 0.062515 0.113309
0.164166 0.066541 0.120501
0.391744 0.091244 0.134034
0.609154 0.139139 0.168404
0.704478 0.198078 0.217598
0.087825 0.081216 0.138989
0.162904 0.116843 0.143496
0.397395 0.160859 0.134772
0.639324 0.203047 0.163946
0.748382 0.264194 0.250136
0.114766 0.139809 0.207728
0.188111 0.205833 0.238134
0.405741 0.299260 0.246838
0.679122 0.345658 0.257433
0.816581 0.408544 0.357932
0.171618 0.252023 0.315585
0.263043 0.333911 0.379135
0.476083 0.472018 0.468287
0.735011 0.525545 0.466286
0.878504 0.568460 0.508362
0.294844 0.401111 0.446461
0.404156 0.488292 0.519067
0.598361 0.615655 0.619993
0.789316 0.687718 0.668514
0.916146 0.704584 0.652928
0.079853 0.076080 0.167443
0.167022 0.093774 0.173075
0.414132 0.115395 0.183731
0.642438 0.164798 0.211617
0.744265 0.255972 0.267855
0.101748 0.119378 0.200639
0.184194 0.173679 0.226536
0.410330 0.215945 0.239197
0.655921 0.245858 0.251566
0.787088 0.310192 0.304537
0.150925 0.204910 0.277563
0.233187 0.287022 0.309542
0.425187 0.384981 0.325077
0.678912 0.414650 0.319041
0.841901 0.452751 0.370251
0.239513 0.330395 0.390278
0.332706 0.411993 0.440384
0.506389 0.542988 0.493723
0.718074 0.603781 0.477659
0.884691 0.620295 0.470284
0.391363 0.483833 0.521257
0.478459 0.547923 0.571101
0.638188 0.659154 0.651174
0.793148 0.730986 0.678450
0.913969 0.752190 0.639506
0.096002 0.103194 0.288786
0.156429 0.151948 0.314140
0.432556 0.220498 0.306227
0.701733 0.271839 0.312132
0.812179 0.378431 0.371634
0.125586 0.169597 0.333761
0.201132 0.237070 0.373203
0.434962 0.306995 0.403029
0.694957 0.333542 0.399127
0.838992 0.409392 0.427212
0.205458 0.309027 0.418150
0.296993 0.385569 0.453801
0.467776 0.473281 0.489886
0.693008 0.486379 0.481680
0.871010 0.509444 0.487418
0.340278 0.460734 0.523134
0.440770 0.529281 0.561126
0.576684 0.626949 0.601360
0.714745 0.676811 0.578319
0.892241 0.673315 0.542014
0.525504 0.605184 0.632640
0.600056 0.651001 0.663800
0.707534 0.725901 0.713963
0.805085 0.786764 0.723977
0.911695 0.813950 0.675236
0.128780 0.139990 0.445665
0.178958 0.207926 0.487271
0.362361 0.359122 0.543156
0.761081 0.437674 0.447510
0.877028 0.515956 0.485767
0.169420 0.215326 0.491052
0.238842 0.298162 0.534941
0.415560 0.433137 0.598579
0.750173 0.499144 0.550851
0.886444 0.543811 0.549526
0.272773 0.385792 0.579930
0.354482 0.459058 0.613606
0.510747 0.570120 0.664676
0.733128 0.611940 0.665278
0.895281 0.598664 0.637574
0.416400 0.552761 0.661313
0.509192 0.611215 0.682947
0.656272 0.697332 0.716903
0.740724 0.729643 0.723860
0.896742 0.712097 0.692243
0.592347 0.680366 0.735399
0.666711 0.718360 0.751192
0.769666 0.778308 0.780923
0.829691 0.825668 0.799565
0.912140 0.849551 0.771060
0.182591 0.199149 0.578707
0.240782 0.273313 0.626439
0.401903 0.439736 0.712575
0.660871 0.592629 0.737132
0.894654 0.629837 0.621318
0.235472 0.276778 0.624984
0.309124 0.362459 0.671495
0.462545 0.512817 0.747259
0.688170 0.639849 0.770696
0.900990 0.668951 0.668045
0.360393 0.450723 0.716651
0.437056 0.520430 0.749097
0.572930 0.634548 0.799520
0.735942 0.719850 0.819911
0.904636 0.728791 0.749367
0.504760 0.615165 0.789045
0.574009 0.662457 0.807312
0.691111 0.739654 0.833747
0.789017 0.794175 0.848044
0.905702 0.801069 0.814914
0.638161 0.720571 0.832381
0.698116 0.753293 0.841711
0.792399 0.807952 0.854636
0.862390 0.853570 0.863682
0.919779 0.882156 0.858325
