filter/Red and Blue 3/lut/Hope 02_S.cube
# LUT by SparkleStock. Enhanced with VOXCOLOR algorithms.
LUT_3D_SIZE 32
0.023443 0.015629 0.015629
0.037103 0.016480 0.015062
0.050762 0.017330 0.014494
0.064422 0.018181 0.013927
0.078081 0.019032 0.013360
0.091741 0.019883 0.012793
0.110126 0.021206 0.012935
0.129458 0.022624 0.013218
0.148789 0.024042 0.013502
0.168120 0.025460 0.013785
0.187451 0.026878 0.014069
0.210658 0.029115 0.014479
0.235803 0.031762 0.014951
0.260948 0.034409 0.015424
0.286092 0.037055 0.015897
0.311237 0.039702 0.016369
0.337185 0.042940 0.017078
0.363937 0.046768 0.018024
0.390689 0.050597 0.018969
0.417441 0.054425 0.019914
0.444192 0.058254 0.020859
0.469762 0.062350 0.022057
0.492969 0.066982 0.023758
0.516176 0.071614 0.025460
0.539383 0.076246 0.027161
0.562590 0.080878 0.028863
0.585104 0.085785 0.030816
0.604151 0.092071 0.034030
0.623199 0.098358 0.037244
0.642247 0.104644 0.040458
0.661294 0.110930 0.043672
0.680342 0.117216 0.046886
0.027744 0.022293 0.021584
0.043206 0.024059 0.020047
0.058668 0.025824 0.018510
0.074129 0.027590 0.016974
0.089591 0.029355 0.015437
0.105052 0.031121 0.013900
0.124097 0.033130 0.013941
0.143858 0.035189 0.014298
0.163619 0.037247 0.014655
0.183380 0.039305 0.015011
0.203142 0.041364 0.015368
0.226760 0.043869 0.015827
0.252307 0.046598 0.016336
0.277855 0.049327 0.016845
0.303402 0.052057 0.017354
0.328949 0.054786 0.017863
0.355112 0.057854 0.018641
0.381892 0.061262 0.019687
0.408671 0.064669 0.020733
0.435450 0.068077 0.021779
0.462229 0.071485 0.022825
0.487653 0.075130 0.024165
0.510366 0.079249 0.026096
0.533079 0.083369 0.028026
0.555792 0.087488 0.029956
0.578505 0.091608 0.031886
0.600416 0.096028 0.034090
0.618320 0.101948 0.037661
0.636224 0.107868 0.041231
0.654128 0.113789 0.044802
0.672032 0.119709 0.048373
0.689937 0.125629 0.051944
0.032045 0.028957 0.027539
0.049309 0.031638 0.025033
0.066573 0.034318 0.022526
0.083837 0.036998 0.020020
0.101100 0.039679 0.017513
0.118364 0.042359 0.015007
0.138067 0.045055 0.014947
0.158259 0.047753 0.015377
0.178450 0.050452 0.015807
0.198641 0.053151 0.016237
0.218832 0.055849 0.016667
0.242862 0.058623 0.017174
0.268812 0.061435 0.017720
0.294762 0.064246 0.018266
0.320711 0.067058 0.018812
0.346661 0.069869 0.019358
0.373039 0.072768 0.020204
0.399846 0.075755 0.021350
0.426653 0.078742 0.022497
0.453459 0.081729 0.023643
0.480266 0.084716 0.024790
0.505543 0.087909 0.026274
0.527762 0.091517 0.028433
0.549981 0.095124 0.030592
0.572200 0.098731 0.032751
0.594419 0.102339 0.034910
0.615728 0.106271 0.037363
0.632489 0.111825 0.041291
0.649249 0.117379 0.045218
0.666010 0.122934 0.049146
0.682771 0.128488 0.053074
0.699531 0.134042 0.057001
0.036346 0.035622 0.033495
0.055412 0.039217 0.030019
0.074478 0.042812 0.026542
0.093544 0.046407 0.023066
0.112610 0.050002 0.019590
0.131676 0.053598 0.016114
0.152038 0.056979 0.015954
0.172659 0.060318 0.016457
0.193280 0.063657 0.016960
0.213901 0.066996 0.017463
0.234522 0.070335 0.017966
0.258964 0.073377 0.018522
0.285316 0.076271 0.019105
0.311669 0.079165 0.019687
0.338021 0.082059 0.020269
0.364373 0.084953 0.020852
0.390966 0.087683 0.021767
0.417800 0.090249 0.023014
0.444635 0.092815 0.024261
0.471469 0.095381 0.025508
0.498303 0.097947 0.026755
0.523434 0.100689 0.028383
0.545159 0.103784 0.030770
0.566884 0.106879 0.033158
0.588608 0.109974 0.035545
0.610333 0.113069 0.037933
0.631040 0.116513 0.040637
0.646657 0.121702 0.044921
0.662275 0.126890 0.049205
0.677892 0.132079 0.053490
0.693509 0.137267 0.057774
0.709126 0.142455 0.062058
0.040648 0.042286 0.039450
0.061516 0.046796 0.035004
0.082384 0.051306 0.030558
0.103252 0.055816 0.026112
0.124120 0.060326 0.021666
0.144988 0.064836 0.017221
0.166008 0.068904 0.016960
0.187059 0.072883 0.017536
0.208110 0.076862 0.018112
0.229161 0.080842 0.018689
0.250212 0.084821 0.019265
0.275066 0.088132 0.019870
0.301821 0.091108 0.020489
0.328576 0.094084 0.021108
0.355330 0.097060 0.021727
0.382085 0.100036 0.022346
0.408893 0.102597 0.023329
0.435755 0.104742 0.024677
0.462616 0.106887 0.026025
0.489478 0.109032 0.027373
0.516339 0.111178 0.028721
0.541324 0.113469 0.030491
0.562555 0.116052 0.033108
0.583786 0.118634 0.035724
0.605017 0.121217 0.038340
0.626248 0.123800 0.040957
0.646353 0.126756 0.043910
0.660826 0.131578 0.048551
0.675300 0.136401 0.053192
0.689773 0.141223 0.057834
0.704247 0.146046 0.062475
0.718721 0.150868 0.067116
0.044949 0.048950 0.045405
0.067619 0.054375 0.039990
0.090289 0.059800 0.034574
0.112959 0.065225 0.029159
0.135629 0.070649 0.023743
0.158300 0.076074 0.018327
0.179979 0.080828 0.017966
0.201460 0.085448 0.018616
0.222941 0.090067 0.019265
0.244422 0.094687 0.019915
0.265903 0.099307 0.020564
0.291168 0.102886 0.021218
0.318325 0.105944 0.021873
0.345483 0.109003 0.022529
0.372640 0.112061 0.023185
0.399797 0.115120 0.023840
0.426820 0.117511 0.024892
0.453709 0.119236 0.026341
0.480598 0.120960 0.027789
0.507487 0.122684 0.029237
0.534376 0.124409 0.030686
0.559214 0.126248 0.032600
0.579951 0.128319 0.035445
0.600688 0.130389 0.038290
0.621425 0.132460 0.041135
0.642162 0.134530 0.043980
0.661665 0.136999 0.047184
0.674995 0.141455 0.052182
0.688325 0.145912 0.057179
0.701655 0.150368 0.062177
0.714985 0.154825 0.067175
0.728315 0.159282 0.072173
0.051416 0.055969 0.051479
0.075492 0.061615 0.045582
0.099568 0.067261 0.039684
0.123644 0.072907 0.033787
0.147720 0.078552 0.027889
0.171796 0.084198 0.021992
0.193979 0.090355 0.021453
0.215783 0.096614 0.021985
0.237587 0.102872 0.022517
0.259391 0.109131 0.023049
0.281195 0.115390 0.023581
0.306298 0.119895 0.024271
0.333050 0.123524 0.025039
0.359801 0.127153 0.025807
0.386553 0.130781 0.026576
0.413305 0.134410 0.027344
0.439994 0.137025 0.028568
0.466621 0.138626 0.030247
0.493248 0.140227 0.031925
0.519874 0.141827 0.033604
0.546501 0.143428 0.035282
0.571145 0.145010 0.037467
0.591822 0.146553 0.040663
0.612500 0.148096 0.043858
0.633177 0.149639 0.047054
0.653855 0.151182 0.050250
0.673273 0.153111 0.053800
0.686398 0.156973 0.059124
0.699522 0.160835 0.064448
0.712646 0.164697 0.069772
0.725770 0.168559 0.075097
0.738895 0.172421 0.080421
0.058317 0.063059 0.057576
0.083719 0.068787 0.051295
0.109121 0.074515 0.045013
0.134524 0.080243 0.038731
0.159926 0.085971 0.032450
0.185329 0.091700 0.026168
0.207984 0.099402 0.025435
0.230090 0.107500 0.025812
0.252196 0.115597 0.026188
0.274302 0.123695 0.026565
0.296409 0.131792 0.026941
0.321234 0.137356 0.027665
0.347418 0.141652 0.028561
0.373603 0.145949 0.029458
0.399787 0.150245 0.030354
0.425972 0.154542 0.031251
0.452217 0.157458 0.032666
0.478524 0.158995 0.034601
0.504831 0.160532 0.036536
0.531137 0.162069 0.038471
0.557444 0.163606 0.040405
0.581883 0.164968 0.042885
0.602588 0.165980 0.046456
0.623293 0.166993 0.050027
0.643998 0.168005 0.053598
0.664703 0.169017 0.057169
0.684141 0.170398 0.061085
0.697247 0.173620 0.066729
0.710353 0.176841 0.072373
0.723459 0.180063 0.078018
0.736565 0.183284 0.083662
0.749671 0.186506 0.089306
0.065217 0.070148 0.063673
0.091946 0.075959 0.057007
0.118675 0.081769 0.050342
0.145404 0.087580 0.043676
0.172133 0.093390 0.037010
0.198862 0.099201 0.030344
0.221990 0.108450 0.029417
0.244398 0.118386 0.029638
0.266806 0.128322 0.029860
0.289214 0.138258 0.030081
0.311622 0.148194 0.030302
0.336169 0.154816 0.031058
0.361787 0.159780 0.032083
0.387404 0.164745 0.033108
0.413021 0.169709 0.034132
0.438639 0.174673 0.035157
0.464441 0.177892 0.036764
0.490427 0.179365 0.038955
0.516413 0.180838 0.041146
0.542400 0.182310 0.043337
0.568386 0.183783 0.045528
0.592621 0.184926 0.048304
0.613354 0.185407 0.052250
0.634086 0.185889 0.056196
0.654818 0.186371 0.060142
0.675551 0.186853 0.064087
0.695009 0.187685 0.068370
0.708097 0.190266 0.074334
0.721184 0.192847 0.080299
0.734272 0.195428 0.086263
0.747360 0.198010 0.092228
0.760447 0.200591 0.098192
0.072118 0.077238 0.069770
0.100173 0.083131 0.062720
0.128229 0.089024 0.055670
0.156284 0.094917 0.048620
0.184339 0.100809 0.041570
0.212394 0.106702 0.034520
0.235995 0.117497 0.033400
0.258705 0.129272 0.033465
0.281415 0.141047 0.033531
0.304125 0.152822 0.033596
0.326835 0.164597 0.033662
0.351105 0.172277 0.034452
0.376155 0.177909 0.035605
0.401205 0.183541 0.036758
0.426255 0.189173 0.037910
0.451306 0.194805 0.039063
0.476664 0.198325 0.040863
0.502330 0.199734 0.043310
0.527996 0.201143 0.045757
0.553662 0.202552 0.048204
0.579329 0.203961 0.050651
0.603359 0.204883 0.053723
0.624119 0.204835 0.058044
0.644879 0.204786 0.062365
0.665639 0.204737 0.066685
0.686399 0.204688 0.071006
0.705877 0.204971 0.075655
0.718946 0.206912 0.081939
0.732016 0.208853 0.088224
0.745085 0.210794 0.094509
0.758154 0.212735 0.100793
0.771224 0.214676 0.107078
0.079018 0.084328 0.075868
0.108400 0.090303 0.068433
0.137782 0.096278 0.060999
0.167164 0.102253 0.053565
0.196546 0.108228 0.046130
0.225927 0.114204 0.038696
0.250001 0.126544 0.037382
0.273013 0.140158 0.037292
0.296024 0.153772 0.037202
0.319036 0.167385 0.037112
0.342048 0.180999 0.037022
0.366040 0.189737 0.037846
0.390523 0.196037 0.039127
0.415006 0.202337 0.040408
0.439490 0.208637 0.041688
0.463973 0.214937 0.042969
0.488887 0.218759 0.044961
0.514233 0.220104 0.047664
0.539579 0.221448 0.050368
0.564925 0.222793 0.053071
0.590271 0.224138 0.055774
0.614098 0.224841 0.059141
0.634885 0.224262 0.063837
0.655672 0.223683 0.068533
0.676459 0.223103 0.073229
0.697247 0.222524 0.077925
0.716744 0.222258 0.082939
0.729796 0.223558 0.089544
0.742847 0.224859 0.096149
0.755898 0.226159 0.102754
0.768949 0.227460 0.109359
0.782000 0.228760 0.115964
0.089228 0.092993 0.082595
0.119802 0.098861 0.074801
0.150376 0.104730 0.067007
0.180950 0.110598 0.059213
0.211524 0.116467 0.051419
0.242098 0.122335 0.043624
0.266520 0.135169 0.042238
0.289712 0.149395 0.042133
0.312903 0.163622 0.042027
0.336095 0.177849 0.041922
0.359287 0.192075 0.041817
0.382766 0.201995 0.043014
0.406389 0.209762 0.044862
0.430012 0.217529 0.046710
0.453635 0.225295 0.048557
0.477259 0.233062 0.050405
0.501440 0.237866 0.052861
0.526179 0.239708 0.055924
0.550918 0.241550 0.058987
0.575657 0.243391 0.062050
0.600396 0.245233 0.065113
0.623799 0.246264 0.068900
0.644528 0.245672 0.074136
0.665258 0.245081 0.079372
0.685987 0.244489 0.084607
0.706716 0.243898 0.089843
0.726214 0.243563 0.095370
0.739551 0.244516 0.102356
0.752889 0.245469 0.109343
0.766227 0.246422 0.116329
0.779565 0.247375 0.123315
0.792902 0.248328 0.130301
0.101091 0.102446 0.089637
0.132790 0.108113 0.081496
0.164490 0.113780 0.073354
0.196189 0.119447 0.065212
0.227888 0.125115 0.057070
0.259587 0.130782 0.048929
0.284296 0.143582 0.047530
0.307607 0.157808 0.047480
0.330917 0.172035 0.047429
0.354228 0.186262 0.047379
0.377538 0.200488 0.047329
0.400387 0.211652 0.049068
0.423003 0.221285 0.051703
0.445620 0.230918 0.054337
0.468237 0.240551 0.056972
0.490854 0.250184 0.059607
0.514157 0.256310 0.062661
0.538146 0.258929 0.066136
0.562135 0.261549 0.069611
0.586124 0.264168 0.073085
0.610113 0.266787 0.076560
0.632982 0.268419 0.080829
0.653611 0.268074 0.086687
0.674239 0.267730 0.092545
0.694868 0.267385 0.098403
0.715497 0.267040 0.104260
0.734984 0.266879 0.110375
0.748760 0.267630 0.117772
0.762537 0.268382 0.125170
0.776314 0.269134 0.132568
0.790091 0.269885 0.139965
0.803868 0.270637 0.147363
0.112954 0.111899 0.096680
0.145779 0.117365 0.088190
0.178603 0.122831 0.079701
0.211428 0.128297 0.071212
0.244252 0.133763 0.062722
0.277077 0.139228 0.054233
0.302072 0.151995 0.052822
0.325502 0.166222 0.052827
0.348931 0.180448 0.052831
0.372361 0.194675 0.052836
0.395790 0.208901 0.052840
0.418007 0.221310 0.055123
0.439618 0.232809 0.058544
0.461228 0.244308 0.061965
0.482839 0.255807 0.065387
0.504449 0.267306 0.068808
0.526874 0.274754 0.072462
0.550113 0.278151 0.076348
0.573352 0.281548 0.080235
0.596591 0.284945 0.084121
0.619830 0.288342 0.088007
0.642165 0.290574 0.092758
0.662693 0.290476 0.099238
0.683221 0.290378 0.105718
0.703749 0.290281 0.112198
0.724277 0.290183 0.118678
0.743753 0.290194 0.125379
0.757969 0.290744 0.133188
0.772185 0.291295 0.140998
0.786401 0.291845 0.148807
0.800617 0.292395 0.156616
0.814833 0.292946 0.164426
0.124818 0.121352 0.103722
0.158768 0.126616 0.094885
0.192717 0.131881 0.086048
0.226667 0.137146 0.077211
0.260617 0.142410 0.068374
0.294566 0.147675 0.059537
0.319848 0.160408 0.058114
0.343397 0.174635 0.058174
0.366945 0.188861 0.058233
0.390493 0.203088 0.058292
0.414042 0.217315 0.058352
0.435628 0.230967 0.061177
0.456232 0.244332 0.065385
0.476836 0.257697 0.069593
0.497440 0.271063 0.073801
0.518045 0.284428 0.078009
0.539591 0.293198 0.082262
0.562080 0.297372 0.086560
0.584569 0.301547 0.090858
0.607058 0.305721 0.095157
0.629546 0.309896 0.099455
0.651348 0.312729 0.104687
0.671776 0.312878 0.111789
0.692203 0.313027 0.118891
0.712630 0.313177 0.125993
0.733058 0.313326 0.133095
0.752523 0.313509 0.140383
0.767178 0.313858 0.148604
0.781833 0.314207 0.156825
0.796488 0.314556 0.165046
0.811144 0.314905 0.173267
0.825799 0.315255 0.181488
0.136681 0.130805 0.110765
0.171756 0.135868 0.101580
0.206831 0.140931 0.092395
0.241906 0.145995 0.083211
0.276981 0.151058 0.074026
0.312056 0.156122 0.064842
0.337624 0.168821 0.063406
0.361292 0.183048 0.063521
0.384959 0.197274 0.063635
0.408626 0.211501 0.063749
0.432294 0.225728 0.063864
0.453248 0.240624 0.067232
0.472846 0.255856 0.072226
0.492444 0.271087 0.077221
0.512042 0.286318 0.082216
0.531640 0.301550 0.087211
0.552309 0.311641 0.092063
0.574047 0.316594 0.096773
0.595786 0.321546 0.101482
0.617524 0.326498 0.106192
0.639263 0.331450 0.110902
0.660531 0.334883 0.116616
0.680858 0.335280 0.124340
0.701185 0.335676 0.132064
0.721512 0.336073 0.139788
0.741838 0.336469 0.147512
0.761293 0.336824 0.155387
0.776387 0.336972 0.164020
0.791481 0.337120 0.172653
0.806576 0.337268 0.181285
0.821670 0.337416 0.189918
0.836764 0.337564 0.198551
0.150128 0.141179 0.118091
0.186067 0.146078 0.108604
0.222007 0.150977 0.099118
0.257946 0.155875 0.089631
0.293885 0.160774 0.080145
0.329825 0.165673 0.070658
0.355690 0.178135 0.069298
0.379540 0.192110 0.069564
0.403391 0.206085 0.069829
0.427241 0.220061 0.070094
0.451091 0.234036 0.070359
0.471692 0.249464 0.074232
0.490668 0.265619 0.079908
0.509644 0.281775 0.085585
0.528620 0.297930 0.091261
0.547596 0.314085 0.096937
0.567503 0.325396 0.102665
0.588340 0.331862 0.108445
0.609178 0.338328 0.114225
0.630015 0.344794 0.120005
0.650853 0.351261 0.125785
0.671371 0.355950 0.132428
0.691249 0.357088 0.140797
0.711128 0.358225 0.149166
0.731006 0.359363 0.157535
0.750885 0.360500 0.165904
0.770000 0.361508 0.174408
0.785295 0.361871 0.183584
0.800591 0.362234 0.192761
0.815886 0.362597 0.201938
0.831181 0.362960 0.211115
0.846477 0.363323 0.220292
0.165158 0.152475 0.125700
0.201701 0.157246 0.115958
0.238244 0.162017 0.106215
0.274788 0.166787 0.096472
0.311331 0.171558 0.086730
0.347874 0.176329 0.076987
0.374045 0.188351 0.075790
0.398143 0.201822 0.076303
0.422240 0.215294 0.076815
0.446337 0.228766 0.077327
0.470435 0.242238 0.077839
0.490959 0.257487 0.082179
0.509697 0.273624 0.088431
0.528435 0.289761 0.094684
0.547173 0.305898 0.100937
0.565912 0.322035 0.107189
0.585173 0.334462 0.114070
0.604959 0.343178 0.121579
0.624745 0.351895 0.129088
0.644530 0.360611 0.136597
0.664316 0.369328 0.144106
0.683867 0.375930 0.152124
0.702950 0.378302 0.161161
0.722032 0.380674 0.170197
0.741115 0.383047 0.179234
0.760198 0.385419 0.188271
0.778643 0.387562 0.197444
0.793902 0.388556 0.207298
0.809161 0.389550 0.217151
0.824420 0.390544 0.227005
0.839678 0.391538 0.236859
0.854937 0.392532 0.246713
0.180188 0.163772 0.133310
0.217335 0.168414 0.123311
0.254482 0.173057 0.113312
0.291629 0.177700 0.103313
0.328776 0.182342 0.093315
0.365923 0.186985 0.083316
0.392401 0.198566 0.082282
0.416745 0.211535 0.083042
0.441089 0.224503 0.083801
0.465434 0.237472 0.084560
0.489778 0.250441 0.085319
0.510226 0.265510 0.090125
0.528727 0.281628 0.096954
0.547227 0.297747 0.103783
0.565727 0.313866 0.110612
0.584227 0.329985 0.117441
0.602844 0.343527 0.125474
0.621578 0.354494 0.134712
0.640311 0.365461 0.143950
0.659045 0.376428 0.153188
0.677778 0.387395 0.162426
0.696363 0.395909 0.171820
0.714650 0.399516 0.181524
0.732937 0.403124 0.191229
0.751223 0.406731 0.200933
0.769510 0.410338 0.210638
0.787286 0.413615 0.220480
0.802509 0.415241 0.231011
0.817731 0.416866 0.241541
0.832953 0.418491 0.252072
0.848175 0.420116 0.262603
0.863398 0.421742 0.273134
0.195218 0.175068 0.140919
0.232969 0.179582 0.130664
0.270720 0.184097 0.120410
0.308470 0.188612 0.110155
0.346221 0.193126 0.099900
0.383972 0.197641 0.089645
0.410756 0.208781 0.088774
0.435348 0.221247 0.089781
0.459939 0.233712 0.090787
0.484530 0.246178 0.091793
0.509121 0.258644 0.092799
0.529493 0.273532 0.098072
0.547756 0.289633 0.105477
0.566018 0.305733 0.112882
0.584281 0.321834 0.120288
0.602543 0.337934 0.127693
0.620515 0.352593 0.136879
0.638197 0.365810 0.147846
0.655878 0.379028 0.158813
0.673560 0.392245 0.169780
0.691241 0.405462 0.180747
0.708859 0.415888 0.191515
0.726350 0.420730 0.201888
0.743841 0.425573 0.212260
0.761332 0.430415 0.222632
0.778823 0.435257 0.233004
0.795930 0.439669 0.243516
0.811115 0.441925 0.254724
0.826301 0.444182 0.265932
0.841487 0.446438 0.277139
0.856672 0.448695 0.288347
0.871858 0.450951 0.299555
0.210249 0.186364 0.148529
0.248603 0.190751 0.138018
0.286957 0.195137 0.127507
0.325312 0.199524 0.116996
0.363666 0.203910 0.106485
0.402021 0.208296 0.095974
0.429112 0.218996 0.095266
0.453950 0.230959 0.096520
0.478788 0.242921 0.097773
0.503627 0.254884 0.099026
0.528465 0.266846 0.100279
0.548761 0.281555 0.106018
0.566785 0.297637 0.114000
0.584810 0.313720 0.121981
0.602834 0.329802 0.129963
0.620859 0.345884 0.137945
0.638186 0.361659 0.148283
0.654815 0.377126 0.160979
0.671445 0.392594 0.173675
0.688074 0.408062 0.186371
0.704704 0.423530 0.199067
0.721355 0.435867 0.211211
0.738050 0.441945 0.222251
0.754745 0.448022 0.233291
0.771441 0.454099 0.244331
0.788136 0.460176 0.255371
0.804573 0.465722 0.266552
0.819722 0.468610 0.278437
0.834871 0.471498 0.290322
0.850020 0.474385 0.302206
0.865169 0.477273 0.314091
0.880318 0.480161 0.325976
0.225468 0.198117 0.156847
0.264301 0.202388 0.146016
0.303134 0.206658 0.135185
0.341967 0.210929 0.124354
0.380800 0.215200 0.113523
0.419634 0.219470 0.102691
0.446929 0.229851 0.102136
0.471917 0.241454 0.103637
0.496904 0.253056 0.105137
0.521892 0.264659 0.106637
0.546880 0.276262 0.108138
0.567109 0.290806 0.114353
0.584960 0.306821 0.122926
0.602811 0.322836 0.131499
0.620662 0.338851 0.140073
0.638512 0.354866 0.148646
0.655332 0.371382 0.159982
0.671120 0.388399 0.174080
0.686908 0.405416 0.188179
0.702695 0.422432 0.202277
0.718483 0.439449 0.216376
0.734279 0.453316 0.229778
0.750090 0.460885 0.241788
0.765900 0.468453 0.253798
0.781711 0.476022 0.265808
0.797522 0.483590 0.277817
0.813169 0.490514 0.289912
0.827998 0.494213 0.302435
0.842827 0.497911 0.314957
0.857656 0.501610 0.327479
0.872485 0.505309 0.340001
0.887313 0.509008 0.352523
0.241065 0.210784 0.166584
0.280127 0.214963 0.155304
0.319189 0.219142 0.144025
0.358251 0.223322 0.132746
0.397313 0.227501 0.121466
0.436374 0.231680 0.110187
0.463670 0.241984 0.109763
0.488612 0.253514 0.111510
0.513554 0.265043 0.113257
0.538496 0.276573 0.115005
0.563438 0.288102 0.116752
0.583622 0.302512 0.123464
0.601427 0.318363 0.132660
0.619232 0.334213 0.141855
0.637037 0.350063 0.151050
0.654842 0.365914 0.160245
0.671428 0.382421 0.172267
0.686795 0.399584 0.187116
0.702162 0.416747 0.201965
0.717529 0.433910 0.216813
0.732896 0.451073 0.231662
0.748057 0.465706 0.246089
0.762807 0.475278 0.259672
0.777556 0.484850 0.273255
0.792306 0.494421 0.286839
0.807056 0.503993 0.300422
0.821671 0.512781 0.313921
0.835612 0.517651 0.327001
0.849554 0.522521 0.340081
0.863495 0.527391 0.353162
0.877437 0.532260 0.366242
0.891378 0.537130 0.379322
0.256662 0.223451 0.176320
0.295953 0.227539 0.164593
0.335243 0.231626 0.152865
0.374534 0.235714 0.141137
0.413825 0.239802 0.129410
0.453115 0.243889 0.117682
0.480410 0.254117 0.117389
0.505307 0.265574 0.119383
0.530203 0.277030 0.121378
0.555099 0.288486 0.123372
0.579995 0.299943 0.125366
0.600134 0.314219 0.132576
0.617893 0.329904 0.142393
0.635652 0.345590 0.152210
0.653411 0.361276 0.162028
0.671171 0.376962 0.171845
0.687524 0.393459 0.184553
0.702470 0.410769 0.200152
0.717416 0.428078 0.215751
0.732362 0.445388 0.231350
0.747309 0.462697 0.246948
0.761836 0.478095 0.262400
0.775524 0.489671 0.277557
0.789212 0.501246 0.292713
0.802901 0.512821 0.307870
0.816589 0.524396 0.323027
0.830172 0.535049 0.337930
0.843226 0.541090 0.351568
0.856280 0.547131 0.365206
0.869335 0.553171 0.378845
0.882389 0.559212 0.392483
0.895443 0.565253 0.406121
0.272260 0.236118 0.186057
0.311779 0.240114 0.173881
0.351298 0.244110 0.161705
0.390817 0.248106 0.149529
0.430337 0.252103 0.137353
0.469856 0.256099 0.125177
0.497151 0.266251 0.125016
0.522002 0.277634 0.127257
0.546852 0.289017 0.129498
0.571703 0.300400 0.131739
0.596553 0.311783 0.133981
0.616646 0.325925 0.141687
0.634359 0.341446 0.152127
0.652073 0.356967 0.162566
0.669786 0.372488 0.173005
0.687500 0.388009 0.183445
0.703619 0.404498 0.196839
0.718145 0.421954 0.213188
0.732670 0.439409 0.229537
0.747196 0.456865 0.245886
0.761721 0.474321 0.262235
0.775614 0.490485 0.278711
0.788241 0.504063 0.295441
0.800869 0.517642 0.312171
0.813496 0.531221 0.328901
0.826123 0.544799 0.345631
0.838674 0.557317 0.361939
0.850840 0.564528 0.376135
0.863007 0.571740 0.390331
0.875174 0.578952 0.404527
0.887341 0.586163 0.418724
0.899508 0.593375 0.432920
0.287857 0.248785 0.195793
0.327605 0.252690 0.183169
0.367353 0.256594 0.170545
0.407101 0.260499 0.157921
0.446849 0.264404 0.145297
0.486597 0.268308 0.132672
0.513892 0.278384 0.132642
0.538697 0.289694 0.135130
0.563502 0.301004 0.137618
0.588306 0.312314 0.140107
0.613111 0.323624 0.142595
0.633158 0.337631 0.150799
0.650826 0.352988 0.161860
0.668493 0.368344 0.172921
0.686161 0.383701 0.183983
0.703829 0.399057 0.195044
0.719715 0.415536 0.209125
0.733820 0.433139 0.226224
0.747925 0.450741 0.243323
0.762029 0.468343 0.260422
0.776134 0.485945 0.277521
0.789392 0.502874 0.295022
0.800959 0.518456 0.313325
0.812525 0.534038 0.331629
0.824091 0.549620 0.349932
0.835657 0.565202 0.368236
0.847175 0.579585 0.385948
0.858455 0.587967 0.400702
0.869734 0.596350 0.415456
0.881013 0.604732 0.430210
0.892293 0.613115 0.444965
0.903572 0.621497 0.459719
0.303383 0.261318 0.206160
0.343381 0.265136 0.193039
0.383379 0.268953 0.179918
0.423377 0.272771 0.166796
0.463375 0.276589 0.153675
0.503373 0.280407 0.140554
0.530625 0.290432 0.140637
0.555328 0.301700 0.143362
0.580030 0.312967 0.146087
0.604733 0.324234 0.148811
0.629436 0.335501 0.151536
0.649379 0.349425 0.160238
0.666943 0.364676 0.171929
0.684508 0.379927 0.183620
0.702072 0.395178 0.195311
0.719636 0.410429 0.207003
0.735260 0.426931 0.221766
0.748944 0.444683 0.239601
0.762627 0.462434 0.257437
0.776311 0.480186 0.275272
0.789995 0.497938 0.293108
0.802647 0.515514 0.311542
0.813234 0.532739 0.331174
0.823821 0.549965 0.350805
0.834409 0.567191 0.370437
0.844996 0.584416 0.390068
0.855541 0.600342 0.408960
0.865877 0.609766 0.424152
0.876213 0.619190 0.439343
0.886548 0.628614 0.454535
0.896884 0.638038 0.469727
0.907220 0.647461 0.484919
0.318555 0.273181 0.219678
0.358910 0.276935 0.205816
0.399265 0.280689 0.191953
0.439620 0.284442 0.178091
0.479974 0.288196 0.164229
0.520329 0.291950 0.150367
0.547320 0.302056 0.150479
0.571639 0.313433 0.153387
0.595957 0.324810 0.156294
0.620275 0.336188 0.159202
0.644594 0.347565 0.162109
0.664147 0.361652 0.171318
0.681318 0.377096 0.183677
0.698489 0.392539 0.196036
0.715659 0.407982 0.208395
0.732830 0.423426 0.220753
0.748047 0.440106 0.236185
0.761310 0.458022 0.254688
0.774573 0.475938 0.273191
0.787836 0.493854 0.291695
0.801099 0.511771 0.310198
0.813281 0.529405 0.329111
