filter/Red and Blue 3/lut/Hope 01.cube
# LUT by SparkleStock. Enhanced with VOXCOLOR algorithms.
LUT_3D_SIZE 5
DOMAIN_MIN 0.000000 0.000000 0.000000
DOMAIN_MAX 0.903226 0.903226 0.903226
0.015629 0.015629 0.101587
0.122730 0.022537 0.105668
0.356973 0.039237 0.092954
0.596258 0.067407 0.086053
0.721194 0.098641 0.091725
0.015377 0.071992 0.156981
0.224090 0.117969 0.105433
0.442314 0.158015 0.111847
0.639673 0.171891 0.123938
0.755942 0.184952 0.141271
0.030234 0.150861 0.220442
0.342633 0.210847 0.141502
0.549183 0.299980 0.170184
0.688536 0.344905 0.214560
0.793592 0.344241 0.250520
0.067360 0.235441 0.292694
0.470709 0.311142 0.208261
0.658400 0.404315 0.242592
0.752227 0.501209 0.323327
0.828706 0.532125 0.383072
0.116271 0.308409 0.354854
0.580102 0.411021 0.292510
0.739516 0.495764 0.324553
0.810798 0.585185 0.399968
0.858956 0.655446 0.473033
0.011840 0.076978 0.171618
0.158042 0.054791 0.138776
0.426184 0.065934 0.120121
0.643513 0.107785 0.128419
0.752933 0.159751 0.153957
0.030017 0.153747 0.238981
0.153030 0.219469 0.262357
0.451606 0.250889 0.228459
0.691377 0.265655 0.220250
0.801946 0.287503 0.245401
0.061480 0.241121 0.313545
0.232332 0.323375 0.339012
0.549630 0.400014 0.305171
0.740085 0.437842 0.315252
0.838168 0.443246 0.354898
0.111392 0.326565 0.387285
0.333738 0.421380 0.419502
0.651045 0.504716 0.385337
0.790273 0.575315 0.404135
0.863019 0.605255 0.460532
0.196030 0.408557 0.455949
0.459588 0.519058 0.500338
0.737120 0.596980 0.467827
0.845394 0.659100 0.483399
0.889894 0.715895 0.542862
0.019875 0.162401 0.253732
0.129200 0.176200 0.257341
0.461545 0.132650 0.179728
0.692935 0.169476 0.188241
0.790501 0.240540 0.243874
0.053168 0.245525 0.333259
0.163403 0.322376 0.380780
0.429311 0.359928 0.379614
0.721911 0.366624 0.346060
0.835352 0.388263 0.369311
0.105574 0.336047 0.414201
0.245922 0.422859 0.465681
0.474566 0.507003 0.492996
0.752794 0.530385 0.453639
0.864968 0.529186 0.470820
0.174972 0.422924 0.489113
0.360939 0.518757 0.543782
0.573813 0.603641 0.571106
0.796168 0.654619 0.521537
0.883588 0.667839 0.547003
0.286834 0.512286 0.563289
0.496850 0.614711 0.621390
0.676345 0.688535 0.641454
0.847804 0.729757 0.593437
0.906229 0.767359 0.613116
0.046107 0.253094 0.345961
0.131458 0.312939 0.393795
0.398891 0.327295 0.378589
0.745962 0.269692 0.282201
0.835692 0.341578 0.348253
0.091199 0.335784 0.422798
0.207016 0.423533 0.486091
0.442429 0.490375 0.519774
0.745238 0.488721 0.489083
0.868386 0.498247 0.490504
0.167055 0.426164 0.503130
0.311561 0.518503 0.565035
0.504376 0.604387 0.612014
0.735431 0.641039 0.619515
0.881331 0.624055 0.592702
0.281199 0.525113 0.583253
0.437619 0.610646 0.637449
0.608968 0.688047 0.674474
0.743197 0.738590 0.689694
0.889224 0.726545 0.658718
0.408809 0.615600 0.655008
0.566017 0.696221 0.701946
0.701654 0.757989 0.728556
0.800967 0.802659 0.738961
0.909900 0.819141 0.696984
0.087061 0.341809 0.428682
0.179409 0.419322 0.494611
0.422899 0.485853 0.535449
0.732259 0.500045 0.518164
0.873192 0.479947 0.483867
0.151366 0.421762 0.500971
0.284594 0.517374 0.576616
0.492083 0.598737 0.628801
0.752279 0.631053 0.632945
0.891348 0.612239 0.603105
0.267129 0.517842 0.582049
0.409410 0.610199 0.648899
0.564329 0.687073 0.695540
0.761769 0.729953 0.709118
0.895424 0.718069 0.687937
0.406745 0.617769 0.658747
0.539373 0.695665 0.710866
0.663635 0.758016 0.744311
0.775217 0.804376 0.758523
0.894414 0.800823 0.742023
0.542077 0.703551 0.719256
0.648574 0.762571 0.755718
0.743228 0.811144 0.777914
0.825158 0.849767 0.786034
0.903040 0.869410 0.779107
