filter/Red and Blue 3/lut/Hope 02.cube
# LUT by SparkleStock. Enhanced with VOXCOLOR algorithms.
LUT_3D_SIZE 5
DOMAIN_MIN 0.000000 0.000000 0.000000
DOMAIN_MAX 0.903226 0.903226 0.903226
0.023443 0.015629 0.015629
0.128851 0.022711 0.013218
0.282303 0.038166 0.015897
0.465587 0.063508 0.022057
0.622632 0.098499 0.037244
0.058317 0.062886 0.057576
0.234496 0.095253 0.030531
0.396918 0.126212 0.043687
0.565515 0.145203 0.057400
0.700795 0.170680 0.078051
0.125511 0.119997 0.104069
0.352522 0.159841 0.062860
0.516769 0.232295 0.091449
0.650855 0.278274 0.128768
0.774546 0.303446 0.166991
0.228508 0.193564 0.158588
0.476813 0.234058 0.105965
0.632225 0.320969 0.147022
0.745619 0.432333 0.242750
0.842403 0.490915 0.323083
0.336421 0.281074 0.234472
0.590827 0.321481 0.164738
0.731639 0.416899 0.223399
0.825960 0.539418 0.349497
0.887181 0.645156 0.479644
0.055788 0.069912 0.074308
0.175759 0.050313 0.044150
0.362573 0.060525 0.039024
0.553689 0.097495 0.054818
0.692277 0.147199 0.080373
0.125467 0.136892 0.133334
0.256723 0.191895 0.159552
0.467503 0.209728 0.135111
0.653153 0.228423 0.137057
0.774570 0.265305 0.169749
0.211937 0.217997 0.206460
0.360429 0.292925 0.244443
0.573302 0.342276 0.218489
0.731517 0.384495 0.238726
0.840470 0.416183 0.293546
0.312416 0.315126 0.297556
0.468703 0.400069 0.345854
0.676150 0.449684 0.310091
0.802896 0.533193 0.360338
0.886723 0.591530 0.446818
0.408165 0.422652 0.410322
0.565373 0.511589 0.462106
0.763978 0.561309 0.425219
0.870919 0.643166 0.481653
0.919309 0.723401 0.579540
0.115546 0.137201 0.140557
0.235555 0.157322 0.147450
0.445890 0.115202 0.085380
0.635920 0.147376 0.096767
0.758317 0.214442 0.143883
0.195778 0.227228 0.230197
0.320747 0.310212 0.296592
0.506696 0.337079 0.296338
0.713073 0.333266 0.262562
0.828311 0.371241 0.299584
0.280643 0.333945 0.344013
0.407366 0.426343 0.417052
0.561429 0.498068 0.453066
0.764521 0.502899 0.408085
0.876230 0.525367 0.445541
0.373777 0.443463 0.457310
0.500429 0.536125 0.531370
0.640114 0.606414 0.564400
0.820336 0.642092 0.517506
0.909519 0.674942 0.565975
0.465330 0.552095 0.572788
0.586087 0.637760 0.638894
0.712096 0.699985 0.663886
0.874488 0.735698 0.622168
0.934723 0.786087 0.666441
0.190311 0.223648 0.228075
0.307599 0.303835 0.303876
0.505678 0.311313 0.283627
0.721006 0.240525 0.183656
0.827695 0.320484 0.253505
0.269113 0.330754 0.344733
0.381692 0.435728 0.446947
0.548709 0.499109 0.490354
0.756358 0.482660 0.446874
0.872725 0.503210 0.461049
0.356320 0.448372 0.474207
0.464705 0.545761 0.564131
0.590915 0.624155 0.623283
0.756975 0.654866 0.634852
0.892102 0.644050 0.610014
0.443679 0.561485 0.598595
0.546944 0.642353 0.664371
0.657582 0.711299 0.712565
0.764897 0.758532 0.737469
0.907076 0.750378 0.705842
0.532468 0.656757 0.692845
0.623642 0.725140 0.748450
0.719060 0.781844 0.784792
0.811875 0.828228 0.806915
0.934710 0.845001 0.768599
0.266218 0.333381 0.353437
0.371566 0.439575 0.464580
0.544801 0.511077 0.524168
0.750769 0.509999 0.493996
0.877329 0.493097 0.459438
0.346935 0.443888 0.473698
0.449311 0.554124 0.585253
0.584331 0.630420 0.652690
0.766234 0.654241 0.654947
0.896862 0.640677 0.624626
0.438980 0.558660 0.596252
0.529510 0.648824 0.682698
0.626725 0.718323 0.740898
0.771594 0.756143 0.760187
0.902653 0.749752 0.739195
0.527890 0.657537 0.696618
0.606835 0.728430 0.762070
0.686880 0.785605 0.808697
0.780741 0.830785 0.833483
0.905756 0.833268 0.820183
0.603073 0.733607 0.773901
0.669969 0.790636 0.822670
0.740467 0.838042 0.858549
0.824081 0.877576 0.878704
0.916370 0.899333 0.878749
