filter/Red and Blue 3/lut/Hope 04.cube
# LUT by SparkleStock. Enhanced with VOXCOLOR algorithms.
LUT_3D_SIZE 32
0.039072 0.058608 0.054701
0.050368 0.058277 0.054559
0.061665 0.057946 0.054417
0.072961 0.057616 0.054275
0.084257 0.057285 0.054134
0.095553 0.056954 0.053992
0.111615 0.056899 0.053496
0.128631 0.056899 0.052928
0.145646 0.056899 0.052361
0.162661 0.056899 0.051794
0.179676 0.056899 0.051227
0.202206 0.058285 0.050723
0.227492 0.060365 0.050250
0.252779 0.062444 0.049777
0.278065 0.064524 0.049305
0.303352 0.066604 0.048832
0.331876 0.070148 0.048761
0.363638 0.075159 0.049092
0.395400 0.080169 0.049423
0.427161 0.085179 0.049754
0.458923 0.090189 0.050085
0.490275 0.095876 0.050746
0.520808 0.102919 0.052070
0.551341 0.109961 0.053393
0.581874 0.117003 0.054717
0.612407 0.124046 0.056040
0.641490 0.131151 0.057568
0.663327 0.138572 0.060121
0.685163 0.145992 0.062673
0.706999 0.153413 0.065225
0.728835 0.160833 0.067777
0.750672 0.168254 0.070330
0.039545 0.064138 0.059947
0.052488 0.064411 0.058790
0.065430 0.064684 0.057633
0.078373 0.064957 0.056476
0.091316 0.065230 0.055318
0.104259 0.065503 0.054161
0.120733 0.066005 0.053740
0.137913 0.066554 0.053465
0.155093 0.067103 0.053191
0.172272 0.067652 0.052916
0.189452 0.068201 0.052642
0.212226 0.069850 0.052443
0.237796 0.072048 0.052281
0.263366 0.074247 0.052119
0.288936 0.076445 0.051958
0.314506 0.078644 0.051796
0.343227 0.082143 0.051945
0.375099 0.086943 0.052404
0.406970 0.091742 0.052863
0.438842 0.096542 0.053322
0.470713 0.101342 0.053780
0.502047 0.106770 0.054546
0.532306 0.113456 0.055924
0.562564 0.120141 0.057302
0.592823 0.126827 0.058681
0.623081 0.133512 0.060059
0.651814 0.140273 0.061651
0.672918 0.147410 0.064313
0.694023 0.154547 0.066975
0.715127 0.161684 0.069637
0.736231 0.168821 0.072300
0.757336 0.175958 0.074962
0.040017 0.069668 0.065194
0.054607 0.070545 0.063021
0.069196 0.071421 0.060848
0.083786 0.072298 0.058676
0.098375 0.073175 0.056503
0.112965 0.074051 0.054330
0.129850 0.075112 0.053984
0.147195 0.076210 0.054002
0.164539 0.077308 0.054020
0.181884 0.078406 0.054038
0.199229 0.079503 0.054057
0.222246 0.081414 0.054162
0.248100 0.083732 0.054312
0.273953 0.086049 0.054461
0.299807 0.088367 0.054611
0.325661 0.090684 0.054760
0.354578 0.094138 0.055128
0.386560 0.098727 0.055715
0.418541 0.103316 0.056302
0.450522 0.107905 0.056889
0.482504 0.112494 0.057476
0.513819 0.117664 0.058345
0.543803 0.123992 0.059778
0.573787 0.130321 0.061212
0.603771 0.136650 0.062645
0.633755 0.142979 0.064078
0.662137 0.149395 0.065734
0.682510 0.156249 0.068506
0.702883 0.163102 0.071278
0.723255 0.169955 0.074050
0.743628 0.176809 0.076822
0.764000 0.183662 0.079594
0.040490 0.075198 0.070440
0.056726 0.076678 0.067252
0.072962 0.078159 0.064064
0.089198 0.079639 0.060876
0.105435 0.081120 0.057688
0.121671 0.082600 0.054500
0.138968 0.084219 0.054227
0.156477 0.085866 0.054538
0.173986 0.087512 0.054850
0.191495 0.089159 0.055161
0.209005 0.090806 0.055472
0.232266 0.092979 0.055882
0.258403 0.095415 0.056343
0.284541 0.097852 0.056803
0.310678 0.100288 0.057264
0.336815 0.102724 0.057724
0.365929 0.106132 0.058312
0.398020 0.110511 0.059027
0.430112 0.114890 0.059742
0.462203 0.119269 0.060457
0.494294 0.123647 0.061172
0.525591 0.128557 0.062145
0.555301 0.134529 0.063633
0.585010 0.140502 0.065121
0.614720 0.146474 0.066609
0.644429 0.152446 0.068097
0.672461 0.158517 0.069817
0.692102 0.165087 0.072699
0.711742 0.171657 0.075581
0.731383 0.178227 0.078462
0.751024 0.184797 0.081344
0.770664 0.191366 0.084225
0.040963 0.080728 0.075686
0.058845 0.082812 0.071483
0.076728 0.084896 0.067279
0.094611 0.086981 0.063076
0.112494 0.089065 0.058872
0.130377 0.091149 0.054669
0.148085 0.093326 0.054471
0.165759 0.095521 0.055075
0.183433 0.097717 0.055679
0.201107 0.099912 0.056283
0.218781 0.102108 0.056886
0.242286 0.104543 0.057602
0.268707 0.107099 0.058374
0.295128 0.109654 0.059145
0.321549 0.112209 0.059916
0.347970 0.114765 0.060688
0.377280 0.118127 0.061495
0.409481 0.122295 0.062338
0.441682 0.126463 0.063182
0.473883 0.130632 0.064025
0.506084 0.134800 0.064868
0.537363 0.139451 0.065944
0.566798 0.145066 0.067487
0.596233 0.150682 0.069030
0.625668 0.156297 0.070573
0.655104 0.161912 0.072116
0.682784 0.167640 0.073900
0.701693 0.173926 0.076892
0.720602 0.180212 0.079883
0.739511 0.186498 0.082875
0.758420 0.192784 0.085866
0.777329 0.199070 0.088857
0.041435 0.086258 0.080933
0.060965 0.088946 0.075714
0.080494 0.091634 0.070495
0.100024 0.094322 0.065276
0.119553 0.097010 0.060057
0.139082 0.099698 0.054838
0.157203 0.102433 0.054715
0.175041 0.105177 0.055612
0.192880 0.107922 0.056508
0.210718 0.110666 0.057405
0.228557 0.113410 0.058301
0.252306 0.116108 0.059322
0.279011 0.118782 0.060404
0.305715 0.121456 0.061487
0.332420 0.124131 0.062569
0.359124 0.126805 0.063652
0.388632 0.130121 0.064679
0.420942 0.134079 0.065650
0.453253 0.138037 0.066621
0.485564 0.141995 0.067592
0.517874 0.145953 0.068564
0.549135 0.150345 0.069744
0.578296 0.155603 0.071342
0.607456 0.160862 0.072939
0.636617 0.166120 0.074537
0.665778 0.171379 0.076135
0.693108 0.176762 0.077983
0.711285 0.182764 0.081085
0.729462 0.188767 0.084186
0.747639 0.194769 0.087287
0.765816 0.200772 0.090388
0.783993 0.206775 0.093489
0.042262 0.091630 0.086297
0.063164 0.094564 0.080520
0.084066 0.097497 0.074743
0.104967 0.100431 0.068966
0.125869 0.103364 0.063189
0.146770 0.106297 0.057412
0.165949 0.109950 0.057206
0.184783 0.113746 0.058113
0.203618 0.117543 0.059020
0.222452 0.121339 0.059927
0.241286 0.125136 0.060834
0.265027 0.128578 0.062071
0.291223 0.131844 0.063472
0.317418 0.135110 0.064873
0.343613 0.138376 0.066274
0.369808 0.141642 0.067675
0.398785 0.145263 0.068998
0.430542 0.149239 0.070242
0.462299 0.153215 0.071486
0.494056 0.157192 0.072731
0.525813 0.161168 0.073975
0.556629 0.165486 0.075408
0.585561 0.170487 0.077221
0.614493 0.175488 0.079034
0.643425 0.180489 0.080847
0.672357 0.185490 0.082660
0.699514 0.190619 0.084718
0.717798 0.196391 0.088005
0.736082 0.202164 0.091293
0.754366 0.207936 0.094580
0.772649 0.213709 0.097867
0.790933 0.219481 0.101154
0.043160 0.096971 0.091685
0.065379 0.100078 0.085442
0.087598 0.103186 0.079198
0.109817 0.106293 0.072955
0.132036 0.109400 0.066711
0.154255 0.112507 0.060468
0.174621 0.117150 0.060145
0.194617 0.122099 0.061007
0.214613 0.127048 0.061868
0.234609 0.131997 0.062729
0.254605 0.136946 0.063591
0.278289 0.141230 0.065026
0.303816 0.145182 0.066747
0.329344 0.149134 0.068468
0.354871 0.153086 0.070190
0.380399 0.157038 0.071911
0.408698 0.161034 0.073545
0.439769 0.165074 0.075091
0.470840 0.169115 0.076637
0.501911 0.173155 0.078183
0.532982 0.177195 0.079729
0.563267 0.181477 0.081446
0.591980 0.186240 0.083506
0.620692 0.191003 0.085566
0.649405 0.195766 0.087625
0.678117 0.200529 0.089685
0.705137 0.205423 0.091983
0.723695 0.210976 0.095472
0.742254 0.216529 0.098960
0.760812 0.222082 0.102448
0.779370 0.227635 0.105937
0.797928 0.233188 0.109425
0.044058 0.102312 0.097074
0.067595 0.105593 0.090363
0.091131 0.108874 0.083653
0.114667 0.112155 0.076943
0.138203 0.115436 0.070233
0.161740 0.118717 0.063523
0.183294 0.124349 0.063085
0.204452 0.130451 0.063900
0.225609 0.136552 0.064716
0.246767 0.142654 0.065532
0.267925 0.148756 0.066348
0.291550 0.153882 0.067980
0.316410 0.158520 0.070022
0.341270 0.163158 0.072063
0.366129 0.167796 0.074105
0.390989 0.172434 0.076147
0.418611 0.176805 0.078091
0.448996 0.180909 0.079939
0.479381 0.185014 0.081787
0.509766 0.189118 0.083635
0.540151 0.193223 0.085483
0.569906 0.197467 0.087484
0.598399 0.201992 0.089790
0.626892 0.206518 0.092097
0.655384 0.211043 0.094404
0.683877 0.215568 0.096711
0.710760 0.220228 0.099248
0.729593 0.225561 0.102938
0.748425 0.230895 0.106628
0.767258 0.236228 0.110317
0.786091 0.241561 0.114007
0.804923 0.246894 0.117697
0.044956 0.107653 0.102462
0.069810 0.111108 0.095285
0.094664 0.114563 0.088109
0.119517 0.118018 0.080932
0.144371 0.121472 0.073755
0.169224 0.124927 0.066579
0.191966 0.131548 0.066024
0.214286 0.138803 0.066794
0.236605 0.146057 0.067564
0.258925 0.153312 0.068334
0.281244 0.160566 0.069104
0.304812 0.166533 0.070935
0.329004 0.171858 0.073297
0.353196 0.177182 0.075659
0.377387 0.182506 0.078020
0.401579 0.187830 0.080382
0.428525 0.192576 0.082638
0.458224 0.196745 0.084788
0.487923 0.200913 0.086937
0.517621 0.205081 0.089087
0.547320 0.209250 0.091237
0.576544 0.213458 0.093521
0.604817 0.217745 0.096075
0.633091 0.222033 0.098629
0.661364 0.226320 0.101183
0.689637 0.230607 0.103737
0.716383 0.235032 0.106513
0.735490 0.240146 0.110404
0.754597 0.245260 0.114295
0.773704 0.250374 0.118186
0.792811 0.255487 0.122077
0.811919 0.260601 0.125968
0.045855 0.112994 0.107850
0.072025 0.116623 0.100207
0.098196 0.120251 0.092564
0.124367 0.123880 0.084920
0.150538 0.127509 0.077277
0.176709 0.131137 0.069634
0.200638 0.138748 0.068964
0.224120 0.147155 0.069688
0.247601 0.155562 0.070412
0.271082 0.163969 0.071136
0.294564 0.172376 0.071861
0.318073 0.179185 0.073890
0.341598 0.185195 0.076572
0.365122 0.191205 0.079254
0.388646 0.197216 0.081936
0.412170 0.203226 0.084618
0.438438 0.208347 0.087184
0.467451 0.212580 0.089636
0.496464 0.216812 0.092088
0.525476 0.221045 0.094539
0.554489 0.225277 0.096991
0.583182 0.229449 0.099559
0.611236 0.233498 0.102360
0.639290 0.237548 0.105161
0.667344 0.241597 0.107961
0.695398 0.245647 0.110762
0.722006 0.249837 0.113778
0.741388 0.254731 0.117870
0.760769 0.259625 0.121963
0.780151 0.264519 0.126055
0.799532 0.269414 0.130147
0.818914 0.274308 0.134239
0.047698 0.118902 0.113490
0.075277 0.122729 0.105441
0.102857 0.126556 0.097393
0.130437 0.130383 0.089344
0.158016 0.134210 0.081295
0.185596 0.138036 0.073247
0.210662 0.146188 0.072435
0.235226 0.155205 0.073071
0.259790 0.164222 0.073707
0.284354 0.173239 0.074342
0.308918 0.182256 0.074978
0.332612 0.190047 0.077317
0.355870 0.197225 0.080509
0.379129 0.204403 0.083700
0.402388 0.211581 0.086891
0.425647 0.218759 0.090082
0.451256 0.224756 0.093170
0.479217 0.229571 0.096155
0.507178 0.234385 0.099141
0.535139 0.239200 0.102126
0.563100 0.244015 0.105111
0.590906 0.248599 0.108203
0.618405 0.252722 0.111507
0.645904 0.256845 0.114811
0.673403 0.260967 0.118115
0.700902 0.265090 0.121419
0.727087 0.269316 0.124927
0.746707 0.274058 0.129458
0.766326 0.278799 0.133990
0.785945 0.283541 0.138521
0.805565 0.288283 0.143052
0.825184 0.293025 0.147584
0.050014 0.125094 0.119256
0.079048 0.129131 0.110833
0.108082 0.133168 0.102409
0.137116 0.137205 0.093985
0.166150 0.141243 0.085561
0.195185 0.145280 0.077138
0.221363 0.153749 0.076172
0.246969 0.163104 0.076698
0.272576 0.172460 0.077224
0.298183 0.181815 0.077750
0.323789 0.191170 0.078276
0.347788 0.200013 0.080981
0.370983 0.208600 0.084776
0.394178 0.217187 0.088571
0.417372 0.225774 0.092366
0.440567 0.234361 0.096161
0.465527 0.241483 0.099876
0.492253 0.247139 0.103510
0.518979 0.252796 0.107145
0.545705 0.258452 0.110780
0.572431 0.264109 0.114415
0.599173 0.269330 0.118150
0.625949 0.273682 0.122085
0.652725 0.278033 0.126020
0.679502 0.282384 0.129955
0.706278 0.286736 0.133890
0.731898 0.291132 0.138018
0.751737 0.295755 0.143107
0.771575 0.300378 0.148197
0.791414 0.305001 0.153286
0.811253 0.309624 0.158375
0.831092 0.314246 0.163464
0.052330 0.131285 0.125023
0.082818 0.135533 0.116224
0.113307 0.139781 0.107425
0.143796 0.144028 0.098626
0.174285 0.148276 0.089827
0.204773 0.152524 0.081028
0.232063 0.161310 0.079909
0.258712 0.171004 0.080325
0.285362 0.180698 0.080741
0.312011 0.190391 0.081158
0.338661 0.200085 0.081574
0.362965 0.209980 0.084645
0.386095 0.219976 0.089044
0.409226 0.229972 0.093442
0.432357 0.239967 0.097841
0.455487 0.249963 0.102240
0.479798 0.258210 0.106581
0.505289 0.264708 0.110865
0.530780 0.271206 0.115150
0.556271 0.277704 0.119434
0.581761 0.284202 0.123718
0.607440 0.290061 0.128097
0.633493 0.294641 0.132663
0.659547 0.299221 0.137229
0.685600 0.303801 0.141796
0.711654 0.308381 0.146362
0.736708 0.312949 0.151109
0.756766 0.317453 0.156756
0.776825 0.321957 0.162403
0.796883 0.326460 0.168051
0.816942 0.330964 0.173698
0.837000 0.335468 0.179345
0.054646 0.137477 0.130789
0.086589 0.141935 0.121615
0.118532 0.146393 0.112441
0.150475 0.150851 0.103267
0.182419 0.155309 0.094093
0.214362 0.159767 0.084919
0.242763 0.168871 0.083646
0.270455 0.178903 0.083952
0.298148 0.188935 0.084259
0.325840 0.198968 0.084565
0.353533 0.209000 0.084872
0.378141 0.219947 0.088309
0.401208 0.231351 0.093311
0.424274 0.242756 0.098314
0.447341 0.254160 0.103316
0.470408 0.265565 0.108318
0.494069 0.274937 0.113287
0.518325 0.282277 0.118220
0.542581 0.289616 0.123154
0.566837 0.296956 0.128088
0.591092 0.304296 0.133022
0.615707 0.310792 0.138044
0.641037 0.315601 0.143241
0.666368 0.320410 0.148439
0.691699 0.325218 0.153636
0.717030 0.330027 0.158834
0.741518 0.334765 0.164199
0.761796 0.339150 0.170405
0.782074 0.343535 0.176610
0.802352 0.347920 0.182816
0.822630 0.352305 0.189021
0.842908 0.356690 0.195226
0.056962 0.143669 0.136555
0.090359 0.148337 0.127006
0.123757 0.153006 0.117457
0.157155 0.157674 0.107908
0.190553 0.162343 0.098359
0.223950 0.167011 0.088810
0.253463 0.176432 0.087383
0.282198 0.186802 0.087579
0.310933 0.197173 0.087776
0.339669 0.207544 0.087973
0.368404 0.217915 0.088170
0.393318 0.229914 0.091973
0.416320 0.242727 0.097579
0.439323 0.255540 0.103185
0.462325 0.268353 0.108791
0.485328 0.281167 0.114397
0.508340 0.291664 0.119992
0.531361 0.299845 0.125575
0.554382 0.308027 0.131159
0.577402 0.316208 0.136742
0.600423 0.324389 0.142325
0.623973 0.331523 0.147990
0.648581 0.336560 0.153819
0.673189 0.341598 0.159648
0.697797 0.346635 0.165477
0.722406 0.351673 0.171306
0.746329 0.356582 0.177290
0.766826 0.360848 0.184054
0.787324 0.365114 0.190817
0.807821 0.369380 0.197580
0.828319 0.373646 0.204344
0.848816 0.377912 0.211107
0.059821 0.150026 0.142463
0.094792 0.154996 0.132612
0.129764 0.159966 0.122762
0.164735 0.164937 0.112911
0.199706 0.169907 0.103060
0.234677 0.174878 0.093209
0.265256 0.184691 0.091685
0.294957 0.195474 0.091827
0.324657 0.206256 0.091969
0.354357 0.217039 0.092111
0.384058 0.227821 0.092253
0.409345 0.240531 0.096357
0.432425 0.254204 0.102444
0.455506 0.267877 0.108530
0.478586 0.281550 0.114617
0.501666 0.295223 0.120703
0.524216 0.306752 0.127064
0.546235 0.316136 0.133700
0.568254 0.325521 0.140335
0.590274 0.334905 0.146970
0.612293 0.344289 0.153606
0.634829 0.352409 0.160259
0.658399 0.358000 0.166947
0.681968 0.363591 0.173636
0.705538 0.369182 0.180325
0.729108 0.374773 0.187013
0.752144 0.380151 0.193835
0.772514 0.384462 0.201321
0.792883 0.388774 0.208807
0.813253 0.393086 0.216293
0.833622 0.397398 0.223779
0.853992 0.401709 0.231266
0.063224 0.156548 0.148513
0.099888 0.161912 0.138434
0.136551 0.167276 0.128354
0.173215 0.172639 0.118274
0.209879 0.178003 0.108195
0.246542 0.183367 0.098115
0.278143 0.193650 0.096554
0.308730 0.204918 0.096695
0.339318 0.216185 0.096837
0.369906 0.227452 0.096979
0.400494 0.238719 0.097121
0.426223 0.251798 0.101464
0.449523 0.265782 0.107907
0.472823 0.279766 0.114350
0.496123 0.293751 0.120793
0.519423 0.307735 0.127236
0.541698 0.320201 0.134503
0.562949 0.331150 0.142593
0.584199 0.342098 0.150683
0.605450 0.353047 0.158773
0.626701 0.363996 0.166862
0.648273 0.373451 0.174848
0.670489 0.379920 0.182625
0.692705 0.386389 0.190403
0.714921 0.392858 0.198180
0.737137 0.399328 0.205957
0.758966 0.405472 0.213834
0.778860 0.409994 0.222207
0.798753 0.414517 0.230581
0.818647 0.419039 0.238954
0.838541 0.423561 0.247328
0.858435 0.428083 0.255701
0.066627 0.163071 0.154563
0.104983 0.168828 0.144255
0.143339 0.174585 0.133947
0.181695 0.180342 0.123638
0.220051 0.186099 0.113330
0.258407 0.191856 0.103022
0.291029 0.202609 0.101422
0.322504 0.214361 0.101564
0.353979 0.226113 0.101705
0.385454 0.237866 0.101847
0.416930 0.249618 0.101989
0.443101 0.263065 0.106570
0.466620 0.277360 0.113370
0.490140 0.291656 0.120170
0.513659 0.305951 0.126970
0.537179 0.320246 0.133770
0.559180 0.333650 0.141942
0.579662 0.346163 0.151486
0.600144 0.358676 0.161031
0.620627 0.371189 0.170575
0.641109 0.383702 0.180119
0.661718 0.394493 0.189438
0.682580 0.401840 0.198304
0.703442 0.409188 0.207169
0.724304 0.416535 0.216035
0.745166 0.423882 0.224901
0.765787 0.430794 0.233833
0.785205 0.435526 0.243094
0.804623 0.440259 0.252355
0.824041 0.444992 0.261615
0.843460 0.449724 0.270876
0.862878 0.454457 0.280137
0.070030 0.169593 0.160613
0.110079 0.175744 0.150076
0.150127 0.181894 0.139539
0.190175 0.188045 0.129002
0.230224 0.194195 0.118465
0.270272 0.200346 0.107928
0.303915 0.211568 0.106290
0.336278 0.223805 0.106432
0.368640 0.236042 0.106574
0.401003 0.248279 0.106716
0.433365 0.260516 0.106857
0.459979 0.274332 0.111676
0.483718 0.288939 0.118833
0.507457 0.303545 0.125989
0.531196 0.318151 0.133146
0.554935 0.332758 0.140303
0.576661 0.347099 0.149381
0.596375 0.361176 0.160380
0.616089 0.375254 0.171379
0.635803 0.389331 0.182377
0.655517 0.403408 0.193376
0.675162 0.415535 0.204027
0.694670 0.423760 0.213982
0.714178 0.431986 0.223936
0.733687 0.440211 0.233891
0.753195 0.448437 0.243845
0.772608 0.456115 0.253832
0.791551 0.461058 0.263980
0.810493 0.466001 0.274128
0.829436 0.470944 0.284277
0.848378 0.475887 0.294425
0.867320 0.480830 0.304573
0.073433 0.176116 0.166663
0.115174 0.182659 0.155897
0.156915 0.189203 0.145131
0.198656 0.195747 0.134366
0.240396 0.202291 0.123600
0.282137 0.208835 0.112834
0.316802 0.220527 0.111158
0.350052 0.233249 0.111300
0.383302 0.245971 0.111442
0.416551 0.258692 0.111584
0.449801 0.271414 0.111726
0.476857 0.285600 0.116782
0.500816 0.300517 0.124295
0.524774 0.315434 0.131809
0.548733 0.330352 0.139322
0.572691 0.345269 0.146836
0.594143 0.360548 0.156820
0.613089 0.376190 0.169273
0.632034 0.391831 0.181726
0.650980 0.407473 0.194180
0.669925 0.423114 0.206633
0.688607 0.436577 0.218617
0.706761 0.445680 0.229660
0.724915 0.454784 0.240703
0.743069 0.463888 0.251746
0.761223 0.472992 0.262789
0.779430 0.481437 0.273831
0.797896 0.486590 0.284867
0.816363 0.491744 0.295902
0.834830 0.496897 0.306938
0.853297 0.502051 0.317973
0.871763 0.507204 0.329009
0.077215 0.182449 0.172476
0.120672 0.189511 0.161589
0.164129 0.196574 0.150701
0.207587 0.203636 0.139813
0.251044 0.210698 0.128926
0.294502 0.217760 0.118038
0.330142 0.229963 0.116415
0.364218 0.243194 0.116646
0.398294 0.256425 0.116876
0.432370 0.269656 0.117106
0.466447 0.282887 0.117336
0.493849 0.297450 0.122682
0.517914 0.312678 0.130586
0.541979 0.327907 0.138490
0.566045 0.343135 0.146394
0.590110 0.358363 0.154298
0.611292 0.374320 0.165085
0.629591 0.391004 0.178755
0.647890 0.407688 0.192425
0.666189 0.424373 0.206095
0.684488 0.441057 0.219765
0.702338 0.455548 0.232982
0.719291 0.465652 0.245290
0.736244 0.475756 0.257599
0.753197 0.485860 0.269907
0.770149 0.495964 0.282216
0.787231 0.505305 0.294453
0.804957 0.510830 0.306333
0.822682 0.516355 0.318214
0.840408 0.521881 0.330094
0.858134 0.527406 0.341974
0.875860 0.532932 0.353854
0.081752 0.188404 0.177817
0.126975 0.196235 0.167021
0.172198 0.204066 0.156225
0.217421 0.211896 0.145429
0.262644 0.219727 0.134633
0.307867 0.227558 0.123836
0.344388 0.240354 0.122450
0.379169 0.254143 0.122946
0.413949 0.267932 0.123441
0.448730 0.281721 0.123937
0.483511 0.295510 0.124432
0.511068 0.310466 0.130171
0.535015 0.326005 0.138533
0.558961 0.341545 0.146894
0.582908 0.357084 0.155255
0.606854 0.372623 0.163616
0.627775 0.388735 0.175003
0.645672 0.405420 0.189414
0.663568 0.422104 0.203825
0.681465 0.438788 0.218236
0.699361 0.455473 0.232647
0.716644 0.470378 0.246897
0.732701 0.481727 0.260825
0.748757 0.493075 0.274753
0.764813 0.504423 0.288681
0.780869 0.515771 0.302608
0.796992 0.526264 0.316321
0.813446 0.532485 0.328961
0.829900 0.538705 0.341600
0.846354 0.544926 0.354240
0.862809 0.551147 0.366879
0.879263 0.557367 0.379519
0.086289 0.194360 0.183158
0.133278 0.202959 0.172453
0.180267 0.211558 0.161749
0.227255 0.220157 0.151044
0.274244 0.228756 0.140339
0.321232 0.237355 0.129635
0.358635 0.250744 0.128485
0.394120 0.265091 0.129245
0.429605 0.279439 0.130006
0.465090 0.293786 0.130767
0.500575 0.308133 0.131528
0.528288 0.323482 0.137661
0.552115 0.339332 0.146479
0.575943 0.355183 0.155298
0.599770 0.371033 0.164117
0.623598 0.386884 0.172935
0.644258 0.403151 0.184921
0.661752 0.419835 0.200073
0.679246 0.436520 0.215225
0.696740 0.453204 0.230377
0.714234 0.469889 0.245529
0.730950 0.485209 0.260813
0.746110 0.497801 0.276360
0.761270 0.510393 0.291907
0.776429 0.522985 0.307454
0.791589 0.535578 0.323001
0.806753 0.547224 0.338190
0.821935 0.554140 0.351588
0.837118 0.561056 0.364987
0.852301 0.567971 0.378386
0.867483 0.574887 0.391785
0.882666 0.581803 0.405183
0.090827 0.200315 0.188499
0.139581 0.209683 0.177886
0.188335 0.219050 0.167273
0.237089 0.228418 0.156659
0.285843 0.237785 0.146046
0.334598 0.247153 0.135433
0.372881 0.261135 0.134519
0.409070 0.276040 0.135545
0.445260 0.290945 0.136571
0.481449 0.305850 0.137598
0.517639 0.320755 0.138624
0.545508 0.336498 0.145150
0.569216 0.352659 0.154426
0.592925 0.368821 0.163702
0.616633 0.384982 0.172978
0.640342 0.401144 0.182254
0.660742 0.417567 0.194839
0.677833 0.434251 0.210732
0.694925 0.450935 0.226625
0.712016 0.467620 0.242518
0.729107 0.484304 0.258411
0.745256 0.500039 0.274728
0.759519 0.513876 0.291895
0.773783 0.527712 0.309061
0.788046 0.541548 0.326227
0.802309 0.555385 0.343393
0.816514 0.568183 0.360058
0.830425 0.575794 0.374216
0.844336 0.583406 0.388374
0.858247 0.591017 0.402532
0.872158 0.598628 0.416690
0.886069 0.606239 0.430848
0.095364 0.206270 0.193840
0.145884 0.216406 0.183318
0.196404 0.226542 0.172796
0.246923 0.236678 0.162275
0.297443 0.246814 0.151753
0.347963 0.256950 0.141231
0.387128 0.271526 0.140554
0.424021 0.286989 0.141845
0.460915 0.302452 0.143137
0.497809 0.317915 0.144428
0.534703 0.333378 0.145719
0.562727 0.349514 0.152639
0.586317 0.365987 0.162372
0.609906 0.382459 0.172106
0.633496 0.398931 0.181839
0.657085 0.415404 0.191573
0.677225 0.431982 0.204756
0.693914 0.448667 0.221391
0.710603 0.465351 0.238025
0.727292 0.482036 0.254659
0.743981 0.498720 0.271293
0.759562 0.514870 0.288644
0.772929 0.529950 0.307429
0.786296 0.545031 0.326215
0.799662 0.560111 0.345000
0.813029 0.575191 0.363785
0.826275 0.589143 0.381926
0.838914 0.597449 0.396843
0.851553 0.605756 0.411761
0.864193 0.614062 0.426678
0.876832 0.622368 0.441595
0.889472 0.630675 0.456513
0.099980 0.212242 0.199212
0.152298 0.223187 0.188823
0.204615 0.234133 0.178434
0.256932 0.245078 0.168045
0.309249 0.256024 0.157656
0.361567 0.266969 0.147267
0.401531 0.282115 0.146840
0.439024 0.298101 0.148406
0.476517 0.314088 0.149972
0.514009 0.330074 0.151538
0.551502 0.346060 0.153104
0.579625 0.362560 0.160447
0.603062 0.379318 0.170679
0.626499 0.396075 0.180911
0.649936 0.412833 0.191143
0.673373 0.429590 0.201375
0.693233 0.446311 0.215177
0.709515 0.462993 0.232549
0.725797 0.479676 0.249921
0.742079 0.496359 0.267293
0.758360 0.513042 0.284665
0.773393 0.529521 0.302961
0.785927 0.545591 0.323105
0.798462 0.561661 0.343249
0.810996 0.577731 0.363393
0.823530 0.593800 0.383536
0.835877 0.608686 0.402914
0.847284 0.617648 0.418461
0.858692 0.626610 0.434008
0.870099 0.635572 0.449555
0.881507 0.644534 0.465102
0.892914 0.653496 0.480649
0.104990 0.218291 0.204742
0.159265 0.230252 0.194692
0.213540 0.242213 0.184641
0.267815 0.254174 0.174590
0.322090 0.266135 0.164540
0.376365 0.278096 0.154489
0.416716 0.293701 0.154386
0.454282 0.310035 0.156272
0.491849 0.326369 0.158158
0.529415 0.342702 0.160044
0.566981 0.359036 0.161930
0.594914 0.375756 0.169850
0.618031 0.392669 0.180786
0.641148 0.409582 0.191722
0.664265 0.426495 0.202659
0.687382 0.443408 0.213595
0.706866 0.460202 0.228111
0.722718 0.476876 0.246205
0.738570 0.493549 0.264300
0.754422 0.510223 0.282395
0.770274 0.526897 0.300490
0.784849 0.543275 0.319286
