filter/Red and Blue 3/lut/Hope 02.cube
# LUT by SparkleStock. Enhanced with VOXCOLOR algorithms.
LUT_3D_SIZE 32
0.023443 0.015629 0.015629
0.037103 0.016480 0.015062
0.050762 0.017330 0.014494
0.064422 0.018181 0.013927
0.078081 0.019032 0.013360
0.091741 0.019883 0.012793
0.109851 0.021245 0.012935
0.128851 0.022711 0.013218
0.147851 0.024176 0.013502
0.166852 0.025641 0.013785
0.185852 0.027106 0.014069
0.208571 0.029517 0.014479
0.233148 0.032400 0.014951
0.257726 0.035283 0.015424
0.282303 0.038166 0.015897
0.306881 0.041049 0.016369
0.332569 0.044381 0.017078
0.359368 0.048163 0.018024
0.386167 0.051944 0.018969
0.412966 0.055725 0.019914
0.439765 0.059506 0.020859
0.465587 0.063508 0.022057
0.489456 0.067951 0.023758
0.513325 0.072394 0.025460
0.537193 0.076836 0.027161
0.561062 0.081279 0.028863
0.584158 0.086022 0.030816
0.603395 0.092260 0.034030
0.622632 0.098499 0.037244
0.641869 0.104738 0.040458
0.661105 0.110977 0.043672
0.680342 0.117216 0.046886
0.027744 0.022293 0.021584
0.043334 0.023803 0.020130
0.058924 0.025312 0.018675
0.074513 0.026821 0.017221
0.090103 0.028331 0.015766
0.105693 0.029840 0.014312
0.124353 0.031610 0.014526
0.143628 0.033432 0.015075
0.162903 0.035254 0.015624
0.182178 0.037076 0.016173
0.201452 0.038898 0.016722
0.224354 0.041379 0.017342
0.249069 0.044189 0.017998
0.273784 0.046999 0.018653
0.298498 0.049808 0.019309
0.323213 0.052618 0.019964
0.348851 0.055777 0.020806
0.375412 0.059283 0.021834
0.401973 0.062790 0.022861
0.428535 0.066297 0.023889
0.455096 0.069804 0.024917
0.480610 0.073555 0.026190
0.504030 0.077797 0.027956
0.527451 0.082039 0.029721
0.550871 0.086280 0.031487
0.574291 0.090522 0.033252
0.596905 0.095070 0.035282
0.615483 0.101154 0.038633
0.634061 0.107237 0.041985
0.652639 0.113321 0.045336
0.671217 0.119404 0.048687
0.689795 0.125487 0.052038
0.032045 0.028957 0.027539
0.049565 0.031125 0.025198
0.067085 0.033294 0.022856
0.084605 0.035462 0.020514
0.102125 0.037630 0.018172
0.119645 0.039798 0.015830
0.138856 0.041975 0.016118
0.158405 0.044153 0.016932
0.177954 0.046332 0.017747
0.197504 0.048511 0.018561
0.217053 0.050690 0.019375
0.240137 0.053240 0.020205
0.264989 0.055977 0.021044
0.289841 0.058714 0.021882
0.314693 0.061451 0.022721
0.339545 0.064188 0.023560
0.365133 0.067172 0.024534
0.391456 0.070404 0.025644
0.417780 0.073637 0.026754
0.444103 0.076869 0.027864
0.470426 0.080101 0.028974
0.495632 0.083603 0.030324
0.518605 0.087643 0.032153
0.541577 0.091684 0.033983
0.564549 0.095724 0.035812
0.587521 0.099764 0.037642
0.609651 0.104119 0.039748
0.627570 0.110047 0.043236
0.645490 0.115975 0.046725
0.663409 0.121903 0.050213
0.681328 0.127831 0.053702
0.699248 0.133759 0.057190
0.036346 0.035622 0.033495
0.055797 0.038448 0.030266
0.075247 0.041275 0.027036
0.094697 0.044102 0.023807
0.114147 0.046929 0.020578
0.133597 0.049755 0.017349
0.153359 0.052339 0.017710
0.173182 0.054875 0.018789
0.193006 0.057410 0.019869
0.212830 0.059946 0.020948
0.232653 0.062481 0.022028
0.255921 0.065102 0.023069
0.280910 0.067766 0.024090
0.305899 0.070430 0.025112
0.330888 0.073093 0.026133
0.355878 0.075757 0.027155
0.381415 0.078567 0.028262
0.407500 0.081525 0.029454
0.433586 0.084483 0.030646
0.459671 0.087441 0.031839
0.485757 0.090399 0.033031
0.510655 0.093650 0.034457
0.533179 0.097490 0.036351
0.555703 0.101329 0.038244
0.578227 0.105168 0.040138
0.600750 0.109007 0.042031
0.622397 0.113168 0.044214
0.639658 0.118941 0.047839
0.656918 0.124713 0.051465
0.674179 0.130485 0.055091
0.691440 0.136258 0.058716
0.708701 0.142030 0.062342
0.040648 0.042286 0.039450
0.062028 0.045771 0.035334
0.083408 0.049257 0.031217
0.104789 0.052742 0.027100
0.126169 0.056228 0.022984
0.147549 0.059713 0.018867
0.167861 0.062704 0.019302
0.187959 0.065596 0.020646
0.208057 0.068489 0.021991
0.228155 0.071381 0.023336
0.248254 0.074273 0.024681
0.271704 0.076964 0.025932
0.296830 0.079555 0.027136
0.321957 0.082145 0.028341
0.347083 0.084735 0.029545
0.372210 0.087326 0.030750
0.397697 0.089963 0.031989
0.423544 0.092646 0.033264
0.449392 0.095330 0.034539
0.475240 0.098013 0.035813
0.501087 0.100696 0.037088
0.525677 0.103698 0.038590
0.547753 0.107336 0.040548
0.569829 0.110974 0.042506
0.591904 0.114611 0.044463
0.613980 0.118249 0.046421
0.635143 0.122217 0.048679
0.651745 0.127834 0.052442
0.668347 0.133451 0.056205
0.684949 0.139068 0.059968
0.701551 0.144684 0.063731
0.718154 0.150301 0.067494
0.044949 0.048950 0.045405
0.068259 0.053094 0.040402
0.091570 0.057238 0.035398
0.114880 0.061382 0.030394
0.138191 0.065526 0.025390
0.161501 0.069671 0.020386
0.182364 0.073069 0.020893
0.202736 0.076318 0.022504
0.223109 0.079567 0.024114
0.243481 0.082816 0.025724
0.263854 0.086065 0.027334
0.287487 0.088826 0.028795
0.312751 0.091343 0.030183
0.338015 0.093861 0.031570
0.363278 0.096378 0.032958
0.388542 0.098895 0.034345
0.413979 0.101358 0.035717
0.439588 0.103767 0.037074
0.465198 0.106176 0.038431
0.490808 0.108585 0.039788
0.516418 0.110994 0.041145
0.540700 0.113745 0.042724
0.562327 0.117182 0.044745
0.583955 0.120619 0.046767
0.605582 0.124055 0.048789
0.627209 0.127492 0.050810
0.647889 0.131266 0.053145
0.663833 0.136727 0.057045
0.679776 0.142189 0.060945
0.695720 0.147650 0.064845
0.711663 0.153111 0.068746
0.727606 0.158573 0.072646
0.051416 0.055890 0.051479
0.076207 0.060159 0.046015
0.100998 0.064428 0.040550
0.125789 0.068698 0.035086
0.150580 0.072967 0.029621
0.175371 0.077236 0.024157
0.197236 0.081562 0.024644
0.218516 0.085900 0.026321
0.239795 0.090237 0.027998
0.261075 0.094575 0.029675
0.282355 0.098913 0.031352
0.305920 0.102293 0.033045
0.330627 0.105194 0.034745
0.355334 0.108096 0.036445
0.380041 0.110997 0.038145
0.404748 0.113898 0.039845
0.429601 0.116561 0.041502
0.454599 0.118985 0.043117
0.479598 0.121410 0.044731
0.504596 0.123834 0.046346
0.529595 0.126258 0.047961
0.553345 0.128958 0.049770
0.574601 0.132208 0.051970
0.595856 0.135459 0.054171
0.617111 0.138710 0.056371
0.638367 0.141960 0.058571
0.658717 0.145535 0.061077
0.674543 0.150735 0.065114
0.690369 0.155934 0.069152
0.706195 0.161133 0.073189
0.722021 0.166332 0.077226
0.737847 0.171531 0.081264
0.058317 0.062886 0.057576
0.084498 0.067173 0.051737
0.110680 0.071460 0.045897
0.136861 0.075748 0.040058
0.163043 0.080035 0.034218
0.189224 0.084322 0.028379
0.212182 0.089681 0.028826
0.234496 0.095253 0.030531
0.256809 0.100826 0.032235
0.279123 0.106399 0.033940
0.301436 0.111971 0.035644
0.324882 0.116080 0.037572
0.348894 0.119457 0.039610
0.372906 0.122835 0.041648
0.396918 0.126212 0.043687
0.420930 0.129589 0.045725
0.445092 0.132526 0.047698
0.469404 0.135023 0.049606
0.493716 0.137521 0.051513
0.518029 0.140018 0.053420
0.542341 0.142516 0.055328
0.565515 0.145203 0.057400
0.586414 0.148271 0.059801
0.607312 0.151338 0.062202
0.628211 0.154406 0.064604
0.649109 0.157474 0.067005
0.669161 0.160849 0.069702
0.684978 0.165765 0.073877
0.700795 0.170680 0.078051
0.716612 0.175596 0.082226
0.732428 0.180511 0.086400
0.748245 0.185427 0.090575
0.065217 0.069881 0.063673
0.092789 0.074186 0.057459
0.120361 0.078492 0.051244
0.147933 0.082798 0.045030
0.175505 0.087103 0.038815
0.203077 0.091409 0.032601
0.227129 0.097800 0.033008
0.250476 0.104607 0.034740
0.273823 0.111415 0.036472
0.297170 0.118222 0.038204
0.320517 0.125030 0.039936
0.343844 0.129868 0.042098
0.367161 0.133721 0.044475
0.390477 0.137573 0.046852
0.413794 0.141426 0.049229
0.437111 0.145279 0.051606
0.460582 0.148491 0.053895
0.484208 0.151061 0.056095
0.507835 0.153632 0.058295
0.531461 0.156203 0.060495
0.555087 0.158773 0.062695
0.577685 0.161448 0.065029
0.598227 0.164333 0.067632
0.618769 0.167218 0.070234
0.639310 0.170102 0.072837
0.659852 0.172987 0.075440
0.679605 0.176163 0.078327
0.695413 0.180795 0.082639
0.711220 0.185427 0.086951
0.727028 0.190059 0.091262
0.742836 0.194691 0.095574
0.758644 0.199323 0.099886
0.072118 0.076876 0.069770
0.101080 0.081200 0.063181
0.130043 0.085524 0.056591
0.159005 0.089848 0.050002
0.187968 0.094172 0.043412
0.216930 0.098496 0.036822
0.242075 0.105918 0.037190
0.266456 0.113961 0.038950
0.290837 0.122004 0.040709
0.315218 0.130046 0.042469
0.339598 0.138089 0.044228
0.362806 0.143655 0.046625
0.385428 0.147984 0.049340
0.408049 0.152312 0.052056
0.430671 0.156641 0.054771
0.453292 0.160969 0.057487
0.476073 0.164456 0.060091
0.499013 0.167099 0.062584
0.521953 0.169743 0.065076
0.544893 0.172387 0.067569
0.567833 0.175031 0.070062
0.589855 0.177694 0.072659
0.610040 0.180395 0.075462
0.630225 0.183097 0.078266
0.650410 0.185799 0.081070
0.670595 0.188500 0.083874
0.690049 0.191477 0.086952
0.705847 0.195825 0.091401
0.721646 0.200173 0.095850
0.737445 0.204522 0.100299
0.753243 0.208870 0.104748
0.769042 0.213218 0.109197
0.079018 0.083871 0.075868
0.109371 0.088213 0.068903
0.139724 0.092555 0.061938
0.170077 0.096898 0.054974
0.200430 0.101240 0.048009
0.230783 0.105582 0.041044
0.257021 0.114037 0.041373
0.282436 0.123315 0.043159
0.307850 0.132592 0.044946
0.333265 0.141870 0.046733
0.358680 0.151147 0.048520
0.381769 0.157443 0.051152
0.403695 0.162247 0.054206
0.425621 0.167051 0.057259
0.447547 0.171855 0.060313
0.469473 0.176660 0.063367
0.491563 0.180420 0.066287
0.513817 0.183137 0.069073
0.536071 0.185854 0.071858
0.558325 0.188571 0.074644
0.580579 0.191288 0.077429
0.602025 0.193939 0.080288
0.621853 0.196458 0.083293
0.641681 0.198976 0.086298
0.661509 0.201495 0.089303
0.681338 0.204014 0.092308
0.700493 0.206790 0.095577
0.716282 0.210855 0.100163
0.732072 0.214920 0.104749
0.747861 0.218985 0.109336
0.763651 0.223049 0.113922
0.779440 0.227114 0.118508
0.089354 0.092347 0.082658
0.120859 0.096671 0.075300
0.152365 0.100995 0.067942
0.183871 0.105319 0.060584
0.215376 0.109643 0.053226
0.246882 0.113967 0.045868
0.273680 0.122787 0.046118
0.299537 0.132507 0.047889
0.325394 0.142227 0.049661
0.351250 0.151946 0.051433
0.377107 0.161666 0.053204
0.400091 0.168922 0.056284
0.421640 0.174946 0.060018
0.443188 0.180970 0.063752
0.464736 0.186994 0.067486
0.486284 0.193018 0.071220
0.507769 0.197654 0.074727
0.529190 0.200901 0.078006
0.550612 0.204149 0.081286
0.572033 0.207396 0.084565
0.593455 0.210644 0.087845
0.614222 0.213703 0.091183
0.633681 0.216387 0.094640
0.653141 0.219070 0.098096
0.672600 0.221753 0.101552
0.692059 0.224437 0.105009
0.710918 0.227316 0.108705
0.726778 0.231177 0.113599
0.742638 0.235037 0.118493
0.758497 0.238898 0.123387
0.774357 0.242758 0.128282
0.790216 0.246619 0.133176
0.101406 0.101564 0.089795
0.133945 0.105851 0.082034
0.166485 0.110138 0.074274
0.199024 0.114426 0.066513
0.231564 0.118713 0.058753
0.264103 0.123000 0.050992
0.291195 0.131853 0.051145
0.317199 0.141618 0.052880
0.343202 0.151384 0.054615
0.369205 0.161149 0.056350
0.395208 0.170915 0.058085
0.418095 0.179247 0.061720
0.439423 0.186863 0.066304
0.460752 0.194478 0.070889
0.482080 0.202094 0.075474
0.503409 0.209710 0.080058
0.524331 0.215521 0.084288
0.544847 0.219528 0.088162
0.565363 0.223535 0.092036
0.585879 0.227542 0.095910
0.606394 0.231548 0.099784
0.626433 0.235227 0.103711
0.645517 0.238249 0.107744
0.664602 0.241271 0.111777
0.683686 0.244292 0.115810
0.702770 0.247314 0.119842
0.721335 0.250449 0.124084
0.737304 0.254144 0.129372
0.753274 0.257840 0.134659
0.769243 0.261536 0.139947
0.785212 0.265232 0.145234
0.801182 0.268927 0.150522
0.113459 0.110780 0.096932
0.147032 0.115031 0.088769
0.180605 0.119282 0.080606
0.214178 0.123533 0.072443
0.247751 0.127783 0.064280
0.281324 0.132034 0.056117
0.308711 0.140919 0.056171
0.334860 0.150730 0.057870
0.361010 0.160541 0.059568
0.387159 0.170352 0.061267
0.413309 0.180163 0.062965
0.436098 0.189572 0.067155
0.457207 0.198780 0.072590
0.478316 0.207987 0.078026
0.499425 0.217194 0.083461
0.520534 0.226402 0.088897
0.540893 0.233389 0.093849
0.560504 0.238155 0.098318
0.580114 0.242921 0.102786
0.599724 0.247687 0.107255
0.619334 0.252453 0.111724
0.638644 0.256751 0.116240
0.657353 0.260111 0.120849
0.676062 0.263471 0.125458
0.694772 0.266832 0.130067
0.713481 0.270192 0.134676
0.731751 0.273581 0.139463
0.747831 0.277112 0.145144
0.763910 0.280643 0.150825
0.779989 0.284174 0.156506
0.796068 0.287705 0.162187
0.812147 0.291236 0.167868
0.125511 0.119997 0.104069
0.160118 0.124211 0.095503
0.194725 0.128425 0.086938
0.229331 0.132639 0.078372
0.263938 0.136854 0.069806
0.298545 0.141068 0.061241
0.326226 0.149984 0.061198
0.352522 0.159841 0.062860
0.378818 0.169698 0.064522
0.405114 0.179555 0.066184
0.431410 0.189412 0.067846
0.454101 0.199897 0.072590
0.474991 0.210696 0.078877
0.495880 0.221495 0.085163
0.516769 0.232295 0.091449
0.537659 0.243094 0.097735
0.557456 0.251256 0.103410
0.576160 0.256782 0.108473
0.594865 0.262307 0.113537
0.613570 0.267832 0.118600
0.632274 0.273358 0.123664
0.650855 0.278274 0.128768
0.669189 0.281973 0.133953
0.687523 0.285672 0.139138
0.705857 0.289371 0.144324
0.724191 0.293070 0.149509
0.742168 0.296713 0.154843
0.758357 0.300079 0.160917
0.774546 0.303446 0.166991
0.790735 0.306812 0.173066
0.806923 0.310179 0.179140
0.823112 0.313545 0.185214
0.137564 0.129213 0.111206
0.173204 0.133391 0.102238
0.208845 0.137569 0.093270
0.244485 0.141746 0.084301
0.280126 0.145924 0.075333
0.315766 0.150101 0.066365
0.343741 0.159050 0.066225
0.370184 0.168953 0.067850
0.396626 0.178855 0.069476
0.423068 0.188758 0.071101
0.449510 0.198661 0.072726
0.472104 0.210222 0.078026
0.492774 0.222613 0.085163
0.513444 0.235004 0.092300
0.534114 0.247395 0.099437
0.554784 0.259786 0.106574
0.574018 0.269124 0.112971
0.591817 0.275408 0.118629
0.609616 0.281693 0.124287
0.627415 0.287978 0.129945
0.645214 0.294262 0.135603
0.663066 0.299798 0.141296
0.681025 0.303835 0.147058
0.698984 0.307872 0.152819
0.716943 0.311910 0.158581
0.734902 0.315947 0.164343
0.752584 0.319845 0.170222
0.768883 0.323047 0.176690
0.785182 0.326249 0.183157
0.801480 0.329451 0.189625
0.817779 0.332652 0.196093
0.834078 0.335854 0.202560
0.151294 0.139210 0.118697
0.187712 0.143369 0.109377
0.224130 0.147528 0.100057
0.260548 0.151688 0.090736
0.296966 0.155847 0.081416
0.333384 0.160006 0.072096
0.361493 0.169005 0.071904
0.387940 0.178972 0.073539
0.414387 0.188939 0.075173
0.440834 0.198905 0.076808
0.467280 0.208872 0.078442
0.489708 0.221050 0.084138
0.510126 0.234332 0.091865
0.530545 0.247615 0.099592
0.550963 0.260898 0.107319
0.571381 0.274181 0.115046
0.590183 0.284642 0.122317
0.607369 0.292280 0.129133
0.624555 0.299919 0.135948
0.641741 0.307557 0.142763
0.658927 0.315196 0.149578
0.676178 0.321849 0.156300
0.693556 0.326531 0.162835
0.710934 0.331214 0.169370
0.728312 0.335896 0.175904
0.745690 0.340578 0.182439
0.762874 0.345033 0.189062
0.779085 0.348349 0.196129
0.795297 0.351665 0.203196
0.811509 0.354981 0.210263
0.827721 0.358297 0.217330
0.843932 0.361613 0.224396
0.166702 0.149986 0.126543
0.203642 0.154145 0.116921
0.240581 0.158305 0.107299
0.277521 0.162464 0.097677
0.314460 0.166623 0.088054
0.351400 0.170783 0.078432
0.379481 0.179850 0.078236
0.405791 0.189899 0.079926
0.432100 0.199948 0.081615
0.458410 0.209997 0.083304
0.484719 0.220046 0.084994
0.506912 0.232379 0.090928
0.527047 0.245854 0.098984
0.547182 0.259329 0.107040
0.567317 0.272804 0.115097
0.587451 0.286279 0.123153
0.605952 0.297810 0.131449
0.622817 0.307397 0.139984
0.639683 0.316984 0.148519
0.656549 0.326571 0.157054
0.673415 0.336159 0.165589
0.690189 0.344428 0.173780
0.706781 0.350061 0.181285
0.723372 0.355695 0.188789
0.739963 0.361329 0.196294
0.756555 0.366962 0.203798
0.773036 0.372275 0.211364
0.788964 0.375985 0.219235
0.804892 0.379694 0.227107
0.820820 0.383404 0.234979
0.836748 0.387113 0.242851
0.852676 0.390823 0.250723
0.182110 0.160763 0.134389
0.219571 0.164922 0.124465
0.257032 0.169081 0.114541
0.294493 0.173240 0.104617
0.331954 0.177400 0.094693
0.369415 0.181559 0.084769
0.397469 0.190695 0.084568
0.423641 0.200826 0.086312
0.449814 0.210958 0.088057
0.475986 0.221089 0.089801
0.502159 0.231221 0.091545
0.524117 0.243709 0.097717
0.543968 0.257376 0.106103
0.563819 0.271043 0.114488
0.583670 0.284710 0.122874
0.603521 0.298377 0.131260
0.621720 0.310979 0.140580
0.638265 0.322514 0.150835
0.654811 0.334050 0.161090
0.671357 0.345586 0.171344
0.687902 0.357121 0.181599
0.704201 0.367007 0.191261
0.720005 0.373592 0.199735
0.735810 0.380177 0.208209
0.751615 0.386762 0.216683
0.767419 0.393347 0.225157
0.783197 0.399518 0.233665
0.798842 0.403621 0.242342
0.814487 0.407724 0.251019
0.830131 0.411827 0.259695
0.845776 0.415929 0.268372
0.861420 0.420032 0.277049
0.197519 0.171539 0.142235
0.235501 0.175698 0.132009
0.273483 0.179857 0.121783
0.311466 0.184017 0.111557
0.349448 0.188176 0.101331
0.387431 0.192335 0.091105
0.415457 0.201540 0.090900
0.441492 0.211754 0.092699
0.467527 0.221967 0.094498
0.493562 0.232181 0.096297
0.519598 0.242395 0.098097
0.541321 0.255039 0.104506
0.560889 0.268898 0.113221
0.580456 0.282757 0.121936
0.600024 0.296616 0.130651
0.619591 0.310476 0.139366
0.637488 0.324147 0.149711
0.653713 0.337631 0.161686
0.669939 0.351115 0.173660
0.686164 0.364600 0.185635
0.702390 0.378084 0.197610
0.718212 0.389585 0.208741
0.733230 0.397122 0.218185
0.748248 0.404658 0.227628
0.763266 0.412195 0.237072
0.778284 0.419731 0.246516
0.793359 0.426761 0.255966
0.808720 0.431257 0.265448
0.824081 0.435753 0.274930
0.839442 0.440249 0.284412
0.854803 0.444746 0.293894
0.870164 0.449242 0.303375
0.212927 0.182315 0.150081
0.251431 0.186474 0.139553
0.289935 0.190634 0.129025
0.328438 0.194793 0.118497
0.366942 0.198952 0.107970
0.405446 0.203112 0.097442
0.433445 0.212385 0.097232
0.459343 0.222681 0.099086
0.485241 0.232977 0.100940
0.511139 0.243273 0.102794
0.537037 0.253569 0.104648
0.558525 0.266369 0.111296
0.577809 0.280420 0.120340
0.597093 0.294471 0.129384
0.616377 0.308522 0.138429
0.635661 0.322574 0.147473
0.653256 0.337316 0.158842
0.669161 0.352748 0.172537
0.685066 0.368181 0.186231
0.700972 0.383614 0.199926
0.716877 0.399046 0.213620
0.732224 0.412164 0.226221
0.746455 0.420652 0.236635
0.760687 0.429140 0.247048
0.774918 0.437627 0.257462
0.789149 0.446115 0.267875
0.803521 0.454003 0.278267
0.818599 0.458893 0.288554
0.833676 0.463783 0.298841
0.848753 0.468672 0.309128
0.863831 0.473562 0.319415
0.878908 0.478451 0.329702
0.228508 0.193564 0.158588
0.267436 0.197708 0.147713
0.306364 0.201852 0.136838
0.345292 0.205996 0.125962
0.384219 0.210140 0.115087
0.423147 0.214284 0.104211
0.451079 0.223649 0.104020
0.476813 0.234058 0.105965
0.502546 0.244467 0.107911
0.528279 0.254876 0.109856
0.554012 0.265285 0.111802
0.575251 0.278248 0.118736
0.594242 0.292488 0.128164
0.613233 0.306728 0.137593
0.632225 0.320969 0.147022
0.651216 0.335209 0.156450
0.668493 0.350727 0.168684
0.684057 0.367523 0.183723
0.699621 0.384319 0.198762
0.715185 0.401114 0.213802
0.730748 0.417910 0.228841
0.745619 0.432333 0.242750
0.759103 0.442010 0.254398
0.772587 0.451687 0.266047
0.786071 0.461364 0.277695
0.799555 0.471041 0.289344
0.813224 0.480014 0.300899
0.827813 0.485464 0.311991
0.842403 0.490915 0.323083
0.856992 0.496366 0.334175
0.871582 0.501816 0.345267
0.886171 0.507267 0.356359
0.244437 0.205758 0.168419
0.283593 0.209857 0.157105
0.322749 0.213955 0.145790
0.361906 0.218053 0.134476
0.401062 0.222152 0.123161
0.440219 0.226250 0.111847
0.468006 0.235752 0.111719
0.493520 0.246335 0.113830
0.519034 0.256917 0.115940
0.544547 0.267500 0.118050
0.570061 0.278083 0.120160
0.591019 0.291226 0.127478
0.609699 0.305649 0.137401
0.628379 0.320072 0.147323
0.647059 0.334496 0.157246
0.665740 0.348919 0.167168
0.682670 0.364625 0.179947
0.697849 0.381612 0.195581
0.713029 0.398600 0.211214
0.728208 0.415588 0.226848
0.743388 0.432576 0.242482
0.757780 0.447682 0.257376
0.770596 0.459024 0.270790
0.783412 0.470365 0.284204
0.796228 0.481707 0.297618
0.809045 0.493049 0.311032
0.822007 0.503559 0.324193
0.835700 0.509906 0.336090
0.849393 0.516253 0.347987
0.863086 0.522600 0.359884
0.876779 0.528948 0.371781
0.890472 0.535295 0.383678
0.260365 0.217953 0.178250
0.299750 0.222005 0.166497
0.339135 0.226058 0.154743
0.378520 0.230110 0.142990
0.417905 0.234163 0.131236
0.457290 0.238215 0.119482
0.484933 0.247855 0.119419
0.510227 0.258611 0.121694
0.535521 0.269368 0.123969
0.560815 0.280124 0.126243
0.586110 0.290881 0.128518
0.606787 0.304204 0.136221
0.625156 0.318810 0.146637
0.643525 0.333416 0.157054
0.661894 0.348022 0.167470
0.680264 0.362629 0.177887
0.696846 0.378522 0.191209
0.711641 0.395702 0.207438
0.726437 0.412882 0.223666
0.741232 0.430062 0.239895
0.756027 0.447241 0.256123
0.769940 0.463030 0.272002
0.782089 0.476037 0.287182
0.794237 0.489044 0.302361
0.806386 0.502051 0.317541
0.818534 0.515058 0.332720
0.830791 0.527104 0.347487
0.843587 0.534348 0.360189
0.856384 0.541592 0.372891
0.869180 0.548835 0.385593
0.881977 0.556079 0.398295
0.894773 0.563323 0.410997
0.276293 0.230147 0.188081
0.315907 0.234154 0.175889
0.355520 0.238161 0.163696
0.395134 0.242167 0.151503
0.434748 0.246174 0.139311
0.474362 0.250181 0.127118
0.501860 0.259957 0.127119
0.526934 0.270888 0.129558
0.552009 0.281818 0.131997
0.577084 0.292748 0.134437
0.602158 0.303679 0.136876
0.622555 0.317182 0.144963
0.640613 0.331971 0.155874
0.658671 0.346760 0.166784
0.676729 0.361549 0.177695
0.694788 0.376338 0.188605
0.711022 0.392419 0.202472
0.725433 0.409791 0.219295
0.739844 0.427163 0.236118
0.754256 0.444535 0.252941
0.768667 0.461907 0.269765
0.782101 0.478379 0.286628
0.793582 0.493051 0.303573
0.805062 0.507723 0.320519
0.816543 0.522395 0.337464
0.828024 0.537066 0.354409
0.839574 0.550650 0.370781
0.851474 0.558790 0.384288
0.863374 0.566930 0.397795
0.875274 0.575070 0.411302
0.887174 0.583210 0.424809
0.899074 0.591351 0.438316
0.292221 0.242341 0.197912
0.332064 0.246302 0.185281
0.371906 0.250263 0.172649
0.411749 0.254224 0.160017
0.451591 0.258185 0.147385
0.491434 0.262147 0.134753
0.518787 0.272060 0.134818
0.543642 0.283164 0.137422
0.568497 0.294268 0.140026
0.593352 0.305373 0.142630
0.618207 0.316477 0.145235
0.638323 0.330159 0.153706
0.656070 0.345132 0.165110
0.673817 0.360104 0.176515
0.691564 0.375076 0.187919
0.709312 0.390048 0.199324
0.725198 0.406316 0.213735
0.739225 0.423881 0.231152
0.753252 0.441445 0.248570
0.767279 0.459009 0.265988
0.781306 0.476573 0.283406
0.794262 0.493728 0.301254
0.805075 0.510065 0.319965
0.815888 0.526401 0.338676
0.826700 0.542738 0.357386
0.837513 0.559075 0.376097
0.848358 0.574195 0.394075
0.859361 0.583232 0.408387
0.870365 0.592268 0.422699
0.881368 0.601305 0.437011
0.892372 0.610342 0.451323
0.903375 0.619378 0.465635
0.307873 0.254701 0.208287
0.347963 0.258610 0.195166
0.388052 0.262519 0.182045
0.428142 0.266429 0.168923
0.468231 0.270338 0.155802
0.508321 0.274247 0.142681
0.535512 0.284288 0.142803
0.560123 0.295555 0.145573
0.584734 0.306822 0.148343
0.609345 0.318090 0.151113
0.633956 0.329357 0.153884
0.653778 0.343219 0.162754
0.671205 0.358379 0.174674
0.688632 0.373539 0.186593
0.706059 0.388698 0.198513
0.723486 0.403858 0.210433
0.739018 0.420314 0.225402
0.752656 0.438066 0.243421
0.766294 0.455817 0.261439
0.779932 0.473569 0.279458
0.793570 0.491320 0.297476
0.806054 0.509049 0.316216
0.816230 0.526732 0.336400
0.826406 0.544415 0.356583
0.836581 0.562098 0.376767
0.846757 0.579781 0.396950
0.856913 0.596157 0.416267
0.866975 0.605992 0.431252
0.877036 0.615828 0.446236
0.887097 0.625663 0.461220
0.897158 0.635499 0.476205
0.907220 0.645335 0.491189
0.322147 0.267888 0.221379
0.362575 0.271715 0.207517
0.403003 0.275541 0.193655
0.443431 0.279368 0.179793
0.483859 0.283195 0.165930
0.524287 0.287022 0.152068
0.551230 0.297141 0.152211
0.575475 0.308518 0.155155
0.599720 0.319895 0.158099
0.623965 0.331272 0.161044
0.648210 0.342649 0.163988
0.667666 0.356688 0.173330
0.684727 0.372058 0.185872
0.701788 0.387428 0.198414
0.718849 0.402799 0.210956
0.735910 0.418169 0.223498
0.751054 0.434812 0.239094
0.764280 0.452728 0.257743
0.777507 0.470645 0.276393
0.790733 0.488561 0.295043
0.803960 0.506477 0.313692
0.816007 0.524233 0.332856
