filter/Red and Blue 3/lut/Hope 01.cube
# LUT by SparkleStock. Enhanced with VOXCOLOR algorithms.
LUT_3D_SIZE 32
0.015629 0.015629 0.101587
0.027067 0.016480 0.102863
0.038505 0.017330 0.104140
0.049943 0.018181 0.105416
0.061381 0.019032 0.106692
0.072819 0.019883 0.107968
0.096546 0.021167 0.107038
0.122730 0.022537 0.105668
0.148915 0.023908 0.104297
0.175099 0.025279 0.102926
0.201284 0.026649 0.101556
0.236732 0.029312 0.099618
0.276813 0.032620 0.097397
0.316893 0.035929 0.095175
0.356973 0.039237 0.092954
0.397054 0.042546 0.090732
0.433778 0.046327 0.089267
0.467147 0.050581 0.088558
0.500516 0.054835 0.087849
0.533885 0.059089 0.087140
0.567254 0.063342 0.086431
0.596258 0.067407 0.086053
0.616535 0.071094 0.086337
0.636811 0.074780 0.086620
0.657088 0.078467 0.086904
0.677364 0.082154 0.087187
0.696333 0.086258 0.087755
0.708764 0.092449 0.089740
0.721194 0.098641 0.091725
0.733625 0.104833 0.093710
0.746055 0.111024 0.095695
0.758486 0.117216 0.097680
0.015345 0.023049 0.109575
0.029427 0.024934 0.109003
0.043509 0.026818 0.108432
0.057591 0.028703 0.107860
0.071672 0.030587 0.107288
0.085754 0.032472 0.106716
0.110196 0.034385 0.105631
0.136710 0.036305 0.104444
0.163224 0.038225 0.103256
0.189738 0.040144 0.102068
0.216252 0.042064 0.100880
0.251133 0.044836 0.099357
0.290198 0.048035 0.097666
0.329263 0.051234 0.095976
0.368328 0.054432 0.094285
0.407393 0.057631 0.092594
0.443276 0.061097 0.091540
0.475977 0.064829 0.091124
0.508677 0.068561 0.090708
0.541378 0.072294 0.090292
0.574079 0.076026 0.089875
0.602575 0.079621 0.089756
0.622659 0.082942 0.090232
0.642744 0.086263 0.090708
0.662828 0.089583 0.091184
0.682912 0.092904 0.091659
0.701677 0.096671 0.092434
0.713842 0.102671 0.094702
0.726008 0.108670 0.096971
0.738173 0.114670 0.099240
0.750338 0.120669 0.101509
0.762503 0.126669 0.103777
0.015062 0.030470 0.117563
0.031787 0.033388 0.115143
0.048513 0.036306 0.112723
0.065238 0.039225 0.110304
0.081964 0.042143 0.107884
0.098689 0.045061 0.105465
0.123846 0.047604 0.104224
0.150690 0.050073 0.103219
0.177533 0.052541 0.102214
0.204376 0.055010 0.101210
0.231219 0.057478 0.100205
0.265533 0.060360 0.099097
0.303583 0.063449 0.097936
0.341632 0.066538 0.096776
0.379682 0.069627 0.095616
0.417731 0.072716 0.094455
0.452773 0.075866 0.093814
0.484806 0.079077 0.093690
0.516839 0.082288 0.093567
0.548872 0.085499 0.093443
0.580905 0.088710 0.093320
0.608892 0.091835 0.093460
0.628784 0.094790 0.094128
0.648676 0.097745 0.094795
0.668568 0.100700 0.095463
0.688461 0.103654 0.096131
0.707021 0.107085 0.097113
0.718921 0.112892 0.099665
0.730821 0.118700 0.102217
0.742721 0.124507 0.104770
0.754621 0.130314 0.107322
0.766521 0.136122 0.109874
0.014778 0.037890 0.125550
0.034147 0.041842 0.121283
0.053517 0.045794 0.117015
0.072886 0.049746 0.112748
0.092255 0.053698 0.108480
0.111625 0.057650 0.104213
0.137497 0.060823 0.102817
0.164669 0.063840 0.101995
0.191842 0.066858 0.101173
0.219014 0.069875 0.100351
0.246187 0.072892 0.099530
0.279934 0.075884 0.098836
0.316968 0.078863 0.098206
0.354002 0.081843 0.097576
0.391036 0.084822 0.096947
0.428070 0.087801 0.096317
0.462270 0.090635 0.096087
0.493635 0.093325 0.096256
0.525001 0.096014 0.096425
0.556366 0.098704 0.096595
0.587731 0.101393 0.096764
0.615208 0.104049 0.097163
0.634908 0.106638 0.098023
0.654609 0.109227 0.098883
0.674309 0.111816 0.099743
0.694009 0.114405 0.100603
0.712365 0.117498 0.101792
0.724000 0.123114 0.104628
0.735634 0.128729 0.107464
0.747269 0.134344 0.110300
0.758904 0.139960 0.113136
0.770538 0.145575 0.115971
0.014494 0.045311 0.133538
0.036508 0.050297 0.127423
0.058521 0.055282 0.121307
0.080534 0.060268 0.115192
0.102547 0.065254 0.109076
0.124560 0.070239 0.102961
0.151147 0.074042 0.101409
0.178649 0.077608 0.100771
0.206151 0.081174 0.100132
0.233653 0.084741 0.099493
0.261155 0.088307 0.098854
0.294334 0.091408 0.098575
0.330353 0.094278 0.098476
0.366372 0.097147 0.098377
0.402390 0.100017 0.098278
0.438409 0.102886 0.098179
0.471767 0.105405 0.098360
0.502464 0.107573 0.098822
0.533162 0.109741 0.099284
0.563860 0.111909 0.099746
0.594557 0.114077 0.100208
0.621525 0.116263 0.100867
0.641033 0.118486 0.101919
0.660541 0.120709 0.102971
0.680049 0.122932 0.104023
0.699557 0.125155 0.105075
0.717709 0.127912 0.106471
0.729078 0.133335 0.109591
0.740448 0.138758 0.112710
0.751817 0.144181 0.115830
0.763186 0.149605 0.118949
0.774556 0.155028 0.122069
0.014211 0.052731 0.141526
0.038868 0.058751 0.133563
0.063525 0.064770 0.125599
0.088181 0.070790 0.117636
0.112838 0.076809 0.109673
0.137495 0.082828 0.101709
0.164797 0.087261 0.100002
0.192629 0.091376 0.099546
0.220460 0.095491 0.099090
0.248291 0.099606 0.098635
0.276122 0.103721 0.098179
0.308735 0.106933 0.098314
0.343738 0.109692 0.098746
0.378741 0.112452 0.099177
0.413744 0.115211 0.099609
0.448748 0.117971 0.100040
0.481264 0.120174 0.100633
0.511294 0.121821 0.101388
0.541324 0.123467 0.102143
0.571353 0.125114 0.102897
0.601383 0.126761 0.103652
0.627842 0.128478 0.104570
0.647158 0.130335 0.105814
0.666474 0.132192 0.107058
0.685790 0.134049 0.108302
0.705105 0.135906 0.109547
0.723053 0.138325 0.111150
0.734157 0.143556 0.114554
0.745261 0.148787 0.117957
0.756365 0.154018 0.121360
0.767469 0.159250 0.124763
0.778573 0.164481 0.128166
0.014715 0.062161 0.149277
0.041825 0.068391 0.140221
0.068935 0.074620 0.131164
0.096045 0.080850 0.122108
0.123155 0.087080 0.113051
0.150265 0.093310 0.103995
0.179064 0.099060 0.102315
0.208200 0.104715 0.102111
0.237336 0.110370 0.101906
0.266473 0.116025 0.101702
0.295609 0.121680 0.101498
0.327583 0.125835 0.102132
0.360976 0.129240 0.103186
0.394370 0.132644 0.104239
0.427763 0.136049 0.105293
0.461156 0.139453 0.106346
0.492328 0.141901 0.107484
0.521278 0.143392 0.108707
0.550228 0.144883 0.109930
0.579179 0.146375 0.111153
0.608129 0.147866 0.112376
0.633794 0.149321 0.113710
0.652887 0.150706 0.115268
0.671980 0.152090 0.116827
0.691074 0.153474 0.118385
0.710167 0.154859 0.119943
0.727961 0.156791 0.121841
0.739257 0.161464 0.125436
0.750553 0.166137 0.129031
0.761850 0.170811 0.132626
0.773146 0.175484 0.136221
0.784442 0.180157 0.139816
0.015377 0.071992 0.156981
0.044902 0.078267 0.146983
0.074427 0.084543 0.136984
0.103952 0.090818 0.126985
0.133477 0.097094 0.116986
0.163002 0.103369 0.106988
0.193454 0.110576 0.105372
0.224090 0.117969 0.105433
0.254727 0.125362 0.105494
0.285363 0.132755 0.105555
0.316000 0.140149 0.105616
0.347322 0.145413 0.106766
0.378986 0.149614 0.108459
0.410650 0.153814 0.110153
0.442314 0.158015 0.111847
0.473978 0.162215 0.113541
0.503705 0.165020 0.115251
0.531493 0.166428 0.116977
0.559282 0.167837 0.118703
0.587070 0.169246 0.120429
0.614859 0.170655 0.122155
0.639673 0.171891 0.123938
0.658537 0.172781 0.125834
0.677402 0.173672 0.127731
0.696267 0.174562 0.129628
0.715131 0.175452 0.131524
0.732782 0.176868 0.133733
0.744362 0.180910 0.137502
0.755942 0.184952 0.141271
0.767521 0.188994 0.145040
0.779101 0.193036 0.148809
0.790681 0.197077 0.152578
0.016038 0.081823 0.164685
0.047979 0.088144 0.153745
0.079919 0.094465 0.142804
0.111859 0.100787 0.131863
0.143799 0.107108 0.120922
0.175739 0.113429 0.109981
0.207843 0.122092 0.108429
0.239980 0.131223 0.108755
0.272117 0.140354 0.109082
0.304254 0.149486 0.109408
0.336391 0.158617 0.109734
0.367060 0.164991 0.111399
0.396995 0.169988 0.113733
0.426930 0.174984 0.116068
0.456866 0.179980 0.118402
0.486801 0.184977 0.120736
0.515082 0.188138 0.123018
0.541709 0.189465 0.125247
0.568335 0.190791 0.127476
0.594962 0.192117 0.129705
0.621589 0.193444 0.131934
0.645552 0.194460 0.134165
0.664188 0.194857 0.136400
0.682824 0.195253 0.138635
0.701460 0.195650 0.140871
0.720096 0.196046 0.143106
0.737603 0.196945 0.145625
0.749466 0.200356 0.149568
0.761330 0.203766 0.153511
0.773193 0.207177 0.157454
0.785057 0.210588 0.161397
0.796920 0.213998 0.165339
0.016700 0.091654 0.172390
0.051055 0.098021 0.160506
0.085411 0.104388 0.148623
0.119766 0.110755 0.136740
0.154121 0.117122 0.124857
0.188476 0.123489 0.112973
0.222233 0.133608 0.111486
0.255870 0.144477 0.112077
0.289507 0.155346 0.112669
0.323145 0.166216 0.113261
0.356782 0.177085 0.113852
0.386798 0.184570 0.116032
0.415004 0.190362 0.119007
0.443211 0.196154 0.121982
0.471417 0.201946 0.124956
0.499623 0.207738 0.127931
0.526459 0.211257 0.130784
0.551924 0.212501 0.133517
0.577389 0.213745 0.136249
0.602854 0.214989 0.138981
0.628319 0.216233 0.141713
0.651431 0.217030 0.144392
0.669838 0.216932 0.146966
0.688245 0.216835 0.149540
0.706653 0.216737 0.152113
0.725060 0.216640 0.154687
0.742424 0.217022 0.157518
0.754571 0.219801 0.161634
0.766718 0.222581 0.165751
0.778865 0.225360 0.169868
0.791012 0.228139 0.173984
0.803159 0.230919 0.178101
0.017362 0.101485 0.180094
0.054132 0.107898 0.167268
0.090902 0.114310 0.154443
0.127673 0.120723 0.141617
0.164443 0.127136 0.128792
0.201213 0.133549 0.115966
0.236623 0.145124 0.114543
0.271760 0.157731 0.115400
0.306898 0.170338 0.116257
0.342035 0.182946 0.117113
0.377172 0.195553 0.117970
0.406536 0.204148 0.120666
0.433014 0.210736 0.124281
0.459491 0.217324 0.127896
0.485968 0.223912 0.131511
0.512446 0.230500 0.135126
0.537836 0.234375 0.138551
0.562139 0.235537 0.141786
0.586442 0.236699 0.145022
0.610745 0.237860 0.148257
0.635048 0.239022 0.151492
0.657310 0.239600 0.154620
0.675489 0.239008 0.157532
0.693667 0.238416 0.160444
0.711846 0.237825 0.163356
0.730024 0.237233 0.166268
0.747245 0.237098 0.169410
0.759675 0.239247 0.173701
0.772106 0.241395 0.177991
0.784537 0.243543 0.182281
0.796967 0.245691 0.186572
0.809398 0.247840 0.190862
0.019883 0.113143 0.189531
0.059281 0.119663 0.175952
0.098680 0.126182 0.162374
0.138079 0.132702 0.148795
0.177478 0.139221 0.135216
0.216877 0.145741 0.121638
0.253233 0.157816 0.120137
0.288980 0.171003 0.121052
0.324727 0.184190 0.121966
0.360474 0.197377 0.122881
0.396222 0.210564 0.123796
0.425100 0.220191 0.127052
0.450543 0.228038 0.131478
0.475987 0.235886 0.135904
0.501431 0.243733 0.140330
0.526874 0.251581 0.144756
0.551121 0.256434 0.148924
0.574171 0.258294 0.152833
0.597221 0.260155 0.156742
0.620270 0.262015 0.160651
0.643320 0.263875 0.164561
0.664591 0.264901 0.168307
0.682303 0.264261 0.171729
0.700015 0.263621 0.175150
0.717727 0.262980 0.178571
0.735439 0.262340 0.181993
0.752298 0.262069 0.185588
0.764890 0.263647 0.190052
0.777482 0.265225 0.194516
0.790074 0.266803 0.198981
0.802666 0.268381 0.203445
0.815259 0.269959 0.207909
0.023333 0.125716 0.199835
0.065467 0.132373 0.185597
0.107601 0.139029 0.171360
0.149735 0.145686 0.157123
0.191869 0.152343 0.142885
0.234003 0.158999 0.128648
0.270952 0.171098 0.126999
0.306864 0.184285 0.127868
0.342776 0.197471 0.128737
0.378688 0.210658 0.129607
0.414600 0.223845 0.130476
0.443076 0.234466 0.134314
0.467833 0.243805 0.139636
0.492591 0.253143 0.144959
0.517348 0.262482 0.150281
0.542105 0.271821 0.155604
0.565360 0.277964 0.160600
0.587110 0.280913 0.165268
0.608861 0.283862 0.169937
0.630612 0.286810 0.174605
0.652363 0.289759 0.179274
0.672572 0.291569 0.183725
0.689699 0.291103 0.187741
0.706826 0.290636 0.191757
0.723952 0.290170 0.195773
0.741079 0.289703 0.199789
0.757466 0.289487 0.203908
0.770159 0.290526 0.208546
0.782852 0.291564 0.213184
0.795545 0.292602 0.217822
0.808238 0.293641 0.222460
0.820930 0.294679 0.227098
0.026783 0.138288 0.210138
0.071653 0.145082 0.195242
0.116522 0.151876 0.180346
0.161391 0.158670 0.165450
0.206261 0.165464 0.150554
0.251130 0.172258 0.135658
0.288672 0.184379 0.133862
0.324748 0.197566 0.134685
0.360825 0.210753 0.135509
0.396902 0.223940 0.136332
0.432978 0.237126 0.137155
0.461051 0.248742 0.141576
0.485123 0.259571 0.147795
0.509194 0.270401 0.154014
0.533265 0.281231 0.160233
0.557337 0.292060 0.166452
0.579598 0.299494 0.172276
0.600050 0.303531 0.177703
0.620502 0.307569 0.183131
0.640954 0.311606 0.188559
0.661406 0.315643 0.193987
0.680554 0.318237 0.199142
0.697095 0.317944 0.203753
0.713636 0.317652 0.208363
0.730177 0.317359 0.212974
0.746718 0.317066 0.217584
0.762635 0.316905 0.222229
0.775428 0.317404 0.227040
0.788222 0.317902 0.231852
0.801015 0.318401 0.236664
0.813809 0.318900 0.241476
0.826602 0.319398 0.246288
0.030234 0.150861 0.220442
0.077838 0.157792 0.204887
0.125443 0.164723 0.189333
0.173047 0.171654 0.173778
0.220652 0.178585 0.158223
0.268256 0.185516 0.142669
0.306392 0.197660 0.140724
0.342633 0.210847 0.141502
0.378874 0.224034 0.142280
0.415115 0.237221 0.143057
0.451357 0.250408 0.143835
0.479027 0.263017 0.148838
0.502412 0.275338 0.155953
0.525798 0.287659 0.163069
0.549183 0.299980 0.170184
0.572568 0.312300 0.177300
0.593837 0.321024 0.183951
0.612990 0.326150 0.190138
0.632143 0.331276 0.196326
0.651296 0.336401 0.202513
0.670449 0.341527 0.208700
0.688536 0.344905 0.214560
0.704491 0.344786 0.219765
0.720447 0.344667 0.224970
0.736402 0.344548 0.230175
0.752358 0.344429 0.235380
0.767803 0.344323 0.240549
0.780698 0.344282 0.245535
0.793592 0.344241 0.250520
0.806486 0.344200 0.255506
0.819380 0.344159 0.260492
0.832274 0.344118 0.265477
0.033684 0.163433 0.230746
0.084024 0.170501 0.214532
0.134363 0.177570 0.198319
0.184703 0.184638 0.182106
0.235043 0.191706 0.165893
0.285383 0.198775 0.149679
0.324111 0.210942 0.147587
0.360517 0.224129 0.148319
0.396923 0.237315 0.149051
0.433329 0.250502 0.149782
0.469735 0.263689 0.150514
0.497003 0.277293 0.156100
0.519702 0.291104 0.164112
0.542401 0.304916 0.172124
0.565100 0.318728 0.180136
0.587800 0.332540 0.188148
0.608076 0.342553 0.195627
0.625930 0.348768 0.202574
0.643784 0.354983 0.209520
0.661638 0.361197 0.216466
0.679491 0.367412 0.223413
0.696517 0.371573 0.229977
0.711887 0.371628 0.235777
0.727258 0.371683 0.241577
0.742628 0.371738 0.247376
0.757998 0.371792 0.253176
0.772972 0.371741 0.258869
0.785967 0.371160 0.264029
0.798961 0.370580 0.269188
0.811956 0.369999 0.274348
0.824951 0.369418 0.279507
0.837946 0.368837 0.284667
0.038292 0.175745 0.241097
0.091280 0.183148 0.224545
0.144268 0.190550 0.207993
0.197257 0.197952 0.191441
0.250245 0.205354 0.174890
0.303233 0.212757 0.158338
0.342364 0.224937 0.156140
0.378725 0.238074 0.156812
0.415085 0.251210 0.157484
0.451445 0.264347 0.158157
0.487805 0.277483 0.158829
0.514649 0.291531 0.164733
0.536736 0.306033 0.173253
0.558822 0.320536 0.181773
0.580908 0.335038 0.190292
0.602994 0.349541 0.198812
0.622388 0.360540 0.206982
0.639089 0.368035 0.214802
0.655790 0.375530 0.222622
0.672492 0.383026 0.230442
0.689193 0.390521 0.238262
0.705219 0.395754 0.245605
0.719893 0.396463 0.251995
0.734568 0.397172 0.258385
0.749243 0.397881 0.264775
0.763918 0.398590 0.271165
0.778299 0.399047 0.277389
0.791212 0.398247 0.282781
0.804124 0.397446 0.288174
0.817036 0.396646 0.293567
0.829949 0.395846 0.298960
0.842861 0.395045 0.304352
0.044058 0.187798 0.251495
0.099608 0.195731 0.234925
0.155158 0.203664 0.218355
0.210707 0.211596 0.201785
0.266257 0.219529 0.185215
0.321806 0.227462 0.168645
0.361151 0.239647 0.166382
0.397255 0.252683 0.166981
0.433359 0.265719 0.167581
0.469463 0.278755 0.168180
0.505567 0.291791 0.168779
0.531966 0.305731 0.174738
0.553513 0.320124 0.183377
0.575060 0.334517 0.192015
0.596606 0.348910 0.200654
0.618153 0.363303 0.209293
0.636773 0.374983 0.218016
0.652468 0.383951 0.226824
0.668163 0.392919 0.235632
0.683858 0.401887 0.244440
0.699553 0.410855 0.253248
0.714639 0.417449 0.261445
0.728509 0.419292 0.268421
0.742379 0.421135 0.275396
0.756249 0.422978 0.282371
0.770119 0.424822 0.289347
0.783785 0.426241 0.296107
0.796432 0.425541 0.301792
0.809079 0.424842 0.307478
0.821726 0.424142 0.313163
0.834373 0.423442 0.318849
0.847020 0.422742 0.324534
0.049825 0.199850 0.261893
0.107936 0.208314 0.245305
0.166047 0.216777 0.228716
0.224158 0.225241 0.212128
0.282269 0.233704 0.195540
0.340380 0.242167 0.178951
0.379938 0.254357 0.176625
0.415786 0.267293 0.177151
0.451634 0.280228 0.177677
0.487482 0.293163 0.178203
0.523330 0.306098 0.178729
0.549284 0.319932 0.184743
0.570290 0.334215 0.193500
0.591297 0.348498 0.202258
0.612304 0.362781 0.211016
0.633311 0.377064 0.219773
0.651159 0.389426 0.229050
0.665847 0.399867 0.238846
0.680536 0.410308 0.248642
0.695224 0.420749 0.258438
0.709913 0.431190 0.268234
0.724060 0.439143 0.277285
0.737125 0.442121 0.284846
0.750190 0.445098 0.292407
0.763255 0.448076 0.299967
0.776320 0.451054 0.307528
0.789271 0.453435 0.314825
0.801652 0.452836 0.320803
0.814034 0.452237 0.326782
0.826416 0.451638 0.332760
0.838798 0.451038 0.338738
0.851180 0.450439 0.344716
0.055591 0.211903 0.272291
0.116263 0.220897 0.255685
0.176936 0.229891 0.239078
0.237608 0.238885 0.222471
0.298281 0.247879 0.205865
0.358953 0.256873 0.189258
0.398725 0.269067 0.186868
0.434317 0.281902 0.187320
0.469909 0.294736 0.187773
0.505500 0.307571 0.188226
0.541092 0.320406 0.188679
0.566601 0.334133 0.194748
0.587068 0.348306 0.203624
0.607535 0.362479 0.212501
0.628002 0.376653 0.221377
0.648469 0.390826 0.230254
0.665544 0.403869 0.240084
0.679226 0.415783 0.250868
0.692908 0.427697 0.261652
0.706591 0.439610 0.272436
0.720273 0.451524 0.283220
0.733481 0.460837 0.293125
0.745741 0.464949 0.301271
0.758001 0.469061 0.309417
0.770261 0.473173 0.317563
0.782520 0.477285 0.325710
0.794756 0.480629 0.333543
0.806873 0.480130 0.339814
0.818989 0.479632 0.346085
0.831106 0.479133 0.352356
0.843222 0.478635 0.358627
0.855339 0.478136 0.364898
0.061357 0.223955 0.282689
0.124591 0.233480 0.266064
0.187825 0.243004 0.249439
0.251059 0.252529 0.232815
0.314293 0.262054 0.216190
0.377527 0.271578 0.199565
0.417512 0.283777 0.197110
0.452848 0.296511 0.197490
0.488183 0.309245 0.197870
0.523519 0.321979 0.198249
0.558854 0.334713 0.198629
0.583918 0.348333 0.204752
0.603845 0.362397 0.213748
0.623773 0.376460 0.222743
0.643700 0.390524 0.231739
0.663627 0.404587 0.240734
0.679929 0.418312 0.251118
0.692605 0.431699 0.262890
0.705281 0.445086 0.274662
0.717957 0.458472 0.286434
0.730633 0.471859 0.298206
0.742902 0.482532 0.308964
0.754357 0.487778 0.317696
0.765812 0.493025 0.326428
0.777267 0.498271 0.335160
0.788721 0.503517 0.343891
0.800242 0.507823 0.352262
0.812093 0.507425 0.358825
0.823945 0.507027 0.365389
0.835796 0.506629 0.371953
0.847647 0.506231 0.378516
0.859498 0.505833 0.385080
0.067360 0.235441 0.292694
0.132987 0.245609 0.276233
0.198615 0.255777 0.259773
0.264243 0.265944 0.243313
0.329870 0.276112 0.226853
0.395498 0.286280 0.210392
0.435651 0.298505 0.207927
0.470709 0.311142 0.208261
0.505767 0.323778 0.208595
0.540825 0.336415 0.208929
0.575883 0.349051 0.209263
0.600448 0.362545 0.215414
0.619765 0.376469 0.224473
0.639083 0.390392 0.233533
0.658400 0.404315 0.242592
0.677718 0.418238 0.251652
0.693307 0.432349 0.262380
0.705169 0.446647 0.274777
0.717031 0.460946 0.287174
0.728893 0.475244 0.299571
0.740755 0.489542 0.311968
0.752227 0.501209 0.323327
0.762919 0.507615 0.332607
0.773612 0.514020 0.341888
0.784304 0.520425 0.351169
0.794997 0.526830 0.360449
0.805815 0.532164 0.369328
0.817260 0.532144 0.376200
0.828706 0.532125 0.383072
0.840152 0.532105 0.389943
0.851597 0.532085 0.396815
0.863043 0.532065 0.403687
0.073835 0.245791 0.301910
0.141521 0.256829 0.285981
0.209207 0.267866 0.270051
0.276893 0.278903 0.254121
0.344579 0.289940 0.238192
0.412265 0.300977 0.222262
0.452494 0.313270 0.219893
0.487232 0.325815 0.220236
0.521970 0.338360 0.220579
0.556708 0.350905 0.220922
0.591446 0.363450 0.221265
0.615403 0.376780 0.227389
0.633971 0.390502 0.236402
0.652538 0.404224 0.245416
0.671105 0.417946 0.254430
0.689673 0.431668 0.263444
0.704672 0.445572 0.274099
0.716104 0.459660 0.286395
0.727536 0.473748 0.298692
0.738968 0.487836 0.310988
0.750400 0.501924 0.323285
0.761360 0.513853 0.334734
0.771375 0.521466 0.344491
0.781391 0.529079 0.354247
0.791406 0.536691 0.364003
0.801422 0.544304 0.373760
0.811561 0.550800 0.383091
0.822321 0.551713 0.390302
0.833080 0.552627 0.397512
0.843840 0.553540 0.404722
0.854599 0.554453 0.411932
0.865359 0.555366 0.419142
0.080310 0.256142 0.311127
0.150055 0.268049 0.295728
0.219799 0.279955 0.280329
0.289543 0.291861 0.264930
0.359287 0.303767 0.249530
0.429031 0.315673 0.234131
0.469337 0.328035 0.231858
0.503755 0.340489 0.232211
0.538172 0.352942 0.232563
0.572590 0.365395 0.232915
0.607008 0.377849 0.233267
0.630359 0.391014 0.239363
0.648176 0.404535 0.248331
0.665993 0.418055 0.257299
0.683810 0.431576 0.266267
0.701627 0.445097 0.275236
0.716037 0.458796 0.285817
0.727039 0.472673 0.298013
0.738041 0.486551 0.310209
0.749043 0.500428 0.322405
0.760045 0.514306 0.334601
0.770492 0.526498 0.346142
0.779831 0.535318 0.356374
0.789170 0.544138 0.366606
0.798508 0.552958 0.376838
0.807847 0.561778 0.387070
0.817308 0.569436 0.396855
0.827381 0.571282 0.404403
0.837455 0.573129 0.411952
0.847528 0.574975 0.419500
0.857602 0.576822 0.427049
0.867675 0.578668 0.434598
0.086786 0.266493 0.320343
0.158588 0.279269 0.305475
0.230391 0.292044 0.290606
0.302193 0.304819 0.275738
0.373996 0.317594 0.260869
0.445798 0.330369 0.246001
0.486180 0.342800 0.243824
0.520277 0.355162 0.244185
0.554375 0.367524 0.244547
0.588473 0.379886 0.244908
0.622570 0.392248 0.245269
0.645314 0.405248 0.251338
0.662381 0.418568 0.260260
0.679448 0.431887 0.269183
0.696515 0.445207 0.278105
0.713582 0.458526 0.287027
0.727402 0.472019 0.297536
0.737974 0.485686 0.309631
0.748546 0.499353 0.321726
0.759118 0.513020 0.333821
0.769690 0.526688 0.345917
0.779625 0.539142 0.357549
0.788287 0.549169 0.368257
0.796948 0.559197 0.378965
0.805610 0.569225 0.389672
0.814272 0.579252 0.400380
0.823054 0.588072 0.410618
0.832442 0.590852 0.418505
0.841829 0.593631 0.426392
0.851216 0.596410 0.434279
0.860604 0.599190 0.442166
0.869991 0.601969 0.450053
0.093261 0.276844 0.329560
0.167122 0.290489 0.315222
0.240982 0.304133 0.300884
0.314843 0.317777 0.286546
0.388704 0.331421 0.272208
0.462565 0.345065 0.257870
0.503023 0.357565 0.255789
0.536800 0.369835 0.256160
0.570578 0.382106 0.256530
0.604355 0.394376 0.256901
0.638132 0.406647 0.257271
0.660269 0.419482 0.263313
0.676586 0.432601 0.272189
0.692903 0.445719 0.281066
0.709220 0.458837 0.289942
0.725537 0.471955 0.298819
0.738767 0.485243 0.309255
0.748909 0.498699 0.321249
0.759051 0.512156 0.333244
0.769193 0.525613 0.345238
0.779335 0.539069 0.357233
0.788758 0.551786 0.368957
0.796743 0.563021 0.380140
0.804727 0.574256 0.391324
0.812712 0.585491 0.402507
0.820697 0.596727 0.413690
0.828801 0.606708 0.424381
0.837502 0.610421 0.432606
0.846203 0.614133 0.440832
0.854904 0.617846 0.449058
0.863606 0.621558 0.457283
0.872307 0.625271 0.465509
0.100012 0.287235 0.338595
0.175806 0.301707 0.324834
0.251600 0.316179 0.311072
0.327394 0.330651 0.297311
0.403188 0.345123 0.283549
0.478982 0.359595 0.269787
0.519445 0.372136 0.267800
0.552841 0.384291 0.268167
0.586237 0.396445 0.268535
0.619633 0.408600 0.268902
0.653030 0.420754 0.269270
0.674555 0.433416 0.275268
0.690144 0.446332 0.284082
0.705734 0.459247 0.292896
0.721324 0.472163 0.301711
0.736913 0.485078 0.310525
0.749577 0.498163 0.320868
0.759313 0.511417 0.332740
0.769050 0.524670 0.344613
0.778786 0.537924 0.356486
0.788523 0.551178 0.368358
0.797478 0.564081 0.380117
0.804873 0.576281 0.391650
0.812268 0.588482 0.403182
0.819662 0.600682 0.414715
0.827057 0.612882 0.426248
0.834552 0.623821 0.437286
0.842551 0.628451 0.445851
0.850549 0.633082 0.454417
0.858547 0.637712 0.462982
0.866546 0.642343 0.471548
0.874544 0.646973 0.480113
0.108141 0.297822 0.346725
0.185244 0.312916 0.333768
0.262346 0.328010 0.320812
0.339448 0.343104 0.307855
0.416550 0.358199 0.294899
0.493652 0.373293 0.281942
0.533761 0.385739 0.280035
0.566471 0.397656 0.280339
0.599182 0.409573 0.280642
0.631892 0.421489 0.280946
0.664602 0.433406 0.281249
0.685490 0.445848 0.287129
0.700466 0.458553 0.295796
0.715443 0.471258 0.304464
0.730420 0.483963 0.313132
0.745397 0.496668 0.321800
0.757612 0.509566 0.331955
0.767064 0.522655 0.343599
0.776517 0.535744 0.355243
0.785970 0.548833 0.366887
0.795423 0.561923 0.378531
0.804138 0.574633 0.390043
