filter/Red and Blue 3/lut/Hope 02.cube
# LUT by SparkleStock. Enhanced with VOXCOLOR algorithms.
LUT_3D_SIZE 8
DOMAIN_MIN 0.000000 0.000000 0.000000
DOMAIN_MAX 0.903226 0.903226 0.903226
0.023443 0.015629 0.015629
0.078081 0.019032 0.013360
0.147851 0.024176 0.013502
0.233148 0.032400 0.014951
0.332569 0.044381 0.017078
0.439765 0.059506 0.020859
0.537193 0.076836 0.027161
0.622632 0.098499 0.037244
0.040648 0.042286 0.039450
0.126169 0.056228 0.022984
0.208057 0.068489 0.021991
0.296830 0.079555 0.027136
0.397697 0.089963 0.031989
0.501087 0.100696 0.037088
0.591904 0.114611 0.044463
0.668347 0.133451 0.056205
0.065217 0.069881 0.063673
0.175505 0.087103 0.038815
0.273823 0.111415 0.036472
0.367161 0.133721 0.044475
0.460582 0.148491 0.053895
0.555087 0.158773 0.062695
0.639310 0.170102 0.072837
0.711220 0.185427 0.086951
0.101406 0.101564 0.089795
0.231564 0.118713 0.058753
0.343202 0.151384 0.054615
0.439423 0.186863 0.066304
0.524331 0.215521 0.084288
0.606394 0.231548 0.099784
0.683686 0.244292 0.115810
0.753274 0.257840 0.134659
0.151294 0.139210 0.118697
0.296966 0.155847 0.081416
0.414387 0.188939 0.075173
0.510126 0.234332 0.091865
0.590183 0.284642 0.122317
0.658927 0.315196 0.149578
0.728312 0.335896 0.175904
0.795297 0.351665 0.203196
0.212927 0.182315 0.150081
0.366942 0.198952 0.107970
0.485241 0.232977 0.100940
0.577809 0.280420 0.120340
0.653256 0.337316 0.158842
0.716877 0.399046 0.213620
0.774918 0.437627 0.257462
0.833676 0.463783 0.298841
0.276293 0.230147 0.188081
0.434748 0.246174 0.139311
0.552009 0.281818 0.131997
0.640613 0.331971 0.155874
0.711022 0.392419 0.202472
0.768667 0.461907 0.269765
0.816543 0.522395 0.337464
0.863374 0.566930 0.397795
0.336421 0.281074 0.234472
0.499487 0.296053 0.176059
0.614706 0.332967 0.167856
0.698249 0.385738 0.197071
0.763089 0.449310 0.252785
0.814349 0.521634 0.329909
0.853578 0.590985 0.410102
0.887181 0.645156 0.479644
0.038757 0.045311 0.048714
0.097786 0.030125 0.028003
0.177235 0.031610 0.023388
0.273594 0.042749 0.026813
0.382035 0.058244 0.032307
0.491720 0.076881 0.038430
0.585903 0.098944 0.047195
0.663462 0.124711 0.060005
0.069573 0.077237 0.075755
0.131383 0.095027 0.078921
0.225349 0.104394 0.071193
0.335940 0.112199 0.063716
0.450062 0.123089 0.063649
0.555714 0.136882 0.069049
0.642588 0.155076 0.079021
0.712691 0.178119 0.093503
0.106096 0.111449 0.104961
0.176931 0.143238 0.117904
0.287929 0.163821 0.105419
0.407319 0.179493 0.092882
0.513786 0.194443 0.095868
0.609604 0.207251 0.105419
0.690001 0.222192 0.119707
0.756408 0.241753 0.138649
0.150994 0.150548 0.137950
0.231802 0.187778 0.154680
0.355200 0.215219 0.137175
0.478511 0.240964 0.122750
0.575263 0.268746 0.133433
0.658809 0.287913 0.151531
0.732492 0.303593 0.173231
0.796481 0.320907 0.199098
0.205218 0.196062 0.175982
0.293326 0.237822 0.196530
0.420902 0.264144 0.174616
0.544202 0.295549 0.158998
0.635871 0.341368 0.178339
0.707315 0.375997 0.209349
0.773034 0.399092 0.241764
0.833626 0.417508 0.276781
0.265680 0.247803 0.220978
0.358278 0.295002 0.247348
0.488017 0.320553 0.221252
0.609656 0.350305 0.201807
0.695057 0.399581 0.225784
0.756053 0.457001 0.276832
0.810768 0.497618 0.325328
0.863746 0.525395 0.372119
0.325070 0.303660 0.274176
0.420049 0.355784 0.305482
0.550491 0.381411 0.276653
0.670015 0.410438 0.255111
0.750032 0.461104 0.282849
0.803597 0.522995 0.341483
0.845906 0.578219 0.404957
0.886973 0.619425 0.463034
0.380740 0.362888 0.334892
0.477095 0.415218 0.364904
0.607662 0.442091 0.335573
0.724661 0.472713 0.315693
0.798978 0.524565 0.347553
0.845539 0.585553 0.409511
0.878757 0.644645 0.477883
0.908057 0.692449 0.539583
0.062641 0.078609 0.083004
0.118907 0.070546 0.069252
0.208592 0.056410 0.048195
0.316853 0.054654 0.037742
0.431074 0.074192 0.046576
0.539825 0.096965 0.057011
0.629503 0.124037 0.070124
0.701498 0.155295 0.087862
0.102923 0.116945 0.116791
0.161640 0.143506 0.132883
0.253086 0.152534 0.127845
0.367452 0.155509 0.114746
0.492491 0.161221 0.104546
0.599713 0.174683 0.108366
0.683910 0.195359 0.121105
0.749998 0.222437 0.140072
0.146518 0.160750 0.157442
0.210769 0.201075 0.185292
0.305243 0.229859 0.191400
0.421539 0.245063 0.180458
0.547634 0.248861 0.161344
0.650439 0.259349 0.164375
0.730560 0.276116 0.179970
0.793176 0.298854 0.202544
0.195286 0.208794 0.202162
0.265005 0.254276 0.234809
0.362388 0.294263 0.246484
0.479246 0.321158 0.237125
0.603116 0.333366 0.214818
0.696871 0.348887 0.223364
0.771230 0.365381 0.245268
0.830926 0.384865 0.274190
0.249803 0.260568 0.249855
0.323000 0.311148 0.288099
0.422244 0.352104 0.300021
0.539774 0.384494 0.288447
0.661891 0.410791 0.265258
0.741993 0.439538 0.284793
0.807177 0.460865 0.316263
0.862863 0.479787 0.353955
0.307228 0.318975 0.306182
0.383069 0.374413 0.350867
0.483104 0.414776 0.360814
0.598652 0.444809 0.345434
0.715061 0.471843 0.322293
0.783081 0.518286 0.352863
0.837347 0.554583 0.395914
0.885816 0.580507 0.442044
0.363021 0.379765 0.368841
0.440523 0.439173 0.418353
0.540151 0.479199 0.426714
0.653099 0.508009 0.409000
0.764681 0.535308 0.386579
0.825434 0.583753 0.420687
0.866572 0.629767 0.470966
0.903623 0.665268 0.522286
0.416074 0.442235 0.435490
0.493443 0.501610 0.485015
0.591886 0.540979 0.491758
0.701911 0.569961 0.474121
0.808543 0.598493 0.454777
0.862965 0.644920 0.489764
0.895547 0.692509 0.540556
0.922126 0.732761 0.591799
0.095411 0.116310 0.120233
0.149628 0.127178 0.125179
0.242984 0.110649 0.100003
0.359125 0.093344 0.072402
0.482106 0.094604 0.062504
0.587601 0.122865 0.078732
0.671593 0.155192 0.098096
0.739061 0.192484 0.122858
0.140462 0.161648 0.162948
0.202852 0.199612 0.191384
0.288274 0.215859 0.196901
0.399221 0.216659 0.183546
0.529661 0.210706 0.160169
0.639329 0.221223 0.159093
0.721333 0.242877 0.173689
0.784139 0.273177 0.197925
0.187081 0.214320 0.215629
0.255055 0.261927 0.252404
0.332875 0.301881 0.280377
0.436469 0.322251 0.282387
0.567956 0.320165 0.255159
0.681856 0.321939 0.242190
0.763581 0.336792 0.254377
0.823420 0.360497 0.278940
0.236208 0.271065 0.273595
0.307716 0.321011 0.312072
0.381315 0.373356 0.352234
0.479100 0.408299 0.363571
0.607275 0.416651 0.335275
0.719589 0.419090 0.318824
0.798785 0.431354 0.332576
0.856137 0.450019 0.360013
0.288323 0.329764 0.333623
0.361888 0.381904 0.373542
0.435617 0.435720 0.415932
0.530935 0.476269 0.427203
0.653508 0.496147 0.396245
0.755941 0.508106 0.384603
0.827928 0.522730 0.404187
0.881986 0.539170 0.437447
0.343102 0.391830 0.396500
0.418054 0.446289 0.439960
0.490576 0.499446 0.482226
0.582942 0.537714 0.491348
0.700760 0.557060 0.458159
0.792461 0.584628 0.448770
0.853441 0.610609 0.474631
0.900698 0.630905 0.512845
0.396716 0.454846 0.463280
0.472412 0.510049 0.507527
0.542866 0.561953 0.548726
0.631560 0.598537 0.556101
0.744781 0.617066 0.521656
0.829779 0.646036 0.513642
0.878091 0.679529 0.541158
0.914996 0.707089 0.580425
0.448528 0.517095 0.529929
0.523083 0.570945 0.572315
0.590381 0.619992 0.610395
0.674882 0.654831 0.616302
0.783477 0.673850 0.583462
0.862862 0.701998 0.577306
0.903625 0.737089 0.603942
0.931437 0.768912 0.641330
0.136083 0.159226 0.162251
0.192989 0.190275 0.187799
0.280934 0.196907 0.183418
0.397912 0.173985 0.147808
0.533152 0.133269 0.095145
0.636945 0.159097 0.108391
0.714890 0.195577 0.134165
0.777791 0.238895 0.167938
0.181463 0.211553 0.214846
0.244502 0.261426 0.258685
0.327260 0.293776 0.280632
0.434849 0.299174 0.272674
0.563785 0.279997 0.238491
0.678352 0.282217 0.225467
0.758490 0.302892 0.239453
0.817702 0.334991 0.268581
0.228255 0.270217 0.276526
0.294840 0.326356 0.326636
0.372010 0.374452 0.364473
0.466824 0.404350 0.381944
0.581734 0.410823 0.374170
0.707113 0.399208 0.339755
0.791201 0.407702 0.343071
0.848931 0.429284 0.366902
0.276013 0.333876 0.345986
0.344717 0.389466 0.394274
0.418462 0.443494 0.437551
0.500477 0.488592 0.470711
0.596324 0.516028 0.484027
0.728278 0.501048 0.437358
0.815420 0.503405 0.434479
0.872858 0.517237 0.454931
0.324952 0.400348 0.419800
0.395049 0.453449 0.462715
0.468354 0.505392 0.502934
0.540403 0.553962 0.538731
0.616698 0.591895 0.559861
0.747994 0.583731 0.510762
0.834529 0.587256 0.507630
0.891373 0.597437 0.528049
0.378395 0.463128 0.484488
0.448335 0.516281 0.527985
0.519301 0.565951 0.565971
0.587770 0.611632 0.599521
0.659314 0.649316 0.619648
0.780982 0.656054 0.567051
0.857142 0.667275 0.565884
0.908513 0.678198 0.588271
0.431557 0.525912 0.550473
0.500261 0.577190 0.592150
0.568351 0.623504 0.626806
0.632648 0.665608 0.656841
0.698940 0.700956 0.674583
0.813901 0.710252 0.623216
0.878913 0.729326 0.620644
0.921800 0.746908 0.641915
0.482877 0.585560 0.613039
0.549170 0.633690 0.650941
0.613316 0.675824 0.681452
0.672705 0.714081 0.707656
0.733615 0.747197 0.723170
0.843119 0.758130 0.676228
0.901680 0.780519 0.673546
0.937078 0.803164 0.692747
0.179566 0.210083 0.213864
0.236472 0.258110 0.260781
0.322033 0.288875 0.283680
0.433327 0.292055 0.272110
0.563023 0.264402 0.224662
0.684966 0.221584 0.166920
0.760813 0.253209 0.189157
0.818042 0.302766 0.234231
0.223482 0.268118 0.275827
0.282896 0.327491 0.335142
0.361970 0.374407 0.375587
0.464291 0.399448 0.388261
0.588037 0.396890 0.368669
0.713275 0.365252 0.319218
0.794224 0.378750 0.324946
0.849865 0.409981 0.355681
0.270470 0.331764 0.345629
0.331488 0.393135 0.406207
0.403486 0.447225 0.453790
0.493521 0.486842 0.482310
0.604137 0.505623 0.486665
0.726367 0.491005 0.456244
0.813986 0.491483 0.447222
0.871247 0.506704 0.462523
0.319655 0.398400 0.419103
0.381593 0.457267 0.475385
0.448712 0.511823 0.522642
0.526373 0.558157 0.558169
0.618691 0.591095 0.578047
0.731207 0.593424 0.566921
0.824587 0.587035 0.547898
0.885269 0.590780 0.551355
0.370076 0.465585 0.492807
0.432259 0.520788 0.543036
0.497852 0.571470 0.585371
0.565894 0.617249 0.619909
0.638700 0.655464 0.644701
0.734608 0.670544 0.645821
0.830625 0.663762 0.622992
0.895041 0.661878 0.621009
0.420006 0.529975 0.563789
0.480787 0.579790 0.605194
0.544399 0.625731 0.641590
0.609598 0.667657 0.671908
0.676079 0.704221 0.694110
0.747402 0.726950 0.698870
0.839428 0.725429 0.676176
0.905033 0.723735 0.673946
0.472461 0.589369 0.623748
0.529908 0.634985 0.662049
0.589685 0.676678 0.694045
0.650528 0.714575 0.720117
0.711803 0.748027 0.739493
0.775059 0.771728 0.744597
0.859393 0.779637 0.718192
0.920268 0.785277 0.713619
0.522445 0.643277 0.677905
0.576443 0.685213 0.713016
0.632237 0.722838 0.740873
0.688050 0.756748 0.763078
0.743352 0.787116 0.779990
0.802142 0.811695 0.785982
0.881095 0.824684 0.759095
0.936199 0.836730 0.752533
0.221789 0.269447 0.278554
0.276744 0.327257 0.340132
0.356240 0.374698 0.385243
0.460001 0.401602 0.402166
0.583802 0.401146 0.384144
0.709136 0.368598 0.331281
0.796587 0.359224 0.307026
0.854192 0.384140 0.327535
0.266559 0.330751 0.346224
0.323700 0.395732 0.414214
0.396042 0.450790 0.467325
0.489277 0.489453 0.498103
0.604166 0.506103 0.500825
0.727204 0.489306 0.465979
0.818337 0.478839 0.442087
0.876306 0.492406 0.452769
0.314936 0.396336 0.418850
0.372170 0.460278 0.484335
0.437063 0.516449 0.537403
0.518324 0.561153 0.574443
0.620087 0.590026 0.591540
0.735878 0.589080 0.575992
0.829677 0.580023 0.554652
0.889360 0.584445 0.556085
0.365823 0.463416 0.492138
0.422218 0.522648 0.551074
0.481570 0.575668 0.599648
0.550941 0.621240 0.637101
0.635464 0.656643 0.661470
0.739770 0.668767 0.661402
0.834130 0.662731 0.643659
0.896197 0.660971 0.638465
0.417893 0.529379 0.562668
0.473092 0.583264 0.614258
0.529761 0.630942 0.656727
0.589192 0.673309 0.690639
0.654877 0.709583 0.715502
0.743199 0.730205 0.724095
0.835135 0.728132 0.709979
0.899612 0.723611 0.701945
0.468213 0.590134 0.627381
0.520386 0.637064 0.669712
0.574519 0.679596 0.705956
0.630947 0.717880 0.735318
0.689939 0.751490 0.757162
0.752317 0.776286 0.769262
0.837501 0.779083 0.757588
0.903450 0.775593 0.749883
0.516648 0.643332 0.682473
0.565373 0.685329 0.718527
0.615826 0.723175 0.749329
0.668672 0.757290 0.774325
0.723933 0.787735 0.793182
0.779621 0.812310 0.804785
0.850600 0.822678 0.795276
0.911186 0.824691 0.788768
0.563315 0.691496 0.730009
0.607960 0.728930 0.762007
0.654371 0.762589 0.788572
0.702789 0.793057 0.809885
0.753186 0.820735 0.826245
0.804893 0.844940 0.837478
0.866999 0.860741 0.830985
0.922625 0.869091 0.823517
0.266218 0.333381 0.353437
0.318514 0.395886 0.420247
0.392184 0.453462 0.478133
0.487796 0.497324 0.516307
0.602631 0.520480 0.526885
0.723250 0.513192 0.501447
0.817513 0.492193 0.465093
0.877329 0.493097 0.459438
0.310561 0.395087 0.420455
0.367777 0.463461 0.491968
0.433491 0.521665 0.550583
0.516434 0.567104 0.591742
0.620164 0.596677 0.611272
0.734872 0.599248 0.598422
0.829621 0.584231 0.568624
0.890675 0.582428 0.560459
0.359721 0.460689 0.492078
0.416562 0.525879 0.558518
0.475082 0.581043 0.611856
0.546107 0.626019 0.652029
0.635960 0.659292 0.677375
0.741824 0.670026 0.675089
0.835517 0.661911 0.653859
0.898113 0.658237 0.643555
0.412020 0.526606 0.562822
0.466010 0.584726 0.620278
0.518771 0.634498 0.666534
0.578550 0.676992 0.703275
0.651944 0.711568 0.730082
0.746878 0.728363 0.735416
0.837648 0.726657 0.722469
0.901769 0.722183 0.711119
0.465496 0.589581 0.628236
0.516121 0.640453 0.677045
0.564774 0.683866 0.717262
0.614689 0.722222 0.749536
0.671079 0.755968 0.773601
0.752439 0.776899 0.783380
0.838126 0.780226 0.776706
0.903530 0.776186 0.765752
0.515877 0.644622 0.683533
0.562451 0.688544 0.724933
0.607551 0.727053 0.759856
0.653729 0.761240 0.788363
0.703436 0.791756 0.810300
0.761317 0.817088 0.822983
0.838865 0.824362 0.819441
0.905246 0.822249 0.809743
0.560434 0.691220 0.731440
0.603598 0.730030 0.766062
0.645388 0.764225 0.796041
0.688536 0.794831 0.820831
0.735132 0.822534 0.839955
0.787002 0.846459 0.851525
0.847289 0.860467 0.854190
0.907776 0.863343 0.848156
0.603073 0.733607 0.773901
0.641446 0.767587 0.803113
0.679422 0.797802 0.828690
0.719201 0.825213 0.849924
0.762556 0.850418 0.866295
0.811668 0.872450 0.876521
0.862129 0.890658 0.883013
0.916370 0.899333 0.878749
