filter/Red and Blue 3/lut/Hope 04.cube
# LUT by SparkleStock. Enhanced with VOXCOLOR algorithms.
LUT_3D_SIZE 5
DOMAIN_MIN 0.000000 0.000000 0.000000
DOMAIN_MAX 0.903226 0.903226 0.903226
0.039072 0.058608 0.054701
0.128631 0.056899 0.052928
0.278065 0.064524 0.049305
0.490275 0.095876 0.050746
0.685163 0.145992 0.062673
0.043160 0.096971 0.091685
0.194617 0.122099 0.061007
0.354871 0.153086 0.070190
0.563267 0.181477 0.081446
0.742254 0.216529 0.098960
0.054646 0.137477 0.130789
0.270455 0.178903 0.083952
0.447341 0.254160 0.103316
0.615707 0.310792 0.138044
0.782074 0.343535 0.176610
0.077215 0.182449 0.172476
0.364218 0.243194 0.116646
0.566045 0.343135 0.146394
0.702338 0.455548 0.232982
0.822682 0.516355 0.318214
0.110000 0.224341 0.210272
0.469541 0.321968 0.164138
0.678594 0.440158 0.214175
0.796306 0.557029 0.335610
0.872173 0.653358 0.467109
0.035834 0.098980 0.107401
0.151171 0.077694 0.079524
0.346440 0.086655 0.072897
0.569303 0.132817 0.084411
0.736346 0.192799 0.105790
0.045816 0.141982 0.150704
0.141727 0.185337 0.165558
0.381462 0.220191 0.151825
0.634655 0.260142 0.156593
0.798342 0.305666 0.185821
0.064708 0.191355 0.195879
0.191525 0.255706 0.220884
0.472029 0.343162 0.214608
0.694991 0.409689 0.242215
0.842993 0.448787 0.299404
0.093279 0.245711 0.245940
0.261543 0.330614 0.286003
0.578843 0.442556 0.290207
0.768977 0.549758 0.349937
0.876619 0.608694 0.441420
0.137936 0.308089 0.304734
0.358451 0.423956 0.372051
0.690349 0.551161 0.395245
0.851672 0.652774 0.468081
0.914899 0.729898 0.567277
0.034464 0.147048 0.165615
0.121776 0.149171 0.159239
0.396604 0.134116 0.114038
0.642837 0.184527 0.125786
0.785805 0.258629 0.167628
0.050404 0.195651 0.215277
0.132605 0.253302 0.254569
0.363488 0.302257 0.273268
0.674068 0.347428 0.269081
0.838415 0.398922 0.305379
0.076663 0.257422 0.276092
0.185509 0.337379 0.335047
0.402307 0.439586 0.395824
0.718993 0.507941 0.396724
0.880027 0.543719 0.439766
0.114335 0.326737 0.343387
0.264183 0.425967 0.420481
0.495617 0.542424 0.491509
0.785012 0.642044 0.497677
0.908443 0.685190 0.556379
0.171130 0.408992 0.425427
0.377547 0.532248 0.523732
0.614866 0.650657 0.597899
0.859221 0.735042 0.602908
0.937238 0.789479 0.651869
0.041735 0.197085 0.219126
0.103338 0.234432 0.251895
0.331925 0.255934 0.247991
0.715544 0.273019 0.204149
0.840594 0.353313 0.265602
0.064873 0.253416 0.278293
0.142384 0.330812 0.346304
0.355743 0.410875 0.403408
0.707613 0.467217 0.420754
0.878758 0.512885 0.448749
0.102912 0.330985 0.357273
0.214146 0.426639 0.441172
0.411927 0.536286 0.525765
0.702062 0.624623 0.586323
0.900354 0.646712 0.588460
0.165817 0.426287 0.453645
0.318088 0.530780 0.542475
0.526599 0.642761 0.627102
0.718367 0.731136 0.689518
0.914731 0.752840 0.685333
0.249318 0.527405 0.555011
0.444188 0.639224 0.647094
0.641922 0.739105 0.719590
0.792627 0.813166 0.770385
0.939177 0.844379 0.750604
0.059695 0.253204 0.276364
0.118452 0.318530 0.341830
0.320411 0.393978 0.404602
0.675351 0.465127 0.438844
0.885159 0.497015 0.440566
0.093895 0.322605 0.349454
0.179987 0.421688 0.446647
0.377202 0.523764 0.534798
0.706177 0.613344 0.594058
0.908818 0.636643 0.596105
0.151795 0.417837 0.447883
0.274417 0.527869 0.552089
0.453092 0.633610 0.640387
0.721276 0.724004 0.703670
0.915051 0.746020 0.708094
0.247376 0.530398 0.560787
0.405185 0.637915 0.656997
0.574574 0.731893 0.733036
0.742985 0.807784 0.786743
0.913303 0.829882 0.793307
0.396823 0.647051 0.669777
0.545910 0.734606 0.746102
0.684692 0.809361 0.805986
0.813199 0.867526 0.847238
0.921822 0.897182 0.862960
