filter/Red and Blue 3/lut/Hope 04.cube
# LUT by SparkleStock. Enhanced with VOXCOLOR algorithms.
LUT_3D_SIZE 8
DOMAIN_MIN 0.000000 0.000000 0.000000
DOMAIN_MAX 0.903226 0.903226 0.903226
0.039072 0.058608 0.054701
0.084257 0.057285 0.054134
0.145646 0.056899 0.052361
0.227492 0.060365 0.050250
0.331876 0.070148 0.048761
0.458923 0.090189 0.050085
0.581874 0.117003 0.054717
0.685163 0.145992 0.062673
0.040963 0.080728 0.075686
0.112494 0.089065 0.058872
0.183433 0.097717 0.055679
0.268707 0.107099 0.058374
0.377280 0.118127 0.061495
0.506084 0.134800 0.064868
0.625668 0.156297 0.070573
0.720602 0.180212 0.079883
0.044058 0.102312 0.097074
0.138203 0.115436 0.070233
0.225609 0.136552 0.064716
0.316410 0.158520 0.070022
0.418611 0.176805 0.078091
0.540151 0.193223 0.085483
0.655384 0.211043 0.094404
0.748425 0.230895 0.106628
0.050014 0.125094 0.119256
0.166150 0.141243 0.085561
0.272576 0.172460 0.077224
0.370983 0.208600 0.084776
0.465527 0.241483 0.099876
0.572431 0.264109 0.114415
0.679502 0.282384 0.129955
0.771575 0.300378 0.148197
0.059821 0.150026 0.142463
0.199706 0.169907 0.103060
0.324657 0.206256 0.091969
0.432425 0.254204 0.102444
0.524216 0.306752 0.127064
0.612293 0.344289 0.153606
0.705538 0.369182 0.180325
0.792883 0.388774 0.208807
0.073433 0.176116 0.166663
0.240396 0.202291 0.123600
0.383302 0.245971 0.111442
0.500816 0.300517 0.124295
0.594143 0.360548 0.156820
0.669925 0.423114 0.206633
0.743069 0.463888 0.251746
0.816363 0.491744 0.295902
0.090827 0.200315 0.188499
0.285843 0.237785 0.146046
0.445260 0.290945 0.136571
0.569216 0.352659 0.154426
0.660742 0.417567 0.194839
0.729107 0.484304 0.258411
0.788046 0.541548 0.326227
0.844336 0.583406 0.388374
0.110000 0.224341 0.210272
0.334931 0.276247 0.171424
0.507181 0.338650 0.166344
0.633000 0.406021 0.190893
0.720500 0.474093 0.241044
0.782188 0.540751 0.316314
0.830835 0.603537 0.396371
0.872173 0.653358 0.467109
0.037371 0.080539 0.083627
0.095143 0.065310 0.066227
0.167979 0.062528 0.061101
0.260620 0.069433 0.062039
0.374737 0.084194 0.064593
0.505883 0.109210 0.068551
0.623906 0.139050 0.075208
0.715150 0.170674 0.085305
0.040578 0.103390 0.106808
0.084470 0.115726 0.106023
0.169330 0.124234 0.099429
0.282481 0.133949 0.093557
0.412630 0.148565 0.092620
0.549838 0.170215 0.095681
0.666251 0.195492 0.103581
0.753148 0.222519 0.115580
0.046858 0.127469 0.129457
0.092479 0.150457 0.134653
0.200217 0.174205 0.124239
0.330426 0.197292 0.115096
0.456783 0.218931 0.117526
0.586619 0.240004 0.125513
0.698363 0.261905 0.138578
0.783858 0.284777 0.155837
0.055728 0.153227 0.153128
0.110518 0.179674 0.159637
0.242023 0.215509 0.145822
0.387950 0.254619 0.136273
0.508805 0.291445 0.145552
0.622408 0.318084 0.162801
0.725072 0.339971 0.184632
0.808826 0.360637 0.210379
0.067054 0.180793 0.178622
0.132943 0.210774 0.186392
0.283348 0.252357 0.171495
0.444839 0.304275 0.163644
0.568807 0.361533 0.180586
0.662521 0.401682 0.210546
0.751111 0.428831 0.244441
0.829936 0.450632 0.281480
0.082569 0.209518 0.204724
0.163185 0.245793 0.216200
0.333480 0.295588 0.202866
0.508663 0.354455 0.197649
0.632808 0.417794 0.221518
0.713661 0.478099 0.269311
0.784133 0.519278 0.318899
0.850909 0.548281 0.368783
0.102597 0.238792 0.231147
0.201559 0.285511 0.249937
0.390202 0.345288 0.241589
0.575256 0.411248 0.241676
0.696570 0.477801 0.272904
0.768779 0.540614 0.329961
0.823534 0.593486 0.393649
0.874419 0.632859 0.453983
0.127168 0.270520 0.260580
0.244901 0.328078 0.287521
0.449188 0.398597 0.286911
0.640232 0.471300 0.294608
0.755452 0.538614 0.333248
0.818948 0.599101 0.395916
0.862522 0.654811 0.464681
0.899446 0.699876 0.527522
0.035267 0.105550 0.115767
0.083026 0.094975 0.101959
0.178415 0.081989 0.082985
0.296038 0.081448 0.073080
0.418437 0.101159 0.079121
0.548600 0.130945 0.087061
0.659726 0.165071 0.097955
0.743137 0.200940 0.113363
0.040518 0.129652 0.141039
0.074702 0.147127 0.148134
0.159116 0.154600 0.143247
0.283783 0.163006 0.134763
0.435119 0.179669 0.129431
0.581349 0.204644 0.133046
0.696782 0.233451 0.143801
0.779751 0.264501 0.159980
0.048136 0.156302 0.166684
0.083689 0.184702 0.182598
0.171515 0.212464 0.187940
0.304551 0.238126 0.184055
0.468433 0.261378 0.175343
0.616123 0.285772 0.180614
0.730418 0.311044 0.195462
0.812179 0.336950 0.215868
0.058833 0.184975 0.193078
0.101640 0.217215 0.212989
0.200568 0.259201 0.224363
0.345597 0.302862 0.224836
0.517654 0.341913 0.217731
0.653575 0.371605 0.229951
0.760022 0.396145 0.252968
0.839108 0.418384 0.281453
0.072948 0.215306 0.220678
0.123395 0.251765 0.245075
0.236211 0.299751 0.259081
0.396988 0.356605 0.261946
0.579348 0.416581 0.258937
0.694459 0.458020 0.282068
0.786307 0.485871 0.316495
0.860234 0.507575 0.356257
0.090366 0.247702 0.250860
0.153783 0.291337 0.281674
0.282703 0.346517 0.300107
0.455334 0.409190 0.306769
0.639601 0.474608 0.308676
0.741284 0.532373 0.342676
0.815057 0.571574 0.388370
0.877740 0.598865 0.437991
0.112769 0.282568 0.283700
0.193748 0.336481 0.323878
0.339297 0.400560 0.348840
0.520650 0.468973 0.360724
0.701939 0.536271 0.367726
0.792480 0.594321 0.407311
0.849327 0.641291 0.459397
0.896875 0.676167 0.513139
0.141079 0.321235 0.320815
0.240361 0.385290 0.370774
0.400894 0.458042 0.403130
0.587135 0.531270 0.421032
0.760590 0.598279 0.433091
0.839771 0.652177 0.474876
0.884686 0.699963 0.527250
0.918989 0.738873 0.579350
0.034180 0.132774 0.149072
0.067253 0.133884 0.146779
0.166800 0.118967 0.123751
0.307668 0.110487 0.101627
0.463945 0.123383 0.095472
0.591401 0.158157 0.108560
0.694116 0.196886 0.125159
0.771174 0.237525 0.147667
0.041529 0.158279 0.175785
0.073351 0.181320 0.188945
0.149677 0.192422 0.190768
0.278262 0.201706 0.184635
0.451936 0.217069 0.175641
0.608708 0.244615 0.178842
0.723982 0.276268 0.192605
0.804311 0.310842 0.213943
0.050692 0.187516 0.204916
0.088935 0.219817 0.225139
0.155754 0.253186 0.247357
0.278697 0.283922 0.257628
0.462087 0.310293 0.250811
0.633894 0.336239 0.249509
0.754491 0.363084 0.263750
0.835278 0.391131 0.286414
0.063469 0.219842 0.235905
0.110757 0.256350 0.260211
0.180010 0.304335 0.295428
0.305190 0.353854 0.317437
0.493616 0.397091 0.314996
0.665328 0.427624 0.314892
0.782898 0.452436 0.333510
0.861739 0.475017 0.360855
0.080674 0.254660 0.268516
0.137038 0.296010 0.297844
0.217671 0.350001 0.338324
0.352163 0.411322 0.365144
0.543408 0.472715 0.366968
0.702050 0.513778 0.372686
0.808108 0.540156 0.399090
0.882361 0.559914 0.434275
0.100787 0.291703 0.304040
0.171689 0.340721 0.340295
0.264622 0.400316 0.386374
0.407566 0.465586 0.416930
0.600965 0.531220 0.420921
0.746368 0.586485 0.430718
0.834154 0.621600 0.463936
0.897533 0.644752 0.506234
0.126506 0.332467 0.344164
0.217056 0.391591 0.389513
0.324283 0.458149 0.441695
0.473694 0.527063 0.475984
0.664050 0.593148 0.482107
0.794904 0.646338 0.494004
0.864390 0.686485 0.527621
0.913200 0.715438 0.569903
0.158738 0.377856 0.388832
0.270560 0.446744 0.443482
0.390790 0.518795 0.500640
0.542655 0.589428 0.537659
0.724511 0.653840 0.545625
0.840236 0.701365 0.557698
0.896537 0.741130 0.589010
0.932490 0.773298 0.627679
0.035291 0.161322 0.181756
0.060753 0.173080 0.190294
0.134273 0.172401 0.183047
0.283101 0.163987 0.158054
0.498412 0.157955 0.124062
0.635034 0.194230 0.137296
0.730541 0.236532 0.159576
0.800753 0.281497 0.189942
0.044414 0.188217 0.209346
0.073894 0.216963 0.230972
0.140279 0.238674 0.243733
0.269741 0.254007 0.244707
0.463354 0.266718 0.235559
0.636785 0.295183 0.235294
0.752698 0.328449 0.251386
0.829756 0.365011 0.278065
0.056493 0.220166 0.241792
0.093198 0.257071 0.269961
0.160317 0.297369 0.298983
0.276585 0.335973 0.323815
0.447868 0.369258 0.338946
0.645312 0.395592 0.330657
0.773966 0.421779 0.342134
0.855429 0.450219 0.366138
0.072433 0.257251 0.279149
0.118879 0.298721 0.311117
0.194690 0.351392 0.350852
0.303777 0.407280 0.392632
0.451396 0.458285 0.426310
0.661126 0.488791 0.414588
0.794621 0.511122 0.424161
0.877532 0.532446 0.446852
0.092726 0.298832 0.320673
0.150981 0.345188 0.356716
0.241662 0.403525 0.401428
0.349540 0.467691 0.450821
0.474969 0.530000 0.493904
0.685582 0.570560 0.481927
0.815371 0.593293 0.492773
0.895974 0.609589 0.516035
0.117559 0.341949 0.362821
0.190409 0.395038 0.405351
0.292966 0.457644 0.454129
0.407409 0.523795 0.505027
0.531494 0.587837 0.547396
0.726459 0.640772 0.534498
0.839204 0.670038 0.548646
0.910343 0.687193 0.576411
0.148502 0.388909 0.410391
0.241482 0.451111 0.460786
0.357052 0.518381 0.512926
0.476653 0.585762 0.564416
0.596942 0.648411 0.606011
0.773699 0.697314 0.591748
0.866733 0.730230 0.602250
0.923978 0.752339 0.628269
0.186464 0.440984 0.462204
0.301796 0.511124 0.519836
0.428315 0.581195 0.573804
0.548719 0.647360 0.624028
0.660665 0.705788 0.663281
0.818476 0.748078 0.647661
0.896364 0.780197 0.654875
0.940763 0.805500 0.677215
0.040206 0.189870 0.211627
0.062155 0.210995 0.230996
0.123454 0.225179 0.240076
0.247509 0.233767 0.235074
0.441250 0.239226 0.215188
0.666570 0.249593 0.187585
0.770152 0.290261 0.209890
0.832551 0.337812 0.248691
0.051233 0.218667 0.242145
0.078900 0.254515 0.273922
0.139257 0.286414 0.298798
0.256761 0.315917 0.315561
0.440658 0.343107 0.322261
0.661201 0.361643 0.310169
0.784112 0.393576 0.324982
0.857437 0.429952 0.354693
0.066354 0.254386 0.278866
0.102063 0.297651 0.317229
0.166989 0.344078 0.354932
0.279504 0.391517 0.389479
0.447880 0.436490 0.416953
0.658795 0.467027 0.423197
0.795364 0.491675 0.430714
0.877411 0.517091 0.450747
0.086173 0.296496 0.321663
0.132359 0.344543 0.364259
0.207248 0.400370 0.410161
0.316904 0.459767 0.455985
0.465256 0.517467 0.497054
0.659599 0.559693 0.518950
0.803745 0.579723 0.521071
0.892322 0.596219 0.533277
0.111699 0.344407 0.370194
0.170643 0.397496 0.416822
0.259606 0.457199 0.465863
0.369487 0.521325 0.515566
0.497158 0.585788 0.562490
0.665485 0.635942 0.593210
0.810259 0.654864 0.592794
0.902805 0.665872 0.600702
0.147656 0.398209 0.424344
0.220855 0.454518 0.473154
0.321995 0.516822 0.523319
0.439150 0.581651 0.572808
0.562771 0.644731 0.618281
0.687461 0.695022 0.647741
0.820914 0.717114 0.646981
0.912103 0.727518 0.654779
0.186917 0.452560 0.479403
0.277357 0.513998 0.532055
0.389330 0.578158 0.582857
0.509306 0.641673 0.630503
0.626331 0.700858 0.672531
0.731169 0.747060 0.698679
0.846055 0.772730 0.690676
0.925243 0.787419 0.695256
0.234777 0.510100 0.536852
0.344845 0.576132 0.592529
0.464113 0.640273 0.642362
0.580697 0.700032 0.686230
0.686062 0.753061 0.723248
0.776317 0.794293 0.747185
0.874666 0.818913 0.734229
0.940471 0.836591 0.734846
0.048115 0.219205 0.241813
0.069235 0.249211 0.271526
0.124192 0.277250 0.296271
0.235804 0.303858 0.312815
0.414255 0.329085 0.318242
0.641918 0.350748 0.306154
0.785531 0.373620 0.304333
0.865280 0.408352 0.329684
0.062142 0.252223 0.276966
0.091529 0.295817 0.318785
0.148443 0.337161 0.355893
0.257850 0.379199 0.388466
0.431527 0.422052 0.414584
0.651730 0.454735 0.420953
0.800800 0.475721 0.421417
0.884797 0.501619 0.439942
0.081146 0.292732 0.318892
0.119506 0.343400 0.367516
0.183062 0.395641 0.413982
0.290502 0.449836 0.458028
0.451539 0.504216 0.497423
0.659352 0.547096 0.519282
0.810926 0.567785 0.522163
0.898883 0.586043 0.534097
0.106185 0.340101 0.367485
0.155766 0.395351 0.420242
0.229825 0.454477 0.472224
0.335563 0.515762 0.522218
0.478108 0.576304 0.567953
0.666609 0.626136 0.600225
0.816188 0.647352 0.605430
0.907162 0.659731 0.612041
0.138651 0.393733 0.422368
0.202211 0.453366 0.478063
0.289065 0.514841 0.531525
0.394095 0.577563 0.581979
0.516463 0.639525 0.628100
0.676070 0.691396 0.664335
0.817824 0.713398 0.671415
0.910231 0.722085 0.674747
0.184025 0.454195 0.483275
0.261688 0.514951 0.538357
0.358468 0.576638 0.590575
0.468112 0.637683 0.638815
0.584114 0.695842 0.681698
0.695703 0.743827 0.714538
0.820998 0.766771 0.721815
0.911813 0.774642 0.724682
0.240569 0.516893 0.545051
0.331042 0.577062 0.598473
0.433527 0.636601 0.647524
0.541591 0.693718 0.691380
0.648538 0.746343 0.729170
0.741465 0.788719 0.757793
0.839473 0.813836 0.764396
0.917148 0.824315 0.767514
0.307709 0.579470 0.606473
0.408133 0.638888 0.657398
0.510988 0.694871 0.702260
0.611552 0.746407 0.740936
0.705426 0.792388 0.773441
0.784713 0.829215 0.798915
0.862922 0.854211 0.805293
0.927965 0.867838 0.805974
0.059695 0.253204 0.276364
0.082187 0.289375 0.313468
0.134654 0.328678 0.351397
0.239711 0.371276 0.387758
0.408182 0.416114 0.419390
0.626148 0.456987 0.436625
0.791224 0.477079 0.432962
0.885159 0.497015 0.440566
0.076863 0.289479 0.314828
0.110342 0.340542 0.366205
0.167308 0.390218 0.414050
0.272323 0.442491 0.459915
0.437552 0.498043 0.502760
0.648185 0.545498 0.529617
0.808210 0.565357 0.529777
0.900978 0.580260 0.535221
0.100454 0.334903 0.362221
0.144469 0.393159 0.420401
0.209173 0.450250 0.474058
0.312910 0.509240 0.525488
0.465775 0.570166 0.574101
0.663504 0.621336 0.606584
0.817837 0.642731 0.611182
0.910578 0.654153 0.614256
0.132139 0.388252 0.417408
0.188596 0.450234 0.478366
0.263217 0.511336 0.534355
0.364217 0.572756 0.586881
0.498007 0.633837 0.635458
0.676125 0.685894 0.670265
0.822097 0.709071 0.678918
0.914851 0.718197 0.680011
0.173709 0.448226 0.478937
0.245405 0.512979 0.540757
0.330574 0.574640 0.596152
0.427967 0.633946 0.645653
0.540083 0.690776 0.689282
0.689829 0.740861 0.723633
0.823145 0.764910 0.735051
0.915014 0.772653 0.735011
0.231092 0.513829 0.544522
0.317084 0.577586 0.603051
0.408942 0.637050 0.654941
0.505973 0.692518 0.700459
0.607168 0.743855 0.739667
0.710463 0.788104 0.770340
0.824615 0.811370 0.781759
0.913514 0.818779 0.781843
0.307863 0.581114 0.608791
0.399162 0.639755 0.661160
0.489890 0.694001 0.707555
0.580247 0.743829 0.747868
0.669769 0.788949 0.781961
0.754778 0.826666 0.807984
0.838229 0.851383 0.823599
0.913648 0.860627 0.826232
0.396823 0.647051 0.669777
0.483430 0.698538 0.715262
0.566211 0.746088 0.755687
0.645903 0.789463 0.790749
0.722906 0.828283 0.820167
0.795890 0.860275 0.842198
0.859502 0.884801 0.859552
0.921822 0.897182 0.862960
