filter/Red and Blue 3/lut/Hope 02_S.cube
# LUT by SparkleStock. Enhanced with VOXCOLOR algorithms.
LUT_3D_SIZE 5
DOMAIN_MIN 0.000000 0.000000 0.000000
DOMAIN_MAX 0.903226 0.903226 0.903226
0.023443 0.015629 0.015629
0.129458 0.022624 0.013218
0.286092 0.037055 0.015897
0.469762 0.062350 0.022057
0.623199 0.098358 0.037244
0.058317 0.063059 0.057576
0.230090 0.107500 0.025812
0.399787 0.150245 0.030354
0.581883 0.164968 0.042885
0.710353 0.176841 0.072373
0.124818 0.121352 0.103722
0.343397 0.174635 0.058174
0.497440 0.271063 0.073801
0.651348 0.312729 0.104687
0.781833 0.314207 0.156825
0.225468 0.198117 0.156847
0.471917 0.241454 0.103637
0.620662 0.338851 0.140073
0.734279 0.453316 0.229778
0.842827 0.497911 0.314957
0.333727 0.285045 0.233195
0.587950 0.325167 0.163411
0.729247 0.420786 0.221478
0.823916 0.543296 0.346679
0.886687 0.647173 0.474740
0.055788 0.069912 0.074308
0.177161 0.048017 0.053098
0.369804 0.051396 0.063495
0.564361 0.086101 0.075987
0.696004 0.143869 0.084993
0.125380 0.136948 0.133390
0.239781 0.191357 0.168792
0.437296 0.209521 0.170101
0.642562 0.222533 0.172689
0.785224 0.254727 0.178417
0.211616 0.218389 0.206460
0.333994 0.304929 0.241150
0.506364 0.371525 0.221528
0.688840 0.401467 0.233475
0.845490 0.413915 0.266888
0.309974 0.316996 0.297004
0.456214 0.408110 0.341250
0.631912 0.477877 0.299127
0.752435 0.565477 0.327834
0.884363 0.603446 0.382563
0.405554 0.425094 0.409471
0.562672 0.514241 0.460436
0.756245 0.567042 0.421460
0.856827 0.655328 0.465972
0.916136 0.738851 0.537719
0.115546 0.137201 0.140557
0.235530 0.156056 0.152156
0.445668 0.108975 0.110224
0.638917 0.136814 0.124651
0.760353 0.211177 0.150570
0.194980 0.227228 0.230724
0.307373 0.297050 0.305878
0.476513 0.298654 0.332691
0.686456 0.294533 0.319472
0.833046 0.339633 0.318744
0.279845 0.334046 0.344438
0.388500 0.422097 0.415298
0.511786 0.472089 0.445620
0.705959 0.466436 0.421186
0.876773 0.478020 0.430814
0.370778 0.444981 0.456920
0.490575 0.538509 0.526878
0.604767 0.610334 0.543940
0.751244 0.646868 0.483863
0.900585 0.662318 0.497240
0.461547 0.554281 0.571937
0.582811 0.639314 0.637226
0.704637 0.702711 0.657798
0.850560 0.748278 0.600434
0.926544 0.805221 0.606340
0.190311 0.223648 0.228075
0.307599 0.303673 0.304119
0.505678 0.310208 0.286420
0.719737 0.238054 0.193585
0.827818 0.319537 0.256185
0.268101 0.330733 0.345328
0.378048 0.430963 0.449328
0.537502 0.478100 0.501124
0.739751 0.448131 0.470484
0.871906 0.474027 0.474936
0.351906 0.448352 0.476581
0.457351 0.541518 0.565431
0.572302 0.602062 0.623839
0.728918 0.596352 0.635031
0.891852 0.575774 0.616137
0.441187 0.562081 0.599147
0.541910 0.641734 0.663914
0.641602 0.704088 0.706797
0.735720 0.728125 0.713603
0.901975 0.704638 0.681481
0.528346 0.658147 0.692776
0.620350 0.726077 0.747964
0.714926 0.782280 0.782603
0.799866 0.827757 0.795376
0.926645 0.848645 0.738702
0.266218 0.333381 0.353437
0.371566 0.439575 0.464580
0.544801 0.511077 0.524168
0.750760 0.509848 0.494156
0.877246 0.492933 0.459685
0.345430 0.443068 0.475308
0.448179 0.552842 0.586306
0.582855 0.627512 0.654034
0.764157 0.648595 0.657501
0.896372 0.633124 0.627906
0.435015 0.557671 0.599053
0.526343 0.646556 0.684583
0.623561 0.713784 0.742511
0.766440 0.743217 0.763163
0.902169 0.723834 0.745725
0.521972 0.657638 0.699072
0.602237 0.727750 0.763319
0.683160 0.783385 0.809353
0.774145 0.822328 0.833743
0.904962 0.808199 0.822429
0.599354 0.734183 0.774894
0.667251 0.790774 0.823042
0.738240 0.837782 0.858688
0.821055 0.876123 0.877954
0.915607 0.894771 0.875560
