filter/Red and Blue 3/lut/Hope 01.cube
# LUT by SparkleStock. Enhanced with VOXCOLOR algorithms.
LUT_3D_SIZE 8
DOMAIN_MIN 0.000000 0.000000 0.000000
DOMAIN_MAX 0.903226 0.903226 0.903226
0.015629 0.015629 0.101587
0.061381 0.019032 0.106692
0.148915 0.023908 0.104297
0.276813 0.032620 0.097397
0.433778 0.046327 0.089267
0.567254 0.063342 0.086431
0.657088 0.078467 0.086904
0.721194 0.098641 0.091725
0.014494 0.045311 0.133538
0.102547 0.065254 0.109076
0.206151 0.081174 0.100132
0.330353 0.094278 0.098476
0.471767 0.105405 0.098360
0.594557 0.114077 0.100208
0.680049 0.122932 0.104023
0.740448 0.138758 0.112710
0.016038 0.081823 0.164685
0.143799 0.107108 0.120922
0.272117 0.140354 0.109082
0.396995 0.169988 0.113733
0.515082 0.188138 0.123018
0.621589 0.193444 0.131934
0.701460 0.195650 0.140871
0.761330 0.203766 0.153511
0.023333 0.125716 0.199835
0.191869 0.152343 0.142885
0.342776 0.197471 0.128737
0.467833 0.243805 0.139636
0.565360 0.277964 0.160600
0.652363 0.289759 0.179274
0.723952 0.290170 0.195773
0.782852 0.291564 0.213184
0.038292 0.175745 0.241097
0.250245 0.205354 0.174890
0.415085 0.251210 0.157484
0.536736 0.306033 0.173253
0.622388 0.360540 0.206982
0.689193 0.390521 0.238262
0.749243 0.397881 0.264775
0.804124 0.397446 0.288174
0.061357 0.223955 0.282689
0.314293 0.262054 0.216190
0.488183 0.309245 0.197870
0.603845 0.362397 0.213748
0.679929 0.418312 0.251118
0.730633 0.471859 0.298206
0.777267 0.498271 0.335160
0.823945 0.507027 0.365389
0.086786 0.266493 0.320343
0.373996 0.317594 0.260869
0.554375 0.367524 0.244547
0.662381 0.418568 0.260260
0.727402 0.472019 0.297536
0.769690 0.526688 0.345917
0.805610 0.569225 0.389672
0.841829 0.593631 0.426392
0.116271 0.308409 0.354854
0.429912 0.371274 0.306248
0.612126 0.422700 0.292750
0.710788 0.470775 0.307510
0.765647 0.520969 0.343043
0.802324 0.572667 0.388703
0.832049 0.620304 0.432865
0.858956 0.655446 0.473033
0.012226 0.046823 0.140911
0.078323 0.030467 0.121426
0.182470 0.031861 0.113726
0.318308 0.044281 0.110313
0.472346 0.062306 0.106758
0.596747 0.083126 0.107728
0.679823 0.104252 0.112738
0.738746 0.130866 0.122956
0.017239 0.084263 0.174472
0.068411 0.109376 0.177547
0.184057 0.123868 0.165336
0.336522 0.135061 0.150756
0.498281 0.147531 0.142764
0.624461 0.158423 0.142411
0.708201 0.171315 0.148157
0.765946 0.190927 0.160377
0.025345 0.128429 0.210755
0.084445 0.167118 0.220486
0.231067 0.199134 0.201095
0.398977 0.224054 0.181501
0.541929 0.241386 0.179508
0.654739 0.248207 0.185195
0.733261 0.253502 0.195757
0.790136 0.264752 0.212005
0.038458 0.176884 0.250539
0.116085 0.217614 0.259342
0.293169 0.261889 0.234382
0.472722 0.302409 0.213730
0.594262 0.333032 0.219905
0.686832 0.345483 0.235425
0.756413 0.348328 0.253405
0.811584 0.352902 0.274798
0.057826 0.227151 0.293466
0.156136 0.270353 0.300504
0.350946 0.317134 0.274181
0.536705 0.366095 0.254388
0.648464 0.413357 0.265144
0.720325 0.441799 0.291145
0.778885 0.450567 0.317699
0.830483 0.453101 0.344643
0.084404 0.275214 0.335058
0.206813 0.324413 0.344637
0.413856 0.374852 0.319831
0.600255 0.424135 0.300383
0.702133 0.470908 0.311466
0.756194 0.516456 0.345003
0.801904 0.541877 0.379202
0.846257 0.552814 0.411768
0.118102 0.320534 0.373444
0.267533 0.378164 0.388915
0.479230 0.432055 0.367382
0.657922 0.480986 0.349028
0.748060 0.525309 0.359676
0.793044 0.570903 0.392844
0.827442 0.608587 0.430657
0.861968 0.632371 0.467119
0.162755 0.365657 0.410974
0.334089 0.431110 0.432379
0.542886 0.487063 0.414227
0.708477 0.534448 0.396681
0.786389 0.575495 0.405917
0.825125 0.617811 0.437069
0.852824 0.659050 0.475212
0.878703 0.691626 0.513579
0.012171 0.088464 0.182110
0.066266 0.079511 0.169864
0.196831 0.062138 0.142127
0.356844 0.059415 0.123118
0.508849 0.082457 0.125925
0.624797 0.108328 0.133396
0.702343 0.136699 0.146244
0.757879 0.170379 0.165898
0.022294 0.131483 0.221221
0.062914 0.162763 0.238069
0.173289 0.173720 0.229757
0.333454 0.180150 0.211516
0.515880 0.191924 0.195800
0.647678 0.203470 0.193535
0.731026 0.219369 0.202372
0.787189 0.242488 0.219598
0.036660 0.179290 0.263200
0.081684 0.223213 0.289360
0.196527 0.257502 0.290207
0.361080 0.281703 0.274734
0.546877 0.296081 0.253564
0.675964 0.301693 0.250319
0.757691 0.308517 0.259650
0.813129 0.321782 0.277340
0.055245 0.229179 0.306358
0.113218 0.274845 0.333332
0.242776 0.322689 0.337287
0.414313 0.363304 0.323513
0.593849 0.390093 0.301623
0.706849 0.399725 0.303798
0.781030 0.403058 0.317559
0.834515 0.408882 0.338354
0.078414 0.279075 0.349394
0.151752 0.327436 0.377030
0.295801 0.378078 0.381667
0.474500 0.427070 0.367092
0.648831 0.469620 0.343712
0.738354 0.492436 0.354164
0.800794 0.499617 0.374978
0.850911 0.502412 0.400862
0.109438 0.327925 0.391609
0.203475 0.381154 0.422290
0.359538 0.434934 0.428491
0.538295 0.484107 0.414164
0.700036 0.525765 0.390243
0.770541 0.562198 0.401564
0.819975 0.583594 0.427429
0.863409 0.593447 0.458081
0.150697 0.375144 0.431522
0.268892 0.435472 0.467176
0.430770 0.492164 0.475854
0.601313 0.540491 0.462192
0.746532 0.578850 0.437771
0.805841 0.614747 0.448131
0.842821 0.645874 0.474644
0.876539 0.666669 0.507159
0.206785 0.422849 0.471552
0.341968 0.489407 0.511276
0.502208 0.547084 0.521340
0.659229 0.593115 0.507778
0.786422 0.627727 0.483128
0.837477 0.660692 0.492703
0.867369 0.694853 0.519191
0.892857 0.723376 0.552384
0.016094 0.136689 0.228020
0.053161 0.145593 0.234167
0.184247 0.124418 0.202438
0.363186 0.104907 0.165640
0.544629 0.109013 0.148346
0.654027 0.140750 0.164404
0.726365 0.175913 0.186611
0.779002 0.215798 0.216540
0.030962 0.182807 0.272107
0.072279 0.220262 0.296244
0.170090 0.234825 0.297757
0.327640 0.238809 0.281936
0.527768 0.242304 0.257593
0.668456 0.253692 0.252196
0.752418 0.271208 0.263159
0.807343 0.296616 0.284783
0.050747 0.231837 0.317862
0.101811 0.277860 0.346172
0.186874 0.317110 0.367830
0.332297 0.344226 0.367777
0.535444 0.356838 0.342446
0.688311 0.359477 0.326110
0.776502 0.365497 0.331073
0.832136 0.378997 0.348121
0.075633 0.282462 0.363365
0.139679 0.329331 0.390819
0.226752 0.381097 0.421422
0.367877 0.425070 0.429312
0.564418 0.452110 0.404503
0.712086 0.456756 0.386094
0.797099 0.457762 0.390495
0.851825 0.462770 0.407131
0.105743 0.333382 0.407328
0.184992 0.382207 0.435139
0.282776 0.435812 0.466561
0.424790 0.486913 0.474428
0.609987 0.528061 0.448735
0.738798 0.543373 0.433538
0.813946 0.546330 0.441812
0.865883 0.547440 0.461803
0.142268 0.382489 0.449689
0.242764 0.436087 0.479903
0.350340 0.491446 0.512167
0.490208 0.541628 0.519911
0.662022 0.581813 0.493183
0.769567 0.609844 0.473699
0.830775 0.624789 0.484772
0.876223 0.631053 0.508707
0.191824 0.431397 0.491283
0.313539 0.491346 0.525254
0.426440 0.548063 0.558336
0.558243 0.596155 0.565364
0.712615 0.632671 0.537506
0.804150 0.659624 0.517169
0.851407 0.682978 0.526309
0.887209 0.698842 0.550371
0.256859 0.481692 0.533109
0.390520 0.546258 0.569973
0.502116 0.601947 0.602051
0.621677 0.646367 0.607304
0.757017 0.678922 0.579044
0.835720 0.703034 0.559770
0.875016 0.729658 0.568585
0.902706 0.752891 0.592108
0.024790 0.188184 0.279680
0.057028 0.213188 0.300794
0.150314 0.217133 0.295020
0.327460 0.193951 0.253377
0.568834 0.154677 0.188484
0.684324 0.183634 0.203865
0.753134 0.222480 0.233597
0.802450 0.266519 0.271949
0.044214 0.235015 0.325194
0.086905 0.277948 0.355458
0.173027 0.306727 0.370537
0.324209 0.315023 0.361803
0.533720 0.305251 0.331000
0.689182 0.312625 0.317816
0.775077 0.329582 0.327895
0.828650 0.355335 0.351552
0.068503 0.284162 0.371508
0.122420 0.332604 0.403507
0.208997 0.378139 0.430674
0.340991 0.411237 0.444619
0.517848 0.426263 0.439407
0.695468 0.424941 0.410169
0.791777 0.427619 0.407836
0.849037 0.439178 0.421899
0.100959 0.336085 0.418349
0.166410 0.384432 0.449171
0.259405 0.437816 0.480555
0.377623 0.485897 0.506355
0.521129 0.518980 0.517215
0.705618 0.519353 0.480480
0.805376 0.515387 0.472032
0.864488 0.517476 0.481472
0.142493 0.389892 0.464831
0.220302 0.438109 0.494947
0.323187 0.491594 0.524810
0.432249 0.543863 0.552765
0.544775 0.586662 0.570019
0.722207 0.596362 0.530056
0.817976 0.593320 0.520449
0.876014 0.591207 0.529716
0.187160 0.439035 0.506863
0.283184 0.491699 0.538207
0.392599 0.545750 0.568137
0.499139 0.595892 0.595130
0.600935 0.637107 0.610027
0.751762 0.659711 0.563340
0.832819 0.666480 0.554781
0.884985 0.667256 0.566869
0.246397 0.489794 0.549713
0.357753 0.546808 0.582882
0.468147 0.600054 0.611976
0.567578 0.647094 0.636643
0.657713 0.685166 0.648972
0.786340 0.706061 0.601853
0.852021 0.721121 0.589209
0.894878 0.730591 0.599805
0.318330 0.542591 0.592291
0.436768 0.601308 0.626316
0.541870 0.651360 0.653050
0.630466 0.693773 0.674114
0.708278 0.728118 0.683740
0.818526 0.745869 0.639427
0.874576 0.764950 0.626277
0.909036 0.781937 0.635016
0.041427 0.240175 0.332995
0.072933 0.276157 0.364208
0.153564 0.299374 0.377346
0.300827 0.304367 0.365928
0.510769 0.288183 0.327509
0.704712 0.250835 0.267803
0.783548 0.281070 0.290632
0.829046 0.325895 0.332545
0.063486 0.286567 0.376606
0.108278 0.334018 0.412890
0.190437 0.372800 0.438547
0.327090 0.398516 0.447356
0.518115 0.406636 0.434727
0.706478 0.384647 0.394275
0.799150 0.395278 0.396545
0.851540 0.418584 0.417592
0.092897 0.335586 0.422053
0.150464 0.386422 0.458883
0.235939 0.435321 0.490957
0.361788 0.476340 0.512666
0.529273 0.502815 0.518481
0.705155 0.496870 0.495428
0.807616 0.495013 0.484525
0.866812 0.502345 0.490901
0.132294 0.386960 0.468150
0.201848 0.438305 0.503944
0.292796 0.491543 0.537574
0.407870 0.540852 0.565159
0.546924 0.579272 0.581803
0.703735 0.587611 0.572368
0.811232 0.579861 0.554014
0.876297 0.576789 0.551430
0.183378 0.440547 0.514047
0.263449 0.492626 0.549050
0.361161 0.545055 0.580773
0.466529 0.595344 0.608120
0.575498 0.638955 0.628213
0.705833 0.658192 0.627193
0.812749 0.650496 0.605632
0.881808 0.642513 0.599168
0.248097 0.497155 0.559592
0.334032 0.547109 0.592763
0.433628 0.597302 0.621333
0.535709 0.644266 0.644904
0.632277 0.684593 0.661791
0.721048 0.711068 0.662320
0.818314 0.709123 0.641012
0.887067 0.702500 0.635255
0.316653 0.549402 0.602418
0.409817 0.600250 0.634260
0.507321 0.648082 0.660485
0.600623 0.690823 0.681017
0.683834 0.726650 0.694864
0.755090 0.751794 0.695017
0.837366 0.759964 0.667620
0.897290 0.762268 0.658955
0.390446 0.601461 0.643233
0.486755 0.651731 0.673556
0.578044 0.695657 0.696836
0.659608 0.733127 0.713785
0.729126 0.764214 0.724424
0.789388 0.788292 0.724507
0.860002 0.801574 0.695574
0.910353 0.811747 0.684167
0.063264 0.291378 0.382685
0.095135 0.333215 0.419119
0.171726 0.368853 0.444994
0.306507 0.393697 0.455110
0.497777 0.402737 0.444660
0.694672 0.381904 0.402079
0.799615 0.374335 0.383771
0.855607 0.393657 0.398727
0.088201 0.337088 0.424516
0.138269 0.387333 0.465435
0.219599 0.432668 0.498655
0.347187 0.470013 0.520007
0.522572 0.494487 0.524897
0.705350 0.487332 0.499815
0.813751 0.477255 0.479320
0.872824 0.484532 0.482950
0.125053 0.385562 0.468787
0.189315 0.438929 0.510015
0.273633 0.490028 0.546256
0.391485 0.535640 0.573996
0.546224 0.570680 0.589039
0.711477 0.576324 0.578407
0.820951 0.566556 0.558935
0.883369 0.565325 0.554977
0.175018 0.437220 0.514364
0.249934 0.491394 0.554169
0.337128 0.544175 0.590005
0.443359 0.593001 0.619446
0.571470 0.633555 0.639333
0.715728 0.649348 0.638992
0.822888 0.641982 0.622011
0.888282 0.635552 0.613683
0.238245 0.492173 0.560255
0.320136 0.546352 0.598334
0.410323 0.597122 0.631270
0.504708 0.644175 0.658354
0.603018 0.685312 0.678143
0.721128 0.707709 0.683448
0.821719 0.704105 0.668988
0.889098 0.695549 0.658956
0.313868 0.550147 0.605409
0.395505 0.600067 0.639730
0.483543 0.647097 0.668429
0.572727 0.689901 0.691119
0.658452 0.726962 0.707312
0.734583 0.753576 0.714223
0.822386 0.754149 0.701081
0.889490 0.746803 0.691517
0.388999 0.603781 0.646543
0.470880 0.650225 0.676807
0.553600 0.692792 0.701241
0.633652 0.730692 0.719759
0.707593 0.763159 0.732358
0.768279 0.787685 0.737974
0.835929 0.797271 0.725310
0.894009 0.796512 0.716416
0.465897 0.654548 0.684575
0.544061 0.697174 0.710921
0.618640 0.734726 0.731357
0.687667 0.767404 0.746112
0.749402 0.795446 0.755610
0.800026 0.818328 0.760135
0.854350 0.833852 0.749295
0.903847 0.840971 0.738612
0.087061 0.341809 0.428682
0.124037 0.386177 0.468012
0.203729 0.430342 0.502862
0.334304 0.469600 0.528176
0.512023 0.498424 0.538976
0.693440 0.501473 0.523559
0.809509 0.482623 0.492732
0.873192 0.479947 0.483867
0.117146 0.385439 0.468439
0.176601 0.438414 0.513473
0.261712 0.488925 0.552144
0.383633 0.534146 0.581908
0.543246 0.569637 0.599342
0.709473 0.578923 0.592084
0.821863 0.564292 0.566803
0.885522 0.558564 0.555796
0.165245 0.434633 0.512391
0.238591 0.490894 0.557442
0.323114 0.543208 0.596203
0.432598 0.590817 0.627439
0.571930 0.630586 0.648644
0.720698 0.645661 0.647986
0.828239 0.636322 0.629324
0.892565 0.629009 0.617467
0.229220 0.488837 0.558588
0.309310 0.544775 0.600878
0.391681 0.595721 0.637062
0.486610 0.642244 0.666737
0.600114 0.682535 0.688279
0.729780 0.702393 0.692039
0.830464 0.698490 0.679453
0.895413 0.690835 0.667778
0.305692 0.546752 0.605074
0.386843 0.600005 0.643751
0.467794 0.647522 0.675692
0.548404 0.690022 0.701228
0.632029 0.726878 0.719862
0.739295 0.750259 0.725756
0.830357 0.751158 0.717458
0.895323 0.744189 0.706633
0.386744 0.604000 0.648503
0.464547 0.651932 0.681906
0.540308 0.694342 0.709007
0.613731 0.731862 0.730072
0.684731 0.764755 0.745180
0.753432 0.790902 0.752322
0.830508 0.795076 0.745447
0.894444 0.789744 0.735247
0.465177 0.655815 0.685802
0.537119 0.697592 0.713762
0.605133 0.734498 0.735978
0.669605 0.767187 0.752867
0.730477 0.796040 0.764680
0.785027 0.819701 0.769975
0.840382 0.832274 0.767648
0.895461 0.832204 0.760082
0.542077 0.703551 0.719256
0.604449 0.738657 0.741803
0.662719 0.770030 0.759722
0.717317 0.798211 0.773086
0.768374 0.823506 0.781970
0.814072 0.844805 0.785453
0.856378 0.862479 0.786037
0.903040 0.869410 0.779107
