filter/Red and Blue 3/lut/Hope 02_S.cube
# LUT by SparkleStock. Enhanced with VOXCOLOR algorithms.
LUT_3D_SIZE 8
DOMAIN_MIN 0.000000 0.000000 0.000000
DOMAIN_MAX 0.903226 0.903226 0.903226
0.023443 0.015629 0.015629
0.078081 0.019032 0.013360
0.148789 0.024042 0.013502
0.235803 0.031762 0.014951
0.337185 0.042940 0.017078
0.444192 0.058254 0.020859
0.539383 0.076246 0.027161
0.623199 0.098358 0.037244
0.040648 0.042286 0.039450
0.124120 0.060326 0.021666
0.208110 0.076862 0.018112
0.301821 0.091108 0.020489
0.408893 0.102597 0.023329
0.516339 0.111178 0.028721
0.605017 0.121217 0.038340
0.675300 0.136401 0.053192
0.065217 0.070148 0.063673
0.172133 0.093390 0.037010
0.266806 0.128322 0.029860
0.361787 0.159780 0.032083
0.464441 0.177892 0.036764
0.568386 0.183783 0.045528
0.654818 0.186371 0.060142
0.721184 0.192847 0.080299
0.101091 0.102446 0.089637
0.227888 0.125115 0.057070
0.330917 0.172035 0.047429
0.423003 0.221285 0.051703
0.514157 0.256310 0.062661
0.610113 0.266787 0.076560
0.694868 0.267385 0.098403
0.762537 0.268382 0.125170
0.150128 0.141179 0.118091
0.293885 0.160774 0.080145
0.403391 0.206085 0.069829
0.490668 0.265619 0.079908
0.567503 0.325396 0.102665
0.650853 0.351261 0.125785
0.731006 0.359363 0.157535
0.800591 0.362234 0.192761
0.210249 0.186364 0.148529
0.363666 0.203910 0.106485
0.478788 0.242921 0.097773
0.566785 0.297637 0.114000
0.638186 0.361659 0.148283
0.704704 0.423530 0.199067
0.771441 0.454099 0.244331
0.834871 0.471498 0.290322
0.272260 0.236118 0.186057
0.430337 0.252103 0.137353
0.546852 0.289017 0.129498
0.634359 0.341446 0.152127
0.703619 0.404498 0.196839
0.761721 0.474321 0.262235
0.813496 0.531221 0.328901
0.863007 0.571740 0.390331
0.333727 0.285045 0.233195
0.496573 0.299803 0.174783
0.611884 0.336654 0.166502
0.695692 0.389516 0.195424
0.760834 0.453280 0.250603
0.812203 0.525604 0.327288
0.852275 0.594040 0.406178
0.886687 0.647173 0.474740
0.038757 0.045311 0.048714
0.098079 0.029540 0.030930
0.179898 0.028957 0.031523
0.279817 0.037287 0.039999
0.391884 0.050112 0.048218
0.502404 0.068353 0.051560
0.593179 0.093297 0.054496
0.666554 0.122374 0.062529
0.069573 0.077237 0.075755
0.127361 0.095367 0.080758
0.218903 0.106632 0.081683
0.329834 0.115567 0.083171
0.447818 0.125303 0.087586
0.561383 0.135791 0.090498
0.653539 0.151385 0.093107
0.722149 0.174086 0.099611
0.106096 0.111613 0.104961
0.169399 0.146584 0.117071
0.266291 0.177183 0.112089
0.377791 0.200219 0.107124
0.490329 0.214212 0.112142
0.602518 0.221392 0.117912
0.697100 0.228806 0.125534
0.767658 0.242161 0.137921
0.150862 0.150997 0.137914
0.222941 0.193326 0.151675
0.323693 0.237480 0.138299
0.430492 0.276833 0.127358
0.530097 0.305839 0.135892
0.635799 0.316822 0.147383
0.730795 0.321069 0.163213
0.805704 0.327295 0.184787
0.204638 0.196976 0.175808
0.285929 0.243087 0.193142
0.391820 0.287229 0.171850
0.493850 0.335993 0.155337
0.577577 0.388400 0.168817
0.670290 0.413084 0.189543
0.760704 0.422571 0.215248
0.838203 0.428208 0.246105
0.263734 0.249918 0.220298
0.353779 0.298853 0.244865
0.470721 0.334906 0.218208
0.577031 0.377482 0.196407
0.651768 0.436216 0.214090
0.718244 0.492148 0.253868
0.793012 0.521326 0.291368
0.864301 0.538434 0.329704
0.321549 0.307795 0.272853
0.416102 0.360325 0.303037
0.541699 0.389898 0.273954
0.654367 0.424490 0.250990
0.728107 0.480442 0.274565
0.781294 0.544099 0.324782
0.832151 0.596642 0.375938
0.885301 0.633349 0.422551
0.378266 0.365870 0.333945
0.474826 0.418151 0.363447
0.604645 0.445611 0.334130
0.720003 0.477413 0.313751
0.792098 0.530941 0.343735
0.837287 0.593850 0.401340
0.872019 0.654630 0.461548
0.906571 0.702226 0.514781
0.062641 0.078609 0.083004
0.119078 0.069894 0.071996
0.209949 0.053524 0.060448
0.320820 0.047897 0.060743
0.438803 0.062744 0.076571
0.549518 0.084742 0.082896
0.637139 0.115740 0.085022
0.705171 0.151773 0.093223
0.102819 0.116945 0.116895
0.156329 0.140445 0.136714
0.243336 0.144063 0.145715
0.354551 0.143020 0.150240
0.479219 0.147897 0.154294
0.595987 0.159678 0.155259
0.690342 0.180825 0.153132
0.759116 0.211225 0.154746
0.146384 0.160811 0.157502
0.200936 0.200710 0.187155
0.281582 0.227115 0.201195
0.386215 0.240840 0.204291
0.508775 0.244908 0.201644
0.627034 0.251203 0.203029
0.727563 0.263276 0.204775
0.802858 0.283895 0.210129
0.195030 0.209027 0.202162
0.253548 0.257327 0.233923
0.330067 0.300883 0.245065
0.426179 0.331560 0.242026
0.539323 0.345972 0.233052
0.652342 0.353580 0.238316
0.755101 0.360634 0.247573
0.837605 0.372433 0.261770
0.249099 0.261175 0.249807
0.313657 0.315367 0.285425
0.391681 0.365238 0.291965
0.482055 0.408022 0.279766
0.581807 0.441216 0.262140
0.680531 0.459274 0.272831
0.778556 0.468392 0.289837
0.864489 0.476594 0.313364
0.304994 0.320527 0.305756
0.377478 0.377600 0.348461
0.464450 0.424487 0.353646
0.559647 0.465146 0.334416
0.654289 0.503850 0.308654
0.722909 0.548798 0.325048
0.803849 0.572957 0.348600
0.883311 0.587944 0.376506
0.359114 0.382933 0.367723
0.436237 0.442603 0.416106
0.530885 0.485230 0.422085
0.634061 0.519500 0.401507
0.732829 0.554429 0.374925
0.787890 0.607077 0.395457
0.839724 0.651903 0.423827
0.898486 0.682710 0.453452
0.413352 0.444540 0.434639
0.491171 0.503735 0.483746
0.588870 0.543487 0.489833
0.696135 0.574066 0.470918
0.797865 0.605792 0.448703
0.847338 0.656995 0.474814
0.881113 0.709122 0.509513
0.918190 0.750070 0.543861
0.095411 0.116310 0.120233
0.149628 0.126733 0.126582
0.242893 0.108506 0.110515
0.359745 0.087712 0.095575
0.484698 0.084145 0.096850
0.592779 0.110729 0.110127
0.676759 0.146731 0.116736
0.741920 0.188834 0.129765
0.140273 0.161648 0.163137
0.197710 0.195059 0.195516
0.278148 0.200504 0.214699
0.383819 0.192218 0.221384
0.510270 0.183683 0.218544
0.627718 0.195101 0.218265
0.721778 0.220489 0.215052
0.790486 0.256867 0.217295
0.186448 0.214320 0.215999
0.245650 0.258865 0.256069
0.312764 0.285956 0.289508
0.404568 0.294464 0.305521
0.526454 0.288142 0.300774
0.648875 0.289703 0.294706
0.751964 0.303980 0.291734
0.829995 0.329468 0.293839
0.235377 0.271172 0.273941
0.296822 0.321144 0.313585
0.355266 0.364563 0.349226
0.434349 0.390127 0.364192
0.545322 0.393740 0.353033
0.665144 0.392241 0.345455
0.772464 0.398478 0.347071
0.859955 0.413131 0.354781
0.287528 0.330213 0.333654
0.353033 0.384120 0.372629
0.410479 0.436552 0.406234
0.481518 0.475588 0.413193
0.577783 0.494613 0.388251
0.684901 0.498908 0.379453
0.788499 0.503406 0.385357
0.880759 0.511537 0.399891
0.340544 0.393224 0.396153
0.412286 0.448698 0.438334
0.474815 0.502896 0.473619
0.548468 0.545035 0.475909
0.641204 0.571135 0.438647
0.721353 0.597985 0.420066
0.808365 0.612749 0.426134
0.894520 0.623160 0.442732
0.391989 0.457704 0.462189
0.467442 0.512779 0.505680
0.534318 0.565154 0.543380
0.613853 0.604604 0.546047
0.712135 0.629006 0.505702
0.782984 0.663864 0.484248
0.840476 0.697223 0.486755
0.905844 0.720316 0.500032
0.445185 0.519171 0.529079
0.520289 0.572621 0.571210
0.587222 0.621632 0.608274
0.669059 0.657627 0.612160
0.771796 0.679778 0.575366
0.841819 0.714670 0.558521
0.882174 0.756154 0.564541
0.924602 0.789418 0.580078
0.136083 0.159226 0.162251
0.192989 0.190104 0.188140
0.280934 0.195572 0.186922
0.397272 0.170777 0.159910
0.531431 0.127680 0.120115
0.637334 0.150513 0.134234
0.716591 0.189259 0.150238
0.779086 0.236109 0.174104
0.181274 0.211553 0.215035
0.241216 0.257983 0.261373
0.319351 0.280308 0.291891
0.421229 0.274418 0.298896
0.544934 0.247434 0.283558
0.662159 0.252028 0.278399
0.753002 0.278397 0.277643
0.819762 0.317406 0.286818
0.226806 0.270217 0.277426
0.288641 0.322792 0.329688
0.356530 0.357920 0.372926
0.441523 0.369420 0.399365
0.549307 0.358335 0.404440
0.673450 0.350308 0.388180
0.775019 0.362300 0.381539
0.851953 0.387888 0.385412
0.274120 0.333876 0.347125
0.337242 0.387426 0.396401
0.398549 0.430804 0.439756
0.467916 0.456654 0.471767
0.554929 0.461117 0.486014
0.679133 0.446600 0.463190
0.787044 0.446705 0.456208
0.874822 0.458968 0.459829
0.324030 0.400459 0.420238
0.388508 0.453337 0.463310
0.449115 0.500591 0.500570
0.507411 0.536756 0.527487
0.572000 0.555999 0.537573
0.687653 0.542761 0.507739
0.794488 0.537352 0.501137
0.889065 0.540809 0.506046
0.376021 0.464129 0.484402
0.443649 0.517512 0.527451
0.507083 0.566281 0.561908
0.564056 0.608190 0.586072
0.620135 0.639412 0.592510
0.716354 0.644437 0.541065
0.809688 0.645640 0.529457
0.900041 0.648496 0.534839
0.426061 0.528750 0.549542
0.494748 0.579561 0.590670
0.560510 0.625509 0.623452
0.619361 0.666777 0.647721
0.675517 0.701350 0.655325
0.768734 0.715296 0.596013
0.837237 0.734028 0.574217
0.909780 0.747744 0.573163
0.478765 0.587746 0.612257
0.545607 0.635360 0.649841
0.609787 0.677250 0.679822
0.667797 0.715532 0.703830
0.724470 0.749632 0.714434
0.821526 0.766718 0.659053
0.876706 0.795482 0.637512
0.927955 0.819942 0.636190
0.179566 0.210083 0.213864
0.236472 0.258086 0.260830
0.322033 0.288454 0.284525
0.433236 0.290908 0.275345
0.562656 0.262247 0.232166
0.683928 0.218190 0.179248
0.760745 0.250544 0.197496
0.818349 0.301517 0.237542
0.223293 0.268118 0.276016
0.281763 0.326121 0.336065
0.358608 0.368276 0.379876
0.457740 0.386603 0.398755
0.577967 0.377227 0.387894
0.701609 0.343487 0.347653
0.788048 0.360859 0.347574
0.849351 0.396686 0.367665
0.269021 0.331764 0.346427
0.328712 0.391403 0.407442
0.396414 0.438751 0.457605
0.480796 0.466990 0.490996
0.585861 0.471659 0.502499
0.704579 0.449038 0.481347
0.800369 0.450697 0.471514
0.871172 0.468027 0.478152
0.316481 0.398400 0.420785
0.377026 0.455783 0.476784
0.438821 0.504012 0.524558
0.509297 0.537966 0.561143
0.594326 0.553010 0.582913
0.701207 0.538620 0.577436
0.803300 0.527508 0.563327
0.885442 0.528701 0.562134
0.365623 0.465642 0.495179
0.426518 0.519903 0.544521
0.487159 0.566647 0.585686
0.547535 0.603568 0.617401
0.611206 0.626483 0.637707
0.699522 0.617310 0.637784
0.802516 0.599559 0.621712
0.894070 0.591150 0.616902
0.417614 0.530483 0.564465
0.477578 0.579923 0.605398
0.536888 0.624301 0.640513
0.594723 0.661980 0.667160
0.651470 0.690104 0.682304
0.712419 0.696588 0.676408
0.807296 0.683315 0.655481
0.900154 0.674412 0.647707
0.467165 0.591273 0.623628
0.524960 0.636499 0.661527
0.583556 0.677456 0.692768
0.641232 0.713804 0.716326
0.696751 0.744375 0.730104
0.749409 0.762462 0.723858
0.828189 0.767668 0.689494
0.910114 0.769720 0.673178
0.518333 0.644805 0.677671
0.572880 0.686479 0.712549
0.628949 0.723814 0.740143
0.684243 0.757474 0.761296
0.737444 0.787703 0.775494
0.789736 0.812423 0.774713
0.861264 0.829394 0.736973
0.927584 0.842888 0.717414
0.221789 0.269447 0.278554
0.276744 0.327257 0.340132
0.356240 0.374603 0.385385
0.460001 0.401317 0.402790
0.583752 0.400569 0.385789
0.708683 0.367563 0.334993
0.796356 0.358235 0.309888
0.854151 0.383605 0.328816
0.266248 0.330629 0.346535
0.323276 0.395341 0.414587
0.394929 0.448781 0.468624
0.487008 0.484875 0.501299
0.600478 0.498571 0.506925
0.722510 0.479980 0.476021
0.815228 0.470470 0.451292
0.875608 0.485717 0.458314
0.313761 0.396092 0.419615
0.370849 0.459516 0.484965
0.434462 0.513266 0.538860
0.513627 0.553329 0.577699
0.612879 0.575650 0.597548
0.726644 0.568865 0.585763
0.822517 0.557494 0.565944
0.888689 0.560436 0.565341
0.363269 0.463152 0.493550
0.419618 0.521651 0.552067
0.477501 0.572206 0.600812
0.544226 0.612508 0.638953
0.625311 0.639301 0.664520
0.726453 0.639959 0.666562
0.822408 0.625682 0.652944
0.895728 0.617330 0.648444
0.413777 0.529269 0.564757
0.469140 0.582313 0.615703
0.524633 0.628148 0.657518
0.581341 0.666517 0.690606
0.642891 0.695113 0.714472
0.726961 0.699401 0.722449
0.819068 0.682654 0.713501
0.898991 0.666863 0.707800
0.464060 0.590402 0.629043
0.516397 0.636887 0.670749
0.569452 0.678325 0.706203
0.623494 0.714268 0.734288
0.678738 0.743214 0.753918
0.735631 0.756681 0.761362
0.818881 0.743994 0.751991
0.901219 0.729014 0.744712
0.510501 0.644720 0.683693
0.559973 0.686181 0.718968
0.610590 0.723307 0.749202
0.662658 0.756356 0.773234
0.715749 0.784901 0.790034
0.766397 0.804375 0.796650
0.832622 0.807246 0.783635
0.906439 0.802735 0.773356
0.559111 0.692640 0.730599
0.604376 0.729712 0.762094
0.651274 0.763033 0.788407
0.699736 0.793212 0.809285
0.749345 0.820551 0.824555
0.798249 0.843652 0.832917
0.856074 0.858627 0.821423
0.918750 0.866038 0.808461
0.266218 0.333381 0.353437
0.318514 0.395886 0.420247
0.392184 0.453462 0.478133
0.487796 0.497324 0.516307
0.602631 0.520466 0.526898
0.723250 0.513069 0.501571
0.817422 0.491959 0.465418
0.877246 0.492933 0.459685
0.309945 0.394660 0.421229
0.367369 0.463057 0.492535
0.433083 0.521028 0.551063
0.515870 0.566031 0.592316
0.619363 0.595023 0.612156
0.733963 0.596951 0.599840
0.828724 0.581716 0.570720
0.890303 0.580242 0.562127
0.357828 0.459723 0.494020
0.414938 0.524606 0.559914
0.473642 0.579326 0.613163
0.544554 0.623316 0.653488
0.633928 0.654869 0.679142
0.739333 0.663513 0.677712
0.833011 0.653199 0.657646
0.897606 0.648079 0.647487
0.408693 0.525443 0.565578
0.463048 0.582897 0.622362
0.516180 0.632057 0.668361
0.575974 0.673294 0.705101
0.648809 0.705433 0.732131
0.742714 0.718059 0.738423
0.833112 0.710628 0.727144
0.901250 0.701547 0.717063
0.460914 0.588809 0.631040
0.512121 0.638898 0.679362
0.561250 0.681590 0.718938
0.611337 0.718870 0.750833
0.667338 0.750449 0.775060
0.746963 0.765295 0.785564
0.831572 0.758823 0.780877
0.903044 0.746663 0.772307
0.510179 0.644545 0.686080
0.557458 0.688099 0.726763
0.603277 0.725905 0.761090
0.649959 0.759164 0.789216
0.699558 0.788219 0.811008
0.755230 0.809227 0.823580
0.831247 0.806371 0.820914
0.904530 0.795577 0.812989
0.554214 0.691875 0.733431
0.598316 0.730295 0.767258
0.640934 0.763972 0.796860
0.684632 0.794002 0.821394
0.731243 0.820909 0.840147
0.781656 0.842553 0.851062
0.840298 0.850757 0.852477
0.906625 0.848431 0.846360
0.599354 0.734183 0.774894
0.638340 0.767908 0.803632
0.676818 0.797881 0.829057
0.716914 0.825062 0.850182
0.760301 0.849985 0.866282
0.808833 0.871298 0.875998
0.858250 0.887580 0.880991
0.915607 0.894771 0.875560
