filter/Red and Blue 3/lut/Impulse 01_S.cube
# LUT by SparkleStock. Enhanced with VOXCOLOR algorithms.
LUT_3D_SIZE 32
0.042979 0.039072 0.039072
0.057096 0.039237 0.041112
0.071212 0.039403 0.043153
0.085328 0.039568 0.045193
0.099445 0.039734 0.047233
0.117626 0.040309 0.049116
0.138855 0.041191 0.050880
0.160085 0.042073 0.052645
0.181315 0.042956 0.054409
0.203978 0.043893 0.056111
0.235244 0.045161 0.057434
0.266509 0.046430 0.058758
0.297775 0.047698 0.060081
0.329040 0.048966 0.061405
0.363417 0.050628 0.063161
0.399039 0.052448 0.065091
0.434661 0.054268 0.067021
0.470282 0.056087 0.068951
0.504297 0.058017 0.071102
0.534294 0.060223 0.073804
0.564292 0.062429 0.076506
0.594289 0.064634 0.079208
0.624286 0.066840 0.081909
0.643649 0.069329 0.084706
0.661239 0.071866 0.087518
0.678829 0.074402 0.090330
0.696420 0.076939 0.093143
0.710749 0.079877 0.095790
0.720729 0.083351 0.098216
0.730710 0.086825 0.100642
0.740691 0.090299 0.103068
0.750672 0.093773 0.105495
0.042924 0.040616 0.043649
0.057551 0.040968 0.044793
0.072178 0.041320 0.045936
0.086805 0.041673 0.047080
0.101432 0.042025 0.048224
0.120329 0.043064 0.049573
0.142431 0.044619 0.051076
0.164532 0.046173 0.052579
0.186633 0.047728 0.054082
0.210170 0.049333 0.055535
0.242320 0.051236 0.056684
0.274469 0.053139 0.057833
0.306619 0.055042 0.058982
0.338768 0.056946 0.060131
0.373638 0.058967 0.061776
0.409596 0.061036 0.063618
0.445554 0.063105 0.065461
0.481512 0.065173 0.067304
0.515745 0.067253 0.069463
0.545668 0.069359 0.072414
0.575590 0.071465 0.075365
0.605513 0.073571 0.078316
0.635435 0.075677 0.081267
0.654510 0.077917 0.084633
0.671777 0.080180 0.088068
0.689043 0.082442 0.091503
0.706310 0.084705 0.094937
0.720128 0.087396 0.098202
0.729349 0.090658 0.101238
0.738571 0.093921 0.104274
0.747792 0.097183 0.107311
0.757013 0.100445 0.110347
0.042869 0.042160 0.048226
0.058006 0.042699 0.048473
0.073144 0.043238 0.048720
0.088281 0.043777 0.048967
0.103418 0.044316 0.049215
0.123033 0.045819 0.050030
0.146006 0.048046 0.051272
0.168979 0.050273 0.052513
0.191952 0.052501 0.053755
0.216362 0.054772 0.054958
0.249396 0.057310 0.055933
0.282429 0.059849 0.056908
0.315463 0.062387 0.057883
0.348496 0.064925 0.058857
0.383859 0.067306 0.060390
0.420153 0.069624 0.062146
0.456447 0.071941 0.063901
0.492741 0.074259 0.065657
0.527194 0.076488 0.067825
0.557041 0.078494 0.071025
0.586889 0.080501 0.074225
0.616737 0.082507 0.077425
0.646585 0.084514 0.080625
0.665371 0.086505 0.084560
0.682314 0.088494 0.088617
0.699257 0.090482 0.092675
0.716200 0.092471 0.096732
0.729508 0.094915 0.100614
0.737969 0.097965 0.104260
0.746431 0.101016 0.107907
0.754893 0.104067 0.111553
0.763354 0.107117 0.115199
0.042814 0.043704 0.052802
0.058462 0.044430 0.052153
0.074110 0.045155 0.051504
0.089757 0.045881 0.050855
0.105405 0.046607 0.050205
0.125737 0.048575 0.050487
0.149581 0.051474 0.051467
0.173426 0.054374 0.052447
0.197270 0.057273 0.053428
0.222554 0.060211 0.054382
0.256471 0.063385 0.055182
0.290389 0.066558 0.055983
0.324307 0.069731 0.056783
0.358224 0.072905 0.057584
0.394080 0.075645 0.059004
0.430710 0.078212 0.060673
0.467340 0.080778 0.062341
0.503971 0.083345 0.064010
0.538642 0.085723 0.066187
0.568415 0.087630 0.069636
0.598188 0.089537 0.073085
0.627961 0.091444 0.076534
0.657734 0.093351 0.079983
0.676232 0.095093 0.084487
0.692851 0.096808 0.089167
0.709471 0.098522 0.093847
0.726090 0.100237 0.098527
0.738887 0.102434 0.103026
0.746589 0.105273 0.107282
0.754291 0.108112 0.111539
0.761993 0.110951 0.115795
0.769696 0.113789 0.120052
0.042759 0.045248 0.057379
0.058917 0.046160 0.055833
0.075075 0.047073 0.054288
0.091234 0.047985 0.052742
0.107392 0.048898 0.051196
0.128441 0.051330 0.050944
0.153157 0.054902 0.051663
0.177873 0.058474 0.052382
0.202589 0.062045 0.053100
0.228746 0.065651 0.053806
0.263547 0.069459 0.054432
0.298349 0.073268 0.055058
0.333151 0.077076 0.055684
0.367953 0.080884 0.056310
0.404301 0.083984 0.057619
0.441267 0.086800 0.059200
0.478234 0.089615 0.060781
0.515200 0.092431 0.062363
0.550090 0.094959 0.064549
0.579788 0.096766 0.068247
0.609487 0.098573 0.071945
0.639185 0.100381 0.075643
0.668884 0.102188 0.079341
0.687094 0.103681 0.084414
0.703389 0.105122 0.089717
0.719684 0.106563 0.095019
0.735980 0.108003 0.100322
0.748267 0.109953 0.105438
0.755209 0.112580 0.110304
0.762152 0.115207 0.115171
0.769094 0.117834 0.120038
0.776037 0.120462 0.124904
0.042767 0.046666 0.061483
0.058653 0.047986 0.060009
0.074539 0.049306 0.058534
0.090425 0.050625 0.057060
0.106311 0.051945 0.055585
0.128205 0.055123 0.054804
0.154604 0.059695 0.054542
0.181002 0.064266 0.054281
0.207401 0.068838 0.054019
0.235086 0.073421 0.053867
0.270487 0.078078 0.054368
0.305888 0.082735 0.054870
0.341290 0.087392 0.055371
0.376691 0.092048 0.055873
0.413293 0.095573 0.057119
0.450375 0.098645 0.058663
0.487457 0.101717 0.060207
0.524539 0.104789 0.061751
0.559484 0.107437 0.063976
0.589086 0.109023 0.067901
0.618689 0.110610 0.071827
0.648291 0.112197 0.075753
0.677893 0.113783 0.079679
0.696013 0.114864 0.085318
0.712220 0.115860 0.091243
0.728426 0.116856 0.097168
0.744633 0.117852 0.103093
0.756696 0.119383 0.108912
0.763235 0.121628 0.114588
0.769773 0.123873 0.120264
0.776312 0.126118 0.125940
0.782851 0.128363 0.131616
0.042822 0.047989 0.065233
0.057849 0.049882 0.064555
0.072876 0.051775 0.063878
0.087903 0.053667 0.063200
0.102930 0.055560 0.062522
0.125764 0.059695 0.061214
0.154454 0.065511 0.059434
0.183144 0.071328 0.057653
0.211834 0.077144 0.055873
0.241538 0.082939 0.054406
0.277325 0.088605 0.054820
0.313112 0.094270 0.055234
0.348899 0.099936 0.055649
0.384686 0.105601 0.056063
0.421363 0.109601 0.057285
0.458395 0.112934 0.058829
0.495427 0.116268 0.060373
0.532460 0.119601 0.061917
0.567337 0.122346 0.064202
0.596827 0.123622 0.068339
0.626318 0.124897 0.072476
0.655808 0.126172 0.076614
0.685298 0.127448 0.080751
0.703477 0.127993 0.086955
0.719771 0.128416 0.093502
0.736064 0.128840 0.100050
0.752358 0.129263 0.106598
0.764412 0.130248 0.113183
0.770814 0.131982 0.119817
0.777216 0.133717 0.126452
0.783617 0.135451 0.133087
0.790019 0.137185 0.139722
0.042877 0.049313 0.068983
0.057045 0.051778 0.069102
0.071213 0.054243 0.069221
0.085381 0.056709 0.069340
0.099549 0.059174 0.069459
0.123324 0.064266 0.067625
0.154305 0.071328 0.064325
0.185286 0.078390 0.061026
0.216267 0.085451 0.057726
0.247989 0.092458 0.054945
0.284162 0.099132 0.055272
0.320336 0.105806 0.055599
0.356509 0.112479 0.055926
0.392682 0.119153 0.056254
0.429433 0.123628 0.057450
0.466416 0.127223 0.058994
0.503398 0.130818 0.060538
0.540381 0.134413 0.062082
0.575190 0.137256 0.064427
0.604569 0.138220 0.068777
0.633947 0.139184 0.073126
0.663325 0.140148 0.077475
0.692703 0.141112 0.081824
0.710941 0.141122 0.088591
0.727322 0.140973 0.095761
0.743702 0.140823 0.102932
0.760083 0.140674 0.110102
0.772128 0.141113 0.117453
0.778393 0.142337 0.125047
0.784658 0.143561 0.132641
0.790923 0.144784 0.140234
0.797188 0.146008 0.147828
0.042932 0.050636 0.072732
0.056241 0.053674 0.073648
0.069550 0.056712 0.074564
0.082858 0.059751 0.075480
0.096167 0.062789 0.076397
0.120883 0.068838 0.074036
0.154155 0.077144 0.069217
0.187427 0.085451 0.064398
0.220699 0.093758 0.059580
0.254441 0.101976 0.055484
0.291000 0.109658 0.055724
0.327559 0.117341 0.055964
0.364118 0.125023 0.056204
0.400677 0.132706 0.056444
0.437503 0.137655 0.057616
0.474436 0.141512 0.059159
0.511369 0.145368 0.060703
0.548301 0.149225 0.062247
0.583044 0.152166 0.064653
0.612310 0.152819 0.069214
0.641576 0.153471 0.073775
0.670842 0.154124 0.078336
0.700108 0.154777 0.082896
0.718405 0.154251 0.090228
0.734872 0.153529 0.098020
0.751340 0.152807 0.105813
0.767808 0.152085 0.113606
0.779845 0.151978 0.121724
0.785973 0.152691 0.130277
0.792100 0.153404 0.138829
0.798228 0.154118 0.147381
0.804356 0.154831 0.155934
0.043121 0.052117 0.076852
0.055588 0.055708 0.078674
0.068056 0.059300 0.080495
0.080523 0.062891 0.082317
0.092991 0.066482 0.084138
0.118288 0.073415 0.081456
0.153207 0.082853 0.075395
0.188126 0.092291 0.069335
0.223045 0.101729 0.063275
0.258342 0.111054 0.058051
0.295906 0.119701 0.057846
0.333470 0.128348 0.057642
0.371034 0.136994 0.057437
0.408599 0.145641 0.057233
0.445658 0.151088 0.058310
0.482516 0.155256 0.059900
0.519374 0.159424 0.061491
0.556232 0.163591 0.063081
0.590878 0.166679 0.065592
0.619995 0.167067 0.070405
0.649112 0.167455 0.075219
0.678229 0.167842 0.080032
0.707345 0.168230 0.084845
0.725689 0.167227 0.092754
0.742237 0.165993 0.101178
0.758785 0.164758 0.109602
0.775333 0.163524 0.118027
0.787369 0.162941 0.126905
0.793390 0.163228 0.136387
0.799411 0.163514 0.145870
0.805433 0.163800 0.155353
0.811454 0.164087 0.164835
0.044114 0.054543 0.083194
0.055846 0.058570 0.086571
0.067579 0.062598 0.089949
0.079312 0.066625 0.093327
0.091045 0.070652 0.096705
0.114760 0.078027 0.094932
0.147463 0.087914 0.089295
0.180166 0.097800 0.083658
0.212869 0.107686 0.078021
0.246940 0.117495 0.072790
0.289223 0.126839 0.069996
0.331507 0.136183 0.067201
0.373790 0.145527 0.064407
0.416073 0.154871 0.061612
0.454321 0.160953 0.062181
0.490955 0.165731 0.064095
0.527589 0.170509 0.066009
0.564223 0.175287 0.067923
0.598602 0.178814 0.070807
0.627345 0.179214 0.076119
0.656088 0.179614 0.081430
0.684832 0.180014 0.086742
0.713575 0.180415 0.092053
0.731897 0.179286 0.100620
0.748482 0.177902 0.109729
0.765067 0.176518 0.118838
0.781653 0.175134 0.127947
0.793743 0.174498 0.137542
0.799838 0.174859 0.147784
0.805934 0.175220 0.158026
0.812030 0.175581 0.168268
0.818126 0.175942 0.178510
0.045106 0.056970 0.089535
0.056104 0.061432 0.094469
0.067102 0.065895 0.099403
0.078101 0.070358 0.104338
0.089099 0.074821 0.109272
0.111233 0.082640 0.108408
0.141719 0.092974 0.103194
0.172206 0.103309 0.097980
0.202692 0.113644 0.092767
0.235538 0.123936 0.087529
0.282540 0.133978 0.082145
0.329543 0.144019 0.076760
0.376545 0.154060 0.071376
0.423547 0.164101 0.065991
0.462984 0.170818 0.066051
0.499393 0.176206 0.068289
0.535803 0.181594 0.070527
0.572213 0.186982 0.072765
0.606325 0.190949 0.076023
0.634695 0.191361 0.081832
0.663065 0.191774 0.087642
0.691434 0.192187 0.093451
0.719804 0.192599 0.099261
0.738105 0.191344 0.108485
0.754727 0.189811 0.118279
0.771350 0.188277 0.128073
0.787973 0.186744 0.137867
0.800116 0.186055 0.148179
0.806286 0.186490 0.159180
0.812457 0.186926 0.170182
0.818628 0.187362 0.181184
0.824798 0.187798 0.192186
0.046099 0.059396 0.095876
0.056362 0.064295 0.102367
0.066626 0.069193 0.108858
0.076889 0.074092 0.115348
0.087153 0.078991 0.121839
0.107706 0.087252 0.121884
0.135976 0.098035 0.117093
0.164246 0.108818 0.112303
0.192516 0.119601 0.107513
0.224136 0.130377 0.102268
0.275858 0.141116 0.094294
0.327579 0.151854 0.086319
0.379300 0.162593 0.078345
0.431022 0.173331 0.070371
0.471646 0.180684 0.069922
0.507832 0.186682 0.072484
0.544017 0.192680 0.075045
0.580203 0.198678 0.077606
0.614049 0.203083 0.081238
0.642045 0.203509 0.087546
0.670041 0.203934 0.093853
0.698037 0.204359 0.100161
0.726033 0.204784 0.106468
0.744313 0.203402 0.116351
0.760973 0.201720 0.126830
0.777633 0.200037 0.137309
0.794293 0.198354 0.147787
0.806489 0.197611 0.158816
0.812734 0.198122 0.170577
0.818980 0.198632 0.182338
0.825225 0.199143 0.194100
0.831470 0.199653 0.205861
0.047091 0.061822 0.102217
0.056620 0.067157 0.110265
0.066149 0.072491 0.118312
0.075678 0.077826 0.126359
0.085207 0.083160 0.134406
0.104178 0.091864 0.135360
0.130232 0.103095 0.130993
0.156286 0.114327 0.126626
0.182340 0.125558 0.122259
0.212734 0.136818 0.117007
0.269175 0.148254 0.106443
0.325615 0.159690 0.095878
0.382056 0.171125 0.085314
0.438496 0.182561 0.074750
0.480309 0.190549 0.073793
0.516270 0.197157 0.076678
0.552232 0.203765 0.079563
0.588193 0.210373 0.082448
0.621772 0.215218 0.086453
0.649395 0.215656 0.093259
0.677017 0.216093 0.100065
0.704640 0.216531 0.106870
0.732263 0.216968 0.113676
0.750521 0.215461 0.124217
0.767218 0.213628 0.135380
0.783915 0.211796 0.146544
0.800613 0.209964 0.157708
0.812863 0.209168 0.169453
0.819183 0.209753 0.181974
0.825503 0.210338 0.194494
0.831823 0.210924 0.207015
0.838143 0.211509 0.219536
0.048911 0.066139 0.112458
0.057767 0.071989 0.121866
0.066624 0.077840 0.131274
0.075480 0.083690 0.140682
0.084337 0.089540 0.150090
0.101851 0.098386 0.152382
0.125857 0.109479 0.149336
0.149863 0.120571 0.146291
0.173870 0.131664 0.143246
0.202509 0.142845 0.139117
0.258946 0.154560 0.128489
0.315383 0.166275 0.117861
0.371820 0.177990 0.107233
0.428257 0.189705 0.096605
0.473212 0.197871 0.093916
0.513574 0.204618 0.094404
0.553936 0.211365 0.094891
0.594298 0.218112 0.095378
0.630868 0.223248 0.097770
0.657957 0.224356 0.104923
0.685046 0.225464 0.112075
0.712135 0.226572 0.119227
0.739224 0.227681 0.126380
0.757285 0.226651 0.137420
0.773842 0.225265 0.149109
0.790399 0.223880 0.160797
0.806956 0.222494 0.172485
0.819172 0.222225 0.184703
0.825603 0.223446 0.197628
0.832033 0.224666 0.210552
0.838463 0.225886 0.223477
0.844893 0.227106 0.236402
0.051061 0.071212 0.124259
0.059271 0.077610 0.134949
0.067480 0.084008 0.145639
0.075689 0.090407 0.156330
0.083898 0.096805 0.167020
0.100002 0.105672 0.170822
0.122029 0.116391 0.169458
0.144056 0.127110 0.168094
0.166082 0.137829 0.166729
0.192754 0.148706 0.164177
0.247298 0.160533 0.154495
0.301843 0.172360 0.144813
0.356387 0.184187 0.135131
0.410931 0.196014 0.125449
0.459810 0.204177 0.120541
0.506423 0.210874 0.117542
0.553036 0.217571 0.114543
0.599649 0.224268 0.111544
0.640512 0.229635 0.111527
0.667004 0.231677 0.118966
0.693495 0.233719 0.126405
0.719986 0.235761 0.133844
0.746477 0.237804 0.141282
0.764272 0.237495 0.152759
0.780617 0.236794 0.164908
0.796962 0.236093 0.177057
0.813308 0.235392 0.189206
0.825457 0.235883 0.201799
0.832012 0.237962 0.214985
0.838566 0.240041 0.228171
0.845121 0.242121 0.241357
0.851676 0.244200 0.254543
0.053212 0.076285 0.136059
0.060774 0.083231 0.148032
0.068335 0.090177 0.160005
0.075897 0.097123 0.171978
0.083458 0.104069 0.183951
0.098154 0.112958 0.189263
0.118201 0.123303 0.189579
0.138248 0.133649 0.189896
0.158295 0.143994 0.190213
0.182999 0.154567 0.189236
0.235651 0.166506 0.180501
0.288303 0.178445 0.171765
0.340954 0.190384 0.163029
0.393606 0.202324 0.154294
0.446409 0.210483 0.147166
0.499272 0.217130 0.140680
0.552136 0.223777 0.134195
0.604999 0.230425 0.127709
0.650157 0.236023 0.125284
0.676050 0.238999 0.133009
0.701944 0.241975 0.140735
0.727838 0.244951 0.148460
0.753731 0.247927 0.156185
0.771259 0.248338 0.168097
0.787393 0.248322 0.180707
0.803526 0.248306 0.193316
0.819660 0.248290 0.205926
0.831741 0.249540 0.218895
0.838420 0.252479 0.232342
0.845100 0.255417 0.245790
0.851779 0.258356 0.259237
0.858458 0.261294 0.272685
0.055363 0.081358 0.147859
0.062277 0.088852 0.161115
0.069191 0.096346 0.174370
0.076105 0.103840 0.187626
0.083019 0.111334 0.200881
0.096306 0.120244 0.207703
0.114373 0.130216 0.209701
0.132440 0.140187 0.211698
0.150507 0.150159 0.213696
0.173244 0.160428 0.214295
0.224004 0.172479 0.206506
0.274763 0.184531 0.198717
0.325522 0.196582 0.190928
0.376281 0.208633 0.183138
0.433008 0.216789 0.173790
0.492122 0.223386 0.163818
0.551236 0.229984 0.153847
0.610350 0.236581 0.143875
0.659801 0.242411 0.139041
0.685097 0.246320 0.147053
0.710393 0.250230 0.155064
0.735689 0.254140 0.163076
0.760985 0.258050 0.171088
0.778246 0.259181 0.183435
0.794168 0.259850 0.196506
0.810090 0.260519 0.209576
0.826012 0.261188 0.222647
0.838026 0.263198 0.235991
0.844829 0.266995 0.249700
0.851633 0.270793 0.263409
0.858437 0.274591 0.277118
0.865241 0.278388 0.290827
0.057718 0.087345 0.161156
0.064066 0.095405 0.175442
0.070415 0.103464 0.189727
0.076763 0.111524 0.204012
0.083112 0.119583 0.218298
0.095139 0.128597 0.226481
0.111425 0.138327 0.230089
0.127712 0.148057 0.233696
0.143998 0.157787 0.237303
0.164947 0.167863 0.239463
0.213867 0.180012 0.232933
0.262786 0.192161 0.226403
0.311706 0.204310 0.219873
0.360626 0.216459 0.213343
0.419961 0.224772 0.202894
0.483461 0.231551 0.190876
0.546962 0.238330 0.178859
0.610462 0.245109 0.166841
0.663350 0.251192 0.160282
0.689706 0.255538 0.167367
0.716062 0.259883 0.174451
0.742418 0.264229 0.181536
0.768774 0.268575 0.188621
0.785911 0.270600 0.201076
0.801510 0.272238 0.214426
0.817110 0.273876 0.227775
0.832710 0.275514 0.241125
0.844589 0.278498 0.254677
0.851507 0.283276 0.268498
0.858424 0.288054 0.282319
0.865342 0.292831 0.296140
0.872260 0.297609 0.309961
0.060585 0.095616 0.178195
0.066573 0.104286 0.192879
0.072560 0.112956 0.207563
0.078547 0.121625 0.222247
0.084535 0.130295 0.236930
0.095674 0.139621 0.246103
0.110678 0.149438 0.251142
0.125682 0.159255 0.256182
0.140686 0.169072 0.261221
0.160292 0.179231 0.264899
0.207506 0.191442 0.260411
0.254720 0.203653 0.255923
0.301934 0.215865 0.251436
0.349148 0.228076 0.246948
0.407799 0.236949 0.238193
0.471026 0.244488 0.227732
0.534252 0.252026 0.217271
0.597479 0.259565 0.206810
0.651658 0.265960 0.200231
0.683219 0.269496 0.203357
0.714779 0.273032 0.206482
0.746340 0.276568 0.209607
0.777901 0.280105 0.212732
0.795269 0.283455 0.224472
0.810271 0.286774 0.237647
0.825273 0.290093 0.250823
0.840275 0.293412 0.263998
0.851850 0.297906 0.277338
0.858855 0.303967 0.290898
0.865860 0.310027 0.304457
0.872864 0.316087 0.318017
0.879869 0.322147 0.331577
0.063453 0.103888 0.195234
0.069079 0.113167 0.210316
0.074705 0.122447 0.225399
0.080331 0.131727 0.240481
0.085958 0.141007 0.255563
0.096210 0.150644 0.265725
0.109931 0.160548 0.272196
0.123653 0.170452 0.278667
0.137374 0.180356 0.285138
0.155637 0.190599 0.290336
0.201145 0.202872 0.287890
0.246653 0.215146 0.285444
0.292161 0.227420 0.282998
0.337669 0.239693 0.280552
0.395638 0.249127 0.273493
0.458590 0.257425 0.264589
0.521543 0.265723 0.255684
0.584495 0.274021 0.246779
0.639966 0.280727 0.240181
0.676731 0.283454 0.239346
0.713497 0.286181 0.238512
0.750262 0.288908 0.237678
0.787028 0.291635 0.236844
0.804627 0.296310 0.247868
0.819031 0.301310 0.260869
0.833436 0.306310 0.273870
0.847840 0.311310 0.286872
0.859111 0.317314 0.300000
0.866203 0.324657 0.313298
0.873295 0.332000 0.326596
0.880387 0.339343 0.339894
0.887479 0.346686 0.353192
0.066320 0.112159 0.212273
0.071585 0.122049 0.227754
0.076850 0.131939 0.243234
0.082116 0.141829 0.258715
0.087381 0.151719 0.274196
0.096745 0.161667 0.285346
0.109184 0.171658 0.293249
0.121623 0.181649 0.301153
0.134062 0.191641 0.309056
0.150982 0.201967 0.315772
0.194784 0.214303 0.315368
0.238586 0.226639 0.314964
0.282388 0.238974 0.314561
0.326191 0.251310 0.314157
0.383476 0.261304 0.308793
0.446155 0.270362 0.301445
0.508834 0.279419 0.294097
0.571512 0.288477 0.286749
0.628274 0.295494 0.280130
0.670244 0.297412 0.275336
0.712214 0.299330 0.270543
0.754185 0.301247 0.265749
0.796155 0.303165 0.260955
0.813985 0.309165 0.271265
0.827792 0.315846 0.284091
0.841599 0.322527 0.296918
0.855406 0.329208 0.309745
0.866372 0.336723 0.322661
0.873551 0.345348 0.335698
0.880730 0.353973 0.348735
0.887909 0.362598 0.361771
0.895088 0.371224 0.374808
0.069187 0.120430 0.229312
0.074092 0.130930 0.245191
0.078996 0.141430 0.261070
0.083900 0.151930 0.276949
0.088804 0.162431 0.292828
0.097281 0.172690 0.304968
0.108437 0.182768 0.314303
0.119594 0.192847 0.323638
0.130750 0.202925 0.332973
0.146327 0.213335 0.341208
0.188423 0.225733 0.342847
0.230519 0.238131 0.344485
0.272616 0.250529 0.346123
0.314712 0.262927 0.347761
0.371315 0.273482 0.344093
0.433719 0.283299 0.338301
0.496124 0.293116 0.332509
0.558529 0.302933 0.326718
0.616582 0.310262 0.320080
0.663757 0.311370 0.311326
0.710932 0.312478 0.302573
0.758107 0.313586 0.293820
0.805282 0.314695 0.285066
0.823343 0.322020 0.294661
0.836552 0.330382 0.307313
0.849761 0.338744 0.319966
0.862971 0.347106 0.332618
0.873633 0.356131 0.345323
0.880899 0.366039 0.358098
0.888165 0.375946 0.370873
0.895432 0.385854 0.383648
0.902698 0.395762 0.396424
0.072386 0.130356 0.247532
0.077206 0.141423 0.263191
0.082027 0.152491 0.278849
0.086847 0.163558 0.294508
0.091668 0.174626 0.310167
0.099797 0.185495 0.322579
0.110407 0.196216 0.332556
0.121017 0.206936 0.342533
0.131628 0.217657 0.352510
0.146624 0.228750 0.361525
0.187932 0.242075 0.364768
0.229241 0.255399 0.368011
0.270549 0.268724 0.371253
0.311857 0.282049 0.374496
0.367909 0.293754 0.372702
0.429859 0.304811 0.368894
0.491808 0.315868 0.365085
0.553757 0.326924 0.361277
0.611969 0.335557 0.356303
0.660838 0.338129 0.348414
0.709706 0.340701 0.340525
0.758574 0.343273 0.332636
0.807442 0.345845 0.324747
0.826953 0.352269 0.331608
0.841571 0.359334 0.340927
0.856189 0.366399 0.350246
0.870807 0.373465 0.359565
0.882193 0.382106 0.370226
0.889269 0.392848 0.382676
0.896345 0.403590 0.395125
0.903421 0.414332 0.407575
0.910497 0.425074 0.420024
0.075639 0.140557 0.265950
0.080422 0.152185 0.281285
0.085205 0.163813 0.296619
0.089988 0.175440 0.311954
0.094772 0.187068 0.327289
0.102643 0.198598 0.339854
0.112830 0.210053 0.350342
0.123017 0.221508 0.360829
0.133204 0.232963 0.371317
0.147746 0.244839 0.380988
0.188419 0.259234 0.385763
0.229093 0.273630 0.390537
0.269766 0.288026 0.395311
0.310440 0.302421 0.400085
0.365963 0.315375 0.400197
0.427427 0.327752 0.398443
0.488891 0.340128 0.396689
0.550355 0.352505 0.394935
0.608536 0.362607 0.391905
0.658513 0.367022 0.385685
0.708489 0.371437 0.379464
0.758466 0.375852 0.373244
0.808442 0.380267 0.367024
0.829605 0.385416 0.370814
0.845967 0.390689 0.376273
0.862328 0.395961 0.381732
0.878689 0.401233 0.387191
0.890969 0.409175 0.395502
0.897809 0.420677 0.407616
0.904648 0.432178 0.419729
0.911487 0.443680 0.431843
0.918327 0.455181 0.443956
0.078892 0.150758 0.284367
0.083638 0.162946 0.299378
0.088384 0.175135 0.314389
0.093130 0.187323 0.329400
0.097876 0.199511 0.344412
0.105489 0.211700 0.357130
0.115252 0.223890 0.368128
0.125016 0.236080 0.379126
0.134780 0.248270 0.390124
0.148868 0.260928 0.400452
0.188907 0.276394 0.406758
0.228945 0.291861 0.413063
0.268984 0.307327 0.419369
0.309022 0.322794 0.425675
0.364017 0.336996 0.427691
0.424996 0.350692 0.427992
0.485974 0.364389 0.428292
0.546952 0.378086 0.428593
0.605103 0.389657 0.427507
0.656188 0.395914 0.422955
0.707273 0.402172 0.418403
0.758357 0.408430 0.413852
0.809442 0.414688 0.409300
0.832258 0.418564 0.410020
0.850362 0.422043 0.411619
0.868466 0.425522 0.413218
0.886571 0.429002 0.414817
0.899746 0.436245 0.420779
0.906349 0.448506 0.432556
0.912951 0.460767 0.444333
0.919554 0.473028 0.456110
0.926157 0.485289 0.467888
0.082146 0.160959 0.302785
0.086854 0.173708 0.317472
0.091563 0.186456 0.332159
0.096271 0.199205 0.346847
0.100979 0.211953 0.361534
0.108335 0.224802 0.374405
0.117675 0.237727 0.385914
0.127015 0.250652 0.397422
0.136356 0.263576 0.408931
0.149991 0.277017 0.419915
0.189394 0.293554 0.427752
0.228798 0.310091 0.435590
0.268201 0.326629 0.443427
0.307604 0.343166 0.451264
0.362071 0.358617 0.455186
0.422564 0.373633 0.457541
0.483057 0.388650 0.459896
0.543549 0.403666 0.462251
0.601670 0.416706 0.463109
0.653863 0.424807 0.460226
0.706056 0.432908 0.457343
0.758249 0.441008 0.454459
0.810441 0.449109 0.451576
0.834910 0.451711 0.449226
0.854757 0.453398 0.446965
0.874605 0.455084 0.444704
0.894452 0.456770 0.442444
0.908522 0.463314 0.446055
0.914888 0.476335 0.457496
0.921255 0.489355 0.468937
0.927621 0.502376 0.480378
0.933987 0.515396 0.491819
0.085328 0.169955 0.318933
0.090037 0.183216 0.333569
0.094745 0.196477 0.348205
0.099454 0.209738 0.362841
0.104162 0.222999 0.377476
0.111409 0.236490 0.390513
0.120561 0.250155 0.402351
0.129713 0.263819 0.414189
0.138865 0.277484 0.426027
0.152321 0.291729 0.437454
0.191601 0.309460 0.446417
0.230882 0.327191 0.455380
0.270163 0.344922 0.464343
0.309443 0.362652 0.473307
0.363826 0.379463 0.478743
0.424249 0.395906 0.482768
0.484672 0.412349 0.486793
0.545095 0.428792 0.490819
0.603331 0.443313 0.493303
0.656098 0.453027 0.491933
0.708866 0.462740 0.490563
0.761633 0.472454 0.489194
