filter/Red and Blue 3/lut/Impulse 05_S.cube
# LUT by SparkleStock. Enhanced with VOXCOLOR algorithms.
LUT_3D_SIZE 8
DOMAIN_MIN 0.000000 0.000000 0.000000
DOMAIN_MAX 0.903226 0.903226 0.903226
0.031258 0.023443 0.015629
0.088164 0.021931 0.017708
0.175738 0.024704 0.021797
0.289330 0.029792 0.027106
0.420726 0.035748 0.033274
0.545504 0.042365 0.041593
0.632943 0.052290 0.050857
0.690488 0.064311 0.059900
0.036551 0.030249 0.029808
0.100776 0.036494 0.022813
0.199400 0.050031 0.023114
0.323934 0.064927 0.026935
0.463087 0.076883 0.032097
0.589475 0.084378 0.041587
0.673402 0.092621 0.055559
0.722524 0.104270 0.070810
0.039568 0.037859 0.044657
0.096389 0.054350 0.045694
0.212639 0.080698 0.036769
0.355034 0.108606 0.031292
0.497227 0.131151 0.037145
0.621597 0.140665 0.048324
0.704257 0.146809 0.067004
0.751299 0.156967 0.089371
0.043854 0.049659 0.064429
0.088734 0.077237 0.082921
0.203859 0.114250 0.074369
0.360668 0.152241 0.059026
0.528560 0.183986 0.052860
0.648990 0.200501 0.068381
0.730831 0.209042 0.093955
0.779269 0.221449 0.125582
0.052078 0.069061 0.092788
0.088011 0.107763 0.132301
0.173804 0.151403 0.142115
0.331964 0.193704 0.124848
0.549669 0.230009 0.093555
0.676191 0.257392 0.109643
0.758026 0.275886 0.144459
0.808777 0.297667 0.188154
0.066257 0.103848 0.135704
0.099263 0.155723 0.197905
0.168547 0.207041 0.236004
0.298324 0.254879 0.246461
0.493561 0.295393 0.229695
0.700586 0.316482 0.196018
0.792788 0.352101 0.235103
0.843765 0.391964 0.293161
0.084060 0.150766 0.197369
0.120359 0.217156 0.276523
0.187563 0.281123 0.334843
0.306206 0.341573 0.371062
0.483412 0.396083 0.384787
0.691169 0.433687 0.373553
0.814190 0.460553 0.379441
0.881111 0.496822 0.416245
0.104533 0.202363 0.274662
0.147511 0.278700 0.357256
0.220075 0.352709 0.423331
0.338301 0.424457 0.474297
0.507005 0.492453 0.510773
0.700967 0.546933 0.527227
0.834755 0.574629 0.524786
0.909590 0.601510 0.539829
0.034283 0.033841 0.053630
0.079772 0.038769 0.049123
0.179360 0.038340 0.049838
0.313639 0.038635 0.054562
0.462087 0.043859 0.061627
0.588036 0.054867 0.066872
0.669450 0.073697 0.071232
0.719609 0.096713 0.077702
0.041625 0.050308 0.073810
0.088768 0.079424 0.091957
0.186516 0.094873 0.099906
0.320310 0.104672 0.103368
0.473158 0.114410 0.106409
0.610350 0.123916 0.109312
0.701188 0.138022 0.113546
0.753638 0.158906 0.120695
0.049802 0.067059 0.098703
0.094791 0.113461 0.127956
0.193637 0.153249 0.137699
0.330187 0.182026 0.137735
0.486571 0.198216 0.135942
0.629610 0.207523 0.137744
0.727476 0.216583 0.145650
0.784820 0.232078 0.159627
0.059674 0.088154 0.129453
0.100767 0.144850 0.166066
0.194982 0.205840 0.180682
0.333923 0.255044 0.179084
0.501715 0.283039 0.169036
0.647528 0.295399 0.169996
0.750141 0.302548 0.183027
0.813598 0.314805 0.206119
0.072124 0.117088 0.167747
0.109611 0.177897 0.213355
0.190088 0.249479 0.241004
0.327007 0.314322 0.243839
0.513333 0.359827 0.224621
0.665862 0.379472 0.221728
0.771606 0.390381 0.238567
0.840701 0.405313 0.269417
0.089377 0.159486 0.220470
0.126996 0.221796 0.276640
0.197957 0.294602 0.322296
0.318646 0.365587 0.345744
0.492746 0.423913 0.341195
0.687929 0.453808 0.315847
0.798205 0.476195 0.328380
0.868153 0.500965 0.359867
0.111839 0.214991 0.288404
0.154772 0.280049 0.348554
0.225861 0.352868 0.405240
0.340258 0.425983 0.447066
0.503086 0.492162 0.466408
0.694110 0.538213 0.460028
0.818729 0.563999 0.452651
0.894741 0.590216 0.465896
0.140381 0.273626 0.362934
0.188429 0.339302 0.419579
0.266058 0.412789 0.479162
0.382662 0.487692 0.530881
0.539576 0.558019 0.566870
0.716049 0.613952 0.581676
0.840607 0.643618 0.574227
0.914789 0.666063 0.575491
0.036102 0.047454 0.098058
0.070486 0.060584 0.100546
0.159120 0.062681 0.096123
0.300625 0.061527 0.093125
0.479045 0.063828 0.095889
0.616636 0.077672 0.097127
0.698349 0.104023 0.096170
0.746225 0.137025 0.100316
0.043835 0.067878 0.126935
0.086086 0.109267 0.158522
0.172722 0.132161 0.178395
0.305868 0.142784 0.186449
0.475749 0.147801 0.184370
0.626108 0.159209 0.179914
0.724149 0.180110 0.174624
0.780888 0.210532 0.174165
0.056027 0.093797 0.163541
0.101143 0.153689 0.203582
0.187348 0.203492 0.233196
0.316093 0.234715 0.246065
0.479614 0.245625 0.241438
0.635466 0.255717 0.236378
0.745147 0.270078 0.234638
0.812610 0.293039 0.239754
0.070983 0.125707 0.206253
0.116671 0.195849 0.247626
0.200040 0.267849 0.281007
0.325111 0.322166 0.295775
0.486435 0.348428 0.289089
0.644878 0.359125 0.282378
0.762494 0.368618 0.285017
0.840450 0.384349 0.298220
0.088075 0.164523 0.254429
0.134252 0.238117 0.299104
0.210663 0.320237 0.336621
0.330105 0.393864 0.353968
0.492447 0.445551 0.346419
0.655411 0.461313 0.333382
0.777898 0.470073 0.335848
0.863975 0.482579 0.353304
0.110994 0.215154 0.312190
0.159399 0.286123 0.360438
0.229879 0.364645 0.404509
0.338856 0.442275 0.432591
0.492741 0.510017 0.437023
0.672792 0.547757 0.415756
0.796089 0.563954 0.409851
0.883467 0.579292 0.421201
0.140535 0.275980 0.377391
0.194576 0.344741 0.425460
0.265948 0.416606 0.473262
0.370973 0.490006 0.511844
0.516960 0.561213 0.533600
0.689806 0.614550 0.526850
0.814746 0.642209 0.509253
0.901046 0.662439 0.505364
0.177059 0.338059 0.443240
0.235937 0.403421 0.487671
0.311442 0.469942 0.535060
0.418380 0.539055 0.578958
0.562047 0.609446 0.612868
0.721867 0.668048 0.623030
0.839322 0.702279 0.610279
0.916356 0.723736 0.600828
0.037898 0.064752 0.153956
0.063683 0.085043 0.168239
0.130481 0.098248 0.167222
0.266565 0.102621 0.153334
0.470184 0.101007 0.132681
0.633061 0.115461 0.129040
0.722332 0.146417 0.125918
0.772489 0.186619 0.131501
0.045156 0.086726 0.191969
0.087126 0.135010 0.229544
0.158842 0.169290 0.260265
0.282251 0.188239 0.273847
0.460183 0.194455 0.266371
0.633211 0.205283 0.251814
0.742348 0.230952 0.238437
0.805698 0.268379 0.233987
0.059023 0.119128 0.238920
0.108272 0.184520 0.280572
0.185606 0.242515 0.323485
0.303325 0.280790 0.350083
0.463219 0.294983 0.351078
0.635894 0.304021 0.337839
0.757942 0.322279 0.326931
0.835605 0.351043 0.324900
0.077974 0.159790 0.291200
0.130899 0.235142 0.330342
0.210370 0.311342 0.373885
0.323414 0.369567 0.403490
0.471199 0.399207 0.408712
0.640268 0.408339 0.397598
0.770000 0.419971 0.391614
0.860367 0.438891 0.395515
0.101074 0.207428 0.346257
0.157871 0.287921 0.384899
0.234181 0.371333 0.424529
0.339852 0.445564 0.451988
0.479321 0.499564 0.458773
0.646396 0.513704 0.444089
0.779792 0.522202 0.437854
0.879007 0.533804 0.443988
0.130055 0.265024 0.404591
0.191489 0.343052 0.443823
0.264489 0.421368 0.482166
0.362118 0.497055 0.511177
0.492606 0.565225 0.523493
0.658430 0.607690 0.506822
0.790539 0.621251 0.491383
0.891875 0.631026 0.489691
0.167152 0.329673 0.462579
0.233962 0.403931 0.501654
0.308043 0.473466 0.539435
0.402800 0.542007 0.571934
0.526836 0.610264 0.593734
0.682547 0.667234 0.587197
0.806984 0.697018 0.564742
0.902609 0.713831 0.550947
0.211234 0.393078 0.517875
0.282363 0.462352 0.555474
0.358215 0.524149 0.591468
0.453650 0.585562 0.625606
0.576911 0.650071 0.654846
0.722109 0.709856 0.661518
0.834245 0.748545 0.645769
0.915441 0.770609 0.630083
0.040545 0.086281 0.225350
0.061500 0.111036 0.249348
0.106361 0.142547 0.263631
0.224220 0.161494 0.242866
0.430637 0.160653 0.184207
0.638046 0.171685 0.164557
0.743536 0.203214 0.162472
0.800098 0.246810 0.175345
0.047217 0.109792 0.270900
0.088437 0.163178 0.309889
0.146489 0.210260 0.346096
0.251995 0.244870 0.363773
0.420064 0.264147 0.354322
0.628956 0.272885 0.325342
0.755960 0.299113 0.305522
0.829257 0.338546 0.302078
0.060369 0.144728 0.324249
0.112295 0.213532 0.364032
0.183324 0.278623 0.408782
0.286296 0.329373 0.444381
0.430566 0.359109 0.459037
0.627968 0.367318 0.436824
0.766143 0.385566 0.417078
0.854680 0.415138 0.410683
0.081799 0.189876 0.381046
0.140542 0.267519 0.415685
0.219752 0.345636 0.458687
0.321236 0.409638 0.497496
0.449760 0.449296 0.520555
0.631857 0.458779 0.508228
0.773732 0.469801 0.495206
0.874184 0.488254 0.491582
0.111701 0.243801 0.437855
0.177441 0.327752 0.467887
0.258043 0.409573 0.503124
0.353798 0.481371 0.536539
0.469712 0.534912 0.559927
0.638203 0.550286 0.551994
0.778990 0.557788 0.543100
0.886931 0.567432 0.541398
0.145915 0.305202 0.492402
0.219478 0.388884 0.522500
0.300078 0.467844 0.554722
0.389779 0.539467 0.583906
0.494842 0.600911 0.603698
0.646628 0.643944 0.596114
0.784320 0.655690 0.579846
0.895310 0.662012 0.572000
0.189510 0.373017 0.542196
0.268437 0.452267 0.572923
0.350327 0.523339 0.603597
0.437917 0.587569 0.631298
0.537326 0.646408 0.651722
0.675563 0.701570 0.650130
0.798902 0.731681 0.629454
0.901506 0.746272 0.612893
0.240234 0.436744 0.588080
0.322016 0.509916 0.618794
0.405317 0.573990 0.648170
0.492693 0.630997 0.675158
0.589654 0.683927 0.697402
0.719896 0.740863 0.704461
0.827911 0.781639 0.689745
0.913011 0.804293 0.672896
0.044515 0.114262 0.318744
0.063714 0.141944 0.345670
0.099872 0.181151 0.367649
0.179517 0.223114 0.370328
0.330826 0.256761 0.337924
0.626056 0.251693 0.229136
0.762772 0.278588 0.217927
0.830439 0.322141 0.243229
0.051626 0.139822 0.367223
0.092790 0.195681 0.401433
0.141993 0.249204 0.433377
0.221504 0.301183 0.455922
0.355840 0.348447 0.459043
0.609378 0.368394 0.409142
0.764661 0.389345 0.381181
0.852383 0.421828 0.380279
0.065632 0.176081 0.419455
0.119041 0.245702 0.452613
0.183984 0.314262 0.488251
0.269829 0.376681 0.520512
0.391547 0.428183 0.541641
0.606073 0.459178 0.527956
0.767575 0.473433 0.501545
0.870187 0.493736 0.491589
0.087599 0.222193 0.472862
0.150147 0.299161 0.501678
0.227045 0.377629 0.535756
0.318337 0.447664 0.569912
0.431126 0.501897 0.597811
0.611255 0.534214 0.602349
0.770495 0.542477 0.584745
0.883085 0.552306 0.574804
0.118123 0.276465 0.524731
0.190954 0.359854 0.549706
0.272792 0.440284 0.578879
0.364482 0.513005 0.609709
0.471008 0.572436 0.637845
0.621185 0.602442 0.647825
0.773001 0.607260 0.637534
0.890956 0.610491 0.629858
0.158338 0.334500 0.569470
0.240692 0.422493 0.592699
0.326314 0.502446 0.619774
0.417871 0.572717 0.646382
0.518221 0.631551 0.668499
0.635148 0.672785 0.679282
0.776674 0.682036 0.668586
0.894991 0.684599 0.659232
0.206104 0.402364 0.611776
0.294390 0.485792 0.636369
0.381481 0.559384 0.662218
0.471708 0.623629 0.686252
0.567891 0.679151 0.705634
0.670212 0.725526 0.715307
0.791196 0.752780 0.702608
0.898650 0.764738 0.688365
0.260872 0.465633 0.650714
0.351431 0.542955 0.676847
0.438687 0.610313 0.702212
0.527662 0.668603 0.724700
0.621342 0.719189 0.742639
0.717768 0.764510 0.753825
0.821135 0.802335 0.744629
0.909642 0.823709 0.730557
0.048013 0.144763 0.411982
0.068870 0.175739 0.439883
0.103715 0.218775 0.463633
0.168199 0.270469 0.476652
0.282986 0.324745 0.469512
0.515888 0.360904 0.409660
0.738493 0.374523 0.340375
0.859906 0.404592 0.331656
0.058490 0.173958 0.458264
0.102162 0.231997 0.489806
0.149324 0.287699 0.516892
0.216647 0.345879 0.538003
0.323689 0.407164 0.548537
0.525268 0.456458 0.525608
0.743616 0.480805 0.477932
0.872868 0.505958 0.461638
0.076191 0.212608 0.505294
0.132396 0.282691 0.535322
0.196035 0.351616 0.564099
0.272262 0.417672 0.590051
0.372235 0.479076 0.609759
0.545036 0.531338 0.608397
0.749666 0.558745 0.578877
0.881810 0.576714 0.561943
0.101754 0.259826 0.551753
0.166864 0.335402 0.578525
0.243251 0.412333 0.606635
0.327769 0.483730 0.634139
0.424425 0.544789 0.657920
0.571883 0.593180 0.666973
0.756478 0.618020 0.651473
0.887342 0.628368 0.637685
0.135309 0.314049 0.596181
0.210164 0.394402 0.620314
0.291657 0.471607 0.645648
0.379781 0.543482 0.671817
0.477335 0.606689 0.696691
0.602681 0.648734 0.709153
0.763991 0.668191 0.702889
0.890238 0.672384 0.693101
0.176890 0.371523 0.635018
0.261457 0.455214 0.657101
0.347873 0.531934 0.681359
0.437331 0.600712 0.705087
0.531211 0.660230 0.725876
0.633676 0.704627 0.740066
0.772700 0.723197 0.736116
0.891874 0.726625 0.727197
0.219517 0.427198 0.667333
0.314422 0.512959 0.691141
0.404854 0.587889 0.715276
0.494747 0.652655 0.737166
0.586884 0.707745 0.754743
0.681947 0.751003 0.765444
0.790137 0.779449 0.763996
0.893482 0.789780 0.754427
0.273037 0.484343 0.698979
0.372040 0.566976 0.724971
0.462871 0.637993 0.749367
0.551397 0.698115 0.769946
0.641542 0.748246 0.785131
0.732640 0.788343 0.793527
0.821026 0.822307 0.794284
0.904511 0.840449 0.785552
0.051723 0.171058 0.485423
0.076191 0.208650 0.517239
0.113368 0.255859 0.542939
0.172018 0.312256 0.561361
0.264040 0.376103 0.570089
0.430509 0.440853 0.557612
0.673917 0.471394 0.492899
0.843435 0.496553 0.456971
0.067263 0.207138 0.530785
0.114672 0.268522 0.563470
0.163681 0.325816 0.589092
0.226161 0.385480 0.609399
0.315119 0.450774 0.624139
0.463854 0.515755 0.623498
0.688053 0.556092 0.585240
0.853434 0.581373 0.554728
0.090841 0.251494 0.573926
0.150922 0.322995 0.605845
0.215782 0.390592 0.632615
0.287301 0.455409 0.654927
0.372047 0.518298 0.672327
0.503389 0.579179 0.678269
0.703544 0.621746 0.656347
0.860470 0.644606 0.630336
0.122635 0.302621 0.614918
0.190424 0.377576 0.644887
0.267087 0.451024 0.672038
0.347606 0.519518 0.696034
0.432660 0.580923 0.715668
0.547491 0.635173 0.724310
0.720879 0.674241 0.712011
0.866284 0.692847 0.690236
0.161892 0.358481 0.653468
0.236543 0.435317 0.680828
0.317036 0.508204 0.706659
0.402801 0.576804 0.731520
0.493912 0.639502 0.754041
0.594352 0.686976 0.763544
0.740373 0.719224 0.756734
0.872261 0.732892 0.739061
0.205339 0.414528 0.687022
0.288116 0.492331 0.712149
0.372493 0.564284 0.737243
0.458654 0.630079 0.760849
0.547124 0.688934 0.781492
0.640741 0.735936 0.795829
0.762363 0.763730 0.790533
0.879376 0.775377 0.774930
0.244573 0.461340 0.712258
0.338780 0.543240 0.738287
0.428077 0.615501 0.763615
0.515145 0.678743 0.786049
0.602399 0.733268 0.803821
0.692970 0.776256 0.814502
0.788226 0.806675 0.815400
0.886832 0.821394 0.803431
0.289997 0.506761 0.735426
0.391455 0.589411 0.763279
0.482897 0.660801 0.789005
0.569639 0.721244 0.810161
0.655863 0.771223 0.824935
0.744119 0.809799 0.831229
0.823562 0.841043 0.834427
0.902040 0.860098 0.826889
