filter/Red and Blue 3/lut/Impulse 01_S.cube
# LUT by SparkleStock. Enhanced with VOXCOLOR algorithms.
LUT_3D_SIZE 8
DOMAIN_MIN 0.000000 0.000000 0.000000
DOMAIN_MAX 0.903226 0.903226 0.903226
0.042979 0.039072 0.039072
0.099445 0.039734 0.047233
0.181315 0.042956 0.054409
0.297775 0.047698 0.060081
0.434661 0.054268 0.067021
0.564292 0.062429 0.076506
0.661239 0.071866 0.087518
0.720729 0.083351 0.098216
0.042759 0.045248 0.057379
0.107392 0.048898 0.051196
0.202589 0.062045 0.053100
0.333151 0.077076 0.055684
0.478234 0.089615 0.060781
0.609487 0.098573 0.071945
0.703389 0.105122 0.089717
0.755209 0.112580 0.110304
0.042932 0.050636 0.072732
0.096167 0.062789 0.076397
0.220699 0.093758 0.059580
0.364118 0.125023 0.056204
0.511369 0.145368 0.060703
0.641576 0.153471 0.073775
0.734872 0.153529 0.098020
0.785973 0.152691 0.130277
0.046099 0.059396 0.095876
0.087153 0.078991 0.121839
0.192516 0.119601 0.107513
0.379300 0.162593 0.078345
0.544017 0.192680 0.075045
0.670041 0.203934 0.093853
0.760973 0.201720 0.126830
0.812734 0.198122 0.170577
0.053212 0.076285 0.136059
0.083458 0.104069 0.183951
0.158295 0.143994 0.190213
0.340954 0.190384 0.163029
0.552136 0.223777 0.134195
0.701944 0.241975 0.140735
0.787393 0.248322 0.180707
0.838420 0.252479 0.232342
0.063453 0.103888 0.195234
0.085958 0.141007 0.255563
0.137374 0.180356 0.285138
0.292161 0.227420 0.282998
0.521543 0.265723 0.255684
0.713497 0.286181 0.238512
0.819031 0.301310 0.260869
0.866203 0.324657 0.313298
0.075639 0.140557 0.265950
0.094772 0.187068 0.327289
0.133204 0.232963 0.371317
0.269766 0.288026 0.395311
0.488891 0.340128 0.396689
0.708489 0.371437 0.379464
0.845967 0.390689 0.376273
0.897809 0.420677 0.407616
0.088416 0.177345 0.332057
0.107449 0.232181 0.391845
0.142618 0.289526 0.440840
0.275784 0.361870 0.481071
0.492332 0.435301 0.507417
0.717045 0.491370 0.516160
0.867278 0.518991 0.510077
0.927811 0.538038 0.512268
0.038347 0.048336 0.087818
0.083258 0.051587 0.073267
0.185235 0.048328 0.074275
0.327167 0.049882 0.082494
0.478326 0.056488 0.091383
0.609437 0.068263 0.099502
0.701105 0.085313 0.107803
0.753466 0.105977 0.117818
0.044303 0.060688 0.110906
0.081546 0.086721 0.129697
0.183586 0.099203 0.129738
0.330905 0.111367 0.130858
0.490762 0.121757 0.133535
0.632133 0.129908 0.137754
0.732799 0.138074 0.144904
0.787669 0.150096 0.157380
0.050296 0.072963 0.141891
0.084406 0.113316 0.169372
0.186594 0.162569 0.170852
0.338285 0.191014 0.161005
0.503921 0.206239 0.155036
0.651162 0.211982 0.157673
0.757883 0.211391 0.170380
0.817233 0.211363 0.194405
0.056266 0.089165 0.178995
0.086241 0.136150 0.213415
0.175573 0.207340 0.218483
0.339349 0.260674 0.200336
0.515792 0.288038 0.187096
0.667315 0.294815 0.188253
0.777717 0.289810 0.204958
0.842360 0.284009 0.237082
0.064020 0.112273 0.225296
0.088675 0.159427 0.265476
0.157708 0.234776 0.283834
0.316765 0.306389 0.272234
0.520537 0.349996 0.249544
0.688760 0.366289 0.242461
0.798874 0.366245 0.258655
0.865844 0.365079 0.292225
0.074488 0.144657 0.280544
0.094950 0.190349 0.323856
0.145028 0.260707 0.358814
0.290200 0.338250 0.367735
0.507115 0.397663 0.353091
0.702923 0.427016 0.334812
0.825785 0.438051 0.337000
0.889442 0.451068 0.364033
0.087535 0.185880 0.340075
0.107156 0.232925 0.383394
0.147133 0.298524 0.430042
0.283523 0.377146 0.461722
0.497324 0.449199 0.471140
0.711997 0.495025 0.458582
0.852225 0.518034 0.445378
0.913718 0.539579 0.452801
0.102846 0.229712 0.397843
0.123228 0.278809 0.438223
0.166173 0.347325 0.490045
0.304811 0.431122 0.536220
0.518204 0.512987 0.566674
0.734266 0.574938 0.575929
0.877068 0.607750 0.565126
0.936217 0.625833 0.555224
0.037654 0.058781 0.149364
0.067630 0.067113 0.144654
0.151871 0.067008 0.128051
0.323836 0.064410 0.127268
0.501694 0.068891 0.131831
0.641578 0.082324 0.134644
0.732382 0.104084 0.137173
0.781616 0.131627 0.146111
0.042137 0.073929 0.181681
0.075763 0.107164 0.209797
0.161761 0.127297 0.222498
0.320163 0.135136 0.220476
0.497052 0.141722 0.216745
0.649773 0.150621 0.213203
0.756391 0.163996 0.210536
0.813919 0.184663 0.213783
0.050431 0.094160 0.220357
0.085642 0.144344 0.250986
0.171689 0.200836 0.273738
0.322064 0.226793 0.271050
0.497008 0.240455 0.264826
0.655902 0.248681 0.262100
0.773432 0.254356 0.264053
0.842585 0.263736 0.274401
0.058976 0.119126 0.267863
0.092256 0.176464 0.296039
0.170008 0.257115 0.318870
0.315776 0.316542 0.317353
0.495487 0.345079 0.304860
0.661912 0.354452 0.297023
0.787476 0.355403 0.300459
0.866756 0.356040 0.317017
0.068748 0.150663 0.316878
0.098479 0.207036 0.344922
0.161074 0.292299 0.371479
0.301083 0.376416 0.376445
0.494535 0.430528 0.360960
0.672749 0.451618 0.345256
0.801964 0.453456 0.343714
0.885987 0.452961 0.359547
0.080816 0.188870 0.366852
0.107743 0.242234 0.396525
0.156581 0.320086 0.429770
0.288304 0.410851 0.449260
0.489415 0.486470 0.442565
0.684735 0.527631 0.421366
0.821586 0.541155 0.407748
0.902910 0.548442 0.413760
0.095544 0.232817 0.416735
0.122482 0.287172 0.448007
0.167352 0.356591 0.486828
0.294884 0.443417 0.523133
0.495623 0.528163 0.535368
0.702203 0.588147 0.521551
0.845218 0.618641 0.498078
0.919301 0.635590 0.486479
0.113031 0.279068 0.464462
0.142177 0.337568 0.496123
0.196515 0.404697 0.537613
0.332106 0.489429 0.584761
0.533741 0.575451 0.615273
0.737489 0.643923 0.619943
0.873946 0.684492 0.601316
0.936232 0.704925 0.579843
0.036567 0.071968 0.229430
0.056055 0.086149 0.236431
0.111411 0.096975 0.226903
0.286542 0.096849 0.195841
0.498856 0.099148 0.179189
0.663907 0.110739 0.174146
0.759280 0.132970 0.173827
0.806772 0.163672 0.185129
0.039598 0.089820 0.267282
0.070243 0.127348 0.296147
0.136526 0.154630 0.317123
0.274793 0.170134 0.318031
0.475551 0.176589 0.306343
0.657007 0.184632 0.290821
0.774619 0.201266 0.276976
0.835673 0.228099 0.272550
0.046936 0.113974 0.310427
0.080555 0.165611 0.336165
0.154491 0.225231 0.368779
0.280183 0.261315 0.383098
0.470538 0.276912 0.376809
0.655083 0.284854 0.364215
0.786077 0.294109 0.354554
0.862972 0.310388 0.352971
0.057078 0.144642 0.356157
0.091533 0.205599 0.377048
0.162280 0.285123 0.406774
0.282301 0.350448 0.426702
0.469371 0.382186 0.422117
0.655817 0.393866 0.410435
0.794315 0.399404 0.404794
0.883522 0.406708 0.408485
0.068934 0.182162 0.405079
0.102466 0.246006 0.424067
0.164318 0.331024 0.450371
0.283480 0.417493 0.471887
0.467510 0.476638 0.468956
0.656373 0.501892 0.453466
0.801646 0.507324 0.443096
0.898153 0.510309 0.446077
0.082767 0.226877 0.451473
0.115636 0.290022 0.471585
0.172732 0.370358 0.498849
0.288653 0.460901 0.525082
0.470825 0.541106 0.528836
0.664308 0.589467 0.511305
0.813392 0.606851 0.490771
0.909557 0.611970 0.483991
0.098983 0.276448 0.493620
0.133773 0.340652 0.516481
0.196280 0.414561 0.547242
0.311477 0.498442 0.581015
0.492824 0.584052 0.597210
0.688306 0.651060 0.586254
0.833610 0.687140 0.558576
0.919830 0.701191 0.537146
0.118202 0.326508 0.533416
0.157222 0.393856 0.558824
0.235098 0.466618 0.592717
0.363083 0.544879 0.631869
0.546707 0.626657 0.660489
0.735499 0.696795 0.663229
0.866058 0.742492 0.640451
0.933080 0.764973 0.613359
0.035393 0.089157 0.318768
0.048962 0.107286 0.333005
0.083151 0.128700 0.335668
0.204974 0.144000 0.306658
0.454802 0.147440 0.255315
0.672988 0.155372 0.222941
0.784385 0.175883 0.218500
0.831716 0.206612 0.233938
0.037499 0.109122 0.358164
0.063895 0.149230 0.382517
0.109283 0.183131 0.404562
0.206540 0.213240 0.411891
0.424927 0.233805 0.392705
0.648639 0.244758 0.363246
0.789806 0.258341 0.339062
0.856133 0.285312 0.330914
0.043258 0.135871 0.401112
0.073134 0.186580 0.421642
0.131116 0.247079 0.451688
0.226280 0.295030 0.474986
0.419615 0.329295 0.476721
0.637119 0.343639 0.458621
0.795313 0.350364 0.435988
0.879670 0.367018 0.425447
0.052748 0.170379 0.445849
0.085978 0.230352 0.460895
0.145624 0.305499 0.487565
0.247939 0.376189 0.517366
0.426047 0.423537 0.528292
0.633576 0.442217 0.518090
0.798212 0.446499 0.502074
0.895663 0.454515 0.495411
0.065193 0.209358 0.489602
0.101118 0.277890 0.502075
0.161071 0.360572 0.524787
0.273199 0.446088 0.553371
0.435637 0.510750 0.568079
0.632573 0.540381 0.560123
0.801003 0.546762 0.544639
0.905931 0.550568 0.538807
0.080694 0.256193 0.530952
0.118320 0.328655 0.544463
0.181795 0.411438 0.566592
0.299973 0.499645 0.593846
0.457669 0.577301 0.610681
0.643237 0.627046 0.603431
0.805593 0.646246 0.583033
0.912701 0.649954 0.570049
0.098545 0.310245 0.568732
0.139420 0.384605 0.585360
0.214777 0.464299 0.609955
0.340887 0.547606 0.638912
0.500340 0.626979 0.659365
0.675746 0.691689 0.655476
0.822267 0.728765 0.630728
0.918487 0.740455 0.606969
0.119010 0.364752 0.603256
0.165803 0.441190 0.623277
0.261755 0.521037 0.651708
0.405537 0.599258 0.682979
0.568305 0.672482 0.708130
0.733772 0.736189 0.711150
0.858446 0.781708 0.689766
0.929240 0.804473 0.662867
0.034543 0.110678 0.406270
0.045550 0.131226 0.423268
0.068665 0.158896 0.433952
0.136017 0.188740 0.422203
0.346584 0.211677 0.372470
0.624072 0.219707 0.306606
0.805354 0.231014 0.272847
0.857091 0.260757 0.288281
0.036421 0.132777 0.444386
0.059047 0.174019 0.463787
0.088296 0.212066 0.482928
0.148460 0.254426 0.494067
0.331795 0.298681 0.481155
0.599277 0.324219 0.440438
0.800919 0.336190 0.400233
0.877034 0.356459 0.389028
0.041444 0.161255 0.484350
0.067627 0.210733 0.501651
0.110487 0.270896 0.524083
0.176793 0.327202 0.546274
0.340990 0.383682 0.556554
0.590301 0.420146 0.538887
0.798382 0.432023 0.506499
0.895137 0.440524 0.488349
0.049690 0.197061 0.526504
0.080427 0.254947 0.539921
0.128046 0.326321 0.560596
0.213273 0.400173 0.587849
0.367392 0.464727 0.608087
0.592793 0.504724 0.605168
0.795123 0.515759 0.584466
0.906204 0.516068 0.568420
0.061329 0.237023 0.566351
0.097588 0.305864 0.577111
0.151270 0.384711 0.595798
0.255268 0.468587 0.622239
0.401742 0.540802 0.646047
0.603325 0.584913 0.649934
0.793847 0.597259 0.635763
0.911834 0.595198 0.621998
0.076142 0.280919 0.602554
0.117764 0.359842 0.614028
0.181912 0.443546 0.632488
0.302375 0.530535 0.657042
0.453076 0.607299 0.679808
0.628147 0.660410 0.685884
0.794741 0.681058 0.672577
0.914768 0.680667 0.655417
0.094611 0.333169 0.636277
0.141400 0.417698 0.650426
0.222253 0.502720 0.670772
0.360512 0.588202 0.695370
0.520037 0.663642 0.716183
0.675883 0.723094 0.722141
0.812553 0.756591 0.707010
0.917588 0.765141 0.683848
0.116663 0.389700 0.668131
0.169976 0.475668 0.685271
0.273718 0.561264 0.709211
0.433134 0.643308 0.734873
0.598333 0.712717 0.755037
0.744376 0.768708 0.760842
0.853590 0.808820 0.746021
0.926404 0.829214 0.721777
0.032959 0.135610 0.484092
0.043881 0.158521 0.501609
0.062871 0.188762 0.516128
0.103457 0.225044 0.516819
0.237647 0.270679 0.494965
0.510736 0.301259 0.433161
0.769975 0.310307 0.365404
0.880912 0.323722 0.345559
0.036147 0.160748 0.519446
0.056625 0.202745 0.538435
0.078474 0.241757 0.554478
0.117330 0.289852 0.566313
0.242150 0.351997 0.566392
0.501781 0.405410 0.534489
0.766160 0.428226 0.480948
0.897741 0.436822 0.448876
0.041958 0.190523 0.556478
0.065698 0.239500 0.574409
0.099933 0.298946 0.591811
0.145683 0.358431 0.609505
0.268099 0.427576 0.622866
0.510045 0.492376 0.613670
0.766089 0.523540 0.577204
0.909967 0.526894 0.544303
0.050074 0.225657 0.593907
0.078380 0.282574 0.610193
0.118359 0.351800 0.627903
0.187854 0.426287 0.649217
0.313754 0.500151 0.668839
0.531801 0.564990 0.673647
0.767991 0.596488 0.652863
0.915475 0.595637 0.625683
0.060964 0.265465 0.630289
0.095672 0.332896 0.644830
0.143249 0.408318 0.662224
0.234894 0.490832 0.684258
0.370049 0.568849 0.706641
0.565574 0.631374 0.717859
0.773736 0.659957 0.706855
0.916379 0.657487 0.685828
0.074349 0.306392 0.662429
0.116889 0.386701 0.676982
0.178687 0.469019 0.694717
0.291889 0.554851 0.716451
0.442811 0.633569 0.737585
0.613166 0.694476 0.750654
0.783765 0.723017 0.744300
0.916120 0.722667 0.725086
0.090972 0.351498 0.691316
0.141833 0.442585 0.707650
0.224089 0.530496 0.726948
0.361259 0.617158 0.748540
0.528088 0.692795 0.766492
0.680922 0.750810 0.777276
0.811187 0.783722 0.771814
0.916801 0.791562 0.752520
0.112194 0.402221 0.719487
0.172078 0.497968 0.738010
0.278676 0.588682 0.760031
0.439842 0.673775 0.781634
0.615946 0.743937 0.796736
0.759557 0.795674 0.802855
0.856741 0.830970 0.796041
0.924353 0.848836 0.778258
0.029997 0.161448 0.545173
0.042897 0.187930 0.565451
0.061285 0.219381 0.582362
0.091525 0.257884 0.591205
0.178785 0.312352 0.589097
0.379417 0.376383 0.565502
0.661293 0.410678 0.501829
0.875177 0.413022 0.435796
0.036913 0.189446 0.578408
0.055860 0.233408 0.603821
0.077066 0.272538 0.619055
0.107603 0.321645 0.631736
0.193878 0.388233 0.639786
0.389642 0.465059 0.631997
0.669656 0.514478 0.587366
0.889485 0.525380 0.530355
0.044725 0.221166 0.614387
0.067200 0.271684 0.638755
0.098991 0.330172 0.657036
0.136318 0.388395 0.672278
0.228077 0.459309 0.685704
0.418791 0.539662 0.688237
0.685111 0.596637 0.658807
0.898132 0.612620 0.610888
0.054030 0.256627 0.649258
0.080903 0.314287 0.671708
0.118169 0.381786 0.691803
0.180975 0.454434 0.711063
0.282858 0.529138 0.727559
0.463415 0.605400 0.735320
0.706453 0.660947 0.717364
0.902608 0.677459 0.679462
0.065462 0.295346 0.681218
0.098316 0.362424 0.702155
0.143646 0.435362 0.722591
0.227483 0.515614 0.743815
0.349581 0.594434 0.763300
0.523117 0.666360 0.773823
0.733904 0.715154 0.763043
0.905443 0.729031 0.734151
0.079193 0.335789 0.709483
0.119543 0.413804 0.729486
0.179577 0.492850 0.750105
0.283362 0.575788 0.771675
0.426303 0.655121 0.790906
0.592576 0.722695 0.802723
0.767227 0.765526 0.796829
0.908760 0.777877 0.773547
0.094124 0.374609 0.733309
0.144454 0.464989 0.753722
0.226556 0.551641 0.775360
0.355603 0.636534 0.796480
0.515738 0.712457 0.812535
0.675017 0.773076 0.821593
0.811171 0.812315 0.818642
0.913256 0.827157 0.800675
0.111851 0.413285 0.754452
0.174676 0.513588 0.775985
0.283770 0.607044 0.799541
0.439755 0.692955 0.819703
0.612023 0.763664 0.831938
0.761593 0.814992 0.834682
0.861817 0.850030 0.830921
0.923354 0.869230 0.818502
