filter/Red and Blue 3/lut/Impulse 01_S.cube
# LUT by SparkleStock. Enhanced with VOXCOLOR algorithms.
LUT_3D_SIZE 5
DOMAIN_MIN 0.000000 0.000000 0.000000
DOMAIN_MAX 0.903226 0.903226 0.903226
0.042979 0.039072 0.039072
0.160085 0.042073 0.052645
0.363417 0.050628 0.063161
0.594289 0.064634 0.079208
0.720729 0.083351 0.098216
0.042877 0.049313 0.068983
0.185286 0.078390 0.061026
0.429433 0.123628 0.057450
0.663325 0.140148 0.077475
0.778393 0.142337 0.125047
0.048911 0.066139 0.112458
0.149863 0.120571 0.146291
0.473212 0.197871 0.093916
0.712135 0.226572 0.119227
0.825603 0.223446 0.197628
0.066320 0.112159 0.212273
0.121623 0.181649 0.301153
0.383476 0.261304 0.308793
0.754185 0.301247 0.265749
0.873551 0.345348 0.335698
0.088416 0.177345 0.332057
0.133342 0.275114 0.428915
0.370514 0.399277 0.497050
0.769675 0.502391 0.516098
0.927811 0.538038 0.512268
0.037709 0.056135 0.133593
0.137198 0.062480 0.116665
0.413898 0.061422 0.118280
0.663115 0.082760 0.126248
0.774716 0.125124 0.138777
0.048576 0.084232 0.191000
0.148692 0.162557 0.233504
0.410064 0.202752 0.229519
0.687379 0.217100 0.225834
0.829322 0.231439 0.240478
0.062807 0.125006 0.269344
0.146877 0.243895 0.314954
0.403790 0.364594 0.308868
0.706074 0.389050 0.289792
0.871688 0.384396 0.318098
0.082609 0.187783 0.358490
0.140977 0.293567 0.418974
0.376533 0.441627 0.453340
0.737227 0.525190 0.417574
0.904447 0.548011 0.417964
0.110612 0.266819 0.447782
0.175141 0.373039 0.514325
0.416906 0.518667 0.592108
0.785165 0.640740 0.607773
0.936480 0.685413 0.574238
0.035945 0.079783 0.273000
0.082790 0.108889 0.282762
0.360328 0.118973 0.222782
0.705653 0.134023 0.194811
0.819137 0.182951 0.207840
0.043214 0.117781 0.345159
0.121927 0.205634 0.393034
0.332915 0.268702 0.420072
0.694873 0.285329 0.388233
0.865458 0.315197 0.368471
0.061187 0.175668 0.423532
0.143391 0.301923 0.459305
0.346602 0.433224 0.502961
0.693638 0.470479 0.484256
0.897347 0.479994 0.477178
0.086404 0.255919 0.502545
0.167966 0.383320 0.537936
0.370717 0.534434 0.583046
0.704822 0.641035 0.565096
0.913540 0.660059 0.533182
0.119348 0.347708 0.568271
0.228123 0.476629 0.613807
0.460631 0.610778 0.671963
0.777114 0.733939 0.682926
0.931184 0.788427 0.635042
0.034377 0.116578 0.427390
0.060810 0.158857 0.453803
0.189335 0.214550 0.434624
0.683949 0.236620 0.311409
0.863475 0.275573 0.302269
0.039952 0.160666 0.494153
0.091323 0.248797 0.526289
0.213775 0.345524 0.556432
0.652996 0.423865 0.523404
0.894907 0.440211 0.478013
0.054331 0.223296 0.564994
0.122184 0.341010 0.590804
0.288308 0.478882 0.634464
0.649729 0.568928 0.648160
0.911829 0.569885 0.617813
0.078672 0.297643 0.627487
0.172687 0.444311 0.653049
0.388508 0.594054 0.692667
0.676164 0.697864 0.713052
0.915663 0.709426 0.682302
0.115763 0.394224 0.683395
0.247571 0.547767 0.717239
0.522572 0.690162 0.758403
0.780102 0.788278 0.773227
0.925892 0.834021 0.737116
0.029997 0.161448 0.545173
0.056524 0.211369 0.578235
0.122373 0.281754 0.592249
0.446039 0.392922 0.556361
0.875177 0.413022 0.435796
0.042745 0.213125 0.605310
0.085880 0.302182 0.643381
0.161254 0.403459 0.668707
0.473290 0.541989 0.672414
0.896140 0.591564 0.591175
0.059332 0.275427 0.665835
0.118795 0.389859 0.702830
0.253712 0.525325 0.738429
0.544713 0.654746 0.757138
0.904188 0.705135 0.709431
0.082902 0.346013 0.716080
0.173066 0.487444 0.751435
0.366713 0.631710 0.788250
0.652495 0.750899 0.810773
0.909741 0.790286 0.781513
0.111851 0.413285 0.754452
0.255109 0.583885 0.793591
0.524702 0.731475 0.827463
0.794285 0.825377 0.834205
0.923354 0.869230 0.818502
