filter/Red and Blue 3/lut/Impulse 05.cube
# LUT by SparkleStock. Enhanced with VOXCOLOR algorithms.
LUT_3D_SIZE 32
0.031258 0.023443 0.015629
0.045484 0.023065 0.016149
0.059711 0.022687 0.016669
0.073938 0.022309 0.017189
0.088164 0.021931 0.017708
0.102391 0.021553 0.018228
0.125401 0.022435 0.019339
0.150167 0.023569 0.020568
0.174934 0.024704 0.021797
0.199701 0.025838 0.023026
0.224467 0.026972 0.024255
0.254528 0.028327 0.025641
0.287235 0.029792 0.027106
0.319942 0.031258 0.028571
0.352649 0.032723 0.030037
0.385356 0.034188 0.031502
0.417307 0.035748 0.033274
0.448501 0.037402 0.035354
0.479696 0.039056 0.037434
0.510891 0.040711 0.039513
0.542085 0.042365 0.041593
0.569703 0.044350 0.043767
0.590169 0.046997 0.046130
0.610635 0.049644 0.048493
0.631100 0.052290 0.050857
0.651566 0.054937 0.053220
0.670259 0.057694 0.055552
0.680090 0.061003 0.057726
0.689921 0.064311 0.059900
0.699752 0.067620 0.062074
0.709583 0.070928 0.064248
0.719414 0.074237 0.066422
0.032581 0.025145 0.019174
0.047174 0.024739 0.019209
0.061766 0.024334 0.019244
0.076359 0.023928 0.019279
0.090951 0.023523 0.019314
0.105544 0.023117 0.019349
0.129087 0.024025 0.020448
0.154421 0.025196 0.021759
0.179755 0.026367 0.023070
0.205089 0.027538 0.024381
0.230423 0.028709 0.025692
0.261013 0.030198 0.027192
0.294233 0.031846 0.028785
0.327452 0.033494 0.030378
0.360672 0.035142 0.031971
0.393891 0.036791 0.033565
0.426148 0.038634 0.035456
0.457443 0.040672 0.037645
0.488739 0.042711 0.039835
0.520034 0.044749 0.042024
0.551329 0.046788 0.044214
0.578905 0.049200 0.046507
0.599041 0.052359 0.049007
0.619177 0.055518 0.051508
0.639313 0.058677 0.054008
0.659450 0.061836 0.056509
0.677806 0.065110 0.058978
0.687262 0.068958 0.061289
0.696718 0.072807 0.063600
0.706174 0.076655 0.065912
0.715630 0.080503 0.068223
0.725086 0.084351 0.070534
0.033904 0.026846 0.022719
0.048863 0.026413 0.022269
0.063821 0.025980 0.021819
0.078780 0.025547 0.021369
0.093738 0.025114 0.020919
0.108697 0.024681 0.020470
0.132774 0.025615 0.021556
0.158675 0.026823 0.022949
0.184576 0.028030 0.024343
0.210477 0.029238 0.025737
0.236378 0.030445 0.027130
0.267499 0.032069 0.028742
0.301231 0.033900 0.030464
0.334963 0.035731 0.032185
0.368694 0.037562 0.033906
0.402426 0.039393 0.035628
0.434990 0.041520 0.037638
0.466386 0.043943 0.039937
0.497781 0.046366 0.042236
0.529177 0.048788 0.044535
0.560573 0.051211 0.046835
0.588106 0.054050 0.049247
0.607913 0.057721 0.051884
0.627720 0.061393 0.054522
0.647527 0.065064 0.057160
0.667334 0.068735 0.059797
0.685353 0.072526 0.062403
0.694434 0.076914 0.064852
0.703515 0.081302 0.067301
0.712596 0.085690 0.069749
0.721677 0.090078 0.072198
0.730757 0.094466 0.074647
0.035228 0.028548 0.026263
0.050552 0.028087 0.025329
0.065877 0.027627 0.024394
0.081201 0.027166 0.023459
0.096525 0.026706 0.022525
0.111850 0.026246 0.021590
0.136461 0.027206 0.022664
0.162929 0.028450 0.024140
0.189397 0.029694 0.025616
0.215865 0.030938 0.027092
0.242333 0.032182 0.028568
0.273985 0.033940 0.030293
0.308229 0.035954 0.032142
0.342473 0.037968 0.033992
0.376717 0.039982 0.035841
0.410961 0.041996 0.037690
0.443831 0.044406 0.039820
0.475328 0.047213 0.042229
0.506824 0.050020 0.044638
0.538321 0.052827 0.047047
0.569817 0.055634 0.049456
0.597307 0.058900 0.051986
0.616785 0.063083 0.054761
0.636263 0.067267 0.057536
0.655740 0.071451 0.060311
0.675218 0.075634 0.063086
0.692900 0.079942 0.065829
0.701606 0.084870 0.068415
0.710312 0.089798 0.071001
0.719018 0.094725 0.073587
0.727723 0.099653 0.076173
0.736429 0.104581 0.078759
0.036551 0.030249 0.029808
0.052242 0.029761 0.028389
0.067932 0.029274 0.026969
0.083622 0.028786 0.025550
0.099313 0.028298 0.024130
0.115003 0.027810 0.022711
0.140147 0.028796 0.023773
0.167183 0.030077 0.025331
0.194218 0.031357 0.026889
0.221253 0.032638 0.028447
0.248289 0.033919 0.030006
0.280471 0.035810 0.031843
0.315227 0.038007 0.033821
0.349984 0.040204 0.035798
0.384740 0.042401 0.037776
0.419496 0.044598 0.039753
0.452673 0.047293 0.042001
0.484270 0.050484 0.044520
0.515867 0.053675 0.047039
0.547464 0.056866 0.049558
0.579061 0.060057 0.052076
0.606509 0.063750 0.054726
0.625657 0.068446 0.057638
0.644805 0.073142 0.060550
0.663954 0.077838 0.063463
0.683102 0.082534 0.066375
0.700447 0.087358 0.069255
0.708778 0.092826 0.071978
0.717109 0.098293 0.074701
0.725439 0.103760 0.077424
0.733770 0.109228 0.080147
0.742101 0.114695 0.082871
0.037875 0.031951 0.033353
0.053931 0.031436 0.031449
0.069987 0.030920 0.029544
0.086043 0.030405 0.027640
0.102100 0.029890 0.025736
0.118156 0.029374 0.023832
0.143834 0.030386 0.024881
0.171436 0.031703 0.026522
0.199039 0.033021 0.028162
0.226641 0.034338 0.029803
0.254244 0.035655 0.031443
0.286957 0.037681 0.033394
0.322226 0.040061 0.035499
0.357494 0.042441 0.037605
0.392763 0.044821 0.039711
0.428031 0.047201 0.041816
0.461514 0.050179 0.044183
0.493212 0.053754 0.046812
0.524910 0.057329 0.049440
0.556608 0.060905 0.052069
0.588305 0.064480 0.054697
0.615710 0.068600 0.057466
0.634529 0.073808 0.060515
0.653348 0.079016 0.063565
0.672167 0.084224 0.066614
0.690986 0.089433 0.069663
0.707994 0.094774 0.072681
0.715950 0.100781 0.075541
0.723906 0.106788 0.078402
0.731861 0.112796 0.081262
0.739817 0.118803 0.084122
0.747773 0.124810 0.086983
0.038528 0.033849 0.037095
0.053845 0.033878 0.035925
0.069162 0.033907 0.034756
0.084479 0.033936 0.033587
0.099796 0.033965 0.032417
0.115112 0.033994 0.031248
0.142493 0.034835 0.031536
0.172286 0.035838 0.032115
0.202080 0.036841 0.032694
0.231873 0.037845 0.033274
0.261667 0.038848 0.033853
0.295284 0.040972 0.035525
0.330813 0.043657 0.037744
0.366343 0.046342 0.039962
0.401872 0.049027 0.042180
0.437401 0.051712 0.044399
0.470874 0.055061 0.046908
0.502291 0.059074 0.049707
0.533709 0.063087 0.052506
0.565126 0.067100 0.055305
0.596543 0.071113 0.058105
0.623676 0.075718 0.061076
0.642242 0.081507 0.064392
0.660808 0.087296 0.067709
0.679374 0.093085 0.071025
0.697940 0.098874 0.074341
0.714731 0.104809 0.077648
0.722647 0.111470 0.080913
0.730563 0.118131 0.084177
0.738479 0.124792 0.087441
0.746395 0.131454 0.090706
0.754311 0.138115 0.093970
0.039048 0.035787 0.040876
0.053405 0.036475 0.040685
0.067761 0.037162 0.040495
0.082117 0.037850 0.040304
0.096473 0.038538 0.040114
0.110830 0.039225 0.039923
0.140147 0.039856 0.039299
0.172456 0.040475 0.038589
0.204765 0.041094 0.037878
0.237074 0.041713 0.037168
0.269383 0.042332 0.036457
0.303979 0.044548 0.037773
0.339719 0.047562 0.040101
0.375459 0.050576 0.042429
0.411198 0.053590 0.044757
0.446938 0.056605 0.047085
0.480338 0.060342 0.049740
0.511398 0.064804 0.052723
0.542459 0.069265 0.055705
0.573519 0.073726 0.058687
0.604580 0.078187 0.061669
0.631396 0.083289 0.064860
0.649724 0.089673 0.068469
0.668052 0.096057 0.072078
0.686380 0.102440 0.075687
0.704708 0.108824 0.079296
0.721305 0.115367 0.082924
0.729249 0.122705 0.086645
0.737192 0.130043 0.090367
0.745135 0.137382 0.094089
0.753079 0.144720 0.097810
0.761022 0.152058 0.101532
0.039568 0.037725 0.044657
0.052964 0.039071 0.045445
0.066360 0.040418 0.046234
0.079755 0.041764 0.047022
0.093151 0.043110 0.047810
0.106547 0.044456 0.048598
0.137800 0.044876 0.047063
0.172625 0.045111 0.045062
0.207450 0.045346 0.043062
0.242275 0.045581 0.041062
0.277099 0.045816 0.039061
0.312674 0.048123 0.040020
0.348624 0.051467 0.042458
0.384574 0.054810 0.044896
0.420525 0.058154 0.047334
0.456475 0.061497 0.049772
0.489801 0.065624 0.052573
0.520505 0.070533 0.055738
0.551209 0.075443 0.058904
0.581912 0.080352 0.062069
0.612616 0.085261 0.065234
0.639115 0.090861 0.068645
0.657205 0.097839 0.072546
0.675295 0.104817 0.076448
0.693386 0.111796 0.080350
0.711476 0.118774 0.084251
0.727879 0.125925 0.088199
0.735850 0.133940 0.092378
0.743821 0.141956 0.096557
0.751792 0.149971 0.100736
0.759763 0.157986 0.104915
0.767734 0.166001 0.109094
0.040088 0.039663 0.048438
0.052523 0.041668 0.050205
0.064959 0.043673 0.051972
0.077394 0.045678 0.053740
0.089829 0.047683 0.055507
0.102264 0.049688 0.057274
0.135454 0.049897 0.054826
0.172794 0.049748 0.051536
0.210135 0.049598 0.048246
0.247475 0.049449 0.044956
0.284816 0.049299 0.041665
0.321370 0.051698 0.042267
0.357530 0.055371 0.044815
0.393690 0.059044 0.047363
0.429851 0.062717 0.049910
0.466011 0.066390 0.052458
0.499265 0.070905 0.055406
0.529612 0.076263 0.058754
0.559959 0.081621 0.062102
0.590306 0.086978 0.065450
0.620653 0.092336 0.068799
0.646835 0.098432 0.072429
0.664687 0.106005 0.076623
0.682539 0.113578 0.080818
0.700391 0.121151 0.085012
0.718244 0.128724 0.089206
0.734454 0.136484 0.093474
0.742452 0.145176 0.098111
0.750450 0.153868 0.102747
0.758449 0.162560 0.107384
0.766447 0.171252 0.112020
0.774446 0.179944 0.116657
0.040608 0.041601 0.052219
0.052083 0.044264 0.054965
0.063557 0.046928 0.057711
0.075032 0.049591 0.060457
0.086507 0.052255 0.063203
0.097981 0.054919 0.065949
0.133107 0.054918 0.062590
0.172963 0.054384 0.058010
0.212820 0.053851 0.053430
0.252676 0.053317 0.048850
0.292532 0.052783 0.044270
0.330065 0.055274 0.044515
0.366436 0.059276 0.047172
0.402806 0.063278 0.049830
0.439177 0.067280 0.052487
0.475548 0.071283 0.055145
0.508729 0.076187 0.058239
0.538719 0.081993 0.061770
0.568709 0.087799 0.065301
0.598699 0.093604 0.068832
0.628689 0.099410 0.072363
0.654554 0.106003 0.076213
0.672168 0.114171 0.080700
0.689783 0.122339 0.085187
0.707397 0.130506 0.089674
0.725012 0.138674 0.094161
0.741028 0.147042 0.098750
0.749054 0.156411 0.103844
0.757080 0.165780 0.108937
0.765106 0.175149 0.114031
0.773131 0.184518 0.119125
0.781157 0.193887 0.124219
0.042010 0.044925 0.057923
0.052823 0.048467 0.061830
0.063636 0.052009 0.065738
0.074449 0.055550 0.069646
0.085262 0.059092 0.073554
0.096075 0.062634 0.077461
0.130092 0.063130 0.074517
0.168750 0.063017 0.070202
0.207408 0.062905 0.065887
0.246065 0.062792 0.061573
0.284723 0.062679 0.057258
0.324196 0.065061 0.056538
0.364077 0.068692 0.057616
0.403958 0.072322 0.058694
0.443838 0.075952 0.059772
0.483719 0.079582 0.060850
0.518506 0.084573 0.063362
0.548201 0.090925 0.067308
0.577895 0.097277 0.071253
0.607589 0.103629 0.075199
0.637284 0.109980 0.079145
0.662884 0.117168 0.083452
0.680297 0.126028 0.088482
0.697711 0.134888 0.093512
0.715124 0.143748 0.098542
0.732537 0.152607 0.103572
0.748396 0.161661 0.108733
0.756486 0.171682 0.114553
0.764576 0.181704 0.120372
0.772666 0.191726 0.126192
0.780756 0.201747 0.132012
0.788846 0.211769 0.137831
0.043854 0.048942 0.064587
0.054154 0.053472 0.069748
0.064455 0.058002 0.074909
0.074756 0.062532 0.080070
0.085056 0.067062 0.085231
0.095357 0.071591 0.090392
0.126742 0.072938 0.088526
0.162345 0.073649 0.085254
0.197947 0.074359 0.081982
0.233549 0.075070 0.078710
0.269152 0.075780 0.075438
0.311046 0.077956 0.073450
0.356086 0.080863 0.072103
0.401126 0.083771 0.070757
0.446166 0.086678 0.069411
0.491206 0.089586 0.068065
0.528441 0.094513 0.069630
0.557870 0.101459 0.074106
0.587299 0.108405 0.078582
0.616728 0.115352 0.083059
0.646157 0.122298 0.087535
0.671520 0.130129 0.092419
0.688750 0.139730 0.098116
0.705980 0.149331 0.103814
0.723211 0.158932 0.109512
0.740441 0.168532 0.115209
0.756161 0.178310 0.121071
0.764334 0.188972 0.127750
0.772506 0.199634 0.134430
0.780678 0.210296 0.141109
0.788850 0.220958 0.147789
0.797022 0.231620 0.154468
0.045697 0.052960 0.071251
0.055485 0.058478 0.077666
0.065274 0.063995 0.084080
0.075062 0.069513 0.090494
0.084850 0.075031 0.096908
0.094639 0.080549 0.103323
0.123393 0.082747 0.102534
0.155940 0.084280 0.100305
0.188487 0.085814 0.098076
0.221033 0.087348 0.095847
0.253580 0.088882 0.093618
0.297896 0.090850 0.090361
0.348095 0.093034 0.086591
0.398295 0.095219 0.082820
0.448494 0.097404 0.079050
0.498694 0.099589 0.075279
0.538376 0.104452 0.075897
0.567539 0.111993 0.080904
0.596703 0.119534 0.085911
0.625867 0.127075 0.090918
0.655031 0.134616 0.095925
0.680156 0.143090 0.101385
0.697203 0.153432 0.107751
0.714250 0.163774 0.114116
0.731297 0.174116 0.120482
0.748345 0.184458 0.126847
0.763926 0.194959 0.133408
0.772181 0.206262 0.140948
0.780436 0.217564 0.148487
0.788690 0.228866 0.156027
0.796945 0.240169 0.163566
0.805199 0.251471 0.171106
0.047540 0.056977 0.077916
0.056816 0.063483 0.085583
0.066092 0.069989 0.093251
0.075368 0.076495 0.100918
0.084644 0.083000 0.108586
0.093921 0.089506 0.116253
0.120043 0.092555 0.116543
0.149534 0.094912 0.115357
0.179026 0.097269 0.114170
0.208518 0.099626 0.112984
0.238009 0.101983 0.111798
0.284746 0.103744 0.107273
0.340105 0.105206 0.101078
0.395464 0.106668 0.094883
0.450823 0.108130 0.088689
0.506182 0.109592 0.082494
0.548310 0.114391 0.082165
0.577209 0.122527 0.087703
0.606107 0.130662 0.093241
0.635006 0.138798 0.098778
0.663904 0.146934 0.104316
0.688791 0.156052 0.110352
0.705656 0.167134 0.117385
0.722520 0.178217 0.124418
0.739384 0.189300 0.131452
0.756249 0.200383 0.138485
0.771692 0.211609 0.145746
0.780028 0.223551 0.154145
0.788365 0.235494 0.162545
0.796702 0.247437 0.170944
0.805039 0.259380 0.179343
0.813376 0.271322 0.187743
0.049384 0.060995 0.084580
0.058147 0.068489 0.093501
0.066911 0.075982 0.102422
0.075675 0.083476 0.111342
0.084439 0.090970 0.120263
0.093202 0.098464 0.129184
0.116693 0.102363 0.130551
0.143129 0.105543 0.130408
0.169565 0.108724 0.130265
0.196002 0.111904 0.130121
0.222438 0.115085 0.129978
0.271595 0.116638 0.124184
0.332114 0.117377 0.115565
0.392632 0.118117 0.106946
0.453151 0.118856 0.098328
0.513669 0.119596 0.089709
0.558245 0.124330 0.088433
0.586878 0.133061 0.094501
0.615511 0.141791 0.100570
0.644145 0.150521 0.106638
0.672778 0.159251 0.112706
0.697427 0.169013 0.119318
0.714108 0.180837 0.127019
0.730790 0.192660 0.134721
0.747471 0.204484 0.142422
0.764152 0.216308 0.150123
0.779457 0.228258 0.158083
0.787876 0.240841 0.167343
0.796295 0.253424 0.176602
0.804714 0.266007 0.185861
0.813133 0.278590 0.195121
0.821553 0.291173 0.204380
0.052125 0.066950 0.093371
0.060569 0.075469 0.103618
0.069012 0.083987 0.113866
0.077456 0.092505 0.124113
0.085899 0.101023 0.134360
0.094343 0.109542 0.144607
0.116042 0.114542 0.147336
0.140393 0.118838 0.148560
0.164743 0.123135 0.149784
0.189093 0.127431 0.151009
0.213444 0.131728 0.152233
0.262543 0.133860 0.146621
0.324018 0.134911 0.137590
0.385492 0.135961 0.128559
0.446967 0.137012 0.119529
0.508441 0.138062 0.110498
0.554863 0.142783 0.108313
0.586231 0.151175 0.112972
0.617599 0.159567 0.117631
0.648968 0.167959 0.122291
0.680336 0.176350 0.126950
0.706757 0.186109 0.132924
0.723283 0.198600 0.141526
0.739809 0.211092 0.150128
0.756335 0.223583 0.158730
0.772860 0.236075 0.167332
0.788046 0.248674 0.176197
0.796529 0.261811 0.186376
0.805012 0.274947 0.196555
0.813496 0.288084 0.206733
0.821979 0.301220 0.216912
0.830462 0.314357 0.227090
0.055764 0.074843 0.104289
0.064080 0.084423 0.115936
0.072395 0.094002 0.127583
0.080711 0.103582 0.139230
0.089026 0.113161 0.150877
0.097342 0.122741 0.162524
0.118090 0.129092 0.166895
0.141324 0.134797 0.169812
0.164558 0.140502 0.172729
0.187793 0.146208 0.175646
0.211027 0.151913 0.178562
0.257590 0.155411 0.174581
0.315817 0.157807 0.167152
0.374044 0.160202 0.159722
0.432271 0.162597 0.152292
0.490497 0.164992 0.144863
0.538163 0.169750 0.141803
0.575267 0.176870 0.143115
0.612371 0.183991 0.144426
0.649476 0.191111 0.145737
0.686580 0.198231 0.147048
0.716782 0.207340 0.151168
0.733180 0.220426 0.160904
0.749577 0.233512 0.170641
0.765975 0.246598 0.180377
0.782373 0.259684 0.190114
0.797459 0.272857 0.200087
0.805988 0.286460 0.211245
0.814517 0.300063 0.222402
0.823046 0.313666 0.233560
0.831575 0.327269 0.244717
0.840104 0.340872 0.255875
0.059404 0.082737 0.115207
0.067591 0.093377 0.128254
0.075779 0.104018 0.141300
0.083966 0.114658 0.154347
0.092153 0.125299 0.167394
0.100341 0.135940 0.180440
0.120137 0.143642 0.186455
0.142256 0.150756 0.191064
0.164374 0.157870 0.195674
0.186492 0.164984 0.200283
0.208611 0.172098 0.204892
0.252636 0.176963 0.202542
0.307616 0.180703 0.196713
0.362595 0.184443 0.190885
0.417574 0.188183 0.185056
0.472554 0.191923 0.179227
0.521463 0.196717 0.175294
0.564303 0.202566 0.173257
0.607143 0.208414 0.171220
0.649983 0.214263 0.169183
0.692823 0.220111 0.167146
0.726807 0.228571 0.169412
0.743076 0.242251 0.180283
0.759346 0.255932 0.191154
0.775616 0.269613 0.202024
0.791885 0.283294 0.212895
0.806872 0.297039 0.223977
0.815447 0.311109 0.236113
0.824022 0.325179 0.248250
0.832597 0.339248 0.260386
0.841171 0.353318 0.272522
0.849746 0.367387 0.284659
0.063043 0.090630 0.126125
0.071102 0.102332 0.140572
0.079162 0.114033 0.155018
0.087221 0.125735 0.169464
0.095281 0.137437 0.183910
0.103340 0.149139 0.198356
0.122185 0.158191 0.206015
0.143187 0.166714 0.212317
0.164189 0.175237 0.218618
0.185192 0.183760 0.224920
0.206194 0.192283 0.231221
0.247683 0.198514 0.230503
0.299414 0.203598 0.226275
0.351146 0.208683 0.222047
0.402878 0.213768 0.217819
0.454610 0.218853 0.213591
0.504764 0.223684 0.208785
0.553339 0.228261 0.203400
0.601915 0.232838 0.198015
0.650491 0.237415 0.192630
0.699067 0.241992 0.187244
0.736831 0.249802 0.187656
0.752973 0.264077 0.199661
0.769114 0.278352 0.211666
0.785256 0.292628 0.223672
0.801398 0.306903 0.235677
0.816286 0.321222 0.247867
0.824906 0.335758 0.260982
0.833527 0.350294 0.274097
0.842147 0.364831 0.287213
0.850767 0.379367 0.300328
0.859388 0.393903 0.313443
0.066682 0.098523 0.137044
0.074614 0.111286 0.152889
0.082545 0.124049 0.168735
0.090476 0.136812 0.184581
0.098408 0.149575 0.200427
0.106339 0.162338 0.216273
0.124233 0.172741 0.225575
0.144119 0.182673 0.233569
0.164005 0.192605 0.241563
0.183891 0.202536 0.249557
0.203777 0.212468 0.257550
0.242729 0.220065 0.258464
0.291213 0.226494 0.255837
0.339698 0.232924 0.253210
0.388182 0.239353 0.250583
0.436666 0.245783 0.247956
0.488064 0.250650 0.242276
0.542376 0.253956 0.233542
0.596687 0.257261 0.224809
0.650999 0.260567 0.216076
0.705310 0.263872 0.207343
0.746856 0.271033 0.205900
0.762869 0.285903 0.219040
0.778883 0.300773 0.232179
0.794896 0.315643 0.245319
0.810910 0.330513 0.258458
0.825699 0.345405 0.271757
0.834365 0.360408 0.285851
0.843031 0.375410 0.299945
0.851698 0.390413 0.314039
0.860364 0.405416 0.328133
0.869030 0.420418 0.342227
0.070747 0.107708 0.149837
0.078678 0.121499 0.166948
0.086610 0.135289 0.184059
0.094541 0.149080 0.201170
0.102472 0.162870 0.218282
0.110404 0.176661 0.235393
0.127700 0.188367 0.246164
0.146870 0.199655 0.255667
0.166039 0.210944 0.265171
0.185209 0.222232 0.274674
0.204379 0.233521 0.284177
0.241430 0.242536 0.286730
0.287423 0.250414 0.285808
0.333416 0.258292 0.284885
0.379409 0.266170 0.283963
0.425402 0.274048 0.283040
0.477221 0.279508 0.277500
0.534866 0.282551 0.267343
0.592510 0.285595 0.257186
0.650155 0.288638 0.247028
0.707799 0.291681 0.236871
0.751880 0.298553 0.234338
0.768832 0.313081 0.247054
0.785785 0.327610 0.259770
0.802738 0.342138 0.272485
0.819691 0.356667 0.285201
0.835260 0.371301 0.298250
0.843911 0.386466 0.312963
0.852561 0.401630 0.327676
0.861212 0.416794 0.342389
0.869863 0.431958 0.357102
0.878514 0.447123 0.371815
0.075663 0.119477 0.166379
0.083850 0.134228 0.184488
0.092038 0.148979 0.202596
0.100225 0.163730 0.220704
0.108412 0.178481 0.238813
0.116600 0.193233 0.256921
0.134008 0.206143 0.268812
0.153260 0.218684 0.279458
0.172512 0.231226 0.290105
0.191764 0.243768 0.300752
0.211015 0.256310 0.311399
0.247442 0.266847 0.315607
0.292456 0.276380 0.316597
0.337471 0.285914 0.317586
0.382485 0.295448 0.318576
0.427499 0.304981 0.319565
0.478092 0.312148 0.316193
0.534263 0.316948 0.308460
0.590435 0.321747 0.300727
0.646607 0.326547 0.292994
0.702778 0.331347 0.285261
0.746902 0.338651 0.283164
0.766928 0.350966 0.292339
0.786954 0.363281 0.301515
0.806981 0.375595 0.310690
0.827007 0.387910 0.319866
0.845115 0.400625 0.329947
0.853629 0.415341 0.344560
0.862142 0.430057 0.359172
0.870656 0.444773 0.373784
0.879170 0.459489 0.388397
0.887684 0.474205 0.403009
0.080578 0.131246 0.182922
0.089022 0.146957 0.202027
0.097465 0.162669 0.221133
0.105909 0.178381 0.240238
0.114353 0.194092 0.259344
0.122796 0.209804 0.278450
0.140315 0.223919 0.291459
0.159650 0.237714 0.303249
0.178984 0.251509 0.315039
0.198318 0.265304 0.326830
0.217652 0.279099 0.338620
0.253454 0.291157 0.344484
0.297489 0.302347 0.347386
0.341525 0.313536 0.350287
0.385560 0.324726 0.353189
0.429595 0.335915 0.356090
0.478962 0.344788 0.354886
0.533661 0.351344 0.349577
0.588360 0.357900 0.344268
0.643059 0.364456 0.338960
0.697758 0.371012 0.333651
0.741924 0.378750 0.331990
0.765024 0.388851 0.337625
0.788124 0.398952 0.343260
0.811224 0.409053 0.348895
0.834324 0.419154 0.354530
0.854970 0.429949 0.361645
0.863347 0.444217 0.376157
0.871723 0.458485 0.390669
0.880100 0.472752 0.405180
0.888476 0.487020 0.419692
0.896853 0.501288 0.434204
0.085494 0.143015 0.199464
0.094193 0.159687 0.219567
0.102893 0.176359 0.239670
0.111593 0.193031 0.259772
0.120293 0.209703 0.279875
0.128992 0.226376 0.299978
0.146623 0.241695 0.314106
0.166039 0.256743 0.327040
0.185456 0.271792 0.339974
0.204873 0.286840 0.352907
0.224289 0.301888 0.365841
0.259466 0.315468 0.373361
0.302522 0.328313 0.378175
0.345579 0.341159 0.382988
0.388635 0.354004 0.387801
0.431692 0.366849 0.392615
0.479833 0.377428 0.393579
0.533059 0.385741 0.390694
0.586285 0.394053 0.387810
0.639511 0.402366 0.384925
0.692737 0.410678 0.382040
0.736946 0.418849 0.380816
0.763119 0.426736 0.382911
0.789293 0.434623 0.385005
0.815467 0.442510 0.387100
0.841641 0.450397 0.389195
0.864826 0.459273 0.393343
0.873065 0.473092 0.407754
0.881304 0.486912 0.422165
0.889544 0.500731 0.436576
0.897783 0.514551 0.450987
0.906022 0.528371 0.465398
0.090409 0.154784 0.216007
0.099365 0.172416 0.237107
0.108321 0.190049 0.258207
0.117277 0.207682 0.279306
0.126233 0.225314 0.300406
0.135189 0.242947 0.321506
0.152930 0.259471 0.336754
0.172429 0.275772 0.350831
0.191928 0.292074 0.364908
0.211427 0.308376 0.378985
0.230926 0.324678 0.393063
0.265477 0.339779 0.402238
0.307555 0.354280 0.408964
0.349633 0.368781 0.415689
0.391710 0.383282 0.422414
0.433788 0.397783 0.429140
0.480703 0.410068 0.432272
0.532457 0.420137 0.431812
0.584210 0.430206 0.431351
0.635963 0.440275 0.430891
0.687716 0.450344 0.430430
0.731967 0.458947 0.429641
0.761215 0.464621 0.428196
0.790463 0.470294 0.426751
0.819710 0.475967 0.425305
0.848958 0.481640 0.423860
0.874681 0.488597 0.425041
0.882783 0.501968 0.439351
0.890885 0.515339 0.453662
0.898987 0.528711 0.467972
0.907090 0.542082 0.482283
0.915192 0.555453 0.496593
0.095364 0.167104 0.233353
0.104636 0.185593 0.255200
0.113907 0.204083 0.277047
0.123179 0.222573 0.298894
0.132450 0.241062 0.320741
0.141722 0.259552 0.342588
0.159665 0.277151 0.358753
0.179342 0.294572 0.373781
0.199019 0.311992 0.388810
0.218696 0.329413 0.403838
0.238374 0.346834 0.418867
0.272443 0.363307 0.429506
0.313708 0.379307 0.437949
0.354973 0.395307 0.446393
0.396238 0.411307 0.454836
0.437503 0.427307 0.463280
0.483327 0.441147 0.468383
0.533711 0.452827 0.470145
0.584095 0.464508 0.471908
0.634479 0.476188 0.473670
0.684864 0.487869 0.475433
0.729023 0.496977 0.475210
0.760733 0.500943 0.471016
0.792443 0.504909 0.466821
0.824153 0.508874 0.462627
0.855863 0.512840 0.458432
0.883628 0.518251 0.457227
0.891671 0.530891 0.470964
0.899713 0.543530 0.484701
0.907756 0.556170 0.498438
0.915798 0.568809 0.512176
0.923841 0.581449 0.525913
0.100516 0.182181 0.254717
0.110400 0.201009 0.276060
0.120285 0.219837 0.297404
0.130169 0.238665 0.318748
0.140054 0.257494 0.340092
0.149938 0.276322 0.361435
0.168532 0.294350 0.377509
0.188868 0.312220 0.392528
0.209204 0.330089 0.407548
0.229540 0.347958 0.422567
0.249876 0.365827 0.437587
0.284177 0.382925 0.448722
0.325460 0.399639 0.457916
0.366743 0.416352 0.467110
0.408027 0.433065 0.476304
0.449310 0.449779 0.485497
0.494718 0.464419 0.491584
0.544251 0.476987 0.494563
0.593785 0.489555 0.497542
0.643318 0.502123 0.500521
0.692851 0.514691 0.503500
0.736245 0.524665 0.504491
