filter/Red and Blue 3/lut/Impulse 05_S.cube
# LUT by SparkleStock. Enhanced with VOXCOLOR algorithms.
LUT_3D_SIZE 32
0.031258 0.023443 0.015629
0.045484 0.023065 0.016149
0.059711 0.022687 0.016669
0.073938 0.022309 0.017189
0.088164 0.021931 0.017708
0.102391 0.021553 0.018228
0.125637 0.022435 0.019339
0.150687 0.023569 0.020568
0.175738 0.024704 0.021797
0.200788 0.025838 0.023026
0.225838 0.026972 0.024255
0.256245 0.028327 0.025641
0.289330 0.029792 0.027106
0.322415 0.031258 0.028571
0.355500 0.032723 0.030037
0.388586 0.034188 0.031502
0.420726 0.035748 0.033274
0.451920 0.037402 0.035354
0.483115 0.039056 0.037434
0.514309 0.040711 0.039513
0.545504 0.042365 0.041593
0.572965 0.044350 0.043767
0.592958 0.046997 0.046130
0.612950 0.049644 0.048493
0.632943 0.052290 0.050857
0.652936 0.054937 0.053220
0.671204 0.057694 0.055552
0.680846 0.061003 0.057726
0.690488 0.064311 0.059900
0.700130 0.067620 0.062074
0.709772 0.070928 0.064248
0.719414 0.074237 0.066422
0.032581 0.025145 0.019174
0.047265 0.025251 0.019126
0.061949 0.025358 0.019079
0.076633 0.025465 0.019032
0.091317 0.025572 0.018985
0.106001 0.025678 0.018937
0.129979 0.027267 0.019870
0.155816 0.029151 0.020998
0.181653 0.031036 0.022126
0.207490 0.032920 0.023254
0.233327 0.034805 0.024383
0.264356 0.036690 0.025681
0.297981 0.038576 0.027064
0.331606 0.040462 0.028446
0.365231 0.042348 0.029829
0.398856 0.044234 0.031212
0.431316 0.046032 0.032980
0.462611 0.047741 0.035133
0.493906 0.049450 0.037286
0.525202 0.051159 0.039438
0.556497 0.052868 0.041591
0.583930 0.054844 0.043927
0.603639 0.057354 0.046629
0.623349 0.059863 0.049330
0.643058 0.062373 0.052032
0.662767 0.064883 0.054734
0.680677 0.067538 0.057419
0.689587 0.070919 0.060023
0.698497 0.074301 0.062628
0.707407 0.077683 0.065232
0.716317 0.081064 0.067836
0.725227 0.084446 0.070440
0.033904 0.026846 0.022719
0.049046 0.027438 0.022104
0.064187 0.028029 0.021490
0.079329 0.028621 0.020875
0.094470 0.029213 0.020261
0.109612 0.029804 0.019646
0.134322 0.032098 0.020400
0.160945 0.034733 0.021428
0.187569 0.037367 0.022455
0.214193 0.040002 0.023483
0.240816 0.042637 0.024511
0.272467 0.045053 0.025720
0.306632 0.047360 0.027021
0.340797 0.049666 0.028321
0.374961 0.051973 0.029622
0.409126 0.054280 0.030922
0.441906 0.056315 0.032686
0.473302 0.058080 0.034912
0.504698 0.059844 0.037138
0.536094 0.061608 0.039364
0.567490 0.063372 0.041590
0.594895 0.065338 0.044087
0.614321 0.067711 0.047127
0.633747 0.070083 0.050168
0.653173 0.072456 0.053208
0.672598 0.074828 0.056248
0.690150 0.077381 0.059287
0.698328 0.080836 0.062321
0.706506 0.084291 0.065355
0.714684 0.087745 0.068389
0.722863 0.091200 0.071423
0.731041 0.094655 0.074457
0.035228 0.028548 0.026263
0.050827 0.029624 0.025082
0.066426 0.030701 0.023900
0.082024 0.031777 0.022719
0.097623 0.032853 0.021537
0.113222 0.033930 0.020355
0.138664 0.036930 0.020931
0.166074 0.040315 0.021858
0.193485 0.043699 0.022785
0.220895 0.047084 0.023712
0.248305 0.050469 0.024639
0.280578 0.053416 0.025760
0.315283 0.056143 0.026978
0.349987 0.058871 0.028196
0.384692 0.061598 0.029415
0.419396 0.064326 0.030633
0.452496 0.066599 0.032391
0.483993 0.068418 0.034691
0.515489 0.070237 0.036990
0.546986 0.072056 0.039289
0.578482 0.073875 0.041588
0.605861 0.075833 0.044247
0.625003 0.078068 0.047626
0.644145 0.080303 0.051005
0.663287 0.082538 0.054383
0.682429 0.084773 0.057762
0.699622 0.087224 0.061155
0.707069 0.090752 0.064619
0.714515 0.094280 0.068083
0.721962 0.097808 0.071547
0.729408 0.101336 0.075011
0.736855 0.104864 0.078475
0.036551 0.030249 0.029808
0.052607 0.031811 0.028059
0.068664 0.033372 0.026311
0.084720 0.034933 0.024562
0.100776 0.036494 0.022813
0.116832 0.038056 0.021064
0.143006 0.041762 0.021461
0.171203 0.045896 0.022288
0.199400 0.050031 0.023114
0.227597 0.054166 0.023941
0.255795 0.058301 0.024767
0.288690 0.061778 0.025800
0.323934 0.064927 0.026935
0.359178 0.068075 0.028071
0.394422 0.071224 0.029207
0.429666 0.074372 0.030343
0.463087 0.076883 0.032097
0.494684 0.078757 0.034470
0.526281 0.080631 0.036842
0.557878 0.082505 0.039214
0.589475 0.084378 0.041587
0.616826 0.086327 0.044407
0.635685 0.088425 0.048124
0.654543 0.090523 0.051842
0.673402 0.092621 0.055559
0.692260 0.094719 0.059276
0.709095 0.097067 0.063022
0.715810 0.100668 0.066916
0.722524 0.104270 0.070810
0.729239 0.107871 0.074704
0.735953 0.111472 0.078598
0.742668 0.115073 0.082492
0.037875 0.031951 0.033353
0.054388 0.033997 0.031037
0.070902 0.036043 0.028721
0.087416 0.038089 0.026405
0.103929 0.040135 0.024089
0.120443 0.042181 0.021773
0.147348 0.046593 0.021992
0.176332 0.051478 0.022718
0.205316 0.056363 0.023443
0.234300 0.061248 0.024169
0.263284 0.066133 0.024895
0.296801 0.070141 0.025839
0.332585 0.073710 0.026893
0.368369 0.077280 0.027946
0.404152 0.080849 0.029000
0.439936 0.084418 0.030053
0.473677 0.087167 0.031803
0.505375 0.089096 0.034249
0.537073 0.091024 0.036694
0.568770 0.092953 0.039140
0.600468 0.094882 0.041585
0.627792 0.096821 0.044567
0.646367 0.098782 0.048623
0.664942 0.100743 0.052679
0.683516 0.102703 0.056734
0.702091 0.104664 0.060790
0.718568 0.106910 0.064890
0.724551 0.110585 0.069214
0.730533 0.114259 0.073538
0.736516 0.117934 0.077862
0.742499 0.121608 0.082186
0.748482 0.125283 0.086510
0.038528 0.033889 0.037095
0.054417 0.036603 0.035470
0.070306 0.039316 0.033844
0.086194 0.042030 0.032219
0.102083 0.044744 0.030594
0.117971 0.047458 0.028968
0.146368 0.052721 0.028316
0.177267 0.058493 0.027859
0.208166 0.064266 0.027402
0.239065 0.070038 0.026944
0.269963 0.075810 0.026487
0.304240 0.080644 0.027073
0.340205 0.085007 0.028182
0.376171 0.089371 0.029290
0.412136 0.093734 0.030398
0.448101 0.098098 0.031507
0.481850 0.101313 0.033340
0.513381 0.103381 0.035896
0.544913 0.105448 0.038453
0.576444 0.107516 0.041010
0.607976 0.109583 0.043567
0.635178 0.111551 0.046734
0.653721 0.113322 0.051120
0.672264 0.115092 0.055507
0.690807 0.116862 0.059893
0.709350 0.118632 0.064280
0.725785 0.120714 0.068749
0.731684 0.124355 0.073632
0.737583 0.127996 0.078516
0.743482 0.131637 0.083399
0.749381 0.135278 0.088283
0.755280 0.138918 0.093166
0.039048 0.035874 0.040876
0.054095 0.039292 0.040193
0.069142 0.042710 0.039510
0.084189 0.046129 0.038827
0.099236 0.049547 0.038144
0.114283 0.052965 0.037461
0.144324 0.059108 0.035799
0.177363 0.065795 0.033942
0.210403 0.072482 0.032085
0.243442 0.079169 0.030228
0.276481 0.085856 0.028371
0.311545 0.091574 0.028546
0.347620 0.096806 0.029737
0.383695 0.102039 0.030928
0.419770 0.107272 0.032118
0.455845 0.112504 0.033309
0.489538 0.116232 0.035242
0.520850 0.118455 0.037918
0.552162 0.120678 0.040594
0.583474 0.122901 0.043270
0.614786 0.125124 0.045945
0.641848 0.127129 0.049301
0.660409 0.128698 0.054017
0.678971 0.130267 0.058733
0.697532 0.131836 0.063449
0.716093 0.133404 0.068164
0.732552 0.135310 0.073006
0.738496 0.138896 0.078475
0.744441 0.142482 0.083944
0.750386 0.146068 0.089413
0.756330 0.149654 0.094882
0.762275 0.153240 0.100351
0.039568 0.037859 0.044657
0.053774 0.041982 0.044916
0.067979 0.046104 0.045176
0.082184 0.050227 0.045435
0.096389 0.054350 0.045694
0.110595 0.058472 0.045953
0.142279 0.065494 0.043282
0.177459 0.073096 0.040026
0.212639 0.080698 0.036769
0.247819 0.088300 0.033512
0.282999 0.095902 0.030256
0.318849 0.102504 0.030019
0.355034 0.108606 0.031292
0.391219 0.114708 0.032565
0.427404 0.120809 0.033838
0.463589 0.126911 0.035111
0.497227 0.131151 0.037145
0.528320 0.133530 0.039940
0.559412 0.135908 0.042735
0.590505 0.138286 0.045529
0.621597 0.140665 0.048324
0.648519 0.142706 0.051869
0.667098 0.144074 0.056914
0.685678 0.145442 0.061959
0.704257 0.146809 0.067004
0.722837 0.148177 0.072049
0.739318 0.149905 0.077263
0.745309 0.153436 0.083317
0.751299 0.156967 0.089371
0.757289 0.160499 0.095426
0.763280 0.164030 0.101480
0.769270 0.167561 0.107535
0.040088 0.039844 0.048438
0.053452 0.044671 0.049640
0.066816 0.049498 0.050841
0.080179 0.054325 0.052043
0.093543 0.059152 0.053244
0.106907 0.063979 0.054445
0.140234 0.071881 0.050765
0.177555 0.080398 0.046109
0.214876 0.088915 0.041453
0.252197 0.097432 0.036796
0.289517 0.105948 0.032140
0.326154 0.113434 0.031492
0.362449 0.120405 0.032847
0.398743 0.127376 0.034203
0.435038 0.134347 0.035558
0.471332 0.141317 0.036913
0.504916 0.146070 0.039048
0.535789 0.148604 0.041962
0.566662 0.151138 0.044875
0.597535 0.153672 0.047789
0.628408 0.156206 0.050702
0.655189 0.158284 0.054436
0.673787 0.159450 0.059811
0.692385 0.160617 0.065185
0.710983 0.161783 0.070560
0.729580 0.162949 0.075934
0.746085 0.164501 0.081519
0.752121 0.167977 0.088159
0.758157 0.171453 0.094799
0.764193 0.174929 0.101439
0.770229 0.178406 0.108079
0.776265 0.181882 0.114719
0.040608 0.041829 0.052219
0.053130 0.047361 0.054363
0.065652 0.052892 0.056507
0.078174 0.058424 0.058650
0.090696 0.063955 0.060794
0.103218 0.069487 0.062938
0.138190 0.078268 0.058248
0.177651 0.087700 0.052193
0.217113 0.097131 0.046137
0.256574 0.106563 0.040081
0.296035 0.115994 0.034025
0.333459 0.124365 0.032964
0.369863 0.132205 0.034402
0.406267 0.140044 0.035840
0.442672 0.147884 0.037278
0.479076 0.155724 0.038716
0.512605 0.160989 0.040951
0.543258 0.163678 0.043983
0.573912 0.166368 0.047016
0.604565 0.169057 0.050048
0.635218 0.171747 0.053081
0.661859 0.173861 0.057004
0.680476 0.174827 0.062708
0.699092 0.175792 0.068411
0.717708 0.176757 0.074115
0.736324 0.177722 0.079819
0.752851 0.179096 0.085776
0.758933 0.182518 0.093002
0.765015 0.185939 0.100227
0.771097 0.189360 0.107452
0.777179 0.192782 0.114678
0.783260 0.196203 0.121903
0.042010 0.045358 0.057860
0.053843 0.051576 0.061183
0.065676 0.057793 0.064507
0.077509 0.064011 0.067831
0.089342 0.070229 0.071155
0.101175 0.076446 0.074479
0.135239 0.085759 0.070131
0.173749 0.095690 0.064249
0.212259 0.105622 0.058366
0.250768 0.115554 0.052484
0.289278 0.125485 0.046602
0.328336 0.134309 0.044610
0.367668 0.142579 0.044563
0.407000 0.150849 0.044515
0.446331 0.159118 0.044468
0.485663 0.167388 0.044421
0.520525 0.173171 0.046095
0.550916 0.176468 0.049490
0.581307 0.179764 0.052886
0.611698 0.183060 0.056281
0.642089 0.186357 0.059677
0.668545 0.188965 0.064022
0.687131 0.190199 0.070269
0.705716 0.191432 0.076515
0.724302 0.192666 0.082762
0.742888 0.193899 0.089009
0.759430 0.195551 0.095540
0.765759 0.199296 0.103497
0.772088 0.203040 0.111455
0.778417 0.206785 0.119412
0.784746 0.210529 0.127369
0.791075 0.214274 0.135326
0.043854 0.049659 0.064429
0.055074 0.056554 0.069052
0.066294 0.063448 0.073675
0.077514 0.070343 0.078298
0.088734 0.077237 0.082921
0.099954 0.084132 0.087543
0.131834 0.093801 0.084212
0.167847 0.104026 0.079291
0.203859 0.114250 0.074369
0.239872 0.124475 0.069448
0.275884 0.134699 0.064526
0.317000 0.143761 0.061342
0.360668 0.152241 0.059026
0.404336 0.160721 0.056710
0.448004 0.169201 0.054394
0.491672 0.177681 0.052078
0.528560 0.183986 0.052860
0.558667 0.188114 0.056740
0.588775 0.192243 0.060620
0.618882 0.196372 0.064501
0.648990 0.200501 0.068381
0.675238 0.203832 0.073266
0.693769 0.205569 0.080162
0.712300 0.207305 0.087059
0.730831 0.209042 0.093955
0.749361 0.210779 0.100851
0.765916 0.212935 0.108058
0.772593 0.217192 0.116820
0.779269 0.221449 0.125582
0.785946 0.225706 0.134344
0.792622 0.229963 0.143107
0.799299 0.234220 0.151869
0.045697 0.053960 0.070999
0.056304 0.061532 0.076921
0.066911 0.069103 0.082843
0.077518 0.076675 0.088765
0.088125 0.084246 0.094686
0.098732 0.091818 0.100608
0.128430 0.101844 0.098294
0.161945 0.112361 0.094333
0.195460 0.122878 0.090372
0.228975 0.133395 0.086411
0.262490 0.143912 0.082450
0.305665 0.153212 0.078073
0.353669 0.161902 0.073489
0.401673 0.170593 0.068904
0.449677 0.179284 0.064319
0.497681 0.187974 0.059735
0.536595 0.194800 0.059625
0.566419 0.199761 0.063990
0.596242 0.204723 0.068355
0.626066 0.209684 0.072720
0.655890 0.214645 0.077085
0.681932 0.218699 0.082510
0.700407 0.220939 0.090056
0.718883 0.223179 0.097602
0.737359 0.225418 0.105147
0.755835 0.227658 0.112693
0.772402 0.230319 0.120575
0.779426 0.235089 0.130142
0.786451 0.239858 0.139710
0.793475 0.244627 0.149277
0.800499 0.249396 0.158844
0.807523 0.254165 0.168412
0.047540 0.058261 0.077569
0.057534 0.066510 0.084790
0.067529 0.074758 0.092011
0.077523 0.083007 0.099231
0.087517 0.091255 0.106452
0.097511 0.099504 0.113673
0.125025 0.109887 0.112376
0.156043 0.120696 0.109376
0.187060 0.131506 0.106375
0.218078 0.142316 0.103374
0.249096 0.153126 0.100374
0.294329 0.162663 0.094805
0.346669 0.171564 0.087951
0.399009 0.180465 0.081098
0.451349 0.189366 0.074245
0.503689 0.198267 0.067391
0.544630 0.205615 0.066390
0.574170 0.211408 0.071240
0.603710 0.217202 0.076090
0.633251 0.222996 0.080940
0.662791 0.228789 0.085790
0.688625 0.233566 0.091754
0.707046 0.236309 0.099950
0.725467 0.239052 0.108145
0.743888 0.241795 0.116340
0.762309 0.244538 0.124535
0.778888 0.247704 0.133093
0.786260 0.252985 0.143465
0.793632 0.258267 0.153837
0.801003 0.263548 0.164210
0.808375 0.268829 0.174582
0.815747 0.274111 0.184954
0.049384 0.062563 0.084139
0.058765 0.071488 0.092659
0.068146 0.080413 0.101178
0.077527 0.089339 0.109698
0.086909 0.098264 0.118218
0.096290 0.107189 0.126738
0.121620 0.117929 0.126458
0.150141 0.129032 0.124418
0.178661 0.140134 0.122378
0.207181 0.151237 0.120338
0.235702 0.162340 0.118298
0.282993 0.172115 0.111536
0.339669 0.181226 0.102414
0.396345 0.190337 0.093292
0.453022 0.199449 0.084170
0.509698 0.208560 0.075048
0.552665 0.216429 0.073155
0.581921 0.223055 0.078489
0.611178 0.229681 0.083824
0.640435 0.236308 0.089159
0.669692 0.242934 0.094494
0.695318 0.248433 0.100999
0.713684 0.251679 0.109843
0.732050 0.254925 0.118688
0.750416 0.258171 0.127532
0.768783 0.261417 0.136377
0.785374 0.265088 0.145610
0.793094 0.270882 0.156787
0.800813 0.276675 0.167965
0.808532 0.282469 0.179142
0.816252 0.288263 0.190319
0.823971 0.294056 0.201497
0.052078 0.069061 0.092788
0.061061 0.078737 0.102667
0.070044 0.088412 0.112545
0.079028 0.098088 0.122423
0.088011 0.107763 0.132301
0.096994 0.117439 0.142180
0.120642 0.128567 0.143323
0.147223 0.139985 0.142719
0.173804 0.151403 0.142115
0.200385 0.162821 0.141512
0.226966 0.174240 0.140908
0.274282 0.184309 0.134363
0.331964 0.193704 0.124848
0.389647 0.203099 0.115332
0.447329 0.212494 0.105817
0.505012 0.221889 0.096301
0.549669 0.230009 0.093555
0.581299 0.236855 0.097577
0.612930 0.243701 0.101599
0.644561 0.250546 0.105621
0.676191 0.257392 0.109643
0.703353 0.263349 0.115538
0.721577 0.267528 0.125178
0.739802 0.271707 0.134819
0.758026 0.275886 0.144459
0.776250 0.280065 0.154100
0.792771 0.284634 0.164135
0.800774 0.291150 0.176145
0.808777 0.297667 0.188154
0.816780 0.304183 0.200164
0.824783 0.310700 0.212174
0.832786 0.317216 0.224184
0.055623 0.077758 0.103517
0.064423 0.088257 0.114814
0.073223 0.098756 0.126110
0.082024 0.109255 0.137406
0.090824 0.119753 0.148702
0.099624 0.130252 0.159998
0.122091 0.141799 0.162971
0.147290 0.153556 0.164279
0.172490 0.165313 0.165588
0.197690 0.177069 0.166896
0.222889 0.188826 0.168204
0.268195 0.199246 0.163284
0.323554 0.208998 0.155251
0.378913 0.218750 0.147217
0.434272 0.228501 0.139184
0.489631 0.238253 0.131151
0.535642 0.246355 0.127590
0.572304 0.252807 0.128501
0.608966 0.259260 0.129413
0.645628 0.265712 0.130325
0.682290 0.272165 0.131237
0.712730 0.278314 0.135372
0.730725 0.283856 0.145955
0.748721 0.289398 0.156537
0.766717 0.294940 0.167120
0.784712 0.300482 0.177703
0.801079 0.306342 0.188667
0.809301 0.313792 0.201536
0.817524 0.321241 0.214406
0.825746 0.328691 0.227276
0.833969 0.336140 0.240145
0.842192 0.343590 0.253015
0.059167 0.086455 0.114246
0.067785 0.097777 0.126960
0.076402 0.109099 0.139675
0.085020 0.120421 0.152389
0.093637 0.131743 0.165103
0.102254 0.143066 0.177817
0.123539 0.155032 0.182620
0.147357 0.167127 0.185840
0.171176 0.179222 0.189060
0.194994 0.191317 0.192280
0.218812 0.203412 0.195500
0.262109 0.214183 0.192206
0.315144 0.224292 0.185654
0.368180 0.234400 0.179103
0.421215 0.244509 0.172551
0.474250 0.254617 0.166000
0.521615 0.262701 0.161625
0.563308 0.268760 0.159426
0.605002 0.274819 0.157228
0.646695 0.280878 0.155029
0.688389 0.286937 0.152830
0.722106 0.293278 0.155206
0.739873 0.300183 0.166731
0.757640 0.307089 0.178256
0.775407 0.313994 0.189781
0.793174 0.320899 0.201306
0.809387 0.328050 0.213199
0.817829 0.336433 0.226928
0.826271 0.344816 0.240658
0.834713 0.353198 0.254387
0.843155 0.361581 0.268117
0.851597 0.369963 0.281846
0.062712 0.095151 0.124975
0.071147 0.107297 0.139107
0.079581 0.119442 0.153240
0.088016 0.131588 0.167372
0.096450 0.143733 0.181504
0.104884 0.155879 0.195636
0.124988 0.168264 0.202268
0.147425 0.180698 0.207400
0.169861 0.193132 0.212532
0.192298 0.205565 0.217664
0.214735 0.217999 0.222796
0.256022 0.229120 0.221127
0.306734 0.239586 0.216058
0.357446 0.250051 0.210988
0.408158 0.260516 0.205918
0.458870 0.270981 0.200849
0.507588 0.279047 0.195660
0.554313 0.284713 0.190351
0.601038 0.290378 0.185042
0.647762 0.296044 0.179733
0.694487 0.301710 0.174424
0.731483 0.308243 0.175041
0.749021 0.316511 0.187508
0.766560 0.324779 0.199975
0.784098 0.333047 0.212442
0.801636 0.341316 0.224909
0.817695 0.349759 0.237730
0.826356 0.359074 0.252320
0.835018 0.368390 0.266909
0.843680 0.377706 0.281499
0.852341 0.387021 0.296088
0.861003 0.396337 0.310678
0.066257 0.103848 0.135704
0.074509 0.116817 0.151254
0.082760 0.129786 0.166805
0.091011 0.142754 0.182355
0.099263 0.155723 0.197905
0.107514 0.168692 0.213455
0.126436 0.181497 0.221916
0.147492 0.194269 0.228960
0.168547 0.207041 0.236004
0.189603 0.219813 0.243048
0.210658 0.232585 0.250092
0.249936 0.244057 0.250048
0.298324 0.254879 0.246461
0.346712 0.265702 0.242873
0.395100 0.276524 0.239286
0.443489 0.287346 0.235698
0.493561 0.295393 0.229695
0.545317 0.300665 0.221276
0.597073 0.305937 0.212856
0.648830 0.311210 0.204437
0.700586 0.316482 0.196018
0.740860 0.323207 0.194875
0.758169 0.332839 0.208285
0.775479 0.342470 0.221694
0.792788 0.352101 0.235103
0.810098 0.361732 0.248513
0.826003 0.371467 0.262262
0.834884 0.381715 0.277712
0.843765 0.391964 0.293161
0.852646 0.402213 0.308610
0.861527 0.412462 0.324060
0.870408 0.422711 0.339509
0.070164 0.113758 0.148308
0.078388 0.127584 0.165133
0.086612 0.141409 0.181958
0.094836 0.155235 0.198782
0.103060 0.169061 0.215607
0.111284 0.182886 0.232432
0.129421 0.196251 0.242511
0.149541 0.209523 0.251241
0.169660 0.222795 0.259971
0.189780 0.236067 0.268702
0.209899 0.249339 0.277432
0.247590 0.261348 0.279070
0.294066 0.272725 0.277163
0.340542 0.284102 0.275256
0.387019 0.295479 0.273348
0.433495 0.306856 0.271441
0.484130 0.315269 0.265625
0.538923 0.320719 0.255901
0.593717 0.326168 0.246176
0.648510 0.331617 0.236452
0.703303 0.337066 0.226728
0.745863 0.344067 0.224534
0.763956 0.354171 0.237400
0.782050 0.364275 0.250267
0.800143 0.374379 0.263134
0.818236 0.384482 0.276000
0.834809 0.394725 0.289376
0.843778 0.405660 0.305298
0.852748 0.416595 0.321220
0.861717 0.427530 0.337142
0.870687 0.438464 0.353065
0.879657 0.449399 0.368987
0.074796 0.126094 0.164662
0.083304 0.140844 0.182475
0.091811 0.155593 0.200287
0.100319 0.170343 0.218100
0.108827 0.185092 0.235912
0.117334 0.199842 0.253725
0.135480 0.214046 0.264998
0.155554 0.228142 0.274963
0.175628 0.242237 0.284929
0.195701 0.256333 0.294894
0.215775 0.270429 0.304859
0.252725 0.283346 0.308294
0.298113 0.295674 0.308463
0.343500 0.308003 0.308632
0.388888 0.320331 0.308801
0.434276 0.332660 0.308970
0.483891 0.342207 0.305346
0.537732 0.348974 0.297927
0.591574 0.355740 0.290508
0.645416 0.362506 0.283089
0.699258 0.369273 0.275670
0.742120 0.376716 0.273841
0.763022 0.385512 0.283195
0.783923 0.394307 0.292549
0.804825 0.403103 0.301903
0.825727 0.411899 0.311257
0.844611 0.421083 0.321655
0.853406 0.432210 0.337275
0.862202 0.443337 0.352895
0.870998 0.454464 0.368515
0.879794 0.465591 0.384136
0.888590 0.476718 0.399756
0.079428 0.138430 0.181015
0.088219 0.154104 0.199816
0.097011 0.169777 0.218617
0.105802 0.185451 0.237417
0.114593 0.201124 0.256218
0.123384 0.216798 0.275019
0.141539 0.231842 0.287485
0.161567 0.246761 0.298686
0.181595 0.261680 0.309886
0.201623 0.276599 0.321086
0.221651 0.291518 0.332286
0.257860 0.305344 0.337517
0.302159 0.318624 0.339763
0.346458 0.331903 0.342008
0.390757 0.345183 0.344254
0.435056 0.358463 0.346500
0.483651 0.369145 0.345066
0.536542 0.377229 0.339952
0.589432 0.385312 0.334839
0.642323 0.393396 0.329725
0.695213 0.401480 0.324611
0.738377 0.409365 0.323149
0.762087 0.416853 0.328990
0.785797 0.424340 0.334831
0.809507 0.431828 0.340672
0.833217 0.439315 0.346513
0.854413 0.447442 0.353934
0.863035 0.458761 0.369252
0.871657 0.470080 0.384570
0.880279 0.481399 0.399888
0.888901 0.492718 0.415207
0.897523 0.504037 0.430525
0.084060 0.150766 0.197369
0.093135 0.167364 0.217158
0.102210 0.183961 0.236946
0.111284 0.200559 0.256735
0.120359 0.217156 0.276523
0.129434 0.233754 0.296312
0.147598 0.249638 0.309973
0.167581 0.265380 0.322408
0.187563 0.281123 0.334843
0.207545 0.296865 0.347278
0.227527 0.312607 0.359713
0.262995 0.327342 0.366740
0.306206 0.341573 0.371062
0.349416 0.355804 0.375385
0.392626 0.370035 0.379707
0.435837 0.384266 0.384030
0.483412 0.396083 0.384787
0.535351 0.405484 0.381978
0.587290 0.414885 0.379170
0.639229 0.424286 0.376361
0.691169 0.433687 0.373553
0.734634 0.442014 0.372457
0.761153 0.448194 0.374785
0.787671 0.454373 0.377113
0.814190 0.460553 0.379441
0.840708 0.466732 0.381769
0.864215 0.473800 0.386212
0.872663 0.485311 0.401229
0.881111 0.496822 0.416245
0.889559 0.508334 0.431261
0.898007 0.519845 0.446278
0.906456 0.531356 0.461294
0.088692 0.163102 0.213722
0.098050 0.180624 0.234499
0.107409 0.198145 0.255276
0.116767 0.215666 0.276052
0.126125 0.233188 0.296829
0.135484 0.250709 0.317605
0.153657 0.267434 0.332460
0.173594 0.284000 0.346130
0.193530 0.300565 0.359800
0.213467 0.317130 0.373470
0.233403 0.333696 0.387140
0.268130 0.349340 0.395963
0.310252 0.364522 0.402362
0.352374 0.379705 0.408761
0.394496 0.394887 0.415160
0.436618 0.410070 0.421559
0.483172 0.423020 0.424507
0.534160 0.433739 0.424004
0.585148 0.444457 0.423501
0.636136 0.455176 0.422998
0.687124 0.465894 0.422495
0.730891 0.474663 0.421764
0.760218 0.479535 0.420580
0.789545 0.484406 0.419395
0.818872 0.489277 0.418210
0.848199 0.494148 0.417026
0.874017 0.500158 0.418491
0.882291 0.511862 0.433205
0.890566 0.523565 0.447920
0.898840 0.535268 0.462634
0.907114 0.546972 0.477349
0.915389 0.558675 0.492063
0.093474 0.175611 0.230990
0.103157 0.193964 0.252517
0.112840 0.212316 0.274043
0.122523 0.230669 0.295570
0.132206 0.249021 0.317097
0.141889 0.267373 0.338623
0.160168 0.284873 0.354468
0.180165 0.302203 0.369177
0.200163 0.319532 0.383885
0.220160 0.336861 0.398593
0.240158 0.354190 0.413302
0.274303 0.370694 0.423712
0.315522 0.386786 0.431972
0.356741 0.402877 0.440233
0.397961 0.418968 0.448494
0.439180 0.435060 0.456754
0.484822 0.449083 0.461697
0.534885 0.461038 0.463323
0.584949 0.472992 0.464948
0.635013 0.484947 0.466573
0.685077 0.496902 0.468198
0.728977 0.506179 0.467977
0.760550 0.510099 0.464062
0.792123 0.514019 0.460146
0.823695 0.517939 0.456231
0.855268 0.521858 0.452316
0.882942 0.527049 0.451384
0.891122 0.538590 0.465369
0.899302 0.550132 0.479355
0.907481 0.561674 0.493341
0.915661 0.573215 0.507327
0.923841 0.584757 0.521312
0.099004 0.188987 0.252826
0.109217 0.207706 0.273914
0.119431 0.226424 0.295001
0.129645 0.245142 0.316089
0.139858 0.263861 0.337177
0.150072 0.282579 0.358264
0.168934 0.300528 0.374081
0.189527 0.318324 0.388845
0.210119 0.336120 0.403608
0.230711 0.353916 0.418371
0.251303 0.371712 0.433135
0.285665 0.388835 0.444087
0.326911 0.405621 0.453135
0.368158 0.422408 0.462182
0.409405 0.439195 0.471229
0.450652 0.455981 0.480277
0.495914 0.470768 0.486235
0.545191 0.483555 0.489105
0.594468 0.496343 0.491974
0.643745 0.509130 0.494843
0.693022 0.521917 0.497713
0.736209 0.532026 0.498714
