filter/Red and Blue 3/lut/Impulse 05.cube
# LUT by SparkleStock. Enhanced with VOXCOLOR algorithms.
LUT_3D_SIZE 5
DOMAIN_MIN 0.000000 0.000000 0.000000
DOMAIN_MAX 0.903226 0.903226 0.903226
0.031258 0.023443 0.015629
0.150167 0.023569 0.020568
0.352649 0.032723 0.030037
0.569703 0.044350 0.043767
0.689921 0.064311 0.059900
0.039048 0.035787 0.040876
0.172456 0.040475 0.038589
0.411198 0.053590 0.044757
0.631396 0.083289 0.064860
0.737192 0.130043 0.090367
0.047540 0.056977 0.077916
0.149534 0.094912 0.115357
0.450823 0.108130 0.088689
0.688791 0.156052 0.110352
0.788365 0.235494 0.162545
0.070747 0.107708 0.149837
0.146870 0.199655 0.255667
0.379409 0.266170 0.283963
0.751880 0.298553 0.234338
0.852561 0.401630 0.327676
0.105668 0.197259 0.276080
0.198394 0.329868 0.411276
0.419815 0.454824 0.497771
0.743468 0.552353 0.533772
0.909837 0.597549 0.542211
0.035771 0.043720 0.086289
0.132589 0.058656 0.075437
0.387225 0.062982 0.059004
0.634132 0.084311 0.065826
0.737661 0.129038 0.089204
0.051697 0.080901 0.137029
0.123404 0.151241 0.191589
0.345377 0.175993 0.184488
0.648564 0.203725 0.168520
0.784780 0.259970 0.196254
0.076244 0.133093 0.207865
0.152309 0.233024 0.289480
0.358219 0.301298 0.324238
0.676429 0.338817 0.301338
0.832571 0.400155 0.331734
0.112676 0.211132 0.304243
0.201667 0.326855 0.399122
0.393315 0.434102 0.474872
0.719534 0.501710 0.474284
0.878445 0.551136 0.492552
0.169121 0.319260 0.424825
0.278580 0.434760 0.509863
0.481455 0.556471 0.594127
0.760217 0.652528 0.636643
0.914975 0.686811 0.635638
0.039127 0.075056 0.188081
0.097149 0.116637 0.210108
0.341317 0.136524 0.147301
0.670880 0.157071 0.112028
0.784818 0.218776 0.144109
0.055520 0.121389 0.266834
0.134354 0.230086 0.333932
0.300493 0.311792 0.359832
0.653445 0.337572 0.308558
0.829159 0.388895 0.320741
0.093039 0.199001 0.363760
0.193885 0.329965 0.430469
0.341254 0.443750 0.498136
0.657854 0.490707 0.478478
0.859299 0.533930 0.478252
0.148315 0.298507 0.463296
0.270357 0.432072 0.527348
0.422325 0.544762 0.595150
0.683802 0.629965 0.625405
0.884232 0.654687 0.605714
0.227767 0.412243 0.553985
0.363197 0.532319 0.613154
0.525224 0.632023 0.669640
0.757998 0.721203 0.708057
0.911171 0.755398 0.706180
0.045461 0.121509 0.342077
0.088752 0.179415 0.387207
0.227928 0.261962 0.390829
0.670115 0.279924 0.228741
0.837795 0.342633 0.259176
0.063539 0.173672 0.428571
0.154898 0.292859 0.484486
0.286916 0.411573 0.528027
0.619694 0.496816 0.501225
0.866312 0.523518 0.467983
0.106022 0.254816 0.518383
0.229246 0.395538 0.565494
0.375666 0.526402 0.619439
0.620756 0.624345 0.637800
0.877452 0.645747 0.600718
0.173982 0.356698 0.597438
0.324080 0.504413 0.638705
0.480642 0.621280 0.684116
0.653968 0.706681 0.716331
0.883453 0.731786 0.688471
0.266904 0.468658 0.664738
0.425693 0.600445 0.709005
0.582539 0.700628 0.746570
0.744039 0.773966 0.772118
0.904549 0.811845 0.766051
0.051723 0.171058 0.485423
0.102765 0.243067 0.537144
0.212711 0.344115 0.567139
0.479678 0.453770 0.548976
0.843353 0.496718 0.456724
0.084656 0.239099 0.562409
0.187019 0.359838 0.615050
0.309099 0.471905 0.651873
0.531245 0.582441 0.661283
0.857513 0.637191 0.609550
0.143408 0.329227 0.632186
0.271588 0.461550 0.680915
0.416994 0.582447 0.723625
0.598978 0.680477 0.740022
0.865129 0.731904 0.702860
0.217692 0.425142 0.692143
0.365983 0.559070 0.736339
0.516381 0.672444 0.776627
0.677114 0.760120 0.801536
0.876181 0.801883 0.769918
0.291625 0.505192 0.734255
0.461952 0.642806 0.782094
0.613159 0.746312 0.817809
0.765368 0.818399 0.832130
0.899388 0.860087 0.824381
