filter/Red and Blue 3/lut/Impulse 05_S.cube
# LUT by SparkleStock. Enhanced with VOXCOLOR algorithms.
LUT_3D_SIZE 5
DOMAIN_MIN 0.000000 0.000000 0.000000
DOMAIN_MAX 0.903226 0.903226 0.903226
0.031258 0.023443 0.015629
0.150687 0.023569 0.020568
0.355500 0.032723 0.030037
0.572965 0.044350 0.043767
0.690488 0.064311 0.059900
0.039048 0.035874 0.040876
0.177363 0.065795 0.033942
0.419770 0.107272 0.032118
0.641848 0.127129 0.049301
0.744441 0.142482 0.083944
0.047540 0.058261 0.077569
0.156043 0.120696 0.109376
0.451349 0.189366 0.074245
0.688625 0.233566 0.091754
0.793632 0.258267 0.153837
0.070164 0.113758 0.148308
0.149541 0.209523 0.251241
0.387019 0.295479 0.273348
0.745863 0.344067 0.224534
0.852748 0.416595 0.321220
0.104533 0.202363 0.274662
0.198888 0.334446 0.408513
0.420849 0.459421 0.493965
0.743440 0.557874 0.529451
0.909590 0.601510 0.539829
0.035771 0.043720 0.086289
0.137375 0.056307 0.083650
0.395090 0.055270 0.084674
0.639060 0.075366 0.089443
0.739829 0.126133 0.094167
0.051697 0.081089 0.137115
0.157659 0.167140 0.195237
0.398279 0.205222 0.206560
0.664699 0.223307 0.200391
0.798602 0.257945 0.204959
0.076183 0.133699 0.207891
0.176421 0.260931 0.276820
0.410670 0.366532 0.290028
0.686799 0.399454 0.276221
0.846992 0.417938 0.301869
0.111682 0.214494 0.303774
0.207578 0.340329 0.390830
0.413788 0.475392 0.438539
0.721280 0.556242 0.414121
0.885767 0.585709 0.426587
0.167804 0.322654 0.423984
0.278782 0.438255 0.507812
0.482707 0.563655 0.586751
0.757852 0.667808 0.614645
0.916339 0.710026 0.595557
0.039127 0.075056 0.188081
0.100174 0.114975 0.214370
0.352074 0.128809 0.170566
0.673705 0.147083 0.143572
0.786099 0.215633 0.151706
0.055397 0.121941 0.267325
0.156257 0.229514 0.342146
0.363427 0.293330 0.387760
0.673151 0.312501 0.362381
0.838787 0.362931 0.344453
0.092888 0.199648 0.364155
0.208757 0.340186 0.429244
0.397620 0.452813 0.482592
0.679266 0.483878 0.473256
0.875795 0.505537 0.469735
0.147013 0.301537 0.463178
0.273085 0.440045 0.523813
0.438648 0.566112 0.572174
0.693614 0.655357 0.562888
0.896285 0.670089 0.541114
0.226331 0.415966 0.553519
0.362457 0.535178 0.612038
0.525510 0.637802 0.664511
0.752868 0.738743 0.681966
0.914293 0.788470 0.650429
0.045461 0.121509 0.342077
0.088995 0.179252 0.387450
0.229748 0.260695 0.393633
0.673565 0.276599 0.237447
0.837937 0.341686 0.262255
0.063132 0.174185 0.429140
0.158760 0.291506 0.487061
0.305947 0.399234 0.537832
0.646006 0.467846 0.521045
0.870163 0.499134 0.485914
0.104607 0.257738 0.520265
0.231815 0.397188 0.568056
0.392079 0.520605 0.623124
0.650328 0.588918 0.646988
0.888417 0.595227 0.623386
0.173032 0.357883 0.598005
0.324384 0.506845 0.638778
0.486505 0.624592 0.681688
0.668802 0.702875 0.706638
0.895411 0.710329 0.686281
0.265184 0.471837 0.664935
0.424524 0.602532 0.708946
0.581842 0.702799 0.745557
0.742677 0.780599 0.766192
0.908624 0.828296 0.744706
0.051723 0.171058 0.485423
0.102765 0.243067 0.537144
0.212711 0.344115 0.567240
0.479820 0.453619 0.549269
0.843435 0.496553 0.456971
0.084119 0.239553 0.563369
0.187193 0.359236 0.616025
0.310702 0.470319 0.653218
0.533883 0.578136 0.663950
0.859016 0.631020 0.613714
0.141964 0.330538 0.634550
0.271258 0.461679 0.683250
0.418195 0.580514 0.725828
0.602969 0.672389 0.744814
0.869191 0.712695 0.715574
0.215780 0.427616 0.694579
0.364975 0.560527 0.738203
0.516347 0.672668 0.778190
0.678298 0.757030 0.804299
0.881189 0.786351 0.783160
0.289997 0.506761 0.735426
0.461068 0.644112 0.782792
0.612606 0.747048 0.818154
0.765302 0.818710 0.832493
0.902040 0.860098 0.826889
