filter/Red and Blue 3/lut/Impulse 05.cube
# LUT by SparkleStock. Enhanced with VOXCOLOR algorithms.
LUT_3D_SIZE 8
DOMAIN_MIN 0.000000 0.000000 0.000000
DOMAIN_MAX 0.903226 0.903226 0.903226
0.031258 0.023443 0.015629
0.088164 0.021931 0.017708
0.174934 0.024704 0.021797
0.287235 0.029792 0.027106
0.417307 0.035748 0.033274
0.542085 0.042365 0.041593
0.631100 0.052290 0.050857
0.689921 0.064311 0.059900
0.036551 0.030249 0.029808
0.099313 0.028298 0.024130
0.194218 0.031357 0.026889
0.315227 0.038007 0.033821
0.452673 0.047293 0.042001
0.579061 0.060057 0.052076
0.663954 0.077838 0.063463
0.717109 0.098293 0.074701
0.039568 0.037725 0.044657
0.093151 0.043110 0.047810
0.207450 0.045346 0.043062
0.348624 0.051467 0.042458
0.489801 0.065624 0.052573
0.612616 0.085261 0.065234
0.693386 0.111796 0.080350
0.743821 0.141956 0.096557
0.043854 0.048942 0.064587
0.085056 0.067062 0.085231
0.197947 0.074359 0.081982
0.356086 0.080863 0.072103
0.528441 0.094513 0.069630
0.646157 0.122298 0.087535
0.723211 0.158932 0.109512
0.772506 0.199634 0.134430
0.052125 0.066950 0.093371
0.085899 0.101023 0.134360
0.164743 0.123135 0.149784
0.324018 0.134911 0.137590
0.554863 0.142783 0.108313
0.680336 0.176350 0.126950
0.756335 0.223583 0.158730
0.805012 0.274947 0.196555
0.066682 0.098523 0.137044
0.098408 0.149575 0.200427
0.164005 0.192605 0.241563
0.291213 0.226494 0.255837
0.488064 0.250650 0.242276
0.705310 0.263872 0.207343
0.794896 0.315643 0.245319
0.843031 0.375410 0.299945
0.085494 0.143015 0.199464
0.120293 0.209703 0.279875
0.185456 0.271792 0.339974
0.302522 0.328313 0.378175
0.479833 0.377428 0.393579
0.692737 0.410678 0.382040
0.815467 0.442510 0.387100
0.881304 0.486912 0.422165
0.105668 0.197259 0.276080
0.147657 0.273925 0.359443
0.219389 0.348185 0.426286
0.337212 0.419970 0.477883
0.506109 0.487692 0.514785
0.700839 0.541512 0.531568
0.835030 0.569190 0.528434
0.909837 0.597549 0.542211
0.034283 0.033841 0.053630
0.078016 0.039355 0.046634
0.175355 0.040444 0.041752
0.308001 0.042642 0.040694
0.456112 0.049549 0.044392
0.582794 0.060703 0.052418
0.665539 0.077972 0.063341
0.717725 0.098689 0.075067
0.041625 0.050161 0.073810
0.077389 0.072800 0.090559
0.160450 0.080101 0.092171
0.287706 0.083955 0.088118
0.447767 0.092733 0.085698
0.595208 0.107882 0.089134
0.687977 0.130569 0.099800
0.743897 0.158087 0.114836
0.049802 0.066944 0.098703
0.082308 0.101560 0.129860
0.159637 0.120201 0.142022
0.285682 0.130690 0.140136
0.453036 0.140322 0.130808
0.613004 0.159388 0.130404
0.712813 0.187523 0.142072
0.771966 0.221360 0.161616
0.059674 0.087809 0.129489
0.091442 0.131458 0.170440
0.163295 0.163526 0.196451
0.289813 0.184580 0.201509
0.468123 0.198129 0.187341
0.635005 0.220358 0.183646
0.739340 0.253307 0.197187
0.801163 0.292638 0.222335
0.072190 0.115880 0.167915
0.104406 0.167352 0.217582
0.167384 0.212785 0.259386
0.292677 0.247568 0.276219
0.484997 0.271014 0.263313
0.659948 0.295114 0.255236
0.767410 0.331413 0.270622
0.831088 0.374715 0.301699
0.089967 0.156235 0.221101
0.125233 0.215167 0.279451
0.187529 0.273765 0.334701
0.300076 0.325997 0.371146
0.473091 0.367072 0.378758
0.685989 0.391111 0.356318
0.799390 0.426829 0.369892
0.862700 0.469564 0.403267
0.113584 0.209386 0.289865
0.154663 0.273870 0.351342
0.222179 0.341736 0.412363
0.333156 0.407363 0.460992
0.495027 0.465417 0.488585
0.693951 0.506066 0.488520
0.821878 0.533237 0.487280
0.892725 0.564730 0.506171
0.141735 0.269729 0.364023
0.188710 0.335649 0.421266
0.265421 0.408581 0.481929
0.381361 0.482107 0.535700
0.538153 0.550274 0.575034
0.716452 0.603396 0.594655
0.842883 0.630119 0.592966
0.914275 0.651450 0.598969
0.036102 0.047454 0.098058
0.068840 0.061340 0.098266
0.152414 0.065987 0.085047
0.291063 0.068206 0.070520
0.471690 0.073601 0.063571
0.611575 0.087738 0.068297
0.694341 0.111053 0.079687
0.744111 0.140122 0.094503
0.043835 0.067689 0.126832
0.074363 0.105429 0.155316
0.137818 0.128775 0.164241
0.258765 0.139814 0.156362
0.439632 0.143635 0.138014
0.609395 0.159452 0.132126
0.711647 0.185255 0.140397
0.771202 0.217712 0.157952
0.056027 0.093614 0.163407
0.088278 0.144585 0.202360
0.143743 0.185548 0.231103
0.253625 0.209279 0.236548
0.427948 0.216351 0.216591
0.613746 0.235301 0.205932
0.730277 0.263708 0.212621
0.797981 0.298431 0.232253
0.071027 0.125337 0.206162
0.107168 0.183926 0.249100
0.161877 0.238398 0.292649
0.265416 0.276914 0.314131
0.430634 0.295625 0.303656
0.623985 0.315480 0.288192
0.750246 0.344791 0.292541
0.824292 0.380437 0.313134
0.088293 0.163418 0.254464
0.129155 0.227570 0.302234
0.186447 0.289865 0.354011
0.286636 0.342962 0.390502
0.443163 0.381463 0.399046
0.639979 0.400455 0.377940
0.771796 0.428101 0.378148
0.849919 0.462769 0.397892
0.111882 0.212140 0.312499
0.157924 0.279612 0.362705
0.219239 0.345818 0.416417
0.317534 0.407197 0.461082
0.466003 0.459807 0.486228
0.664920 0.493242 0.477525
0.796619 0.518372 0.474603
0.874080 0.547392 0.489089
0.142292 0.271118 0.378360
0.194851 0.339434 0.427533
0.262630 0.406600 0.479603
0.363632 0.472379 0.526923
0.507737 0.534575 0.562213
0.689389 0.580638 0.571520
0.820159 0.605532 0.567550
0.896672 0.627472 0.573842
0.178321 0.334747 0.443999
0.236463 0.400510 0.488858
0.311131 0.466334 0.537256
0.417458 0.533463 0.583963
0.561300 0.600355 0.623608
0.724195 0.653059 0.644659
0.844260 0.680508 0.645543
0.914651 0.697523 0.646611
0.037898 0.064752 0.153956
0.062854 0.085616 0.167093
0.124053 0.101369 0.158129
0.255985 0.109488 0.131524
0.460787 0.111696 0.097372
0.628775 0.126711 0.094084
0.719263 0.154177 0.104972
0.770825 0.189981 0.123794
0.045156 0.086537 0.191780
0.079318 0.133756 0.225961
0.127702 0.174804 0.245545
0.233855 0.200726 0.241500
0.415325 0.209507 0.213608
0.615249 0.221651 0.191453
0.732430 0.247439 0.193526
0.798557 0.282169 0.211667
0.059109 0.118667 0.238503
0.099355 0.179379 0.276875
0.148178 0.239184 0.316082
0.241450 0.281864 0.333499
0.399467 0.300547 0.318476
0.609685 0.315399 0.293296
0.744630 0.341132 0.290901
0.822401 0.374225 0.307136
0.078134 0.159119 0.290796
0.124078 0.227115 0.328458
0.178875 0.297471 0.377134
0.266172 0.353893 0.411512
0.403959 0.387204 0.415568
0.612390 0.404822 0.391944
0.757503 0.429893 0.386231
0.843457 0.460514 0.399233
0.101342 0.206443 0.346202
0.154219 0.279927 0.385831
0.214970 0.352528 0.434381
0.299332 0.417807 0.478530
0.423155 0.468892 0.504582
0.623611 0.488830 0.483108
0.772280 0.511394 0.473440
0.862561 0.538164 0.481578
0.131140 0.262081 0.404725
0.190764 0.337430 0.445081
0.256597 0.408121 0.489843
0.343672 0.473412 0.533100
0.465284 0.531411 0.567367
0.645537 0.572487 0.571251
0.789906 0.592149 0.559424
0.879633 0.611313 0.559354
0.168998 0.324742 0.463217
0.234882 0.399033 0.503025
0.306161 0.465678 0.543756
0.397118 0.528552 0.583910
0.518511 0.588976 0.619847
0.681881 0.638352 0.635654
0.813576 0.663054 0.631520
0.896061 0.678824 0.628879
0.212506 0.389684 0.518396
0.283267 0.459613 0.556289
0.358439 0.521074 0.593021
0.453319 0.580684 0.629741
0.576903 0.641347 0.665068
0.726077 0.693355 0.686077
0.841251 0.722538 0.689593
0.912657 0.737464 0.687652
0.040545 0.086281 0.225350
0.061329 0.111207 0.249006
0.103804 0.144124 0.260127
0.217123 0.165791 0.231831
0.419017 0.168443 0.161919
0.634171 0.180475 0.136384
0.741608 0.209487 0.144234
0.799188 0.249596 0.168242
0.047235 0.109621 0.270711
0.084762 0.163338 0.307466
0.129351 0.216352 0.336229
0.216542 0.261236 0.342701
0.371152 0.291746 0.319450
0.608682 0.298472 0.274325
0.748311 0.320726 0.265025
0.825433 0.354480 0.280887
0.060660 0.143825 0.323469
0.108043 0.211696 0.360652
0.162554 0.280960 0.400823
0.240805 0.343581 0.429924
0.363930 0.390805 0.435074
0.597297 0.400983 0.393095
0.754509 0.420897 0.376788
0.845291 0.449656 0.385613
0.082200 0.188698 0.380080
0.137145 0.263728 0.412884
0.201847 0.341441 0.455577
0.279175 0.413115 0.495277
0.384208 0.469356 0.517864
0.598807 0.487558 0.489895
0.761520 0.507755 0.473527
0.859815 0.532238 0.476725
0.111964 0.243061 0.437459
0.175328 0.323359 0.467030
0.246029 0.400592 0.503935
0.324128 0.471814 0.543845
0.421528 0.531893 0.577393
0.611151 0.560538 0.566555
0.770317 0.581659 0.553393
0.870589 0.601751 0.551860
0.146958 0.303145 0.492305
0.219434 0.384925 0.522645
0.295677 0.460147 0.557510
0.377155 0.527352 0.593821
0.472620 0.585464 0.626755
0.629871 0.632018 0.640157
0.781600 0.650690 0.625936
0.881614 0.664028 0.616619
0.191675 0.367874 0.542591
0.270037 0.447517 0.573678
0.350149 0.517619 0.605822
0.434689 0.578999 0.637657
0.531029 0.633087 0.666954
0.673631 0.683106 0.685777
0.804581 0.709198 0.682885
0.893295 0.722013 0.674709
0.241807 0.432842 0.588451
0.323359 0.506882 0.619373
0.406156 0.571231 0.649177
0.492912 0.627259 0.677575
0.589809 0.677212 0.703691
0.723928 0.727094 0.723085
0.835329 0.758206 0.728206
0.909571 0.772771 0.724250
0.044515 0.114262 0.318744
0.063690 0.141968 0.345621
0.099163 0.181606 0.366804
0.177403 0.224485 0.367245
0.326952 0.259502 0.330925
0.622315 0.255873 0.217569
0.761173 0.281543 0.209319
0.830187 0.323390 0.239419
0.051791 0.139797 0.367033
0.091674 0.195955 0.400549
0.135635 0.252139 0.429464
0.207153 0.309395 0.447062
0.333371 0.363886 0.443691
0.588899 0.388606 0.385875
0.756756 0.406138 0.359492
0.850549 0.433737 0.366777
0.066112 0.175264 0.418675
0.117811 0.245075 0.450976
0.176119 0.316129 0.484215
0.250656 0.385514 0.512282
0.359388 0.448845 0.527332
0.575111 0.491167 0.505731
0.755634 0.506747 0.475788
0.864504 0.525650 0.470135
0.088554 0.220161 0.471407
0.149373 0.297132 0.499528
0.220280 0.376848 0.532771
0.300410 0.452571 0.565362
0.399039 0.518808 0.590334
0.577475 0.568852 0.589051
0.757564 0.585822 0.563372
0.873056 0.600158 0.551708
0.119545 0.273463 0.522932
0.190850 0.356707 0.547564
0.268410 0.437020 0.577032
0.352108 0.511666 0.609232
0.447792 0.577755 0.639312
0.592456 0.627676 0.647299
0.762457 0.647030 0.628271
0.877717 0.659485 0.614746
0.159223 0.333254 0.568849
0.241114 0.420473 0.592211
0.324483 0.499020 0.620007
0.411665 0.568356 0.648692
0.505739 0.628158 0.674858
0.616673 0.676497 0.692581
0.771455 0.697425 0.679048
0.882240 0.708722 0.664698
0.208257 0.398301 0.611549
0.296091 0.482287 0.636356
0.382182 0.555783 0.662732
0.470720 0.619385 0.688238
0.564697 0.673782 0.710843
0.665759 0.718371 0.727980
0.793555 0.746099 0.725406
0.889946 0.758839 0.713954
0.262555 0.462280 0.650645
0.352799 0.540385 0.676903
0.439767 0.608175 0.702489
0.528426 0.666332 0.725602
0.621897 0.715823 0.745070
0.719254 0.757419 0.760559
0.825855 0.788732 0.764077
0.905687 0.804152 0.757649
0.048013 0.144763 0.411982
0.068870 0.175739 0.439883
0.103573 0.218870 0.463490
0.167743 0.270782 0.475978
0.282054 0.325434 0.467760
0.514431 0.362252 0.406243
0.737787 0.375635 0.337474
0.859764 0.405127 0.330224
0.058557 0.173836 0.458197
0.101918 0.232167 0.489583
0.147505 0.288676 0.515722
0.212200 0.348669 0.535208
0.316131 0.412887 0.543537
0.516435 0.465153 0.517785
0.739568 0.488803 0.469483
0.871595 0.512017 0.455627
0.076632 0.211993 0.504758
0.132197 0.282454 0.534518
0.193748 0.352472 0.562428
0.266071 0.421322 0.586688
0.360823 0.487733 0.603811
0.531170 0.546736 0.599264
0.743311 0.577145 0.566629
0.878085 0.596201 0.549314
0.102751 0.258378 0.550532
0.166965 0.334354 0.577042
0.241352 0.412329 0.604770
0.321936 0.486474 0.631309
0.412839 0.553000 0.653181
0.556301 0.611775 0.658971
0.749286 0.645371 0.637482
0.880608 0.661758 0.618932
0.136858 0.311656 0.594342
0.210734 0.392443 0.618372
0.290648 0.470377 0.643827
0.375961 0.543865 0.670161
0.469174 0.610894 0.694750
0.589143 0.664750 0.704272
0.757698 0.698276 0.689936
0.880793 0.712951 0.671531
0.178414 0.369203 0.633526
0.262366 0.453248 0.655757
0.347780 0.530128 0.680350
0.435539 0.599311 0.704591
0.526796 0.660182 0.726026
0.625461 0.709398 0.740790
0.769223 0.740871 0.730568
0.881939 0.754526 0.712917
0.222151 0.423670 0.666057
0.316257 0.509934 0.690132
0.406074 0.585313 0.714686
0.495214 0.650404 0.737178
0.586253 0.705703 0.755616
0.679920 0.749368 0.767818
0.790215 0.781602 0.767189
0.885334 0.795575 0.753645
0.274922 0.481905 0.698289
0.373383 0.564881 0.724461
0.463950 0.636282 0.749115
0.552282 0.696631 0.770052
0.642185 0.746636 0.785757
0.733155 0.785820 0.795134
0.822456 0.817820 0.799497
0.900130 0.834016 0.791568
0.051723 0.171058 0.485423
0.076191 0.208650 0.517239
0.113368 0.255859 0.542939
0.172018 0.312256 0.561315
0.264026 0.376117 0.569934
0.430385 0.440976 0.557346
0.673775 0.471627 0.492524
0.843353 0.496718 0.456724
0.067421 0.206949 0.530467
0.114708 0.268871 0.563214
0.163413 0.326236 0.588777
0.225435 0.386040 0.608879
0.313863 0.451886 0.623264
0.462356 0.517718 0.622174
0.686920 0.558501 0.583324
0.852767 0.583421 0.553049
0.091560 0.250926 0.572665
0.151128 0.323122 0.604516
0.215523 0.391362 0.631334
0.286217 0.456879 0.653527
0.369689 0.520749 0.670442
0.500362 0.583791 0.675414
0.701353 0.628725 0.652043
0.858604 0.652725 0.625044
0.123914 0.301570 0.612774
0.190965 0.377144 0.642615
0.267069 0.451612 0.669909
0.346662 0.521248 0.693948
0.430191 0.584031 0.713173
0.543607 0.641727 0.720316
0.718055 0.686112 0.705168
0.862958 0.708488 0.680135
0.163487 0.356884 0.650945
0.237548 0.434186 0.678331
0.317424 0.507917 0.704323
0.402476 0.577647 0.729341
0.492590 0.642001 0.751711
0.590868 0.693501 0.759457
0.737701 0.734043 0.748089
0.867603 0.754258 0.724471
0.207154 0.412193 0.684549
0.289402 0.490534 0.709909
0.373284 0.563203 0.735370
0.458872 0.629779 0.759189
0.546610 0.689586 0.779662
0.639259 0.738820 0.793226
0.760909 0.774404 0.783315
0.874374 0.792589 0.761003
0.247039 0.458724 0.710082
0.340484 0.540890 0.736501
0.429320 0.613728 0.762281
0.515991 0.677605 0.785036
0.602746 0.732716 0.802868
0.692710 0.776654 0.813313
0.787697 0.810232 0.812095
0.882284 0.828033 0.795354
0.291625 0.505192 0.734255
0.392563 0.587905 0.762374
0.483743 0.659593 0.788378
0.570302 0.720376 0.809752
0.656296 0.770616 0.824636
0.744251 0.809430 0.830911
0.823485 0.840903 0.833682
0.899388 0.860087 0.824381
