filter/Red and Blue 3/lut/Midnight 02.cube
# LUT by SparkleStock. Enhanced with VOXCOLOR algorithms.
LUT_3D_SIZE 5
DOMAIN_MIN 0.000000 0.000000 0.000000
DOMAIN_MAX 0.903226 0.903226 0.903226
0.035165 0.031258 0.019536
0.104242 0.030777 0.019449
0.196266 0.037615 0.019292
0.311080 0.050014 0.021088
0.434621 0.072913 0.028138
0.039946 0.046390 0.047036
0.121685 0.049707 0.038838
0.227652 0.065912 0.045429
0.353872 0.088035 0.053889
0.485358 0.117377 0.063110
0.039143 0.062838 0.074450
0.127648 0.072258 0.069243
0.259221 0.096111 0.072189
0.390644 0.129712 0.089131
0.524024 0.170090 0.108516
0.039041 0.085218 0.108835
0.131742 0.098256 0.105186
0.279775 0.127076 0.109106
0.444353 0.184194 0.132856
0.568617 0.237327 0.169053
0.037150 0.108850 0.147796
0.137915 0.129843 0.149852
0.303392 0.168610 0.155004
0.490900 0.237536 0.189083
0.618262 0.327988 0.258508
0.037662 0.049518 0.076403
0.115024 0.049184 0.045614
0.223717 0.062220 0.041616
0.350099 0.083999 0.050045
0.483741 0.115519 0.062589
0.039254 0.080248 0.102713
0.086285 0.098535 0.119316
0.223608 0.118764 0.114329
0.387802 0.148817 0.117711
0.529039 0.184121 0.128250
0.040134 0.109467 0.143129
0.087447 0.134763 0.169590
0.245305 0.165040 0.168107
0.432137 0.208897 0.175194
0.575554 0.259309 0.197276
0.037541 0.138981 0.188280
0.088954 0.170638 0.221878
0.256458 0.207747 0.223384
0.485269 0.270351 0.230755
0.621109 0.341786 0.275803
0.036328 0.174370 0.240199
0.095459 0.215100 0.282993
0.270709 0.263594 0.294062
0.512098 0.340741 0.313227
0.661964 0.435272 0.371528
0.035488 0.075844 0.142022
0.087880 0.082139 0.123960
0.240831 0.092565 0.079047
0.387243 0.124278 0.085015
0.522232 0.167331 0.107352
0.035838 0.115346 0.178074
0.075444 0.140324 0.201541
0.226057 0.163361 0.176703
0.419548 0.203663 0.173544
0.570143 0.254852 0.194441
0.037857 0.162126 0.225312
0.077195 0.199395 0.269707
0.177024 0.248723 0.302412
0.411644 0.299779 0.299357
0.604424 0.359693 0.311562
0.037375 0.203345 0.282500
0.087674 0.250202 0.335345
0.182409 0.313505 0.386696
0.461748 0.383206 0.385038
0.650880 0.455899 0.408024
0.038371 0.247761 0.344587
0.105136 0.308171 0.407935
0.217281 0.382961 0.466082
0.497994 0.463968 0.476776
0.696951 0.548089 0.503013
0.031998 0.107677 0.220993
0.057100 0.126078 0.229222
0.157821 0.146489 0.205234
0.427805 0.178628 0.136545
0.568443 0.236272 0.169990
0.030720 0.153674 0.266695
0.064690 0.188990 0.302606
0.172889 0.222291 0.297647
0.454873 0.264382 0.237067
0.611701 0.335752 0.273013
0.034583 0.214977 0.323836
0.083464 0.259905 0.372842
0.163837 0.320754 0.419405
0.438165 0.378591 0.390775
0.642417 0.450836 0.405936
0.047114 0.279687 0.388441
0.119922 0.340788 0.447031
0.212818 0.415697 0.508575
0.353390 0.502128 0.569410
0.644514 0.565315 0.554519
0.059095 0.338208 0.462065
0.153775 0.412468 0.526923
0.273859 0.498181 0.589495
0.427833 0.585973 0.648673
0.698457 0.644680 0.636623
0.028059 0.140265 0.295191
0.043062 0.173326 0.331618
0.101023 0.212000 0.348846
0.277758 0.257211 0.324846
0.571656 0.326159 0.281991
0.026522 0.197334 0.358649
0.064601 0.244418 0.408731
0.137198 0.298046 0.438257
0.333071 0.359817 0.428974
0.620399 0.436009 0.396290
0.037926 0.270770 0.426564
0.099139 0.325267 0.480867
0.185833 0.397560 0.533296
0.390790 0.475215 0.545323
0.665809 0.548588 0.521998
0.062191 0.352387 0.498967
0.153116 0.420626 0.555075
0.266971 0.500817 0.609963
0.412533 0.585296 0.661292
0.683565 0.645715 0.644608
0.103851 0.434269 0.571097
0.223245 0.518929 0.627025
0.364492 0.599336 0.677820
0.511524 0.667674 0.722895
0.677208 0.717265 0.740947
