filter/Red and Blue 3/lut/Midnight 02.cube
# LUT by SparkleStock. Enhanced with VOXCOLOR algorithms.
LUT_3D_SIZE 8
DOMAIN_MIN 0.000000 0.000000 0.000000
DOMAIN_MAX 0.903226 0.903226 0.903226
0.035165 0.031258 0.019536
0.072409 0.029745 0.019536
0.115680 0.031581 0.019402
0.166868 0.035346 0.019292
0.226728 0.040262 0.019434
0.294033 0.047824 0.020568
0.363543 0.058380 0.024066
0.434621 0.072913 0.028138
0.039135 0.039954 0.035795
0.081063 0.038588 0.029355
0.127981 0.042540 0.029727
0.182877 0.049660 0.032983
0.247183 0.058381 0.036254
0.319318 0.068724 0.038852
0.394024 0.081695 0.042227
0.466249 0.097461 0.046812
0.039757 0.048517 0.050581
0.083259 0.049371 0.044647
0.137910 0.054575 0.042631
0.199503 0.063753 0.045331
0.265547 0.076176 0.052158
0.339713 0.089922 0.057464
0.416557 0.105930 0.062394
0.490749 0.124336 0.069029
0.039237 0.057734 0.065942
0.083215 0.061234 0.062399
0.143837 0.067469 0.058851
0.213475 0.078614 0.059980
0.286300 0.095169 0.067802
0.360246 0.112514 0.076633
0.437278 0.132059 0.084569
0.512735 0.153990 0.094510
0.039072 0.068345 0.083359
0.083781 0.073711 0.080730
0.145744 0.081217 0.078409
0.223050 0.094789 0.078993
0.310105 0.115757 0.084480
0.384673 0.137676 0.097044
0.461000 0.161231 0.109170
0.535756 0.187089 0.123461
0.039072 0.081768 0.103588
0.084513 0.087720 0.101106
0.149178 0.096847 0.099242
0.230362 0.111737 0.100594
0.323418 0.134462 0.107253
0.415258 0.168383 0.122011
0.491414 0.196865 0.139138
0.561876 0.226474 0.158992
0.038757 0.096136 0.125708
0.085418 0.103650 0.125080
0.153531 0.114943 0.123566
0.240363 0.132430 0.124884
0.340945 0.158116 0.132271
0.440908 0.195745 0.150811
0.521365 0.237531 0.179099
0.590106 0.275927 0.206303
0.037150 0.108850 0.147796
0.086952 0.119547 0.149760
0.157791 0.133756 0.149590
0.249269 0.154580 0.151717
0.357543 0.184360 0.160210
0.466020 0.226178 0.182135
0.552110 0.277023 0.218732
0.618262 0.327988 0.258508
0.037434 0.040900 0.051487
0.080240 0.038363 0.033337
0.126170 0.040936 0.028532
0.179980 0.047324 0.030336
0.244213 0.056283 0.033625
0.316787 0.066480 0.036370
0.392298 0.079670 0.040623
0.465084 0.096521 0.046788
0.038623 0.055305 0.063355
0.063903 0.060393 0.065961
0.111657 0.066381 0.066464
0.177022 0.074593 0.066696
0.254767 0.085601 0.067844
0.337270 0.098013 0.069559
0.416845 0.112485 0.072803
0.491098 0.129322 0.077747
0.040196 0.068643 0.081318
0.060090 0.077249 0.090838
0.115702 0.085236 0.090761
0.191177 0.095509 0.089231
0.274367 0.109686 0.091455
0.361030 0.126299 0.095472
0.442719 0.144374 0.100667
0.517622 0.163631 0.107226
0.040884 0.081945 0.101875
0.060904 0.092236 0.113143
0.122639 0.101521 0.111815
0.207226 0.113882 0.108478
0.299195 0.131673 0.110449
0.387206 0.153291 0.118444
0.469312 0.176334 0.127611
0.543648 0.199968 0.138287
0.040023 0.095941 0.122897
0.061002 0.107772 0.136609
0.122940 0.118252 0.136492
0.215141 0.132579 0.131770
0.323624 0.153881 0.130435
0.414764 0.180880 0.142135
0.496430 0.209578 0.156513
0.568752 0.239044 0.173409
0.038560 0.110828 0.146346
0.061290 0.124604 0.162131
0.123337 0.136702 0.163274
0.216613 0.152818 0.159802
0.330530 0.177080 0.159809
0.441548 0.212229 0.170304
0.525555 0.247384 0.190722
0.594358 0.283515 0.215474
0.037391 0.127270 0.171808
0.062266 0.144344 0.190807
0.125343 0.158313 0.193540
0.220722 0.176657 0.191443
0.339403 0.204636 0.193576
0.458790 0.244644 0.207003
0.550555 0.290352 0.233986
0.619657 0.334807 0.265614
0.036955 0.146223 0.199641
0.063607 0.164611 0.220883
0.129015 0.181589 0.226125
0.227839 0.203959 0.226812
0.351402 0.236436 0.232008
0.477051 0.281130 0.248848
0.574379 0.334264 0.280883
0.643502 0.387597 0.320355
0.037426 0.052684 0.084911
0.073042 0.052026 0.066962
0.130322 0.053466 0.049178
0.195766 0.059764 0.041563
0.261365 0.071846 0.047920
0.335476 0.085300 0.053104
0.413256 0.101401 0.059117
0.489071 0.122125 0.068241
0.038218 0.071035 0.098712
0.056091 0.079059 0.105519
0.110123 0.084762 0.096480
0.185002 0.093160 0.088072
0.268754 0.107010 0.089920
0.356207 0.123235 0.093427
0.439446 0.141211 0.098653
0.515812 0.161650 0.105918
0.039309 0.090176 0.117879
0.053411 0.102111 0.133798
0.098434 0.113488 0.137492
0.171856 0.126290 0.136118
0.268025 0.141992 0.135112
0.369862 0.161781 0.137017
0.461862 0.183188 0.141967
0.540968 0.205499 0.149172
0.039883 0.108360 0.141092
0.055541 0.122246 0.159456
0.094266 0.138263 0.172538
0.168384 0.155426 0.176753
0.278817 0.173812 0.172580
0.389703 0.198127 0.175291
0.486967 0.224475 0.182421
0.566969 0.250895 0.192538
0.039389 0.124950 0.167026
0.056162 0.140833 0.187569
0.095688 0.159136 0.203000
0.178612 0.179141 0.206625
0.307183 0.201263 0.198673
0.421799 0.231316 0.204739
0.517917 0.263886 0.217280
0.594795 0.296437 0.233720
0.037706 0.142959 0.194007
0.056689 0.161104 0.217103
0.096866 0.181057 0.234460
0.180340 0.202968 0.239985
0.312926 0.228382 0.233713
0.450508 0.266424 0.237664
0.548215 0.305657 0.256227
0.620725 0.345283 0.281009
0.036150 0.161665 0.222603
0.058110 0.183936 0.249631
0.100452 0.206771 0.269441
0.185418 0.231424 0.277305
0.319805 0.260345 0.274093
0.464677 0.303609 0.281275
0.571760 0.351470 0.303259
0.645739 0.398268 0.333446
0.036017 0.183777 0.254073
0.060649 0.208435 0.283904
0.106577 0.234802 0.306569
0.194941 0.263811 0.318072
0.331988 0.297538 0.319474
0.479880 0.345298 0.330633
0.592073 0.399217 0.355546
0.668018 0.451793 0.389600
0.036244 0.067242 0.121698
0.060578 0.069535 0.111690
0.118265 0.071284 0.088662
0.195963 0.076800 0.068631
0.280985 0.088753 0.062497
0.355767 0.106634 0.071743
0.433425 0.126167 0.080546
0.510928 0.151081 0.093212
0.036890 0.087837 0.139427
0.051894 0.097840 0.149377
0.105014 0.104122 0.135782
0.187192 0.112449 0.117606
0.286764 0.126766 0.108832
0.377136 0.147967 0.115759
0.462374 0.170716 0.124447
0.539768 0.196132 0.135795
0.037343 0.111711 0.160404
0.052629 0.125555 0.178784
0.086611 0.140354 0.187044
0.157375 0.155336 0.184058
0.269002 0.171148 0.172935
0.381657 0.194815 0.174233
0.481445 0.220771 0.180540
0.563780 0.248107 0.190648
0.037918 0.135453 0.185604
0.056616 0.151704 0.207017
0.077131 0.173843 0.232381
0.137166 0.196106 0.244514
0.253628 0.216093 0.236622
0.385107 0.242680 0.234168
0.498665 0.272594 0.238955
0.586620 0.303054 0.249076
0.038519 0.157079 0.215077
0.059539 0.175965 0.238678
0.082874 0.201347 0.267209
0.142614 0.229110 0.286052
0.256234 0.256935 0.287928
0.399580 0.288083 0.285868
0.520641 0.323120 0.292170
0.611061 0.357782 0.304671
0.037312 0.178406 0.246204
0.061146 0.199959 0.272436
0.086940 0.227525 0.303255
0.148559 0.257717 0.324447
0.266300 0.289236 0.328333
0.433726 0.328553 0.323941
0.554193 0.369440 0.335440
0.638728 0.409794 0.354930
0.036252 0.200186 0.278237
0.063998 0.226208 0.308726
0.094101 0.257672 0.342341
0.158816 0.291148 0.365986
0.278233 0.325688 0.372778
0.450884 0.369911 0.371904
0.579923 0.417837 0.385193
0.665587 0.463533 0.408240
0.036691 0.224833 0.312874
0.068929 0.254832 0.346734
0.104417 0.290381 0.383005
0.174056 0.328194 0.409821
0.296697 0.367272 0.420953
0.468802 0.415406 0.424703
0.601026 0.467824 0.439927
0.688876 0.516590 0.464153
0.034661 0.084611 0.163078
0.049883 0.089777 0.161139
0.088584 0.095163 0.148512
0.170169 0.101102 0.121249
0.293064 0.109686 0.085890
0.379592 0.132251 0.094166
0.457897 0.155949 0.105949
0.534154 0.184618 0.122611
0.034191 0.106195 0.183863
0.047492 0.119014 0.198227
0.086886 0.128635 0.192803
0.170341 0.137584 0.169111
0.296949 0.149410 0.136585
0.399138 0.175082 0.141424
0.486333 0.203296 0.153767
0.562957 0.234273 0.170751
0.034603 0.132741 0.208530
0.050597 0.149124 0.229115
0.079696 0.167071 0.242061
0.153455 0.183312 0.234439
0.281410 0.198088 0.206251
0.403946 0.225643 0.204833
0.505906 0.257145 0.214482
0.587816 0.291021 0.230425
0.036030 0.162282 0.236355
0.056811 0.180992 0.259586
0.079709 0.206170 0.287116
0.135093 0.231873 0.301114
0.240634 0.255356 0.293682
0.387465 0.284262 0.286186
0.512171 0.318281 0.290149
0.606121 0.353984 0.302311
0.038114 0.192406 0.267047
0.063838 0.214196 0.293684
0.092429 0.242724 0.323996
0.127518 0.277645 0.357688
0.186243 0.316507 0.388095
0.358307 0.347522 0.377201
0.509664 0.383940 0.374614
0.619488 0.419977 0.381160
0.038388 0.217301 0.302548
0.068258 0.243033 0.332239
0.101332 0.274989 0.364873
0.141093 0.313453 0.400846
0.205468 0.356780 0.433845
0.389558 0.395481 0.425179
0.540402 0.436101 0.426191
0.646618 0.474878 0.435619
0.039130 0.243395 0.338632
0.073971 0.273691 0.372500
0.112866 0.309777 0.407697
0.158644 0.351646 0.445344
0.228289 0.397791 0.479982
0.413883 0.440575 0.474934
0.570420 0.486378 0.477279
0.676225 0.527926 0.488289
0.041317 0.271596 0.376922
0.082339 0.306416 0.414151
0.128207 0.346915 0.451507
0.181728 0.392816 0.490712
0.258337 0.442446 0.527149
0.441125 0.488150 0.526584
0.596977 0.536322 0.530721
0.702779 0.578404 0.541702
0.032581 0.103139 0.209587
0.042534 0.111818 0.214819
0.068812 0.122479 0.212786
0.126003 0.133077 0.198196
0.226833 0.143783 0.168655
0.396058 0.163860 0.128190
0.488756 0.192877 0.138192
0.561701 0.225412 0.159850
0.031380 0.126479 0.233298
0.043944 0.143151 0.251775
0.072317 0.157585 0.255731
0.132766 0.170871 0.244683
0.238768 0.185005 0.218840
0.413116 0.207282 0.177885
0.513419 0.241418 0.189221
0.587667 0.278826 0.213382
0.031681 0.155922 0.260894
0.048582 0.175294 0.283975
0.073702 0.196614 0.302041
0.131682 0.216859 0.303645
0.240941 0.235511 0.282792
0.420282 0.261413 0.245831
0.531859 0.298612 0.254926
0.611425 0.339218 0.278033
0.033438 0.189500 0.292133
0.056146 0.210501 0.317078
0.081214 0.237971 0.346021
0.130778 0.267039 0.364425
0.225887 0.294837 0.361754
0.409305 0.324215 0.330981
0.538669 0.362774 0.334586
0.629916 0.404213 0.352301
0.036876 0.225242 0.326558
0.066452 0.249802 0.354639
0.099131 0.280795 0.385353
0.138025 0.318137 0.419093
0.200242 0.359506 0.448561
0.377306 0.392792 0.429064
0.530394 0.431655 0.425709
0.640788 0.471311 0.433966
0.043883 0.260236 0.363229
0.080325 0.291005 0.395385
0.121250 0.326889 0.428558
0.168914 0.367633 0.463503
0.229884 0.412588 0.498735
0.336026 0.460020 0.522714
0.505370 0.500194 0.519538
0.641015 0.536174 0.518019
0.048797 0.292160 0.403900
0.090758 0.326927 0.438514
0.139026 0.366909 0.473588
0.194974 0.411506 0.509719
0.262234 0.459877 0.546294
0.358889 0.510485 0.577460
0.532867 0.552198 0.574419
0.669506 0.587043 0.571306
0.054801 0.324703 0.445318
0.103793 0.364089 0.482869
0.160501 0.408686 0.519512
0.225311 0.457002 0.556047
0.300539 0.507556 0.592255
0.400426 0.558335 0.623570
0.569122 0.599378 0.621657
0.700951 0.631935 0.618050
0.029871 0.120722 0.253889
0.036994 0.133889 0.267148
0.055708 0.149851 0.275525
0.096240 0.166724 0.274523
0.170964 0.183761 0.260237
0.317990 0.204277 0.225188
0.479359 0.237371 0.201473
0.587800 0.272823 0.205398
0.028060 0.147891 0.283334
0.041571 0.168636 0.306777
0.063763 0.188022 0.319662
0.107807 0.207736 0.321757
0.187876 0.229127 0.311597
0.341008 0.253581 0.278814
0.504637 0.288669 0.255602
0.612384 0.329519 0.263755
0.029152 0.180577 0.315452
0.048222 0.203606 0.341952
0.072478 0.228999 0.364629
0.118916 0.255329 0.376168
0.203861 0.282021 0.371190
0.361897 0.311610 0.344303
0.527252 0.348839 0.322915
0.635760 0.392282 0.332112
0.032610 0.217979 0.350341
0.058106 0.242332 0.377700
0.086728 0.272932 0.407677
0.132546 0.306562 0.430912
0.212280 0.340907 0.439265
0.373501 0.375782 0.420107
0.542440 0.414965 0.401152
0.655296 0.458305 0.408060
0.038392 0.258941 0.387842
0.072022 0.286639 0.417172
0.109284 0.320135 0.448039
0.152800 0.359536 0.481132
0.216004 0.403330 0.511096
0.370377 0.443416 0.503570
0.545306 0.483999 0.487675
0.667976 0.524686 0.489144
0.048961 0.300863 0.427270
0.090854 0.334109 0.459144
0.138401 0.372571 0.491731
0.192858 0.415578 0.525391
0.257277 0.462163 0.559312
0.346545 0.510294 0.587406
0.523969 0.550825 0.578344
0.665435 0.586122 0.572125
0.062803 0.341647 0.468014
0.113061 0.380826 0.502799
0.170202 0.423884 0.536735
0.234623 0.469782 0.570297
0.306696 0.517384 0.603636
0.388783 0.564747 0.635640
0.530473 0.604777 0.641908
0.661791 0.636474 0.638747
0.077514 0.380092 0.510198
0.135247 0.425118 0.546826
0.201495 0.472609 0.581126
0.275303 0.520909 0.613976
0.355535 0.568522 0.645917
0.441007 0.613352 0.676313
0.558695 0.651363 0.690678
0.678754 0.679088 0.689259
0.028059 0.140265 0.295191
0.033316 0.158433 0.317359
0.047542 0.178558 0.335869
0.077553 0.200419 0.347178
0.132459 0.223904 0.347935
0.243126 0.249646 0.330639
0.423449 0.286676 0.298650
0.571656 0.326159 0.281991
0.025345 0.170808 0.331167
0.040249 0.195066 0.359846
0.059571 0.219151 0.380891
0.093486 0.244900 0.394680
0.153568 0.273487 0.400125
0.271661 0.304942 0.387447
0.453490 0.344258 0.357255
0.599210 0.387968 0.345575
0.027595 0.206944 0.367916
0.049566 0.233370 0.398679
0.075243 0.262809 0.425547
0.115149 0.294873 0.445567
0.181175 0.329262 0.455781
0.305565 0.366347 0.448774
0.485784 0.407854 0.422879
0.627573 0.452381 0.413837
0.033657 0.248186 0.406369
0.062627 0.275950 0.437294
0.096124 0.309722 0.468409
0.141710 0.347937 0.495543
0.210221 0.389054 0.514211
0.339002 0.431187 0.513378
0.515692 0.474162 0.493261
0.654083 0.516948 0.485334
0.042984 0.293586 0.446925
0.080462 0.324142 0.478000
0.123337 0.360313 0.509261
0.173814 0.402782 0.541705
0.240325 0.450604 0.572355
0.366360 0.496851 0.579612
0.538204 0.539937 0.566041
0.675609 0.579060 0.558181
0.057828 0.340612 0.488633
0.104640 0.376452 0.520705
0.158522 0.417107 0.552173
0.219837 0.461968 0.583748
0.289956 0.510091 0.615319
0.377402 0.559270 0.643403
0.541418 0.599681 0.637325
0.683661 0.632987 0.627663
0.079197 0.387822 0.529407
0.136187 0.430814 0.563159
0.200775 0.476183 0.594669
0.272203 0.522603 0.624991
0.349612 0.568780 0.654716
0.432523 0.612558 0.682851
0.546348 0.650122 0.695738
0.670625 0.679371 0.692888
0.103851 0.434269 0.571097
0.168893 0.482705 0.603889
0.242544 0.530981 0.634428
0.322537 0.577391 0.663573
0.406469 0.620550 0.691666
0.490558 0.658599 0.716954
0.574078 0.692271 0.738427
0.677208 0.717265 0.740947
