filter/Red and Blue 3/lut/Midnight 02.cube
# LUT by SparkleStock. Enhanced with VOXCOLOR algorithms.
LUT_3D_SIZE 32
0.035165 0.031258 0.019536
0.044476 0.030880 0.019536
0.053787 0.030501 0.019536
0.063098 0.030123 0.019536
0.072409 0.029745 0.019536
0.081720 0.029367 0.019536
0.092804 0.029974 0.019497
0.104242 0.030777 0.019449
0.115680 0.031581 0.019402
0.127118 0.032384 0.019355
0.138556 0.033188 0.019308
0.152168 0.034212 0.019292
0.166868 0.035346 0.019292
0.181567 0.036480 0.019292
0.196266 0.037615 0.019292
0.210965 0.038749 0.019292
0.226728 0.040262 0.019434
0.243554 0.042152 0.019717
0.260380 0.044043 0.020001
0.277207 0.045933 0.020284
0.294033 0.047824 0.020568
0.311080 0.050014 0.021088
0.328567 0.052802 0.022080
0.346055 0.055591 0.023073
0.363543 0.058380 0.024066
0.381031 0.061168 0.025058
0.398606 0.064217 0.026059
0.416613 0.068565 0.027098
0.434621 0.072913 0.028138
0.452629 0.077262 0.029178
0.470637 0.081610 0.030218
0.488645 0.085958 0.031258
0.036157 0.033432 0.023601
0.045761 0.033063 0.023198
0.055365 0.032694 0.022796
0.064969 0.032325 0.022393
0.074573 0.031956 0.021991
0.084177 0.031587 0.021588
0.095477 0.032348 0.021657
0.107116 0.033334 0.021820
0.118755 0.034320 0.021983
0.130395 0.035307 0.022146
0.142034 0.036293 0.022310
0.155896 0.037543 0.022504
0.170870 0.038924 0.022715
0.185844 0.040306 0.022925
0.200817 0.041687 0.023135
0.215791 0.043068 0.023346
0.231842 0.044791 0.023639
0.248970 0.046856 0.024014
0.266098 0.048920 0.024389
0.283226 0.050984 0.024764
0.300354 0.053049 0.025139
0.317712 0.055403 0.025711
0.335529 0.058338 0.026676
0.353346 0.061273 0.027641
0.371164 0.064208 0.028606
0.388981 0.067143 0.029571
0.406805 0.070317 0.030562
0.424667 0.074684 0.031685
0.442528 0.079050 0.032807
0.460390 0.083417 0.033929
0.478251 0.087784 0.035051
0.496112 0.092150 0.036173
0.037150 0.035606 0.027666
0.047047 0.035246 0.026861
0.056943 0.034886 0.026055
0.066840 0.034527 0.025250
0.076736 0.034167 0.024445
0.086633 0.033807 0.023640
0.098149 0.034721 0.023818
0.109990 0.035891 0.024191
0.121831 0.037060 0.024565
0.133671 0.038230 0.024938
0.145512 0.039399 0.025312
0.159624 0.040874 0.025717
0.174872 0.042503 0.026138
0.190120 0.044131 0.026558
0.205368 0.045759 0.026979
0.220616 0.047388 0.027400
0.236956 0.049321 0.027844
0.254386 0.051559 0.028310
0.271815 0.053797 0.028777
0.289245 0.056036 0.029243
0.306675 0.058274 0.029710
0.324344 0.060793 0.030333
0.342491 0.063874 0.031271
0.360637 0.066956 0.032209
0.378784 0.070037 0.033146
0.396930 0.073119 0.034084
0.415005 0.076417 0.035066
0.432720 0.080802 0.036271
0.450435 0.085187 0.037475
0.468150 0.089572 0.038680
0.485865 0.093957 0.039884
0.503580 0.098342 0.041089
0.038143 0.037780 0.031730
0.048332 0.037429 0.030523
0.058521 0.037079 0.029315
0.068710 0.036728 0.028108
0.078900 0.036377 0.026900
0.089089 0.036027 0.025693
0.100822 0.037095 0.025978
0.112864 0.038448 0.026562
0.124906 0.039800 0.027146
0.136948 0.041152 0.027730
0.148989 0.042505 0.028314
0.163352 0.044206 0.028929
0.178874 0.046081 0.029560
0.194397 0.047957 0.030192
0.209919 0.049832 0.030823
0.225442 0.051707 0.031454
0.242069 0.053851 0.032049
0.259801 0.056263 0.032607
0.277533 0.058675 0.033165
0.295265 0.061087 0.033723
0.312997 0.063499 0.034281
0.330976 0.066183 0.034956
0.349452 0.069411 0.035866
0.367928 0.072638 0.036777
0.386404 0.075866 0.037687
0.404880 0.079094 0.038597
0.423205 0.082517 0.039570
0.440773 0.086921 0.040857
0.458342 0.091324 0.042144
0.475911 0.095727 0.043431
0.493479 0.100130 0.044717
0.511048 0.104533 0.046004
0.039135 0.039954 0.035795
0.049617 0.039613 0.034185
0.060099 0.039271 0.032575
0.070581 0.038930 0.030965
0.081063 0.038588 0.029355
0.091545 0.038247 0.027745
0.103495 0.039469 0.028138
0.115738 0.041005 0.028933
0.127981 0.042540 0.029727
0.140224 0.044075 0.030521
0.152467 0.045611 0.031316
0.167079 0.047537 0.032142
0.182877 0.049660 0.032983
0.198674 0.051782 0.033825
0.214471 0.053904 0.034667
0.230268 0.056027 0.035508
0.247183 0.058381 0.036254
0.265217 0.060966 0.036903
0.283250 0.063552 0.037553
0.301284 0.066138 0.038202
0.319318 0.068724 0.038852
0.337609 0.071573 0.039579
0.356414 0.074947 0.040462
0.375219 0.078321 0.041345
0.394024 0.081695 0.042227
0.412830 0.085069 0.043110
0.431404 0.088617 0.044074
0.448827 0.093039 0.045443
0.466249 0.097461 0.046812
0.483671 0.101882 0.048181
0.501094 0.106304 0.049551
0.518516 0.110725 0.050920
0.040128 0.042128 0.039860
0.050902 0.041796 0.037847
0.061677 0.041464 0.035835
0.072452 0.041131 0.033822
0.083227 0.040799 0.031810
0.094002 0.040467 0.029797
0.106168 0.041843 0.030299
0.118612 0.043561 0.031304
0.131056 0.045280 0.032308
0.143501 0.046998 0.033313
0.155945 0.048716 0.034318
0.170807 0.050869 0.035354
0.186879 0.053238 0.036406
0.202950 0.055607 0.037458
0.219022 0.057977 0.038510
0.235093 0.060346 0.039562
0.252297 0.062910 0.040459
0.270632 0.065670 0.041200
0.288968 0.068430 0.041941
0.307304 0.071189 0.042682
0.325639 0.073949 0.043423
0.344241 0.076962 0.044202
0.363376 0.080483 0.045057
0.382510 0.084003 0.045912
0.401645 0.087524 0.046768
0.420779 0.091044 0.047623
0.439604 0.094718 0.048578
0.456880 0.099157 0.050029
0.474156 0.103597 0.051481
0.491432 0.108037 0.052932
0.508708 0.112477 0.054384
0.525984 0.116917 0.055835
0.040135 0.044263 0.043491
0.050974 0.044093 0.041587
0.061813 0.043922 0.039683
0.072652 0.043751 0.037778
0.083491 0.043580 0.035874
0.094330 0.043409 0.033970
0.107106 0.044838 0.034239
0.120270 0.046587 0.034944
0.133434 0.048336 0.035648
0.146598 0.050085 0.036353
0.159762 0.051833 0.037057
0.174915 0.054150 0.038149
0.191063 0.056752 0.039434
0.207210 0.059353 0.040719
0.223358 0.061954 0.042004
0.239506 0.064555 0.043290
0.256795 0.067345 0.044394
0.275227 0.070324 0.045318
0.293659 0.073303 0.046242
0.312090 0.076282 0.047166
0.330522 0.079262 0.048090
0.349222 0.082485 0.049025
0.368457 0.086198 0.049983
0.387692 0.089910 0.050940
0.406927 0.093623 0.051898
0.426162 0.097336 0.052855
0.445097 0.101198 0.053925
0.462532 0.105808 0.055558
0.479966 0.110419 0.057191
0.497401 0.115029 0.058824
0.514835 0.119640 0.060457
0.532270 0.124251 0.062090
0.039946 0.046390 0.047036
0.050804 0.046412 0.045342
0.061661 0.046433 0.043648
0.072518 0.046454 0.041954
0.083375 0.046476 0.040261
0.094232 0.046497 0.038567
0.107698 0.047958 0.038536
0.121685 0.049707 0.038838
0.135672 0.051455 0.039140
0.149659 0.053204 0.039442
0.163647 0.054953 0.039743
0.179099 0.057422 0.040859
0.195283 0.060252 0.042383
0.211467 0.063082 0.043906
0.227652 0.065912 0.045429
0.243836 0.068741 0.046952
0.261171 0.071760 0.048276
0.279658 0.074968 0.049401
0.298144 0.078176 0.050527
0.316631 0.081384 0.051652
0.335117 0.084592 0.052777
0.353872 0.088035 0.053889
0.373162 0.091949 0.054975
0.392452 0.095863 0.056060
0.411742 0.099777 0.057146
0.431032 0.103690 0.058231
0.450049 0.107754 0.059442
0.467703 0.112566 0.061276
0.485358 0.117377 0.063110
0.503012 0.122189 0.064944
0.520666 0.127001 0.066778
0.538320 0.131813 0.068612
0.039757 0.048517 0.050581
0.050633 0.048731 0.049097
0.061508 0.048944 0.047614
0.072384 0.049157 0.046130
0.083259 0.049371 0.044647
0.094134 0.049584 0.043163
0.108289 0.051077 0.042832
0.123100 0.052826 0.042732
0.137910 0.054575 0.042631
0.152721 0.056324 0.042530
0.167532 0.058072 0.042430
0.183282 0.060694 0.043570
0.199503 0.063753 0.045331
0.215724 0.066811 0.047092
0.231945 0.069870 0.048853
0.248166 0.072928 0.050614
0.265547 0.076176 0.052158
0.284088 0.079612 0.053484
0.302630 0.083049 0.054811
0.321171 0.086486 0.056137
0.339713 0.089922 0.057464
0.358522 0.093585 0.058753
0.377867 0.097700 0.059966
0.397212 0.101815 0.061180
0.416557 0.105930 0.062394
0.435902 0.110045 0.063607
0.455001 0.114310 0.064958
0.472875 0.119323 0.066993
0.490749 0.124336 0.069029
0.508622 0.129349 0.071064
0.526496 0.134362 0.073099
0.544370 0.139375 0.075135
0.039568 0.050644 0.054126
0.050462 0.051050 0.052853
0.061356 0.051455 0.051580
0.072249 0.051861 0.050307
0.083143 0.052266 0.049033
0.094037 0.052672 0.047760
0.108881 0.054197 0.047129
0.124515 0.055945 0.046626
0.140149 0.057694 0.046123
0.155782 0.059443 0.045619
0.171416 0.061192 0.045116
0.187466 0.063966 0.046281
0.203723 0.067253 0.048280
0.219981 0.070541 0.050279
0.236238 0.073828 0.052278
0.252496 0.077115 0.054276
0.269923 0.080591 0.056040
0.288519 0.084256 0.057567
0.307115 0.087922 0.059095
0.325712 0.091587 0.060623
0.344308 0.095252 0.062151
0.363172 0.099135 0.063616
0.382572 0.103451 0.064958
0.401972 0.107767 0.066300
0.421372 0.112084 0.067641
0.440772 0.116400 0.068983
0.459954 0.120866 0.070474
0.478047 0.126080 0.072711
0.496140 0.131295 0.074947
0.514233 0.136509 0.077184
0.532326 0.141723 0.079421
0.550419 0.146938 0.081657
0.039379 0.052771 0.057671
0.050291 0.053369 0.056608
0.061203 0.053966 0.055545
0.072115 0.054564 0.054483
0.083027 0.055162 0.053420
0.093939 0.055759 0.052357
0.109472 0.057316 0.051425
0.125930 0.059065 0.050520
0.142387 0.060814 0.049614
0.158844 0.062563 0.048708
0.175301 0.064311 0.047803
0.191650 0.067238 0.048992
0.207944 0.070754 0.051229
0.224238 0.074270 0.053465
0.240532 0.077786 0.055702
0.256826 0.081302 0.057939
0.274299 0.085007 0.059922
0.292950 0.088901 0.061651
0.311601 0.092795 0.063379
0.330252 0.096689 0.065108
0.348903 0.100583 0.066837
0.367822 0.104684 0.068480
0.387277 0.109202 0.069950
0.406732 0.113720 0.071420
0.426187 0.118237 0.072889
0.445641 0.122755 0.074359
0.464906 0.127422 0.075990
0.483218 0.132838 0.078428
0.501531 0.138253 0.080866
0.519844 0.143669 0.083304
0.538157 0.149084 0.085742
0.556469 0.154500 0.088180
0.039285 0.055181 0.061688
0.050233 0.055928 0.060738
0.061182 0.056676 0.059788
0.072131 0.057423 0.058839
0.083079 0.058170 0.057889
0.094028 0.058917 0.056939
0.109841 0.060529 0.055965
0.126628 0.062315 0.054986
0.143414 0.064100 0.054007
0.160201 0.065885 0.053028
0.176987 0.067671 0.052049
0.193950 0.070799 0.053161
0.211000 0.074598 0.055319
0.228051 0.078398 0.057476
0.245101 0.082197 0.059634
0.262151 0.085997 0.061791
0.279974 0.089955 0.063850
0.298571 0.094071 0.065811
0.317167 0.098188 0.067772
0.335763 0.102304 0.069732
0.354360 0.106421 0.071693
0.373240 0.110748 0.073561
0.392689 0.115498 0.075244
0.412137 0.120247 0.076928
0.431586 0.124996 0.078611
0.451035 0.129746 0.080294
0.470307 0.134645 0.082144
0.488699 0.140292 0.084826
0.507091 0.145940 0.087508
0.525483 0.151587 0.090189
0.543875 0.157234 0.092871
0.562267 0.162882 0.095553
0.039237 0.057734 0.065942
0.050232 0.058609 0.065056
0.061226 0.059484 0.064170
0.072221 0.060359 0.063284
0.083215 0.061234 0.062399
0.094209 0.062109 0.061513
0.110099 0.063789 0.060626
0.126968 0.065629 0.059738
0.143837 0.067469 0.058851
0.160706 0.069310 0.057964
0.177574 0.071150 0.057076
0.195308 0.074504 0.058060
0.213475 0.078614 0.059980
0.231641 0.082725 0.061899
0.249807 0.086835 0.063819
0.267974 0.090946 0.065738
0.286300 0.095169 0.067802
0.304787 0.099505 0.070010
0.323273 0.103841 0.072217
0.341760 0.108177 0.074425
0.360246 0.112514 0.076633
0.379041 0.117070 0.078751
0.398453 0.122066 0.080691
0.417865 0.127062 0.082630
0.437278 0.132059 0.084569
0.456690 0.137055 0.086509
0.475933 0.142201 0.088616
0.494334 0.148095 0.091563
0.512735 0.153990 0.094510
0.531137 0.159884 0.097457
0.549538 0.165778 0.100405
0.567939 0.171673 0.103352
0.039190 0.060286 0.070196
0.050230 0.061289 0.069374
0.061270 0.062292 0.068552
0.072310 0.063296 0.067730
0.083351 0.064299 0.066909
0.094391 0.065302 0.066087
0.110357 0.067049 0.065287
0.127308 0.068944 0.064491
0.144259 0.070839 0.063695
0.161210 0.072734 0.062899
0.178161 0.074629 0.062103
0.196667 0.078209 0.062959
0.215949 0.082630 0.064641
0.235232 0.087052 0.066322
0.254514 0.091473 0.068004
0.273797 0.095895 0.069686
0.292626 0.100383 0.071754
0.311003 0.104939 0.074209
0.329380 0.109495 0.076663
0.347756 0.114050 0.079118
0.366133 0.118606 0.081573
0.384843 0.123391 0.083941
0.404218 0.128634 0.086137
0.423594 0.133878 0.088332
0.442969 0.139121 0.090528
0.462345 0.144364 0.092723
0.481559 0.149757 0.095088
0.499969 0.155899 0.098301
0.518380 0.162040 0.101513
0.536790 0.168181 0.104726
0.555200 0.174323 0.107938
0.573611 0.180464 0.111150
0.039143 0.062838 0.074450
0.050229 0.063970 0.073692
0.061315 0.065101 0.072934
0.072400 0.066232 0.072176
0.083486 0.067363 0.071419
0.094572 0.068495 0.070661
0.110614 0.070308 0.069947
0.127648 0.072258 0.069243
0.144681 0.074208 0.068539
0.161715 0.076158 0.067834
0.178748 0.078109 0.067130
0.198025 0.081914 0.067858
0.218424 0.086646 0.069302
0.238822 0.091379 0.070745
0.259221 0.096111 0.072189
0.279619 0.100844 0.073633
0.298952 0.105598 0.075706
0.317219 0.110373 0.078408
0.335486 0.115148 0.081109
0.353753 0.119923 0.083811
0.372020 0.124699 0.086513
0.390644 0.129712 0.089131
0.409983 0.135203 0.091583
0.429322 0.140693 0.094034
0.448661 0.146183 0.096486
0.467999 0.151674 0.098938
0.487185 0.157313 0.101560
0.505605 0.163702 0.105038
0.524024 0.170090 0.108516
0.542443 0.176479 0.111994
0.560863 0.182867 0.115471
0.579282 0.189255 0.118949
0.039096 0.065391 0.078703
0.050227 0.066650 0.078010
0.061359 0.067909 0.077316
0.072490 0.069169 0.076622
0.083622 0.070428 0.075928
0.094754 0.071687 0.075235
0.110872 0.073568 0.074608
0.127988 0.075573 0.073995
0.145104 0.077578 0.073383
0.162220 0.079583 0.072770
0.179335 0.081588 0.072157
0.199384 0.085618 0.072756
0.220898 0.090662 0.073962
0.242413 0.095706 0.075168
0.263927 0.100749 0.076374
0.285442 0.105793 0.077580
0.305278 0.110812 0.079658
0.323435 0.115807 0.082607
0.341592 0.120802 0.085555
0.359749 0.125796 0.088504
0.377907 0.130791 0.091453
0.396446 0.136034 0.094321
0.415748 0.141771 0.097029
0.435050 0.147508 0.099737
0.454352 0.153245 0.102444
0.473654 0.158983 0.105152
0.492811 0.164870 0.108033
0.511240 0.171505 0.111776
0.529668 0.178140 0.115519
0.548097 0.184776 0.119262
0.566526 0.191411 0.123005
0.584954 0.198046 0.126748
0.039072 0.068345 0.083359
0.050249 0.069686 0.082702
0.061427 0.071028 0.082045
0.072604 0.072370 0.081388
0.083781 0.073711 0.080730
0.094959 0.075053 0.080073
0.111210 0.077024 0.079506
0.128477 0.079120 0.078957
0.145744 0.081217 0.078409
0.163011 0.083313 0.077860
0.180278 0.085409 0.077311
0.200840 0.089580 0.077874
0.223050 0.094789 0.078993
0.245259 0.099997 0.080112
0.267469 0.105205 0.081231
0.289679 0.110413 0.082350
0.310105 0.115757 0.084480
0.328747 0.121237 0.087621
0.347389 0.126717 0.090762
0.366031 0.132196 0.093903
0.384673 0.137676 0.097044
0.403491 0.143319 0.100141
0.422661 0.149290 0.103150
0.441830 0.155260 0.106160
0.461000 0.161231 0.109170
0.480169 0.167201 0.112179
0.499191 0.173324 0.115362
0.517473 0.180206 0.119412
0.535756 0.187089 0.123461
0.554038 0.193971 0.127511
0.572320 0.200853 0.131560
0.590602 0.207736 0.135610
0.039072 0.071700 0.088416
0.050295 0.073079 0.087768
0.061518 0.074457 0.087120
0.072741 0.075835 0.086472
0.083964 0.077214 0.085824
0.095187 0.078592 0.085176
0.111630 0.080675 0.084641
0.129116 0.082900 0.084129
0.146602 0.085124 0.083617
0.164089 0.087349 0.083105
0.181575 0.089573 0.082592
0.202393 0.093799 0.083210
0.224878 0.099026 0.084393
0.247362 0.104252 0.085577
0.269846 0.109479 0.086760
0.292330 0.114705 0.087943
0.313433 0.120433 0.090173
0.333155 0.126663 0.093451
0.352876 0.132893 0.096729
0.372598 0.139123 0.100007
0.392319 0.145353 0.103286
0.411781 0.151569 0.106590
0.430721 0.157759 0.109947
0.449662 0.163949 0.113305
0.468603 0.170139 0.116662
0.487544 0.176330 0.120019
0.506325 0.182676 0.123550
0.524305 0.189806 0.127947
0.542286 0.196935 0.132344
0.560266 0.204064 0.136741
0.578246 0.211194 0.141138
0.596227 0.218323 0.145535
0.039072 0.075056 0.093474
0.050341 0.076471 0.092835
0.061610 0.077886 0.092196
0.072878 0.079301 0.091557
0.084147 0.080716 0.090918
0.095416 0.082131 0.090279
0.112049 0.084327 0.089776
0.129755 0.086679 0.089301
0.147461 0.089032 0.088825
0.165167 0.091385 0.088349
0.182873 0.093737 0.087874
0.203947 0.098018 0.088547
0.226706 0.103263 0.089794
0.249464 0.108507 0.091041
0.272223 0.113752 0.092288
0.294982 0.118997 0.093535
0.316762 0.125110 0.095867
0.337562 0.132089 0.099282
0.358363 0.139069 0.102697
0.379164 0.146049 0.106112
0.399965 0.153029 0.109527
0.420070 0.159819 0.113039
0.438782 0.166229 0.116744
0.457495 0.172638 0.120449
0.476207 0.179048 0.124154
0.494919 0.185458 0.127859
0.513459 0.192029 0.131737
0.531137 0.199405 0.136482
0.548816 0.206781 0.141227
0.566494 0.214158 0.145972
0.584173 0.221534 0.150716
0.601851 0.228910 0.155461
0.039072 0.078412 0.098531
0.050387 0.079863 0.097901
0.061701 0.081315 0.097271
0.073016 0.082766 0.096642
0.084330 0.084218 0.096012
0.095645 0.085669 0.095382
0.112468 0.087978 0.094912
0.130394 0.090459 0.094472
0.148319 0.092940 0.094033
0.166245 0.095420 0.093594
0.184170 0.097901 0.093155
0.205501 0.102237 0.093883
0.228534 0.107500 0.095194
0.251567 0.112763 0.096505
0.274600 0.118026 0.097817
0.297633 0.123289 0.099128
0.320090 0.129786 0.101560
0.341970 0.137516 0.105112
0.363851 0.145246 0.108665
0.385731 0.152976 0.112217
0.407612 0.160706 0.115769
0.428360 0.168069 0.119489
0.446843 0.174698 0.123541
0.465327 0.181327 0.127594
0.483810 0.187957 0.131646
0.502294 0.194586 0.135699
0.520593 0.201381 0.139925
0.537969 0.209004 0.145017
0.555346 0.216627 0.150109
0.572723 0.224251 0.155202
0.590099 0.231874 0.160294
0.607476 0.239497 0.165387
0.039072 0.081768 0.103588
0.050432 0.083256 0.102968
0.061793 0.084744 0.102347
0.073153 0.086232 0.101727
0.084513 0.087720 0.101106
0.095873 0.089208 0.100485
0.112888 0.091630 0.100047
0.131033 0.094239 0.099644
0.149178 0.096847 0.099242
0.167323 0.099456 0.098839
0.185468 0.102065 0.098437
0.207054 0.106455 0.099219
0.230362 0.111737 0.100594
0.253669 0.117018 0.101970
0.276977 0.122300 0.103345
0.300284 0.127581 0.104720
0.323418 0.134462 0.107253
0.346378 0.142942 0.110942
0.369338 0.151422 0.114632
0.392298 0.159902 0.118322
0.415258 0.168383 0.122011
0.436649 0.176319 0.125938
0.454904 0.183168 0.130338
0.473159 0.190017 0.134738
0.491414 0.196865 0.139138
0.509669 0.203714 0.143539
0.527727 0.210733 0.148112
0.544801 0.218603 0.153552
0.561876 0.226474 0.158992
0.578951 0.234344 0.164432
0.596025 0.242214 0.169872
0.613100 0.250085 0.175312
0.039041 0.085218 0.108835
0.050459 0.086767 0.108266
0.061877 0.088316 0.107697
0.073295 0.089865 0.107128
0.084713 0.091414 0.106560
0.096132 0.092963 0.105991
0.113356 0.095510 0.105574
0.131742 0.098256 0.105186
0.150128 0.101002 0.104799
0.168514 0.103747 0.104412
0.186900 0.106493 0.104024
0.208801 0.110985 0.104843
0.232459 0.116348 0.106264
0.256117 0.121712 0.107685
0.279775 0.127076 0.109106
0.303433 0.132440 0.110527
0.327168 0.139633 0.113170
0.350979 0.148656 0.117037
0.374789 0.157679 0.120904
0.398600 0.166702 0.124770
0.422411 0.175725 0.128637
0.444353 0.184194 0.132856
0.462559 0.191555 0.137781
0.480765 0.198916 0.142705
0.498971 0.206277 0.147630
0.517177 0.213638 0.152555
0.535139 0.221123 0.157612
0.551878 0.229225 0.163332
0.568617 0.237327 0.169053
0.585356 0.245429 0.174773
0.602096 0.253531 0.180494
0.618835 0.261633 0.186215
0.038946 0.088857 0.114459
0.050447 0.090516 0.114028
0.061947 0.092175 0.113596
0.073448 0.093834 0.113165
0.084948 0.095493 0.112733
0.096449 0.097152 0.112302
0.113923 0.099846 0.111884
0.132593 0.102747 0.111469
0.151262 0.105649 0.111055
0.169932 0.108550 0.110640
0.188601 0.111452 0.110225
0.210932 0.116135 0.111040
0.235093 0.121709 0.112471
0.259255 0.127283 0.113901
0.283416 0.132857 0.115331
0.307577 0.138432 0.116761
0.331760 0.145794 0.119537
0.355964 0.154945 0.123660
0.380168 0.164096 0.127783
0.404372 0.173247 0.131905
0.428576 0.182398 0.136028
0.450885 0.191319 0.140711
0.469402 0.199777 0.146514
0.487919 0.208236 0.152317
0.506436 0.216695 0.158120
0.524953 0.225154 0.163922
0.543106 0.233587 0.169736
0.559443 0.241890 0.175603
0.575780 0.250193 0.181470
0.592117 0.258497 0.187337
0.608453 0.266800 0.193204
0.624790 0.275103 0.199070
0.038851 0.092497 0.120084
0.050434 0.094265 0.119789
0.062017 0.096034 0.119495
0.073600 0.097803 0.119201
0.085183 0.099571 0.118906
0.096766 0.101340 0.118612
0.114491 0.104182 0.118195
0.133444 0.107239 0.117753
0.152397 0.110296 0.117310
0.171350 0.113353 0.116868
0.190303 0.116410 0.116426
0.213064 0.121285 0.117238
0.237728 0.127070 0.118678
0.262393 0.132854 0.120117
0.287057 0.138639 0.121556
0.311721 0.144423 0.122995
0.336352 0.151955 0.125904
0.360950 0.161234 0.130283
0.385547 0.170514 0.134662
0.410145 0.179793 0.139041
0.434742 0.189072 0.143420
0.457416 0.198443 0.148566
0.476244 0.208000 0.155247
0.495072 0.217556 0.161928
0.513900 0.227113 0.168609
0.532729 0.236670 0.175290
0.551074 0.246051 0.181860
0.567009 0.254556 0.187873
0.582943 0.263060 0.193887
0.598877 0.271565 0.199900
0.614811 0.280069 0.205913
0.630746 0.288574 0.211926
0.038757 0.096136 0.125708
0.050422 0.098015 0.125551
0.062087 0.099893 0.125394
0.073753 0.101771 0.125237
0.085418 0.103650 0.125080
0.097083 0.105528 0.124923
0.115058 0.108518 0.124505
0.134294 0.111731 0.124036
0.153531 0.114943 0.123566
0.172768 0.118156 0.123096
0.192004 0.121368 0.122627
0.215195 0.126436 0.123436
0.240363 0.132430 0.124884
0.265530 0.138425 0.126333
0.290698 0.144420 0.127781
0.315866 0.150415 0.129230
0.340945 0.158116 0.132271
0.365935 0.167524 0.136906
0.390926 0.176931 0.141541
0.415917 0.186338 0.146176
0.440908 0.195745 0.150811
0.463948 0.205568 0.156421
0.483087 0.216222 0.163980
0.502226 0.226877 0.171540
0.521365 0.237531 0.179099
0.540504 0.248185 0.186658
0.559042 0.258515 0.193984
0.574574 0.267221 0.200144
0.590106 0.275927 0.206303
0.605637 0.284633 0.212463
0.621169 0.293338 0.218623
0.636701 0.302044 0.224782
0.038662 0.099775 0.131332
0.050410 0.101764 0.131313
0.062157 0.103752 0.131293
0.073905 0.105740 0.131273
0.085653 0.107728 0.131253
0.097400 0.109716 0.131233
0.115625 0.112854 0.130816
0.135145 0.116222 0.130319
0.154665 0.119590 0.129822
0.174186 0.122958 0.129325
0.193706 0.126326 0.128828
0.217327 0.131586 0.129634
0.242997 0.137791 0.131091
0.268668 0.143997 0.132549
0.294339 0.150202 0.134006
0.320010 0.156407 0.135464
0.345537 0.164278 0.138638
0.370921 0.173813 0.143530
0.396305 0.183348 0.148421
0.421689 0.192883 0.153312
0.447073 0.202419 0.158203
0.470480 0.212693 0.164276
0.489930 0.224445 0.172714
0.509380 0.236197 0.181151
0.528830 0.247949 0.189589
0.548280 0.259701 0.198026
0.567010 0.270979 0.206108
0.582139 0.279886 0.212414
0.597269 0.288793 0.218720
0.612398 0.297700 0.225026
0.627527 0.306608 0.231332
0.642656 0.315515 0.237638
0.038473 0.103273 0.136925
0.050338 0.105398 0.137050
0.062203 0.107524 0.137175
0.074068 0.109649 0.137301
0.085933 0.111775 0.137426
0.097798 0.113900 0.137551
0.116247 0.117196 0.137155
0.136013 0.120725 0.136655
0.155778 0.124255 0.136154
0.175544 0.127784 0.135654
0.195310 0.131314 0.135154
0.219342 0.136777 0.135974
0.245506 0.143206 0.137452
0.271671 0.149636 0.138931
0.297836 0.156065 0.140410
0.324001 0.162495 0.141889
0.349993 0.170562 0.145195
0.375813 0.180266 0.150329
0.401633 0.189971 0.155463
0.427454 0.199675 0.160596
0.453274 0.209380 0.165730
0.477075 0.220084 0.172227
0.496837 0.232789 0.181451
0.516600 0.245494 0.190675
0.536363 0.258199 0.199899
0.556126 0.270904 0.209124
0.575040 0.283047 0.217927
0.589717 0.292376 0.224630
0.604393 0.301706 0.231332
0.619070 0.311035 0.238035
0.633746 0.320365 0.244737
0.648423 0.329694 0.251440
0.037812 0.106062 0.142361
0.049969 0.108462 0.142669
0.062127 0.110861 0.142977
0.074285 0.113261 0.143285
0.086442 0.115661 0.143593
0.098600 0.118061 0.143901
0.117143 0.121562 0.143634
0.136964 0.125284 0.143253
0.156785 0.129006 0.142872
0.176605 0.132727 0.142491
0.196426 0.136449 0.142110
0.220775 0.142171 0.143024
0.247388 0.148893 0.144585
0.274001 0.155616 0.146146
0.300614 0.162338 0.147707
0.327227 0.169060 0.149269
0.353768 0.177461 0.152703
0.380238 0.187540 0.158010
0.406708 0.197620 0.163318
0.433177 0.207700 0.168625
0.459647 0.217779 0.173932
0.483988 0.228810 0.180655
