filter/Red and Blue 3/lut/Spotlight 05_S.cube
# LUT by SparkleStock. Enhanced with VOXCOLOR algorithms.
LUT_3D_SIZE 8
DOMAIN_MIN 0.000000 0.000000 0.000000
DOMAIN_MAX 0.903226 0.903226 0.903226
0.070330 0.093773 0.125031
0.090181 0.100579 0.133538
0.142306 0.113813 0.147135
0.219063 0.136784 0.166844
0.312694 0.172256 0.194635
0.413273 0.225759 0.239631
0.506448 0.285565 0.294868
0.590665 0.344377 0.350412
0.076001 0.105495 0.136941
0.095706 0.118887 0.144863
0.156808 0.135390 0.149373
0.247093 0.158312 0.157287
0.354647 0.190747 0.175583
0.464155 0.239420 0.219408
0.556255 0.299518 0.284817
0.630581 0.363058 0.356211
0.089574 0.128331 0.165056
0.111932 0.148207 0.175710
0.173428 0.177789 0.179003
0.269109 0.210408 0.181197
0.390250 0.243356 0.190632
0.512521 0.288029 0.231835
0.612223 0.345016 0.303287
0.686355 0.408919 0.386933
0.114672 0.165198 0.209689
0.140591 0.189928 0.224869
0.201164 0.233661 0.235927
0.295647 0.278714 0.240618
0.419281 0.315376 0.243322
0.554494 0.357061 0.277889
0.663864 0.408884 0.349201
0.741823 0.468291 0.436576
0.154303 0.217779 0.269715
0.183369 0.244979 0.289871
0.246169 0.297792 0.316702
0.335548 0.353045 0.333620
0.447087 0.396269 0.335675
0.589418 0.434733 0.357746
0.705006 0.479967 0.420129
0.786178 0.530238 0.498962
0.214613 0.287731 0.340990
0.246313 0.316248 0.365098
0.311644 0.371726 0.407492
0.400401 0.434041 0.448720
0.505098 0.486724 0.474395
0.627522 0.513772 0.476413
0.739914 0.548808 0.512280
0.819727 0.587461 0.565681
0.288471 0.363669 0.414471
0.321221 0.393260 0.441067
0.387498 0.448912 0.488835
0.473385 0.510910 0.539878
0.568694 0.563569 0.579719
0.673042 0.593837 0.594496
0.775834 0.616034 0.603520
0.850068 0.641265 0.626058
0.364938 0.436606 0.489929
0.400005 0.468014 0.518007
0.465631 0.520599 0.564242
0.545677 0.576767 0.614166
0.628659 0.623610 0.656206
0.714187 0.655506 0.680155
0.802611 0.674813 0.682317
0.871870 0.693426 0.687221
0.070519 0.105116 0.148285
0.096371 0.114411 0.155475
0.157089 0.124638 0.168480
0.243995 0.142705 0.187470
0.347725 0.174372 0.213834
0.453281 0.228168 0.256634
0.544967 0.296317 0.312969
0.625690 0.364765 0.371696
0.083802 0.121522 0.161513
0.108601 0.138083 0.172990
0.175784 0.152901 0.182343
0.272100 0.170570 0.192937
0.384895 0.195545 0.209013
0.498586 0.236692 0.242710
0.592277 0.295803 0.298168
0.663216 0.365853 0.366598
0.105193 0.150597 0.192914
0.129571 0.173920 0.204291
0.195198 0.204500 0.211521
0.293743 0.232935 0.216155
0.414975 0.255662 0.222557
0.538871 0.288762 0.250034
0.640807 0.339071 0.306225
0.713745 0.404449 0.382215
0.137462 0.192818 0.240122
0.162381 0.220447 0.251717
0.224137 0.267126 0.260981
0.318510 0.310627 0.264361
0.439097 0.338706 0.263765
0.572176 0.366844 0.283596
0.683382 0.408356 0.336835
0.763270 0.464034 0.412536
0.182784 0.248126 0.300477
0.209461 0.276695 0.315548
0.269126 0.332329 0.332691
0.355096 0.389404 0.341787
0.462937 0.430622 0.339867
0.599210 0.455908 0.348052
0.716180 0.488779 0.390273
0.802384 0.531473 0.453643
0.245582 0.317346 0.371313
0.275687 0.345306 0.391809
0.336027 0.401678 0.423180
0.417720 0.464787 0.450504
0.514597 0.517121 0.463237
0.630510 0.542662 0.457375
0.743832 0.568886 0.474742
0.830923 0.599556 0.509729
0.319367 0.391821 0.443744
0.349898 0.418550 0.465747
0.411724 0.472258 0.506526
0.491294 0.533438 0.548223
0.578968 0.586472 0.577028
0.675785 0.618123 0.582376
0.775654 0.638945 0.576058
0.855347 0.660930 0.582019
0.398895 0.466953 0.518983
0.425681 0.489254 0.537925
0.487025 0.537787 0.580080
0.563323 0.593091 0.626552
0.640847 0.640695 0.662877
0.719859 0.673879 0.679556
0.803743 0.694503 0.672542
0.874639 0.712876 0.667370
0.072583 0.128378 0.198322
0.099667 0.143271 0.209172
0.171699 0.159331 0.221054
0.273350 0.179372 0.238123
0.390264 0.207842 0.263812
0.505150 0.260998 0.303172
0.599962 0.333359 0.356768
0.678262 0.407517 0.415504
0.091507 0.150297 0.216185
0.118317 0.167919 0.229613
0.192236 0.184901 0.243802
0.296871 0.201473 0.257821
0.417390 0.220610 0.272940
0.538173 0.259157 0.300483
0.636490 0.320416 0.347907
0.708553 0.396029 0.409971
0.128734 0.190774 0.251107
0.154759 0.213345 0.264173
0.220061 0.241273 0.277239
0.318034 0.264539 0.286655
0.439746 0.279723 0.292616
0.565935 0.305612 0.310156
0.672281 0.351938 0.351603
0.749209 0.417144 0.414282
0.177368 0.243525 0.300758
0.203005 0.270056 0.313035
0.258919 0.310866 0.325081
0.345505 0.347007 0.330794
0.459808 0.367829 0.329032
0.589723 0.384775 0.336077
0.704218 0.416735 0.369372
0.790222 0.466271 0.426760
0.233214 0.304215 0.362298
0.259652 0.331642 0.375304
0.311785 0.381082 0.389611
0.386755 0.431649 0.395489
0.483389 0.467921 0.389008
0.611551 0.481892 0.383862
0.730325 0.503295 0.404336
0.824074 0.537065 0.447795
0.301610 0.375088 0.431555
0.331226 0.400621 0.448248
0.383978 0.450368 0.472918
0.453118 0.506682 0.490936
0.534836 0.554814 0.492399
0.637369 0.579026 0.475360
0.750436 0.595514 0.472401
0.846095 0.616573 0.488442
0.377051 0.447805 0.500155
0.406830 0.470713 0.517574
0.460359 0.516340 0.549889
0.527315 0.569979 0.581229
0.600723 0.619384 0.598972
0.683541 0.652314 0.591219
0.777620 0.672040 0.568963
0.863256 0.689423 0.558925
0.458227 0.519137 0.568694
0.482407 0.536594 0.582958
0.532985 0.575757 0.616149
0.596269 0.623112 0.653312
0.662402 0.667976 0.681953
0.730483 0.702737 0.688400
0.807064 0.726718 0.670887
0.879641 0.745020 0.654502
0.078963 0.162771 0.268762
0.106108 0.183385 0.285076
0.183636 0.212508 0.302846
0.298534 0.241177 0.317718
0.435071 0.267731 0.330905
0.560166 0.318276 0.366558
0.658326 0.388414 0.414708
0.733739 0.461132 0.470048
0.102352 0.188898 0.291223
0.130602 0.208340 0.306876
0.206900 0.233210 0.328925
0.318450 0.254566 0.345963
0.450976 0.270761 0.354375
0.578758 0.307151 0.377313
0.681210 0.368567 0.416898
0.755119 0.444137 0.470113
0.154290 0.240564 0.331297
0.182043 0.261959 0.346091
0.246081 0.290025 0.366150
0.343161 0.312057 0.380772
0.466295 0.323102 0.385559
0.594419 0.343294 0.396012
0.704108 0.386030 0.424712
0.785374 0.447443 0.472094
0.220381 0.304446 0.383059
0.247400 0.328147 0.396340
0.299701 0.362787 0.412668
0.378644 0.392134 0.422974
0.483324 0.406807 0.422899
0.609100 0.414757 0.421465
0.725207 0.438433 0.437930
0.816910 0.480020 0.475791
0.290456 0.371377 0.441890
0.317663 0.395690 0.453333
0.365890 0.436516 0.468121
0.429284 0.477074 0.475435
0.507434 0.504551 0.469401
0.625050 0.509714 0.456687
0.743269 0.520827 0.459387
0.843629 0.545152 0.483378
0.364939 0.442993 0.506719
0.394644 0.465196 0.519686
0.442803 0.506480 0.540026
0.499827 0.552681 0.553743
0.561983 0.592198 0.550832
0.647662 0.613730 0.526177
0.757769 0.621288 0.508237
0.859904 0.633237 0.509098
0.441495 0.512450 0.568015
0.471014 0.531653 0.581119
0.518179 0.568465 0.605544
0.572447 0.612196 0.628600
0.628066 0.654079 0.639231
0.694718 0.686256 0.621998
0.780939 0.704571 0.589494
0.870834 0.717322 0.568501
0.521902 0.575967 0.625794
0.545670 0.590975 0.636948
0.586927 0.621276 0.660999
0.636354 0.659221 0.688554
0.687765 0.698416 0.710266
0.743547 0.733141 0.708805
0.811471 0.760249 0.684408
0.884889 0.778596 0.660444
0.092079 0.207696 0.354713
0.120450 0.231987 0.375747
0.193955 0.277631 0.408242
0.314470 0.320364 0.423465
0.472111 0.348916 0.412888
0.611075 0.392912 0.437215
0.710662 0.453511 0.477089
0.781674 0.516361 0.525655
0.119218 0.235360 0.379296
0.149686 0.258607 0.398097
0.221959 0.296502 0.431172
0.335109 0.329273 0.451475
0.480224 0.348149 0.447961
0.617200 0.379080 0.460480
0.721409 0.434858 0.490572
0.794949 0.501783 0.533313
0.179119 0.293850 0.425574
0.208686 0.315907 0.441393
0.272627 0.350283 0.468354
0.369280 0.378366 0.487931
0.493027 0.390801 0.490676
0.624558 0.405109 0.492912
0.734527 0.442268 0.510939
0.816771 0.494538 0.543683
0.257422 0.365529 0.478628
0.285579 0.386541 0.490971
0.341203 0.420329 0.510803
0.417290 0.448527 0.526760
0.510274 0.460120 0.531483
0.631828 0.461817 0.525774
0.745774 0.478041 0.530957
0.839119 0.509650 0.551816
0.341851 0.437507 0.529399
0.369868 0.457687 0.538520
0.421533 0.492449 0.554359
0.478439 0.524562 0.566688
0.535769 0.542000 0.568287
0.640136 0.541495 0.556308
0.753529 0.543354 0.548562
0.856537 0.557741 0.556792
0.421017 0.506727 0.585336
0.450697 0.525533 0.594820
0.500084 0.560566 0.611559
0.550522 0.597390 0.625155
0.594396 0.625681 0.626631
0.661544 0.642170 0.603320
0.764751 0.642642 0.580501
0.868763 0.647170 0.572513
0.496860 0.570738 0.635683
0.525660 0.587032 0.644885
0.571607 0.617953 0.663111
0.618297 0.653129 0.681409
0.657746 0.685262 0.690781
0.708421 0.713407 0.673387
0.785186 0.729488 0.640510
0.875950 0.738397 0.616282
0.573621 0.624483 0.680712
0.596695 0.638003 0.688478
0.634829 0.663625 0.706086
0.675936 0.694816 0.727083
0.713448 0.726829 0.744297
0.757452 0.758859 0.741524
0.816335 0.787032 0.717323
0.888893 0.805325 0.692522
0.117602 0.265359 0.457371
0.147583 0.290382 0.480308
0.218447 0.341527 0.518542
0.324386 0.398920 0.549805
0.462853 0.446793 0.555566
0.650265 0.472200 0.512857
0.754267 0.518480 0.535703
0.819144 0.566674 0.574390
0.147083 0.291998 0.480491
0.178367 0.316997 0.499722
0.247127 0.363339 0.536340
0.347674 0.413047 0.568631
0.477467 0.452136 0.578098
0.651673 0.470031 0.540352
0.758050 0.511753 0.555173
0.826843 0.560959 0.586665
0.211088 0.349671 0.525306
0.240759 0.372493 0.540723
0.303974 0.414266 0.570299
0.392761 0.456879 0.598369
0.503786 0.486868 0.610628
0.655227 0.496743 0.584105
0.763298 0.521421 0.588470
0.840480 0.555957 0.607863
0.291294 0.420801 0.576652
0.319300 0.440954 0.588499
0.376612 0.478495 0.610176
0.450963 0.516082 0.631752
0.537378 0.540587 0.643685
0.659532 0.543224 0.628803
0.767203 0.548454 0.623470
0.854795 0.563840 0.630090
0.374131 0.491792 0.623526
0.402054 0.509865 0.632278
0.455283 0.543752 0.648285
0.516321 0.579076 0.663650
0.577503 0.603616 0.671731
0.665288 0.602394 0.664374
0.768764 0.594304 0.652142
0.865958 0.594953 0.648276
0.455932 0.555157 0.662631
0.483591 0.571403 0.668800
0.535104 0.603342 0.681234
0.591214 0.637833 0.693477
0.639308 0.664332 0.699862
0.682507 0.673190 0.692392
0.772965 0.667851 0.675643
0.872367 0.665293 0.664082
0.530506 0.611971 0.699316
0.556492 0.625914 0.704901
0.602782 0.653854 0.717197
0.652984 0.685986 0.731025
0.695358 0.714761 0.741290
0.726523 0.735447 0.738680
0.791325 0.747727 0.716372
0.877700 0.753158 0.695857
0.601491 0.657379 0.731319
0.623272 0.669870 0.736370
0.661367 0.693684 0.748403
0.703767 0.722387 0.763506
0.741845 0.751242 0.777885
0.773322 0.778933 0.785277
0.822603 0.804227 0.770041
0.890779 0.821334 0.751377
0.157619 0.328536 0.561290
0.187137 0.352217 0.582471
0.253114 0.401260 0.619588
0.345870 0.458963 0.654449
0.460604 0.511565 0.670998
0.613887 0.545949 0.645780
0.760991 0.574779 0.612425
0.848249 0.605919 0.612533
0.186759 0.352443 0.580873
0.217070 0.376837 0.598763
0.280887 0.423138 0.633087
0.369611 0.476501 0.666885
0.478757 0.524552 0.684823
0.621969 0.554616 0.663207
0.765218 0.580175 0.628431
0.853303 0.610809 0.625684
0.249334 0.404912 0.619386
0.277803 0.426862 0.633650
0.337609 0.469037 0.661291
0.417942 0.516521 0.689928
0.513128 0.557433 0.707710
0.637567 0.581905 0.693737
0.771384 0.598516 0.660993
0.861062 0.618515 0.653347
0.326970 0.469649 0.663352
0.353495 0.488439 0.674259
0.408590 0.525681 0.694581
0.478583 0.567326 0.716483
0.556245 0.602152 0.732116
0.656890 0.620558 0.726375
0.776925 0.626545 0.699005
0.868496 0.632675 0.687064
0.405943 0.533919 0.702716
0.431828 0.550410 0.710820
0.482496 0.582680 0.725430
0.542620 0.619659 0.741098
0.603599 0.651534 0.752863
0.677895 0.665191 0.753170
0.780639 0.662947 0.733725
0.873462 0.658024 0.719859
0.481597 0.589966 0.732795
0.506330 0.604460 0.738014
0.553939 0.633782 0.748695
0.609014 0.667723 0.760509
0.660331 0.697807 0.769679
0.704489 0.715482 0.771270
0.785496 0.715229 0.758827
0.875266 0.709806 0.745425
0.549170 0.638729 0.757832
0.572791 0.651726 0.761976
0.616152 0.678253 0.771060
0.666313 0.709587 0.781546
0.713187 0.738899 0.790338
0.750080 0.761552 0.793465
0.802849 0.774133 0.784343
0.878792 0.777399 0.771296
0.613618 0.678769 0.779181
0.634077 0.690762 0.782886
0.670767 0.714078 0.791247
0.713965 0.742247 0.801544
0.756142 0.770424 0.811516
0.792885 0.796810 0.819017
0.833142 0.820352 0.817575
0.892712 0.835834 0.809671
0.209547 0.389846 0.650408
0.237235 0.411691 0.668862
0.296419 0.456246 0.702130
0.376488 0.508844 0.735418
0.470730 0.558124 0.756592
0.586610 0.597009 0.752530
0.730468 0.621953 0.707836
0.838556 0.642220 0.672907
0.235906 0.410679 0.666673
0.264241 0.432628 0.682323
0.321854 0.475036 0.712605
0.399093 0.525105 0.744128
0.489620 0.572571 0.765454
0.598980 0.609303 0.762280
0.736817 0.632326 0.718899
0.844278 0.652911 0.684759
0.291739 0.455721 0.698999
0.319710 0.475857 0.712065
0.375241 0.514309 0.736292
0.447171 0.559589 0.762614
0.528244 0.602441 0.782463
0.623803 0.635267 0.781518
0.747834 0.654568 0.743806
0.851244 0.670261 0.710078
0.362806 0.511620 0.735820
0.389650 0.529238 0.746283
0.441970 0.563077 0.764260
0.506766 0.603015 0.784381
0.575746 0.640810 0.801079
0.654547 0.669281 0.803126
0.760641 0.684137 0.774472
0.858265 0.692916 0.742674
0.437808 0.567765 0.768417
0.462918 0.583054 0.776158
0.510626 0.612592 0.789522
0.567356 0.647903 0.804285
0.624416 0.681821 0.816707
0.686567 0.706901 0.821734
0.773435 0.718040 0.804146
0.864600 0.720982 0.776977
0.509998 0.616914 0.792220
0.532539 0.630400 0.797487
0.574816 0.656933 0.807227
0.624841 0.688934 0.818442
0.673882 0.720276 0.828540
0.719734 0.746059 0.834407
0.787439 0.758343 0.826292
0.870627 0.761824 0.806241
0.573532 0.659426 0.809579
0.593624 0.671674 0.813477
0.630663 0.696088 0.821133
0.675237 0.725791 0.830010
0.720144 0.755409 0.838046
0.761918 0.781672 0.843380
0.809494 0.800069 0.842057
0.879061 0.809818 0.829567
0.631296 0.695879 0.824106
0.647817 0.706871 0.827279
0.678887 0.728946 0.833832
0.717692 0.756240 0.841502
0.759007 0.784305 0.848588
0.800792 0.811345 0.854292
0.841200 0.835817 0.858655
0.896284 0.854422 0.854430
