filter/Red and Blue 3/lut/Spotlight 03.cube
# LUT by SparkleStock. Enhanced with VOXCOLOR algorithms.
LUT_3D_SIZE 5
DOMAIN_MIN 0.000000 0.000000 0.000000
DOMAIN_MAX 0.903226 0.903226 0.903226
0.078144 0.062515 0.113309
0.164166 0.067061 0.121265
0.391744 0.094096 0.137823
0.609154 0.142629 0.172563
0.704478 0.198645 0.218024
0.087912 0.081130 0.138989
0.155285 0.104423 0.162658
0.393112 0.139667 0.184078
0.639224 0.192996 0.216198
0.743570 0.263677 0.269777
0.115010 0.139044 0.208074
0.182210 0.193166 0.257667
0.396228 0.264550 0.312392
0.686390 0.318613 0.328277
0.814402 0.403371 0.385521
0.171956 0.247469 0.318965
0.262708 0.328484 0.387712
0.473606 0.460142 0.496967
0.738762 0.510079 0.509025
0.879983 0.563586 0.526202
0.295837 0.397140 0.450148
0.404916 0.485474 0.523632
0.599212 0.613688 0.626287
0.790309 0.685742 0.676856
0.916722 0.703038 0.660224
0.079853 0.076080 0.167443
0.165488 0.099379 0.170139
0.416075 0.135128 0.177587
0.644142 0.187021 0.209590
0.742825 0.261982 0.268052
0.101804 0.119347 0.200639
0.173657 0.172329 0.238473
0.410531 0.224854 0.269315
0.668455 0.270407 0.287154
0.776468 0.335477 0.330089
0.151222 0.204600 0.277563
0.231320 0.275402 0.334447
0.423753 0.370416 0.411073
0.705669 0.413563 0.420191
0.833747 0.470590 0.446021
0.241442 0.328551 0.391766
0.336384 0.405643 0.453569
0.516500 0.527811 0.553659
0.739192 0.590607 0.589467
0.883459 0.614910 0.576624
0.393334 0.481633 0.523041
0.480085 0.545681 0.574136
0.641825 0.655644 0.662677
0.801305 0.723500 0.712736
0.915307 0.739616 0.699725
0.096002 0.103194 0.288786
0.155228 0.154841 0.312370
0.433196 0.237423 0.296899
0.707820 0.294102 0.302289
0.812376 0.384679 0.369937
0.126285 0.169572 0.333700
0.195940 0.246630 0.374346
0.440586 0.352231 0.406201
0.723048 0.395056 0.400296
0.835441 0.457705 0.434977
0.205961 0.308834 0.418100
0.300558 0.387350 0.463145
0.478879 0.505492 0.537114
0.732336 0.552919 0.555979
0.864752 0.581736 0.550045
0.343496 0.459448 0.524098
0.447276 0.526773 0.568072
0.598491 0.628764 0.641242
0.749259 0.696159 0.689220
0.891206 0.699656 0.661381
0.529790 0.603624 0.633957
0.603673 0.649447 0.665992
0.714338 0.724003 0.722929
0.821836 0.779954 0.766475
0.913687 0.798881 0.762282
0.128780 0.139990 0.445665
0.178795 0.208088 0.487190
0.361742 0.361362 0.542117
0.762652 0.445408 0.443986
0.877700 0.517973 0.484829
0.170026 0.215326 0.490959
0.238192 0.301492 0.534523
0.413258 0.453022 0.597445
0.767360 0.541872 0.544430
0.889303 0.579685 0.543610
0.276162 0.385792 0.579670
0.357083 0.461725 0.614161
0.516616 0.590380 0.671126
0.759640 0.678543 0.679586
0.897194 0.679845 0.643851
0.418693 0.551964 0.661328
0.512970 0.611308 0.684212
0.669924 0.705106 0.726266
0.767701 0.762764 0.756475
0.897254 0.768712 0.736775
0.596867 0.679099 0.735797
0.670467 0.717316 0.751867
0.774416 0.778226 0.783387
0.843282 0.826770 0.813335
0.914579 0.848486 0.815498
0.182591 0.199149 0.578707
0.240782 0.273313 0.626439
0.401903 0.439736 0.712575
0.660880 0.592921 0.737123
0.894736 0.630084 0.621235
0.236594 0.276953 0.624219
0.309752 0.363249 0.670579
0.462818 0.515612 0.746490
0.688871 0.646114 0.769430
0.902236 0.677372 0.665489
0.363982 0.450885 0.715387
0.439195 0.521489 0.747634
0.574979 0.638458 0.798233
0.739806 0.733137 0.818691
0.906532 0.756408 0.742481
0.510009 0.614850 0.788178
0.577713 0.662723 0.806587
0.694320 0.741600 0.833427
0.795952 0.802357 0.848576
0.907129 0.827888 0.811357
0.641701 0.719793 0.832143
0.700960 0.752945 0.841443
0.794833 0.808146 0.854638
0.865965 0.855115 0.864673
0.920460 0.886961 0.861695
