filter/Red and Blue 3/lut/Spotlight 05_S.cube
# LUT by SparkleStock. Enhanced with VOXCOLOR algorithms.
LUT_3D_SIZE 32
0.070330 0.093773 0.125031
0.075292 0.095474 0.127157
0.080255 0.097176 0.129284
0.085218 0.098877 0.131411
0.090181 0.100579 0.133538
0.095144 0.102281 0.135665
0.109599 0.105873 0.139289
0.125952 0.109843 0.143212
0.142306 0.113813 0.147135
0.158659 0.117783 0.151058
0.175013 0.121754 0.154981
0.195904 0.128560 0.160510
0.219063 0.136784 0.166844
0.242223 0.145008 0.173177
0.265383 0.153232 0.179511
0.288542 0.161456 0.185844
0.312694 0.172256 0.194635
0.337839 0.185632 0.205884
0.362984 0.199007 0.217133
0.388129 0.212383 0.228382
0.413273 0.225759 0.239631
0.437678 0.239765 0.251904
0.460601 0.255032 0.266226
0.483524 0.270298 0.280547
0.506448 0.285565 0.294868
0.529371 0.300831 0.309189
0.551719 0.315924 0.323376
0.571192 0.330151 0.336894
0.590665 0.344377 0.350412
0.610138 0.358604 0.363929
0.629611 0.372831 0.377447
0.649084 0.387057 0.390965
0.071748 0.096703 0.128008
0.076701 0.098816 0.130099
0.081655 0.100930 0.132189
0.086609 0.103043 0.134279
0.091562 0.105156 0.136369
0.096516 0.107269 0.138460
0.111633 0.111029 0.141422
0.128782 0.115118 0.144558
0.145931 0.119207 0.147694
0.163081 0.123296 0.150830
0.180230 0.127386 0.153967
0.201996 0.134115 0.158789
0.226071 0.142166 0.164455
0.250145 0.150216 0.170120
0.274220 0.158266 0.175786
0.298294 0.166316 0.181452
0.323183 0.176878 0.189872
0.348885 0.189952 0.201048
0.374588 0.203026 0.212224
0.400291 0.216100 0.223400
0.425994 0.229174 0.234576
0.450706 0.243007 0.247059
0.473437 0.258355 0.262158
0.496168 0.273704 0.277256
0.518900 0.289053 0.292355
0.541631 0.304402 0.307454
0.563656 0.319643 0.322484
0.582150 0.334345 0.337173
0.600644 0.349048 0.351862
0.619138 0.363750 0.366550
0.637633 0.378452 0.381239
0.656127 0.393155 0.395927
0.073166 0.099634 0.130986
0.078110 0.102159 0.133040
0.083055 0.104683 0.135093
0.087999 0.107208 0.137147
0.092943 0.109733 0.139201
0.097888 0.112258 0.141254
0.113666 0.116185 0.143555
0.131612 0.120394 0.145904
0.149557 0.124602 0.148254
0.167502 0.128810 0.150603
0.185448 0.133018 0.152953
0.208089 0.139671 0.157068
0.233078 0.147548 0.162066
0.258067 0.155424 0.167063
0.283057 0.163301 0.172061
0.308046 0.171177 0.177059
0.333671 0.181501 0.185109
0.359932 0.194273 0.196212
0.386192 0.207045 0.207315
0.412453 0.219818 0.218417
0.438714 0.232590 0.229520
0.463734 0.246248 0.242214
0.486273 0.261679 0.258090
0.508812 0.277110 0.273966
0.531352 0.292541 0.289843
0.553891 0.307973 0.305719
0.575592 0.323362 0.321592
0.593108 0.338540 0.337452
0.610623 0.353718 0.353312
0.628138 0.368896 0.369171
0.645654 0.384074 0.385031
0.663169 0.399252 0.400890
0.074583 0.102564 0.133964
0.079519 0.105501 0.135981
0.084454 0.108437 0.137998
0.089389 0.111374 0.140015
0.094325 0.114310 0.142032
0.099260 0.117247 0.144049
0.115700 0.121342 0.145688
0.134442 0.125669 0.147250
0.153183 0.129996 0.148813
0.171924 0.134323 0.150376
0.190665 0.138650 0.151939
0.214181 0.145227 0.155346
0.240085 0.152930 0.159676
0.265989 0.160632 0.164007
0.291893 0.168335 0.168337
0.317798 0.176038 0.172667
0.344159 0.186124 0.180346
0.370978 0.198594 0.191376
0.397797 0.211064 0.202405
0.424615 0.223535 0.213435
0.451434 0.236005 0.224464
0.476762 0.249490 0.237368
0.499109 0.265003 0.254022
0.521456 0.280516 0.270676
0.543803 0.296030 0.287330
0.566150 0.311543 0.303984
0.587529 0.327080 0.320700
0.604066 0.342734 0.337731
0.620602 0.358388 0.354761
0.637139 0.374041 0.371792
0.653675 0.389695 0.388822
0.670212 0.405349 0.405853
0.076001 0.105495 0.136941
0.080928 0.108843 0.138922
0.085854 0.112191 0.140902
0.090780 0.115539 0.142883
0.095706 0.118887 0.144863
0.100632 0.122235 0.146844
0.117734 0.126498 0.147821
0.137271 0.130944 0.148597
0.156808 0.135390 0.149373
0.176345 0.139836 0.150149
0.195882 0.144282 0.150925
0.220274 0.150783 0.153625
0.247093 0.158312 0.157287
0.273912 0.165841 0.160950
0.300730 0.173369 0.164612
0.327549 0.180898 0.168274
0.354647 0.190747 0.175583
0.382024 0.202915 0.186540
0.409401 0.215083 0.197496
0.436778 0.227252 0.208452
0.464155 0.239420 0.219408
0.489791 0.252731 0.232523
0.511946 0.268327 0.249954
0.534100 0.283923 0.267386
0.556255 0.299518 0.284817
0.578410 0.315114 0.302249
0.599466 0.330799 0.319809
0.615023 0.346928 0.338010
0.630581 0.363058 0.356211
0.646139 0.379187 0.374413
0.661696 0.395316 0.392614
0.677254 0.411446 0.410816
0.077419 0.108425 0.139919
0.082336 0.112185 0.141863
0.087253 0.115945 0.143807
0.092170 0.119704 0.145751
0.097088 0.123464 0.147695
0.102005 0.127224 0.149639
0.119768 0.131655 0.149954
0.140101 0.136220 0.149943
0.160434 0.140784 0.149932
0.180767 0.145349 0.149922
0.201100 0.149914 0.149911
0.226367 0.156339 0.151904
0.254100 0.163694 0.154898
0.281834 0.171049 0.157893
0.309567 0.178404 0.160887
0.337301 0.185759 0.163881
0.365135 0.195370 0.170820
0.393070 0.207236 0.181703
0.421005 0.219103 0.192586
0.448940 0.230969 0.203469
0.476875 0.242835 0.214352
0.502819 0.255972 0.227677
0.524782 0.271651 0.245887
0.546745 0.287329 0.264096
0.568707 0.303007 0.282305
0.590670 0.318685 0.300514
0.611402 0.334517 0.318917
0.625981 0.351123 0.338289
0.640560 0.367728 0.357661
0.655139 0.384333 0.377034
0.669718 0.400938 0.396406
0.684296 0.417543 0.415778
0.081161 0.114624 0.147662
0.086275 0.118788 0.149814
0.091389 0.122952 0.151965
0.096502 0.127116 0.154116
0.101616 0.131280 0.156268
0.106730 0.135444 0.158419
0.124376 0.140892 0.158710
0.144529 0.146597 0.158629
0.164682 0.152303 0.158548
0.184835 0.158008 0.158468
0.204988 0.163713 0.158387
0.230759 0.170596 0.159957
0.259339 0.178066 0.162352
0.287919 0.185537 0.164747
0.316499 0.193008 0.167142
0.345078 0.200479 0.169538
0.373756 0.210027 0.176087
0.402531 0.221653 0.186790
0.431306 0.233278 0.197493
0.460081 0.244904 0.208196
0.488856 0.256529 0.218899
0.515532 0.269429 0.232249
0.538012 0.284877 0.250893
0.560491 0.300325 0.269537
0.582971 0.315773 0.288180
0.605451 0.331221 0.306824
0.626570 0.346886 0.325751
0.640886 0.363639 0.346096
0.655203 0.380392 0.366441
0.669520 0.397145 0.386786
0.683836 0.413898 0.407131
0.698153 0.430651 0.427476
0.085368 0.121478 0.156359
0.090719 0.126044 0.158766
0.096071 0.130611 0.161174
0.101422 0.135177 0.163581
0.106774 0.139743 0.165989
0.112126 0.144310 0.168396
0.129499 0.150946 0.168791
0.149277 0.157996 0.168784
0.169055 0.165046 0.168776
0.188833 0.172096 0.168768
0.208611 0.179146 0.168761
0.234812 0.186592 0.169965
0.264224 0.194237 0.171774
0.293636 0.201882 0.173584
0.323048 0.209526 0.175394
0.352461 0.217171 0.177204
0.382003 0.226692 0.183360
0.411674 0.238089 0.193861
0.441346 0.249485 0.204363
0.471017 0.260882 0.214865
0.500689 0.272279 0.225367
0.528182 0.284929 0.238705
0.551321 0.300084 0.257714
0.574459 0.315239 0.276724
0.597597 0.330394 0.295733
0.620735 0.345549 0.314743
0.642384 0.360985 0.334130
0.656581 0.377820 0.355409
0.670779 0.394655 0.376687
0.684977 0.411491 0.397965
0.699174 0.428326 0.419243
0.713372 0.445161 0.440521
0.089574 0.128331 0.165056
0.095164 0.133300 0.167719
0.100753 0.138269 0.170383
0.106342 0.143238 0.173046
0.111932 0.148207 0.175710
0.117521 0.153176 0.178374
0.134622 0.160999 0.178872
0.154025 0.169394 0.178938
0.173428 0.177789 0.179003
0.192831 0.186184 0.179069
0.212233 0.194579 0.179134
0.238864 0.202589 0.179973
0.269109 0.210408 0.181197
0.299354 0.218226 0.182421
0.329598 0.226045 0.183645
0.359843 0.233863 0.184870
0.390250 0.243356 0.190632
0.420817 0.254525 0.200933
0.451385 0.265693 0.211233
0.481953 0.276861 0.221534
0.512521 0.288029 0.231835
0.540832 0.300429 0.245160
0.564629 0.315291 0.264536
0.588426 0.330153 0.283911
0.612223 0.345016 0.303287
0.636020 0.359878 0.322662
0.658197 0.375083 0.342510
0.672276 0.392001 0.364721
0.686355 0.408919 0.386933
0.700434 0.425836 0.409144
0.714512 0.442754 0.431355
0.728591 0.459672 0.453567
0.093781 0.135185 0.173752
0.099608 0.140556 0.176672
0.105435 0.145927 0.179592
0.111263 0.151299 0.182512
0.117090 0.156670 0.185431
0.122917 0.162041 0.188351
0.139745 0.171053 0.188953
0.158773 0.180793 0.189092
0.177800 0.190532 0.189231
0.196828 0.200272 0.189370
0.215856 0.210011 0.189508
0.242917 0.218586 0.189980
0.273994 0.226578 0.190619
0.305071 0.234570 0.191258
0.336148 0.242563 0.191897
0.367226 0.250555 0.192536
0.398496 0.260021 0.197905
0.429961 0.270960 0.208004
0.461425 0.281900 0.218104
0.492890 0.292839 0.228203
0.524354 0.303779 0.238302
0.553483 0.315928 0.251616
0.577938 0.330498 0.271357
0.602394 0.345068 0.291098
0.626849 0.359637 0.310840
0.651305 0.374207 0.330581
0.674011 0.389182 0.350890
0.687971 0.406182 0.374034
0.701931 0.423182 0.397178
0.715891 0.440182 0.420323
0.729850 0.457182 0.443467
0.743810 0.474182 0.466612
0.097987 0.142038 0.182449
0.104052 0.147812 0.185625
0.110118 0.153586 0.188801
0.116183 0.159360 0.191977
0.122248 0.165133 0.195153
0.128313 0.170907 0.198328
0.144868 0.181107 0.199034
0.163520 0.192191 0.199246
0.182173 0.203275 0.199458
0.200826 0.214360 0.199670
0.219479 0.225444 0.199882
0.246969 0.234583 0.199988
0.278879 0.242749 0.200042
0.310789 0.250915 0.200095
0.342698 0.259081 0.200148
0.374608 0.267247 0.200202
0.406743 0.276685 0.205178
0.439104 0.287396 0.215076
0.471465 0.298107 0.224974
0.503826 0.308818 0.234872
0.536187 0.319529 0.244770
0.566133 0.331428 0.258071
0.591247 0.345705 0.278178
0.616361 0.359982 0.298286
0.641475 0.374259 0.318393
0.666590 0.388536 0.338500
0.689825 0.403280 0.359269
0.703666 0.420363 0.383347
0.717507 0.437445 0.407424
0.731348 0.454527 0.431502
0.745189 0.471610 0.455579
0.759030 0.488692 0.479657
0.105502 0.152672 0.195084
0.111781 0.158690 0.198559
0.118060 0.164708 0.202034
0.124338 0.170726 0.205509
0.130617 0.176744 0.208983
0.136895 0.182762 0.212458
0.153442 0.193827 0.213935
0.172043 0.205903 0.215013
0.190644 0.217978 0.216091
0.209245 0.230053 0.217169
0.227846 0.242129 0.218247
0.255053 0.251840 0.218427
0.286563 0.260369 0.218157
0.318073 0.268898 0.217887
0.349584 0.277427 0.217617
0.381094 0.285956 0.217347
0.413408 0.295495 0.221890
0.446525 0.306044 0.231245
0.479642 0.316593 0.240601
0.512759 0.327142 0.249956
0.545876 0.337691 0.259311
0.576495 0.349355 0.272216
0.602115 0.363248 0.292220
0.627736 0.377140 0.312223
0.653356 0.391033 0.332227
0.678977 0.404926 0.352230
0.702636 0.419283 0.372918
0.716492 0.435959 0.397026
0.730349 0.452636 0.421134
0.744205 0.469313 0.445242
0.758061 0.485990 0.469350
0.771917 0.502667 0.493458
0.114672 0.165198 0.209689
0.121152 0.171380 0.213484
0.127631 0.177563 0.217279
0.134111 0.183745 0.221074
0.140591 0.189928 0.224869
0.147071 0.196110 0.228664
0.163743 0.207882 0.231246
0.182454 0.220771 0.233587
0.201164 0.233661 0.235927
0.219875 0.246550 0.238268
0.238586 0.259440 0.240608
0.265152 0.269727 0.241080
0.295647 0.278714 0.240618
0.326142 0.287700 0.240156
0.356637 0.296686 0.239694
0.387132 0.305673 0.239232
0.419281 0.315376 0.243322
0.453084 0.325797 0.251964
0.486887 0.336219 0.260606
0.520691 0.346640 0.269247
0.554494 0.357061 0.277889
0.585713 0.368496 0.290205
0.611763 0.381958 0.309871
0.637814 0.395421 0.329536
0.663864 0.408884 0.349201
0.689914 0.422347 0.368866
0.713946 0.436237 0.389201
0.727885 0.452264 0.412888
0.741823 0.468291 0.436576
0.755762 0.484319 0.460263
0.769700 0.500346 0.483950
0.783639 0.516373 0.507637
0.123841 0.177723 0.224294
0.130522 0.184070 0.228409
0.137203 0.190417 0.232524
0.143884 0.196764 0.236639
0.150565 0.203111 0.240754
0.157246 0.209459 0.244869
0.174044 0.221936 0.248557
0.192864 0.235640 0.252160
0.211685 0.249343 0.255763
0.230505 0.263047 0.259366
0.249325 0.276751 0.262969
0.275252 0.287615 0.263733
0.304731 0.297058 0.263079
0.334211 0.306502 0.262425
0.363690 0.315946 0.261771
0.393169 0.325390 0.261117
0.425154 0.335258 0.264754
0.459643 0.345551 0.272682
0.494132 0.355844 0.280611
0.528622 0.366137 0.288539
0.563111 0.376430 0.296467
0.594931 0.387636 0.308195
0.621411 0.400669 0.327522
0.647892 0.413702 0.346848
0.674372 0.426735 0.366175
0.700852 0.439768 0.385501
0.725256 0.453191 0.405485
0.739277 0.468569 0.428751
0.753298 0.483947 0.452017
0.767319 0.499324 0.475284
0.781339 0.514702 0.498550
0.795360 0.530080 0.521817
0.133010 0.190248 0.238899
0.139893 0.196760 0.243334
0.146775 0.203271 0.247769
0.153657 0.209783 0.252204
0.160540 0.216295 0.256640
0.167422 0.222807 0.261075
0.184344 0.235990 0.265869
0.203274 0.250508 0.270734
0.222205 0.265026 0.275599
0.241135 0.279544 0.280464
0.260065 0.294062 0.285329
0.285351 0.305502 0.286387
0.313815 0.315403 0.285541
0.342279 0.325304 0.284695
0.370743 0.335205 0.283848
0.399207 0.345107 0.283002
0.431027 0.355140 0.286186
0.466202 0.365305 0.293401
0.501378 0.375469 0.300616
0.536553 0.385634 0.307831
0.571729 0.395799 0.315045
0.604149 0.406777 0.326184
0.631059 0.419380 0.345173
0.657970 0.431983 0.364161
0.684880 0.444585 0.383149
0.711790 0.457188 0.402137
0.736566 0.470145 0.421768
0.750669 0.484874 0.444614
0.764772 0.499602 0.467459
0.778876 0.514330 0.490305
0.792979 0.529058 0.513150
0.807082 0.543787 0.535996
0.142180 0.202773 0.253503
0.149263 0.209449 0.258259
0.156347 0.216126 0.263014
0.163430 0.222802 0.267770
0.170514 0.229479 0.272525
0.177598 0.236155 0.277281
0.194645 0.250045 0.283180
0.213685 0.265377 0.289307
0.232725 0.280709 0.295435
0.251765 0.296041 0.301562
0.270805 0.311373 0.307690
0.295451 0.323389 0.309040
0.322899 0.333748 0.308002
0.350348 0.344106 0.306964
0.377796 0.354465 0.305925
0.405245 0.364823 0.304887
0.436900 0.375021 0.307619
0.472761 0.385058 0.314120
0.508623 0.395095 0.320621
0.544484 0.405132 0.327122
0.580346 0.415169 0.333623
0.613367 0.425917 0.344174
0.640707 0.438090 0.362824
0.668048 0.450263 0.381473
0.695388 0.462436 0.400123
0.722728 0.474609 0.418773
0.747876 0.487100 0.438052
0.762062 0.501178 0.460476
0.776247 0.515257 0.482901
0.790432 0.529336 0.505326
0.804618 0.543415 0.527751
0.818803 0.557493 0.550175
0.154303 0.217779 0.269715
0.161570 0.224579 0.274754
0.168836 0.231379 0.279793
0.176103 0.238179 0.284832
0.183369 0.244979 0.289871
0.190636 0.251779 0.294910
0.207824 0.266112 0.301912
0.226997 0.281952 0.309307
0.246169 0.297792 0.316702
0.265342 0.313632 0.324096
0.284515 0.329471 0.331491
0.308762 0.342069 0.333821
0.335548 0.353045 0.333620
0.362333 0.364021 0.333419
0.389118 0.374997 0.333218
0.415904 0.385973 0.333016
0.447087 0.396269 0.335675
0.482670 0.405885 0.341192
0.518253 0.415501 0.346710
0.553835 0.425117 0.352228
0.589418 0.434733 0.357746
0.622326 0.445026 0.367295
0.649886 0.456673 0.384906
0.677446 0.468320 0.402517
0.705006 0.479967 0.420129
0.732565 0.491614 0.437740
0.757889 0.503544 0.455997
0.772034 0.516891 0.477479
0.786178 0.530238 0.498962
0.800322 0.543585 0.520444
0.814467 0.556932 0.541927
0.828611 0.570278 0.563409
0.169380 0.235267 0.287534
0.176812 0.242150 0.292820
0.184243 0.249032 0.298106
0.191674 0.255914 0.303392
0.199105 0.262797 0.308678
0.206536 0.269679 0.313964
0.223882 0.284193 0.322067
0.243210 0.300234 0.330733
0.262538 0.316275 0.339399
0.281866 0.332316 0.348065
0.301194 0.348357 0.356732
0.325287 0.361540 0.360730
0.351761 0.373294 0.362395
0.378235 0.385047 0.364060
0.404709 0.396801 0.365725
0.431184 0.408555 0.367390
0.461590 0.418883 0.370355
0.495929 0.427785 0.374619
0.530267 0.436688 0.378884
0.564605 0.445590 0.383148
0.598944 0.454493 0.387413
0.631026 0.464103 0.395547
0.658595 0.475128 0.411420
0.686164 0.486152 0.427293
0.713733 0.497177 0.443167
0.741302 0.508202 0.459040
0.766606 0.519478 0.475604
0.780585 0.532011 0.495623
0.794565 0.544544 0.515642
0.808545 0.557076 0.535660
0.822524 0.569609 0.555679
0.836504 0.582142 0.575698
0.184458 0.252755 0.305353
0.192054 0.259720 0.310886
0.199650 0.266684 0.316419
0.207245 0.273649 0.321952
0.214841 0.280614 0.327485
0.222437 0.287578 0.333018
0.239940 0.302274 0.342221
0.259423 0.318517 0.352159
0.278907 0.334759 0.362097
0.298391 0.351001 0.372035
0.317874 0.367243 0.381972
0.341811 0.381012 0.387639
0.367974 0.393543 0.391170
0.394137 0.406074 0.394701
0.420301 0.418605 0.398232
0.446464 0.431136 0.401764
0.476093 0.441497 0.405035
0.509187 0.449685 0.408046
0.542281 0.457874 0.411057
0.575376 0.466063 0.414068
0.608470 0.474252 0.417080
0.639726 0.483179 0.423799
0.667304 0.493582 0.437934
0.694882 0.503985 0.452069
0.722460 0.514388 0.466204
0.750038 0.524790 0.480339
0.775322 0.535412 0.495211
0.789137 0.547131 0.513766
0.802952 0.558850 0.532321
0.816767 0.570568 0.550877
0.830582 0.582287 0.569432
0.844397 0.594005 0.587987
0.199535 0.270243 0.323171
0.207296 0.277290 0.328951
0.215056 0.284337 0.334731
0.222817 0.291384 0.340511
0.230577 0.298431 0.346291
0.238338 0.305478 0.352071
0.255997 0.320355 0.362376
0.275637 0.336799 0.373585
0.295276 0.353242 0.384795
0.314915 0.369686 0.396004
0.334554 0.386129 0.407213
0.358335 0.400483 0.414548
0.384187 0.413792 0.419945
0.410040 0.427101 0.425342
0.435892 0.440409 0.430740
0.461744 0.453718 0.436137
0.490595 0.464110 0.439715
0.522445 0.471586 0.441473
0.554296 0.479061 0.443231
0.586146 0.486537 0.444988
0.617996 0.494012 0.446746
0.648425 0.502256 0.452051
0.676013 0.512037 0.464448
0.703600 0.521817 0.476845
0.731187 0.531598 0.489242
0.758774 0.541379 0.501639
0.784039 0.551347 0.514818
0.797689 0.562251 0.531910
0.811339 0.573156 0.549001
0.824990 0.584060 0.566093
0.838640 0.594964 0.583184
0.852290 0.605869 0.600276
0.214613 0.287731 0.340990
0.222538 0.294860 0.347017
0.230463 0.301990 0.353044
0.238388 0.309119 0.359071
0.246313 0.316248 0.365098
0.254239 0.323378 0.371125
0.272055 0.338436 0.382530
0.291850 0.355081 0.395011
0.311644 0.371726 0.407492
0.331439 0.388371 0.419973
0.351234 0.405015 0.432454
0.374860 0.419955 0.441457
0.400401 0.434041 0.448720
0.425942 0.448127 0.455984
0.451483 0.462214 0.463247
0.477024 0.476300 0.470511
0.505098 0.486724 0.474395
0.535704 0.493486 0.474899
0.566310 0.500248 0.475404
0.596916 0.507010 0.475909
0.627522 0.513772 0.476413
0.657125 0.521332 0.480303
0.684721 0.530491 0.490962
0.712318 0.539650 0.501621
0.739914 0.548808 0.512280
0.767511 0.557967 0.522938
0.792755 0.567281 0.534426
0.806241 0.577371 0.550053
0.819727 0.587461 0.565681
0.833212 0.597552 0.581309
0.846698 0.607642 0.596937
0.860184 0.617732 0.612564
0.231045 0.305817 0.359030
0.239095 0.313023 0.365267
0.247145 0.320229 0.371504
0.255196 0.327434 0.377742
0.263246 0.334640 0.383979
0.271296 0.341845 0.390216
0.289230 0.357013 0.402429
0.309140 0.373774 0.415837
0.329051 0.390535 0.429245
0.348962 0.407295 0.442653
0.368872 0.424056 0.456061
0.392276 0.439337 0.466358
0.417427 0.453877 0.475101
0.442578 0.468418 0.483843
0.467729 0.482959 0.492586
0.492880 0.497499 0.501328
0.520159 0.507977 0.505735
0.549567 0.514391 0.505807
0.578974 0.520805 0.505878
0.608382 0.527220 0.505950
0.637790 0.533634 0.506022
0.666530 0.540705 0.508985
0.693934 0.549089 0.517732
0.721338 0.557473 0.526479
0.748743 0.565857 0.535226
0.776147 0.574241 0.543973
0.801200 0.582782 0.553606
0.814496 0.592104 0.567666
0.827793 0.601425 0.581727
0.841090 0.610747 0.595787
0.854386 0.620069 0.609848
0.867683 0.629391 0.623908
0.250187 0.325101 0.377510
0.258283 0.332371 0.383885
0.266379 0.339641 0.390259
0.274475 0.346910 0.396634
0.282571 0.354180 0.403008
0.290667 0.361449 0.409383
0.308639 0.376582 0.421817
0.328586 0.393288 0.435463
0.348533 0.409994 0.449108
0.368480 0.426700 0.462754
0.388428 0.443405 0.476400
0.411478 0.458540 0.487246
0.436080 0.472888 0.496693
0.460682 0.487237 0.506140
0.485284 0.501586 0.515587
0.509886 0.515934 0.525034
0.536337 0.526508 0.530397
0.564638 0.533306 0.531676
0.592939 0.540105 0.532955
0.621240 0.546903 0.534234
0.649540 0.553702 0.535513
0.677344 0.560669 0.538529
0.704154 0.567973 0.545016
0.730963 0.575278 0.551504
0.757773 0.582583 0.557991
0.784583 0.589887 0.564478
0.809101 0.597415 0.571932
0.822159 0.606060 0.584218
0.835218 0.614705 0.596504
0.848277 0.623350 0.608789
0.861336 0.631995 0.621075
0.874394 0.640640 0.633361
0.269329 0.344385 0.395990
0.277471 0.351719 0.402502
0.285613 0.359053 0.409014
0.293754 0.366386 0.415526
0.301896 0.373720 0.422038
0.310038 0.381054 0.428550
0.328048 0.396151 0.441205
0.348032 0.412802 0.455088
0.368015 0.429453 0.468972
0.387999 0.446104 0.482855
0.407983 0.462755 0.496739
0.430680 0.477743 0.508134
0.454733 0.491899 0.518285
0.478786 0.506056 0.528437
0.502839 0.520212 0.538588
0.526892 0.534369 0.548739
0.552515 0.545038 0.555058
0.579709 0.552221 0.557545
0.606903 0.559404 0.560031
0.634097 0.566586 0.562518
0.661291 0.573769 0.565005
0.688159 0.580633 0.568072
0.714374 0.586858 0.572300
0.740589 0.593083 0.576528
0.766804 0.599308 0.580756
0.793019 0.605534 0.584984
0.817002 0.612049 0.590259
0.829822 0.620017 0.600770
0.842643 0.627985 0.611281
0.855464 0.635953 0.621792
0.868285 0.643921 0.632303
0.881106 0.651889 0.642814
0.288471 0.363669 0.414471
0.296659 0.371067 0.421120
0.304846 0.378465 0.427769
0.313034 0.385862 0.434418
0.321221 0.393260 0.441067
0.329409 0.400658 0.447716
0.347457 0.415721 0.460592
0.367477 0.432317 0.474714
0.387498 0.448912 0.488835
0.407518 0.465508 0.502956
0.427538 0.482104 0.517078
0.449881 0.496946 0.529022
0.473385 0.510910 0.539878
0.496890 0.524875 0.550733
0.520394 0.538839 0.561589
0.543898 0.552804 0.572445
0.568694 0.563569 0.579719
0.594781 0.571136 0.583414
0.620868 0.578703 0.587108
0.646955 0.586270 0.590802
0.673042 0.593837 0.594496
0.698973 0.600597 0.597615
0.724593 0.605742 0.599584
0.750214 0.610888 0.601552
0.775834 0.616034 0.603520
0.801455 0.621180 0.605489
0.824902 0.626683 0.608585
0.837485 0.633974 0.617321
0.850068 0.641265 0.626058
0.862651 0.648556 0.634794
0.875235 0.655847 0.643530
0.887818 0.663138 0.652267
0.307614 0.382953 0.432951
0.315847 0.390415 0.439738
0.324080 0.397877 0.446524
0.332313 0.405338 0.453310
0.340546 0.412800 0.460096
0.348779 0.420262 0.466883
0.366866 0.435290 0.479980
0.386923 0.451831 0.494339
0.406980 0.468372 0.508698
0.427037 0.484913 0.523058
0.447094 0.501454 0.537417
0.469083 0.516149 0.549910
0.492038 0.529921 0.561470
0.514993 0.543694 0.573030
0.537949 0.557466 0.584590
0.560904 0.571238 0.596150
0.584872 0.582100 0.604381
0.609852 0.590051 0.609283
0.634832 0.598002 0.614184
0.659812 0.605953 0.619086
0.684792 0.613904 0.623988
0.709787 0.620561 0.627159
0.734813 0.624627 0.626868
0.759839 0.628693 0.626576
0.784865 0.632759 0.626285
0.809891 0.636826 0.625994
0.832803 0.641317 0.626912
0.845148 0.647931 0.633873
0.857494 0.654545 0.640835
0.869839 0.661159 0.647796
0.882184 0.667773 0.654758
0.894529 0.674387 0.661720
0.326748 0.401914 0.451550
0.335057 0.409455 0.458460
0.343367 0.416996 0.465369
0.351676 0.424537 0.472279
0.359985 0.432078 0.479189
0.368295 0.439619 0.486099
0.386385 0.454547 0.499309
0.406431 0.470952 0.513780
0.426478 0.487358 0.528250
0.446524 0.503763 0.542721
0.466570 0.520169 0.557192
0.488156 0.534642 0.570062
0.510512 0.548149 0.582133
0.532869 0.561656 0.594204
0.555225 0.575163 0.606274
0.577581 0.588670 0.618345
0.600685 0.599547 0.627338
0.624537 0.607796 0.633252
0.648388 0.616044 0.639166
0.672240 0.624293 0.645080
0.696092 0.632541 0.650994
0.720112 0.639122 0.654254
0.744467 0.642368 0.652205
0.768822 0.645614 0.650156
0.793177 0.648860 0.648107
0.817532 0.652106 0.646058
0.839865 0.655806 0.645228
0.852088 0.661779 0.650499
0.864311 0.667751 0.655770
0.876534 0.673723 0.661041
0.888758 0.679695 0.666311
0.900981 0.685667 0.671582
0.345843 0.419260 0.470739
0.354381 0.426957 0.477704
0.362919 0.434653 0.484669
0.371457 0.442350 0.491633
0.379995 0.450046 0.498598
0.388533 0.457743 0.505563
0.406456 0.472247 0.518348
0.426255 0.488113 0.532297
0.446054 0.503978 0.546246
0.465854 0.519844 0.560195
0.485653 0.535710 0.574144
0.506589 0.549582 0.586536
0.528095 0.562458 0.598150
0.549600 0.575333 0.609763
0.571106 0.588209 0.621376
0.592611 0.601085 0.632990
0.614672 0.611579 0.641772
0.637289 0.619690 0.647722
0.659906 0.627801 0.653673
0.682523 0.635912 0.659624
0.705140 0.644023 0.665575
0.727985 0.650671 0.669109
