filter/Red and Blue 3/lut/Spotlight 05.cube
# LUT by SparkleStock. Enhanced with VOXCOLOR algorithms.
LUT_3D_SIZE 5
DOMAIN_MIN 0.000000 0.000000 0.000000
DOMAIN_MAX 0.903226 0.903226 0.903226
0.070330 0.093773 0.125031
0.125188 0.110867 0.144236
0.262460 0.158620 0.184552
0.434401 0.246973 0.256993
0.589956 0.345512 0.350979
0.085368 0.121391 0.156446
0.139442 0.152703 0.192086
0.295503 0.210463 0.240901
0.495786 0.304034 0.314650
0.656946 0.405966 0.407246
0.133357 0.189484 0.239490
0.199059 0.243067 0.293048
0.352289 0.318902 0.361708
0.585653 0.407716 0.421643
0.754922 0.506709 0.508681
0.233290 0.302777 0.362976
0.310382 0.370113 0.425648
0.466887 0.474801 0.524394
0.660485 0.529491 0.557025
0.826132 0.600457 0.605577
0.366639 0.433912 0.494608
0.447830 0.502963 0.556079
0.588427 0.599330 0.643399
0.736371 0.660061 0.692796
0.871646 0.692348 0.695816
0.071874 0.121336 0.183056
0.143267 0.152798 0.200942
0.309456 0.210221 0.238996
0.501130 0.302458 0.311686
0.658167 0.405486 0.406245
0.112549 0.167899 0.223114
0.180511 0.217632 0.267774
0.341984 0.282913 0.319920
0.543728 0.362495 0.376393
0.698307 0.452637 0.454284
0.191532 0.256926 0.312626
0.261439 0.315315 0.366730
0.404179 0.400074 0.445160
0.614185 0.464984 0.486429
0.772202 0.541378 0.543920
0.305008 0.374049 0.432215
0.377701 0.432909 0.485632
0.512184 0.528697 0.574072
0.676458 0.585412 0.615700
0.830527 0.630443 0.634586
0.443037 0.502151 0.556015
0.504660 0.549319 0.597796
0.625003 0.634446 0.674687
0.751699 0.693181 0.721899
0.873587 0.720687 0.723188
0.084635 0.184324 0.310544
0.162935 0.238105 0.347418
0.378334 0.314675 0.362727
0.608930 0.403896 0.413536
0.755504 0.500194 0.500662
0.149831 0.250355 0.365062
0.227831 0.310886 0.407293
0.413380 0.394350 0.447484
0.630799 0.460812 0.478968
0.775977 0.537543 0.539783
0.279323 0.370290 0.457510
0.354303 0.425643 0.496454
0.483354 0.511337 0.559615
0.661995 0.560345 0.590136
0.808032 0.607783 0.613229
0.417638 0.492024 0.561830
0.486629 0.538276 0.595337
0.590890 0.613121 0.655101
0.706135 0.668123 0.697395
0.844025 0.686877 0.691391
0.554436 0.599822 0.654878
0.604607 0.633591 0.679889
0.685031 0.693011 0.728885
0.776334 0.743528 0.767044
0.879171 0.771077 0.770931
0.125432 0.280326 0.483162
0.203996 0.341714 0.533805
0.390160 0.447332 0.587849
0.691422 0.507727 0.529387
0.827410 0.581357 0.585514
0.200934 0.346489 0.536472
0.276852 0.406211 0.576086
0.440949 0.506729 0.629983
0.699330 0.563626 0.593144
0.838507 0.614674 0.618441
0.345610 0.470300 0.623483
0.413392 0.518070 0.648869
0.539427 0.601118 0.690039
0.709989 0.656589 0.691847
0.848936 0.675613 0.681174
0.485966 0.580075 0.689984
0.550481 0.617857 0.704880
0.656003 0.682570 0.734607
0.729571 0.726266 0.755707
0.856674 0.742584 0.748390
0.611934 0.663186 0.744094
0.658722 0.692039 0.756396
0.733300 0.742191 0.782450
0.797134 0.788355 0.809398
0.885888 0.816903 0.815309
0.209547 0.389846 0.650408
0.278381 0.442770 0.692288
0.422063 0.534226 0.747807
0.618378 0.605496 0.747451
0.838556 0.642467 0.672907
0.275760 0.442947 0.688791
0.343112 0.491739 0.720688
0.474066 0.575097 0.768283
0.644678 0.641252 0.770905
0.849178 0.674161 0.700884
0.403990 0.541658 0.751786
0.464439 0.580440 0.771930
0.571237 0.648589 0.802224
0.693613 0.706472 0.810625
0.859008 0.733479 0.755832
0.533158 0.628408 0.796925
0.581840 0.659959 0.807842
0.666254 0.716268 0.826454
0.747794 0.767835 0.838458
0.868429 0.797199 0.812206
0.634896 0.695042 0.823868
0.672003 0.721609 0.831608
0.740301 0.770186 0.845098
0.813897 0.818633 0.856682
0.894644 0.857360 0.858581
