filter/Red and Blue 3/lut/Spotlight 03.cube
# LUT by SparkleStock. Enhanced with VOXCOLOR algorithms.
LUT_3D_SIZE 8
DOMAIN_MIN 0.000000 0.000000 0.000000
DOMAIN_MAX 0.903226 0.903226 0.903226
0.078144 0.062515 0.113309
0.106503 0.063082 0.117657
0.191106 0.069140 0.122541
0.316594 0.083130 0.131112
0.463185 0.105983 0.145528
0.583804 0.135287 0.166891
0.656371 0.164749 0.191563
0.704478 0.198645 0.218024
0.081547 0.068943 0.123329
0.100392 0.076097 0.132947
0.184605 0.084802 0.139782
0.315655 0.099755 0.148511
0.470515 0.123523 0.162506
0.596843 0.153998 0.183577
0.672069 0.186704 0.209054
0.721036 0.224022 0.237808
0.090842 0.086754 0.145937
0.108675 0.100598 0.160617
0.178381 0.119030 0.177715
0.304218 0.140710 0.192331
0.474606 0.165444 0.203274
0.616077 0.198230 0.222601
0.699595 0.236099 0.249765
0.753228 0.281270 0.284068
0.105558 0.117681 0.183024
0.126793 0.138197 0.202558
0.187288 0.171845 0.234127
0.304529 0.206055 0.260358
0.477027 0.234102 0.272244
0.638623 0.266498 0.284593
0.733444 0.307300 0.310086
0.793325 0.359162 0.348371
0.126425 0.163338 0.235181
0.152692 0.190368 0.259289
0.219993 0.242050 0.305618
0.331470 0.293992 0.348372
0.484753 0.330686 0.370146
0.663346 0.357594 0.369780
0.769217 0.395575 0.387116
0.834808 0.448143 0.423676
0.161022 0.229509 0.301729
0.194754 0.262539 0.329643
0.272112 0.326755 0.385065
0.387334 0.399224 0.445676
0.532896 0.459118 0.490210
0.695827 0.475926 0.482380
0.804211 0.500392 0.482614
0.871589 0.541062 0.506014
0.218465 0.309859 0.374264
0.258685 0.346938 0.405618
0.344779 0.416983 0.464238
0.461163 0.496035 0.529197
0.594094 0.563424 0.581611
0.731119 0.593917 0.594125
0.835328 0.604463 0.579455
0.900365 0.626932 0.584388
0.295837 0.397140 0.450148
0.342748 0.436928 0.484154
0.431363 0.505624 0.539755
0.541317 0.580390 0.599608
0.656227 0.643184 0.649394
0.764978 0.679355 0.674179
0.855164 0.688966 0.663779
0.916722 0.703038 0.660224
0.077388 0.068187 0.135429
0.105600 0.075194 0.135825
0.195034 0.083545 0.138623
0.326669 0.098182 0.146060
0.477797 0.121785 0.159670
0.598855 0.151967 0.180741
0.671739 0.185234 0.207316
0.720695 0.225107 0.238259
0.085328 0.082519 0.146620
0.105387 0.099852 0.159764
0.188325 0.113947 0.170709
0.319648 0.131295 0.181562
0.478480 0.155699 0.194213
0.609439 0.184559 0.211478
0.686720 0.216878 0.234307
0.736308 0.254596 0.262661
0.099057 0.106678 0.171436
0.119945 0.129866 0.191021
0.188040 0.158465 0.217042
0.311709 0.185697 0.237434
0.482371 0.208676 0.246706
0.627850 0.237114 0.259276
0.713086 0.271165 0.280470
0.766763 0.312950 0.310596
0.119261 0.143253 0.210730
0.145119 0.170440 0.233848
0.205102 0.214552 0.274014
0.318288 0.256263 0.307967
0.485726 0.284468 0.322013
0.649244 0.309966 0.326398
0.744720 0.343921 0.343555
0.803867 0.389291 0.374524
0.147209 0.194179 0.264405
0.178736 0.225245 0.290496
0.245180 0.280734 0.339046
0.349785 0.338809 0.388055
0.492729 0.382931 0.419455
0.670978 0.402600 0.413730
0.776784 0.431400 0.421477
0.841068 0.474689 0.448157
0.189271 0.263570 0.331832
0.227016 0.297804 0.360029
0.302271 0.361147 0.413725
0.409704 0.432705 0.473545
0.543455 0.493440 0.520694
0.697430 0.515361 0.522009
0.806202 0.532327 0.514789
0.873680 0.563694 0.527969
0.252959 0.345188 0.405246
0.294907 0.380072 0.433577
0.376746 0.446340 0.488530
0.484639 0.521630 0.550526
0.606753 0.586815 0.602142
0.734046 0.619475 0.619515
0.835051 0.628419 0.605285
0.899216 0.646102 0.604907
0.339107 0.435092 0.483355
0.378317 0.465366 0.508258
0.460843 0.528712 0.559371
0.564054 0.600216 0.616806
0.670447 0.660548 0.664753
0.771181 0.696195 0.690095
0.856678 0.706794 0.682952
0.916004 0.718949 0.677705
0.081319 0.079483 0.181386
0.103268 0.092827 0.185917
0.194646 0.112547 0.184141
0.335452 0.135157 0.184983
0.499956 0.159186 0.194549
0.626119 0.190557 0.214083
0.701221 0.229150 0.243217
0.752316 0.277886 0.281083
0.090894 0.099542 0.196236
0.110463 0.124061 0.211362
0.193883 0.153543 0.223506
0.330531 0.180924 0.232487
0.500085 0.203263 0.239582
0.636007 0.230900 0.252440
0.715383 0.265770 0.275256
0.766650 0.309374 0.307507
0.110193 0.139035 0.225601
0.135824 0.168811 0.246135
0.205387 0.211631 0.275987
0.328564 0.249949 0.300421
0.498579 0.274574 0.311364
0.648327 0.300101 0.318582
0.736733 0.330873 0.333865
0.791975 0.370700 0.360285
0.139721 0.191123 0.268563
0.173288 0.223116 0.291903
0.236475 0.276824 0.334953
0.344473 0.328647 0.375523
0.499489 0.363438 0.398162
0.663998 0.385088 0.399123
0.762407 0.410711 0.405845
0.822569 0.447110 0.426375
0.180750 0.251894 0.324055
0.219650 0.285081 0.349300
0.289990 0.343734 0.396630
0.387361 0.407960 0.448903
0.511295 0.460231 0.489095
0.683122 0.476976 0.485392
0.789229 0.495822 0.482677
0.853415 0.527464 0.496487
0.241267 0.328445 0.392567
0.282972 0.361565 0.417977
0.358082 0.422025 0.466663
0.455855 0.490623 0.522423
0.569101 0.550392 0.569767
0.703387 0.578932 0.582793
0.810733 0.588360 0.569653
0.878748 0.608023 0.570649
0.319942 0.412679 0.465252
0.362067 0.444054 0.489324
0.437213 0.502012 0.535767
0.531607 0.568583 0.589754
0.634684 0.628324 0.637765
0.743146 0.663118 0.660287
0.836385 0.671872 0.649692
0.898777 0.683119 0.643183
0.416029 0.500981 0.539406
0.450926 0.525841 0.558954
0.520228 0.577173 0.599818
0.606717 0.637134 0.648049
0.696917 0.691142 0.691703
0.783510 0.725730 0.717127
0.859625 0.738712 0.715759
0.915041 0.748357 0.708955
0.089858 0.094592 0.247950
0.105952 0.113132 0.258787
0.185851 0.149193 0.262393
0.331428 0.187225 0.258173
0.524085 0.217942 0.250406
0.660140 0.248862 0.265330
0.738466 0.290826 0.294834
0.791695 0.346670 0.338056
0.100360 0.118566 0.266142
0.119825 0.148131 0.282683
0.195022 0.194792 0.300113
0.334352 0.239015 0.307992
0.524751 0.269140 0.303362
0.669017 0.293474 0.308342
0.751108 0.329563 0.329465
0.804100 0.378458 0.365214
0.125320 0.173198 0.300802
0.153595 0.206971 0.320448
0.221570 0.263546 0.352227
0.344866 0.318365 0.378706
0.519959 0.355191 0.389180
0.675700 0.375252 0.388544
0.766957 0.401812 0.397118
0.823455 0.440101 0.420441
0.164539 0.243450 0.347185
0.202009 0.277823 0.368199
0.270076 0.339737 0.409159
0.376009 0.403718 0.451555
0.520122 0.450571 0.480198
0.683889 0.468425 0.479003
0.784296 0.485974 0.476221
0.845442 0.514237 0.487307
0.218809 0.319066 0.402115
0.262251 0.352672 0.423470
0.340668 0.413541 0.465749
0.434378 0.481115 0.515338
0.537315 0.537095 0.557699
0.696128 0.556222 0.562256
0.801544 0.567540 0.552469
0.866669 0.588224 0.554263
0.297061 0.402874 0.468444
0.342070 0.434005 0.489482
0.420798 0.491163 0.530816
0.511779 0.555224 0.579040
0.603136 0.610842 0.622237
0.713095 0.644719 0.644618
0.816511 0.649418 0.629783
0.884832 0.659232 0.621056
0.392282 0.488908 0.537248
0.434688 0.516554 0.556569
0.506049 0.566316 0.593339
0.588273 0.623062 0.636959
0.669733 0.674515 0.677905
0.756240 0.709726 0.703427
0.838990 0.719696 0.698313
0.898915 0.725742 0.687310
0.496622 0.572262 0.603211
0.529975 0.593711 0.618780
0.588548 0.633736 0.649127
0.658159 0.681153 0.686352
0.728634 0.726359 0.722982
0.798760 0.758595 0.747665
0.863356 0.774382 0.752315
0.914087 0.782448 0.744942
0.103116 0.112340 0.330970
0.117856 0.134356 0.346144
0.172128 0.187307 0.369106
0.310471 0.247011 0.368624
0.534570 0.295505 0.335353
0.694574 0.324175 0.333737
0.778203 0.365261 0.358213
0.832500 0.422820 0.402198
0.115282 0.138692 0.350278
0.136340 0.171762 0.368238
0.192347 0.231418 0.397500
0.324264 0.297009 0.409856
0.535733 0.350795 0.392710
0.701186 0.371065 0.380357
0.788249 0.404404 0.394360
0.842212 0.453467 0.429510
0.145562 0.202494 0.389385
0.172888 0.238074 0.407922
0.233987 0.304531 0.441774
0.354474 0.378870 0.469505
0.536764 0.439793 0.476747
0.705953 0.454159 0.462329
0.799885 0.474905 0.462065
0.856348 0.510450 0.481892
0.192863 0.287966 0.437911
0.227226 0.322305 0.455268
0.299218 0.390225 0.490800
0.406187 0.466506 0.529221
0.544092 0.528603 0.556618
0.707642 0.544957 0.551886
0.808117 0.555792 0.541514
0.869230 0.577898 0.545775
0.256826 0.381501 0.489283
0.298849 0.414044 0.504660
0.385578 0.475750 0.538765
0.480097 0.542939 0.579181
0.567426 0.597176 0.614712
0.708469 0.624721 0.629772
0.811701 0.632206 0.617674
0.878264 0.644235 0.610508
0.343713 0.470212 0.548147
0.390009 0.499388 0.564270
0.475058 0.553862 0.596787
0.564915 0.612928 0.634527
0.640561 0.661960 0.668858
0.725979 0.697824 0.694276
0.822541 0.702080 0.683039
0.890506 0.706506 0.669633
0.450345 0.555798 0.608953
0.493439 0.580242 0.623488
0.566235 0.624883 0.651704
0.642328 0.673868 0.684713
0.706134 0.715978 0.715635
0.771469 0.748892 0.740199
0.842506 0.761114 0.741021
0.899580 0.764979 0.728600
0.558584 0.631984 0.664184
0.592245 0.650618 0.675548
0.648236 0.684652 0.698363
0.708056 0.723649 0.726169
0.760569 0.759669 0.753677
0.814520 0.788350 0.776405
0.867454 0.806424 0.785504
0.913489 0.814618 0.778974
0.123156 0.133893 0.423420
0.139360 0.158104 0.440496
0.188875 0.219679 0.473033
0.291297 0.301387 0.500837
0.460709 0.382594 0.501998
0.714974 0.413752 0.425442
0.816265 0.449520 0.431207
0.869416 0.499882 0.468996
0.137372 0.160830 0.441411
0.161253 0.195529 0.460139
0.213703 0.261636 0.495275
0.313806 0.344416 0.527475
0.475956 0.425532 0.535739
0.720712 0.458376 0.471449
0.822661 0.486095 0.467459
0.876119 0.527423 0.494576
0.174263 0.230194 0.481170
0.202881 0.266516 0.499103
0.262485 0.336704 0.534146
0.360451 0.420933 0.570155
0.504911 0.499490 0.589279
0.723917 0.537397 0.549780
0.828273 0.552435 0.533819
0.884844 0.578440 0.543291
0.230297 0.324131 0.531221
0.262242 0.357767 0.547020
0.330018 0.426380 0.579412
0.424553 0.506484 0.615740
0.544509 0.578347 0.642476
0.724769 0.621076 0.630435
0.830158 0.626202 0.608289
0.891490 0.637807 0.601699
0.301742 0.426540 0.582556
0.336915 0.456594 0.595751
0.411772 0.516197 0.623474
0.501946 0.584399 0.655531
0.595851 0.645158 0.682799
0.725912 0.688779 0.692703
0.827719 0.691401 0.674855
0.893921 0.694614 0.659710
0.384971 0.518617 0.629857
0.424643 0.545305 0.640399
0.505993 0.597434 0.663535
0.598700 0.655475 0.691028
0.680398 0.704794 0.716274
0.741916 0.737811 0.733931
0.828384 0.743966 0.728124
0.895351 0.746380 0.713311
0.487090 0.601471 0.678246
0.526429 0.623238 0.687578
0.598853 0.664904 0.706926
0.677887 0.711413 0.730370
0.743891 0.751545 0.753122
0.787422 0.779875 0.771284
0.846449 0.793548 0.776000
0.901155 0.797586 0.764354
0.589931 0.670692 0.721524
0.623423 0.687589 0.728756
0.680625 0.719019 0.744289
0.741500 0.754869 0.764053
0.792047 0.787722 0.784644
0.829968 0.814929 0.803061
0.872227 0.833160 0.813397
0.914301 0.841920 0.808470
0.149340 0.162535 0.507204
0.167618 0.187722 0.524841
0.218601 0.253072 0.562501
0.309599 0.343275 0.604421
0.447774 0.440943 0.632438
0.656031 0.509352 0.602183
0.812083 0.532483 0.537277
0.896888 0.565200 0.527129
0.166337 0.189326 0.524000
0.192896 0.225189 0.544139
0.246590 0.293589 0.582345
0.335748 0.382361 0.624208
0.468300 0.476774 0.653197
0.666537 0.542317 0.629127
0.818945 0.562448 0.565681
0.902075 0.590185 0.551311
0.209534 0.260582 0.563928
0.240218 0.297602 0.582677
0.300722 0.368332 0.618638
0.389550 0.454969 0.658753
0.508816 0.540917 0.688701
0.683925 0.602169 0.676224
0.826720 0.618283 0.619130
0.906993 0.636561 0.597598
0.273315 0.357801 0.614671
0.305495 0.391288 0.630300
0.371369 0.458612 0.661437
0.458125 0.537940 0.696813
0.560608 0.611965 0.725154
0.704500 0.667769 0.725297
0.832396 0.681355 0.679975
0.909006 0.690452 0.652957
0.351680 0.464052 0.666015
0.384164 0.492881 0.678347
0.451027 0.549371 0.702773
0.532921 0.614850 0.730395
0.619095 0.675277 0.753622
0.726645 0.723896 0.763579
0.834715 0.737914 0.734885
0.906896 0.741627 0.707343
0.436128 0.558520 0.708950
0.469561 0.582377 0.717967
0.537413 0.629347 0.736477
0.618050 0.683057 0.757732
0.694621 0.731007 0.776392
0.756311 0.765867 0.788285
0.837808 0.782341 0.776848
0.903294 0.786456 0.755219
0.523570 0.634209 0.745613
0.557889 0.654263 0.753232
0.622021 0.692640 0.766994
0.694948 0.736189 0.782789
0.760206 0.774976 0.797398
0.805880 0.803679 0.808575
0.854417 0.822312 0.810166
0.904542 0.828387 0.796806
0.612267 0.696695 0.778243
0.643248 0.712609 0.783607
0.697910 0.742383 0.793552
0.757941 0.776547 0.805689
0.809767 0.808131 0.818144
0.847106 0.834558 0.829826
0.879140 0.855764 0.838438
0.915860 0.866634 0.834512
0.182591 0.199149 0.578707
0.203143 0.226099 0.597351
0.258043 0.294779 0.639339
0.345402 0.387988 0.689047
0.463888 0.489431 0.731552
0.620757 0.576514 0.742194
0.786678 0.609964 0.675521
0.894736 0.630084 0.621235
0.202515 0.227234 0.595680
0.230514 0.263173 0.616354
0.287107 0.333010 0.657055
0.372402 0.423015 0.704421
0.486302 0.519488 0.745231
0.634550 0.600400 0.755622
0.793793 0.631885 0.693330
0.899025 0.650647 0.640103
0.252013 0.299605 0.637086
0.283765 0.336555 0.656211
0.345185 0.405554 0.692570
0.429182 0.490096 0.734695
0.531655 0.575701 0.771169
0.661921 0.645729 0.781103
0.805343 0.674294 0.728254
0.903305 0.688677 0.676334
0.322532 0.397198 0.689053
0.354914 0.430338 0.704865
0.418734 0.493675 0.734758
0.499277 0.568343 0.769028
0.587915 0.639614 0.798534
0.696196 0.697919 0.808618
0.818087 0.723905 0.768772
0.906133 0.733853 0.720204
0.405582 0.502598 0.740059
0.436346 0.529815 0.752203
0.497164 0.581982 0.774584
0.570935 0.642232 0.799324
0.646902 0.698250 0.820052
0.732569 0.746108 0.830895
0.829989 0.770652 0.805889
0.906833 0.778321 0.763989
0.489689 0.594188 0.779432
0.518814 0.615734 0.788271
0.575231 0.657374 0.804297
0.643232 0.705552 0.821699
0.710669 0.750029 0.836122
0.770764 0.785601 0.845203
0.842191 0.809435 0.833447
0.906845 0.818295 0.802395
0.566736 0.663426 0.807837
0.595518 0.681423 0.814638
0.649007 0.715595 0.825704
0.711559 0.755026 0.837326
0.770844 0.791460 0.846835
0.818147 0.820676 0.853310
0.861646 0.843257 0.852491
0.909667 0.854263 0.834413
0.641701 0.719793 0.832143
0.667551 0.733940 0.836389
0.715071 0.761060 0.843524
0.769285 0.792791 0.851225
0.818799 0.822912 0.857885
0.857247 0.848912 0.863379
0.886756 0.871949 0.868081
0.920460 0.886961 0.861695
