filter/Red and Blue 3/lut/Spotlight 05.cube
# LUT by SparkleStock. Enhanced with VOXCOLOR algorithms.
LUT_3D_SIZE 32
0.070330 0.093773 0.125031
0.075245 0.095522 0.127205
0.080161 0.097270 0.129379
0.085076 0.099019 0.131553
0.089992 0.100768 0.133727
0.094907 0.102517 0.135901
0.109118 0.106471 0.139887
0.125188 0.110867 0.144236
0.141258 0.115263 0.148584
0.157328 0.119658 0.152932
0.173398 0.124054 0.157281
0.193974 0.131537 0.163425
0.216803 0.140565 0.170468
0.239631 0.149592 0.177510
0.262460 0.158620 0.184552
0.285289 0.167647 0.191595
0.309276 0.178944 0.200670
0.334420 0.192509 0.211777
0.359565 0.206073 0.222884
0.384710 0.219638 0.233991
0.409855 0.233203 0.245098
0.434401 0.246973 0.256993
0.457749 0.261152 0.270464
0.481098 0.275332 0.283934
0.504447 0.289511 0.297404
0.527796 0.303691 0.310875
0.550538 0.317815 0.324322
0.570247 0.331663 0.337650
0.589956 0.345512 0.350979
0.609666 0.359360 0.364307
0.629375 0.373209 0.377636
0.649084 0.387057 0.390965
0.071748 0.096703 0.128008
0.076453 0.098717 0.130557
0.081158 0.100731 0.133107
0.085863 0.102746 0.135656
0.090568 0.104760 0.138205
0.095273 0.106774 0.140754
0.109739 0.110856 0.144887
0.126156 0.115352 0.149336
0.142574 0.119849 0.153785
0.158991 0.124345 0.158234
0.175409 0.128841 0.162683
0.196436 0.136456 0.168928
0.219768 0.145630 0.176071
0.243100 0.154804 0.183214
0.266432 0.163978 0.190357
0.289764 0.173151 0.197500
0.314231 0.184580 0.206662
0.339833 0.198264 0.217842
0.365435 0.211948 0.229022
0.391037 0.225632 0.240203
0.416639 0.239316 0.251383
0.441545 0.253204 0.263324
0.465059 0.267503 0.276785
0.488572 0.281801 0.290246
0.512085 0.296099 0.303707
0.535599 0.310398 0.317169
0.558446 0.324603 0.330580
0.577963 0.338341 0.343744
0.597480 0.352080 0.356908
0.616998 0.365819 0.370072
0.636515 0.379558 0.383236
0.656032 0.393296 0.396400
0.073166 0.099634 0.130986
0.077660 0.101913 0.133910
0.082155 0.104192 0.136834
0.086650 0.106472 0.139759
0.091144 0.108751 0.142683
0.095639 0.111031 0.145607
0.110359 0.115241 0.149886
0.127124 0.119838 0.154436
0.143890 0.124435 0.158985
0.160655 0.129032 0.163535
0.177420 0.133629 0.168084
0.198898 0.141374 0.174430
0.222733 0.150695 0.181674
0.246569 0.160015 0.188917
0.270404 0.169335 0.196161
0.294239 0.178655 0.203405
0.319186 0.190217 0.212653
0.345246 0.204020 0.223907
0.371305 0.217823 0.235161
0.397365 0.231625 0.246414
0.423424 0.245428 0.257668
0.448690 0.259436 0.269654
0.472368 0.273853 0.283106
0.496046 0.288270 0.296558
0.519724 0.302687 0.310010
0.543402 0.317105 0.323462
0.566354 0.331390 0.336839
0.585680 0.345019 0.349838
0.605005 0.358648 0.362838
0.624330 0.372277 0.375837
0.643655 0.385906 0.388836
0.662980 0.399535 0.401835
0.074583 0.102564 0.133964
0.078868 0.105109 0.137263
0.083152 0.107653 0.140562
0.087436 0.110198 0.143862
0.091721 0.112743 0.147161
0.096005 0.115287 0.150460
0.110980 0.119626 0.154885
0.128093 0.124324 0.159536
0.145205 0.129021 0.164186
0.162318 0.133719 0.168836
0.179431 0.138416 0.173486
0.201361 0.146293 0.179933
0.225699 0.155760 0.187277
0.250037 0.165226 0.194621
0.274375 0.174693 0.201966
0.298714 0.184160 0.209310
0.324141 0.195854 0.218645
0.350658 0.209775 0.229972
0.377175 0.223697 0.241299
0.403692 0.237619 0.252626
0.430209 0.251540 0.263952
0.455834 0.265667 0.275984
0.479677 0.280203 0.289427
0.503520 0.294739 0.302870
0.527362 0.309275 0.316313
0.551205 0.323812 0.329756
0.574263 0.338178 0.343098
0.593396 0.351697 0.355932
0.612529 0.365217 0.368767
0.631662 0.378736 0.381602
0.650795 0.392255 0.394436
0.669928 0.405774 0.407271
0.076001 0.105495 0.136941
0.080075 0.108304 0.140616
0.084149 0.111114 0.144290
0.088223 0.113924 0.147965
0.092297 0.116734 0.151639
0.096371 0.119544 0.155313
0.111600 0.124011 0.159885
0.129061 0.128809 0.164636
0.146521 0.133607 0.169387
0.163982 0.138405 0.174137
0.181442 0.143203 0.178888
0.203823 0.151212 0.185435
0.228664 0.160825 0.192880
0.253506 0.170438 0.200325
0.278347 0.180051 0.207770
0.303188 0.189664 0.215215
0.329096 0.201490 0.224637
0.356071 0.215531 0.236037
0.383045 0.229572 0.247437
0.410019 0.243612 0.258837
0.436994 0.257653 0.270237
0.462979 0.271898 0.282315
0.486986 0.286553 0.295749
0.510994 0.301208 0.309182
0.535001 0.315863 0.322616
0.559008 0.330519 0.336050
0.582171 0.344966 0.349357
0.601112 0.358375 0.362026
0.620053 0.371785 0.374696
0.638994 0.385194 0.387366
0.657935 0.398604 0.400036
0.676876 0.412013 0.412706
0.077419 0.108425 0.139919
0.081283 0.111500 0.143968
0.085146 0.114575 0.148018
0.089010 0.117651 0.152067
0.092873 0.120726 0.156117
0.096737 0.123801 0.160166
0.112221 0.128396 0.164884
0.130029 0.133295 0.169736
0.147837 0.138193 0.174587
0.165645 0.143092 0.179439
0.183453 0.147991 0.184290
0.206285 0.156130 0.190938
0.231630 0.165889 0.198483
0.256974 0.175649 0.206029
0.282319 0.185408 0.213574
0.307663 0.195168 0.221120
0.334051 0.207127 0.230629
0.361483 0.221287 0.242102
0.388915 0.235446 0.253575
0.416347 0.249606 0.265048
0.443778 0.263765 0.276522
0.470124 0.278130 0.288645
0.494296 0.292904 0.302070
0.518468 0.307678 0.315495
0.542640 0.322452 0.328919
0.566812 0.337226 0.342344
0.590080 0.351754 0.355615
0.608829 0.365053 0.368121
0.627577 0.378353 0.380626
0.646326 0.391653 0.393131
0.665075 0.404952 0.405636
0.683824 0.418252 0.418142
0.081161 0.114585 0.147702
0.085279 0.117994 0.152027
0.089397 0.121403 0.156353
0.093515 0.124812 0.160678
0.097634 0.128222 0.165004
0.101752 0.131631 0.169329
0.116964 0.136892 0.174736
0.134396 0.142525 0.180359
0.151827 0.148157 0.185982
0.169259 0.153789 0.191605
0.186690 0.159421 0.197228
0.209987 0.167841 0.204088
0.236215 0.177655 0.211566
0.262444 0.187470 0.219045
0.288673 0.197284 0.226523
0.314902 0.207098 0.234002
0.342166 0.219118 0.243434
0.370467 0.233343 0.254820
0.398768 0.247568 0.266206
0.427069 0.261793 0.277592
0.455370 0.276018 0.288979
0.482438 0.290471 0.301041
0.507042 0.305379 0.314457
0.531645 0.320287 0.327872
0.556249 0.335195 0.341288
0.580852 0.350104 0.354703
0.604452 0.364756 0.367989
0.623031 0.378129 0.380627
0.641611 0.391502 0.393265
0.660190 0.404874 0.405903
0.678770 0.418247 0.418541
0.697349 0.431620 0.431179
0.085368 0.121391 0.156446
0.089833 0.125148 0.161027
0.094299 0.128905 0.165609
0.098765 0.132661 0.170191
0.103231 0.136418 0.174772
0.107696 0.140175 0.179354
0.122532 0.146211 0.185558
0.139442 0.152703 0.192086
0.156352 0.159195 0.198615
0.173262 0.165687 0.205144
0.190173 0.172179 0.211672
0.213935 0.180910 0.218767
0.241125 0.190761 0.226145
0.268314 0.200612 0.233523
0.295503 0.210463 0.240901
0.322693 0.220314 0.248278
0.350913 0.232379 0.257601
0.380166 0.246659 0.268868
0.409418 0.260939 0.280136
0.438670 0.275219 0.291403
0.467922 0.289499 0.302670
0.495786 0.304034 0.314650
0.520875 0.319080 0.328057
0.545963 0.334125 0.341463
0.571051 0.349171 0.354869
0.596140 0.364216 0.368276
0.620116 0.379001 0.381586
0.638531 0.392483 0.394416
0.656946 0.405966 0.407246
0.675361 0.419449 0.420076
0.693775 0.432931 0.432906
0.712190 0.446414 0.445736
0.089574 0.128197 0.165190
0.094388 0.132302 0.170027
0.099201 0.136406 0.174865
0.104014 0.140510 0.179703
0.108828 0.144615 0.184541
0.113641 0.148719 0.189378
0.128100 0.155530 0.196380
0.144489 0.162882 0.203814
0.160878 0.170234 0.211248
0.177266 0.177586 0.218683
0.193655 0.184938 0.226117
0.217884 0.193980 0.233447
0.246034 0.203867 0.240724
0.274184 0.213755 0.248001
0.302334 0.223642 0.255278
0.330484 0.233530 0.262555
0.359660 0.245641 0.271768
0.389864 0.259976 0.282917
0.420068 0.274311 0.294065
0.450271 0.288645 0.305213
0.480475 0.302980 0.316362
0.509135 0.317598 0.328260
0.534708 0.332780 0.341657
0.560281 0.347963 0.355054
0.585854 0.363146 0.368451
0.611428 0.378328 0.381848
0.635780 0.393246 0.395183
0.654031 0.406838 0.408205
0.672281 0.420430 0.421227
0.690531 0.434023 0.434250
0.708781 0.447615 0.447272
0.727031 0.461208 0.460294
0.093781 0.135003 0.173934
0.098942 0.139455 0.179027
0.104103 0.143907 0.184121
0.109264 0.148359 0.189215
0.114425 0.152811 0.194309
0.119586 0.157263 0.199403
0.133669 0.164849 0.207202
0.149536 0.173060 0.215542
0.165403 0.181272 0.223882
0.181270 0.189484 0.232222
0.197137 0.197696 0.240562
0.221833 0.207049 0.248126
0.250944 0.216973 0.255303
0.280054 0.226897 0.262479
0.309164 0.236821 0.269656
0.338275 0.246745 0.276832
0.368407 0.258902 0.285935
0.399562 0.273292 0.296965
0.430717 0.287682 0.307994
0.461872 0.302072 0.319024
0.493027 0.316461 0.330053
0.522483 0.331161 0.341869
0.548541 0.346481 0.355257
0.574599 0.361801 0.368645
0.600657 0.377121 0.382033
0.626715 0.392440 0.395421
0.651445 0.407491 0.408780
0.669530 0.421193 0.421994
0.687616 0.434895 0.435209
0.705701 0.448597 0.448423
0.723787 0.462299 0.461637
0.741872 0.476001 0.474851
0.097987 0.141809 0.182678
0.103496 0.146609 0.188028
0.109005 0.151409 0.193378
0.114513 0.156208 0.198728
0.120022 0.161008 0.204078
0.125530 0.165808 0.209428
0.139237 0.174167 0.218024
0.154582 0.183239 0.227270
0.169928 0.192311 0.236515
0.185274 0.201383 0.245761
0.200620 0.210454 0.255006
0.225782 0.220119 0.262805
0.255853 0.230079 0.269881
0.285924 0.240040 0.276957
0.315995 0.250001 0.284033
0.346066 0.259961 0.291109
0.377154 0.272164 0.300103
0.409261 0.286609 0.311013
0.441367 0.301053 0.321924
0.473474 0.315498 0.332834
0.505580 0.329942 0.343744
0.535832 0.344725 0.355478
0.562375 0.360182 0.368857
0.588917 0.375639 0.382236
0.615460 0.391096 0.395615
0.642003 0.406553 0.408993
0.667109 0.421736 0.422377
0.685030 0.435548 0.435783
0.702951 0.449359 0.449190
0.720872 0.463171 0.462596
0.738793 0.476983 0.476002
0.756714 0.490795 0.489409
0.105565 0.152334 0.195392
0.111373 0.157438 0.200906
0.117180 0.162543 0.206421
0.122988 0.167647 0.211936
0.128795 0.172752 0.217451
0.134603 0.177857 0.222965
0.148514 0.186974 0.232313
0.164045 0.196893 0.242428
0.179577 0.206812 0.252542
0.195109 0.216732 0.262657
0.210641 0.226651 0.272772
0.235570 0.236533 0.280858
0.265199 0.246396 0.287931
0.294828 0.256259 0.295004
0.324457 0.266122 0.302077
0.354086 0.275985 0.309150
0.385417 0.288063 0.317927
0.418450 0.302355 0.328407
0.451483 0.316647 0.338888
0.484517 0.330940 0.349368
0.517550 0.345232 0.359849
0.548531 0.359877 0.371219
0.575406 0.375227 0.384370
0.602281 0.390577 0.397520
0.629156 0.405928 0.410670
0.656032 0.421278 0.423820
0.681363 0.436352 0.437013
0.698973 0.450041 0.450416
0.716582 0.463731 0.463819
0.734192 0.477421 0.477223
0.751802 0.491111 0.490626
0.769412 0.504801 0.504029
0.114829 0.164717 0.210091
0.120911 0.170105 0.215725
0.126993 0.175493 0.221358
0.133075 0.180881 0.226992
0.139157 0.186270 0.232626
0.145239 0.191658 0.238259
0.159645 0.201523 0.248336
0.175717 0.212284 0.259301
0.191788 0.223046 0.270267
0.207860 0.233807 0.281232
0.223931 0.244568 0.292197
0.248278 0.254620 0.300598
0.276764 0.264319 0.307717
0.305249 0.274017 0.314836
0.333734 0.283715 0.321954
0.362220 0.293414 0.329073
0.393436 0.305281 0.337580
0.427384 0.319317 0.347475
0.461333 0.333353 0.357370
0.495281 0.347389 0.367265
0.529229 0.361425 0.377160
0.560905 0.375823 0.388027
0.588036 0.390945 0.400839
0.615168 0.406066 0.413651
0.642299 0.421188 0.426463
0.669430 0.436310 0.439274
0.694911 0.451153 0.452168
0.712136 0.464605 0.465471
0.729362 0.478057 0.478773
0.746588 0.491509 0.492076
0.763813 0.504961 0.505379
0.781039 0.518413 0.518681
0.124093 0.177100 0.224790
0.130449 0.182772 0.230543
0.136806 0.188444 0.236295
0.143162 0.194116 0.242048
0.149518 0.199787 0.247800
0.155875 0.205459 0.253553
0.170777 0.216073 0.264359
0.187388 0.227676 0.276175
0.203999 0.239279 0.287991
0.220610 0.250881 0.299807
0.237222 0.262484 0.311623
0.260987 0.272707 0.320338
0.288328 0.282241 0.327503
0.315670 0.291775 0.334667
0.343012 0.301309 0.341831
0.370354 0.310842 0.348996
0.401456 0.322499 0.357233
0.436319 0.336279 0.366542
0.471182 0.350059 0.375852
0.506045 0.363839 0.385161
0.540908 0.377619 0.394471
0.573279 0.391770 0.404835
0.600667 0.406663 0.417308
0.628054 0.421555 0.429782
0.655442 0.436448 0.442255
0.682829 0.451341 0.454728
0.708459 0.465954 0.467323
0.725300 0.479169 0.480525
0.742142 0.492383 0.493727
0.758983 0.505597 0.506929
0.775825 0.518811 0.520131
0.792666 0.532026 0.533333
0.133357 0.189484 0.239490
0.139988 0.195439 0.245361
0.146618 0.201394 0.251232
0.153249 0.207350 0.257104
0.159880 0.213305 0.262975
0.166511 0.219260 0.268847
0.181908 0.230623 0.280381
0.199059 0.243067 0.293048
0.216210 0.255512 0.305715
0.233361 0.267956 0.318382
0.250512 0.280400 0.331049
0.273695 0.290794 0.340078
0.299893 0.300164 0.347288
0.326091 0.309533 0.354498
0.352289 0.318902 0.361708
0.378488 0.328271 0.368918
0.409476 0.339717 0.376886
0.445254 0.353241 0.385610
0.481031 0.366765 0.394334
0.516809 0.380288 0.403058
0.552587 0.393812 0.411782
0.585653 0.407716 0.421643
0.613297 0.422380 0.433778
0.640941 0.437044 0.445913
0.668584 0.451709 0.458047
0.696228 0.466373 0.470182
0.722007 0.480756 0.482478
0.738464 0.493732 0.495580
0.754922 0.506709 0.508681
0.771379 0.519685 0.521782
0.787836 0.532661 0.534884
0.804293 0.545638 0.547985
0.142621 0.201867 0.254189
0.149526 0.208106 0.260179
0.156431 0.214345 0.266170
0.163336 0.220584 0.272160
0.170242 0.226823 0.278150
0.177147 0.233062 0.284141
0.193040 0.245173 0.296404
0.210731 0.258459 0.309922
0.228421 0.271745 0.323439
0.246112 0.285031 0.336957
0.263803 0.298317 0.350475
0.286403 0.308882 0.359818
0.311457 0.318086 0.367074
0.336512 0.327290 0.374329
0.361567 0.336495 0.381585
0.386622 0.345699 0.388841
0.417496 0.356935 0.396539
0.454188 0.370203 0.404677
0.490881 0.383470 0.412816
0.527573 0.396738 0.420954
0.564266 0.410006 0.429093
0.598027 0.423663 0.438451
0.625927 0.438098 0.450247
0.653827 0.452534 0.462044
0.681727 0.466969 0.473840
0.709627 0.481405 0.485636
0.735555 0.495557 0.497633
0.751628 0.508296 0.510634
0.767701 0.521034 0.523635
0.783774 0.533773 0.536636
0.799847 0.546512 0.549637
0.815920 0.559250 0.562637
0.154957 0.216613 0.270731
0.162082 0.223077 0.276832
0.169206 0.229540 0.282932
0.176331 0.236003 0.289032
0.183456 0.242466 0.295132
0.190581 0.248929 0.301232
0.206876 0.261634 0.314005
0.225006 0.275588 0.328113
0.243136 0.289541 0.342221
0.261266 0.303495 0.356329
0.279395 0.317449 0.370436
0.301788 0.328480 0.380345
0.326312 0.338051 0.388154
0.350836 0.347621 0.395964
0.375361 0.357191 0.403773
0.399885 0.366762 0.411582
0.430317 0.377760 0.419124
0.466658 0.390186 0.426398
0.502998 0.402612 0.433672
0.539338 0.415038 0.440947
0.575679 0.427464 0.448221
0.609265 0.440412 0.456783
0.637343 0.454404 0.467920
0.665421 0.468395 0.479058
0.693499 0.482387 0.490196
0.721578 0.496379 0.501333
0.747584 0.510096 0.512715
0.763232 0.522436 0.525313
0.778879 0.534777 0.537911
0.794527 0.547118 0.550509
0.810175 0.559458 0.563108
0.825822 0.571799 0.575706
0.170365 0.233723 0.289117
0.177655 0.240351 0.295318
0.184944 0.246979 0.301519
0.192233 0.253606 0.307720
0.199523 0.260234 0.313921
0.206812 0.266862 0.320121
0.223417 0.280006 0.333186
0.241886 0.294454 0.347623
0.260354 0.308902 0.362060
0.278822 0.323349 0.376497
0.297290 0.337797 0.390934
0.319851 0.349591 0.401660
0.344457 0.360058 0.410530
0.369064 0.370524 0.419401
0.393670 0.380991 0.428271
0.418277 0.391458 0.437142
0.447941 0.402191 0.444642
0.482662 0.413190 0.450773
0.517383 0.424189 0.456904
0.552104 0.435188 0.463034
0.586825 0.446187 0.469165
0.619366 0.457964 0.476638
0.647545 0.471297 0.486797
0.675723 0.484630 0.496956
0.703902 0.497963 0.507115
0.732081 0.511296 0.517274
0.758094 0.524371 0.527722
0.773275 0.536154 0.539616
0.788456 0.547936 0.551510
0.803637 0.559719 0.563404
0.818818 0.571502 0.575297
0.833999 0.583284 0.587191
0.185773 0.250833 0.307503
0.193227 0.257625 0.313805
0.200682 0.264418 0.320106
0.208136 0.271210 0.326408
0.215590 0.278003 0.332709
0.223044 0.284795 0.339010
0.239958 0.298378 0.352366
0.258765 0.313320 0.367132
0.277572 0.328262 0.381899
0.296379 0.343203 0.396665
0.315185 0.358145 0.411431
0.337913 0.370701 0.422975
0.362602 0.382065 0.432906
0.387291 0.393428 0.442838
0.411980 0.404791 0.452770
0.436669 0.416155 0.462701
0.465564 0.426622 0.470161
0.498666 0.436194 0.475148
0.531768 0.445766 0.480135
0.564870 0.455338 0.485122
0.597972 0.464909 0.490109
0.629467 0.475516 0.496494
0.657746 0.488190 0.505674
0.686026 0.500865 0.514854
0.714305 0.513539 0.524034
0.742584 0.526214 0.533214
0.768603 0.538647 0.542729
0.783318 0.549871 0.553919
0.798032 0.561096 0.565108
0.812747 0.572320 0.576298
0.827461 0.583545 0.587487
0.842176 0.594769 0.598677
0.201182 0.267943 0.325889
0.208800 0.274900 0.332291
0.216419 0.281857 0.338693
0.224038 0.288814 0.345095
0.231657 0.295771 0.351497
0.239275 0.302728 0.357899
0.256499 0.316751 0.371546
0.275645 0.332186 0.386642
0.294790 0.347622 0.401738
0.313935 0.363058 0.416833
0.333080 0.378493 0.431929
0.355976 0.391812 0.444289
0.380747 0.404072 0.455282
0.405519 0.416331 0.466275
0.430290 0.428591 0.477268
0.455061 0.440851 0.488261
0.483188 0.451053 0.495679
0.514671 0.459198 0.499523
0.546153 0.467343 0.503366
0.577636 0.475488 0.507210
0.609119 0.483632 0.511054
0.639568 0.493067 0.516350
0.667948 0.505083 0.524551
0.696328 0.517099 0.532752
0.724708 0.529115 0.540953
0.753088 0.541131 0.549155
0.779113 0.552922 0.557736
0.793361 0.563588 0.568221
0.807609 0.574255 0.578707
0.821857 0.584922 0.589192
0.836105 0.595588 0.599677
0.850353 0.606255 0.610162
0.216590 0.285053 0.344275
0.224373 0.292174 0.350778
0.232157 0.299296 0.357280
0.239940 0.306418 0.363783
0.247723 0.313539 0.370286
0.255507 0.320661 0.376789
0.273041 0.335123 0.390726
0.292524 0.351052 0.406152
0.312008 0.366982 0.421577
0.331492 0.382912 0.437002
0.350975 0.398842 0.452427
0.374039 0.412922 0.465604
0.398892 0.426079 0.477658
0.423746 0.439235 0.489712
0.448599 0.452391 0.501766
0.473453 0.465548 0.513820
0.500812 0.475485 0.521197
0.530675 0.482202 0.523897
0.560539 0.488920 0.526598
0.590402 0.495638 0.529298
0.620266 0.502355 0.531998
0.649668 0.510619 0.536206
0.678149 0.521977 0.543428
0.706630 0.533334 0.550650
0.735111 0.544691 0.557873
0.763591 0.556048 0.565095
0.789622 0.567197 0.572744
0.803404 0.577306 0.582524
0.817185 0.587414 0.592305
0.830966 0.597523 0.602086
0.844748 0.607631 0.611866
0.858529 0.617740 0.621647
0.233290 0.302777 0.362976
0.241208 0.310033 0.369573
0.249125 0.317289 0.376171
0.257043 0.324544 0.382768
0.264960 0.331800 0.389365
0.272878 0.339056 0.395962
0.290645 0.353832 0.410056
0.310382 0.370113 0.425648
0.330118 0.386393 0.441241
0.349855 0.402673 0.456834
0.369592 0.418954 0.472427
0.392665 0.433548 0.486128
0.417405 0.447299 0.498883
0.442146 0.461050 0.511638
0.466887 0.474801 0.524394
0.491627 0.488552 0.537149
0.518230 0.498388 0.544639
0.546694 0.504310 0.546863
0.575158 0.510232 0.549088
0.603622 0.516153 0.551312
0.632086 0.522075 0.553537
0.660485 0.529491 0.557025
0.688755 0.539893 0.563040
0.717026 0.550296 0.569054
0.745296 0.560699 0.575069
0.773566 0.571102 0.581084
0.799356 0.581362 0.587595
0.812744 0.590909 0.596586
0.826132 0.600457 0.605577
0.839520 0.610004 0.614568
0.852908 0.619552 0.623559
0.866296 0.629099 0.632550
0.252574 0.321730 0.382307
0.260565 0.329059 0.388987
0.268555 0.336388 0.395666
0.276546 0.343717 0.402346
0.284537 0.351046 0.409025
0.292528 0.358375 0.415705
0.310375 0.373217 0.429683
0.330195 0.389561 0.445120
0.350014 0.405906 0.460557
0.369833 0.422250 0.475994
0.389652 0.438595 0.491432
0.412417 0.453204 0.505069
0.436654 0.466946 0.517806
0.460892 0.480687 0.530543
0.485129 0.494429 0.543280
0.509367 0.508171 0.556017
0.535237 0.518236 0.563927
0.562741 0.524624 0.567012
0.590244 0.531013 0.570096
0.617748 0.537401 0.573181
0.645251 0.543789 0.576265
0.672733 0.551001 0.579771
0.700170 0.559857 0.584121
0.727608 0.568714 0.588471
0.755046 0.577571 0.592821
0.782484 0.586428 0.597171
0.807539 0.595305 0.602134
0.820680 0.604285 0.610164
0.833821 0.613266 0.618195
0.846962 0.622246 0.626225
0.860103 0.631226 0.634256
0.873244 0.640206 0.642286
0.271858 0.340683 0.401639
0.279922 0.348085 0.408400
0.287986 0.355487 0.415162
0.296050 0.362890 0.421924
0.304114 0.370292 0.428686
0.312178 0.377694 0.435448
0.330106 0.392602 0.449310
0.350008 0.409010 0.464591
0.369909 0.425418 0.479873
0.389810 0.441827 0.495155
0.409712 0.458235 0.510436
0.432169 0.472860 0.524010
0.455903 0.486592 0.536728
0.479637 0.500325 0.549447
0.503372 0.514058 0.562166
0.527106 0.527790 0.574884
0.552245 0.538084 0.583216
0.578788 0.544939 0.587160
0.605331 0.551794 0.591105
0.631874 0.558649 0.595049
0.658416 0.565504 0.598993
0.684980 0.572511 0.602518
0.711586 0.579821 0.605203
0.738191 0.587132 0.607888
0.764796 0.594443 0.610573
0.791402 0.601754 0.613257
0.815722 0.609248 0.616673
0.828616 0.617661 0.623743
0.841510 0.626074 0.630813
0.854404 0.634487 0.637883
0.867298 0.642900 0.644953
0.880192 0.651314 0.652023
0.291142 0.359636 0.420970
0.299279 0.367111 0.427814
0.307416 0.374587 0.434658
0.315553 0.382062 0.441502
0.323690 0.389538 0.448347
0.331827 0.397013 0.455191
0.349837 0.411986 0.468937
0.369821 0.428459 0.484063
0.389804 0.444931 0.499189
0.409788 0.461404 0.514315
0.429772 0.477876 0.529441
0.451921 0.492516 0.542950
0.475152 0.506239 0.555651
0.498383 0.519963 0.568351
0.521615 0.533686 0.581052
0.544846 0.547410 0.593752
0.569253 0.557932 0.602505
0.594835 0.565254 0.607309
0.620417 0.572575 0.612113
0.646000 0.579897 0.616917
0.671582 0.587218 0.621721
0.697228 0.594021 0.625264
0.723001 0.599785 0.626284
0.748774 0.605550 0.627304
0.774547 0.611315 0.628324
0.800319 0.617080 0.629344
0.823905 0.623191 0.631212
0.836552 0.631037 0.637322
0.849199 0.638883 0.643431
0.861846 0.646729 0.649540
0.874493 0.654575 0.655650
0.887140 0.662421 0.661759
0.310426 0.378589 0.440301
0.318636 0.386138 0.447227
0.326846 0.393686 0.454154
0.335057 0.401235 0.461081
0.343267 0.408784 0.468007
0.351477 0.416332 0.474934
0.369567 0.431371 0.488564
0.389634 0.447907 0.503534
0.409700 0.464444 0.518505
0.429766 0.480980 0.533476
0.449832 0.497517 0.548446
0.471673 0.512172 0.561891
0.494401 0.525886 0.574573
0.517129 0.539600 0.587256
0.539857 0.553315 0.599938
0.562585 0.567029 0.612620
0.586260 0.577780 0.621793
0.610882 0.585568 0.627457
0.635504 0.593356 0.633121
0.660126 0.601144 0.638785
0.684747 0.608932 0.644450
0.709475 0.615530 0.648011
0.734416 0.619749 0.647366
0.759356 0.623968 0.646721
0.784297 0.628187 0.646076
0.809237 0.632405 0.645431
0.832088 0.637134 0.645752
0.844488 0.644413 0.650900
0.856888 0.651692 0.656049
0.869288 0.658970 0.661198
0.881688 0.666249 0.666347
0.894088 0.673528 0.671496
0.329584 0.397424 0.459349
0.337893 0.405057 0.466350
0.346203 0.412689 0.473351
0.354512 0.420321 0.480352
0.362821 0.427954 0.487354
0.371131 0.435586 0.494355
0.389259 0.450606 0.507809
0.409351 0.467103 0.522554
0.429443 0.483600 0.537299
0.449535 0.500096 0.552044
0.469627 0.516593 0.566789
0.491107 0.531158 0.580087
0.513280 0.544756 0.592661
0.535453 0.558355 0.605235
0.557626 0.571953 0.617809
0.579799 0.585552 0.630382
0.602697 0.596429 0.639855
0.626321 0.604586 0.646227
0.649944 0.612743 0.652598
0.673567 0.620900 0.658970
0.697190 0.629057 0.665341
0.720966 0.635502 0.668953
0.745046 0.638522 0.667044
0.769127 0.641543 0.665135
0.793207 0.644563 0.663226
0.817288 0.647583 0.661317
0.839400 0.651221 0.660426
0.851669 0.657947 0.664620
0.863938 0.664672 0.668814
0.876206 0.671397 0.673009
0.888475 0.678122 0.677203
0.900744 0.684848 0.681397
0.348111 0.415668 0.476978
0.356650 0.423438 0.484016
0.365188 0.431208 0.491054
0.373726 0.438977 0.498092
0.382264 0.446747 0.505130
0.390802 0.454517 0.512167
0.408755 0.469094 0.525148
0.428591 0.485033 0.539316
0.448427 0.500972 0.553485
0.468262 0.516910 0.567654
0.488098 0.532849 0.581822
0.508950 0.546795 0.594556
0.530309 0.559744 0.606572
0.551668 0.572693 0.618588
0.573027 0.585642 0.630604
0.594386 0.598591 0.642619
0.616282 0.609084 0.651786
0.638716 0.617122 0.658102
0.661150 0.625160 0.664419
0.683584 0.633198 0.670736
0.706018 0.641236 0.677052
0.728668 0.647782 0.680874
