filter/Red and Blue 3/lut/Spotlight 04_S.cube
# LUT by SparkleStock. Enhanced with VOXCOLOR algorithms.
LUT_3D_SIZE 32
0.066422 0.070330 0.093773
0.071811 0.070944 0.094009
0.077199 0.071559 0.094246
0.082587 0.072173 0.094482
0.087975 0.072787 0.094718
0.093363 0.073402 0.094955
0.116594 0.073544 0.092237
0.143393 0.073591 0.088928
0.170192 0.073638 0.085620
0.196991 0.073685 0.082311
0.223790 0.073733 0.079003
0.263382 0.075545 0.075001
0.309370 0.078239 0.070653
0.355359 0.080933 0.066304
0.401347 0.083627 0.061956
0.447335 0.086321 0.057608
0.485974 0.089677 0.055623
0.517263 0.093694 0.056001
0.548553 0.097712 0.056379
0.579842 0.101729 0.056757
0.611131 0.105747 0.057135
0.636291 0.110284 0.058206
0.649195 0.115861 0.060664
0.662098 0.121438 0.063122
0.675001 0.127016 0.065580
0.687904 0.132593 0.068037
0.699831 0.138745 0.070850
0.706873 0.147773 0.075434
0.713915 0.156800 0.080019
0.720958 0.165828 0.084604
0.728000 0.174855 0.089188
0.735043 0.183883 0.093773
0.067746 0.072787 0.095380
0.072823 0.073731 0.095699
0.077900 0.074675 0.096017
0.082977 0.075619 0.096336
0.088054 0.076562 0.096655
0.093132 0.077506 0.096973
0.116745 0.078038 0.093987
0.144065 0.078488 0.090340
0.171386 0.078938 0.086693
0.198706 0.079388 0.083046
0.226027 0.079837 0.079399
0.265994 0.082027 0.075126
0.312284 0.085087 0.070540
0.358574 0.088147 0.065954
0.404864 0.091207 0.061367
0.451155 0.094267 0.056781
0.489995 0.097664 0.054636
0.521385 0.101398 0.054932
0.552774 0.105132 0.055228
0.584164 0.108866 0.055523
0.615554 0.112600 0.055819
0.640824 0.116817 0.056906
0.653855 0.122001 0.059574
0.666887 0.127185 0.062242
0.679918 0.132369 0.064910
0.692949 0.137553 0.067578
0.704891 0.143307 0.070581
0.711385 0.151914 0.075257
0.717878 0.160520 0.079934
0.724372 0.169127 0.084610
0.730865 0.177734 0.089286
0.737359 0.186341 0.093962
0.069069 0.075245 0.096987
0.073835 0.076518 0.097388
0.078601 0.077791 0.097789
0.083368 0.079064 0.098190
0.088134 0.080338 0.098591
0.092900 0.081611 0.098992
0.116896 0.082533 0.095737
0.144738 0.083385 0.091752
0.172579 0.084238 0.087766
0.200421 0.085090 0.083781
0.228263 0.085942 0.079796
0.268605 0.088510 0.075251
0.315197 0.091936 0.070427
0.361790 0.095362 0.065603
0.408382 0.098788 0.060779
0.454974 0.102214 0.055955
0.494015 0.105652 0.053650
0.525506 0.109102 0.053863
0.556996 0.112553 0.054077
0.588487 0.116003 0.054290
0.619977 0.119453 0.054503
0.645357 0.123350 0.055605
0.658516 0.128141 0.058484
0.671676 0.132931 0.061362
0.684835 0.137722 0.064241
0.697994 0.142512 0.067119
0.709951 0.147869 0.070313
0.715896 0.156055 0.075081
0.721841 0.164241 0.079848
0.727785 0.172426 0.084616
0.733730 0.180612 0.089383
0.739675 0.188798 0.094151
0.070393 0.077703 0.098594
0.074848 0.079305 0.099077
0.079303 0.080908 0.099561
0.083758 0.082510 0.100044
0.088213 0.084113 0.100527
0.092668 0.085715 0.101010
0.117047 0.087028 0.097488
0.145410 0.088283 0.093164
0.173773 0.089537 0.088840
0.202137 0.090792 0.084516
0.230500 0.092047 0.080192
0.271217 0.094993 0.075376
0.318111 0.098785 0.070314
0.365005 0.102577 0.065252
0.411899 0.106369 0.060190
0.458793 0.110160 0.055129
0.498036 0.113640 0.052663
0.529627 0.116806 0.052794
0.561218 0.119973 0.052925
0.592809 0.123140 0.053057
0.624400 0.126307 0.053188
0.649890 0.129884 0.054305
0.663177 0.134281 0.057394
0.676465 0.138678 0.060483
0.689752 0.143075 0.063572
0.703040 0.147472 0.066661
0.715012 0.152431 0.070045
0.720407 0.160196 0.074904
0.725803 0.167961 0.079763
0.731199 0.175726 0.084622
0.736595 0.183491 0.089481
0.741991 0.191256 0.094340
0.071716 0.080161 0.100201
0.075860 0.082092 0.100767
0.080004 0.084024 0.101332
0.084148 0.085956 0.101898
0.088292 0.087888 0.102463
0.092436 0.089819 0.103029
0.117198 0.091522 0.099238
0.146082 0.093180 0.094576
0.174967 0.094837 0.089913
0.203852 0.096494 0.085251
0.232737 0.098152 0.080588
0.273829 0.101476 0.075501
0.321025 0.105634 0.070201
0.368221 0.109792 0.064902
0.415417 0.113949 0.059602
0.462613 0.118107 0.054302
0.502056 0.121627 0.051677
0.533748 0.124511 0.051725
0.565440 0.127394 0.051774
0.597131 0.130277 0.051823
0.628823 0.133160 0.051872
0.654423 0.136417 0.053004
0.667838 0.140420 0.056304
0.681254 0.144424 0.059603
0.694669 0.148428 0.062902
0.708085 0.152432 0.066202
0.720072 0.156992 0.069776
0.724919 0.164337 0.074727
0.729766 0.171681 0.079677
0.734613 0.179025 0.084628
0.739460 0.186370 0.089579
0.744307 0.193714 0.094529
0.073040 0.082618 0.101808
0.076873 0.084880 0.102456
0.080706 0.087141 0.103104
0.084539 0.089402 0.103752
0.088372 0.091663 0.104400
0.092205 0.093924 0.105048
0.117349 0.096017 0.100988
0.146755 0.098077 0.095987
0.176161 0.100137 0.090987
0.205567 0.102197 0.085986
0.234973 0.104256 0.080985
0.276441 0.107959 0.075626
0.323938 0.112483 0.070089
0.371436 0.117006 0.064551
0.418934 0.121530 0.059013
0.466432 0.126054 0.053476
0.506077 0.129615 0.050690
0.537869 0.132215 0.050657
0.569661 0.134814 0.050623
0.601454 0.137414 0.050590
0.633246 0.140013 0.050556
0.658955 0.142950 0.051704
0.672499 0.146560 0.055213
0.686043 0.150171 0.058723
0.699586 0.153781 0.062233
0.713130 0.157392 0.065743
0.725132 0.161554 0.069508
0.729430 0.168478 0.074550
0.733728 0.175401 0.079592
0.738027 0.182325 0.084634
0.742325 0.189248 0.089676
0.746623 0.196172 0.094718
0.075860 0.086967 0.106054
0.079717 0.089504 0.106807
0.083574 0.092041 0.107560
0.087432 0.094578 0.108313
0.091289 0.097115 0.109067
0.095147 0.099652 0.109820
0.119255 0.103353 0.106233
0.147414 0.107286 0.101778
0.175573 0.111220 0.097323
0.203732 0.115154 0.092867
0.231891 0.119087 0.088412
0.273241 0.123719 0.082726
0.321185 0.128700 0.076425
0.369130 0.133681 0.070124
0.417074 0.138663 0.063822
0.465019 0.143644 0.057521
0.505353 0.147330 0.054175
0.538077 0.149722 0.053785
0.570801 0.152115 0.053394
0.603525 0.154507 0.053004
0.636249 0.156899 0.052614
0.662810 0.159485 0.053609
0.677046 0.162458 0.057375
0.691281 0.165431 0.061141
0.705517 0.168404 0.064906
0.719753 0.171377 0.068672
0.732335 0.174960 0.072753
0.736648 0.181592 0.078405
0.740961 0.188225 0.084056
0.745275 0.194857 0.089708
0.749588 0.201489 0.095360
0.753901 0.208122 0.101012
0.078979 0.091693 0.110828
0.082928 0.094496 0.111690
0.086877 0.097298 0.112553
0.090826 0.100100 0.113416
0.094775 0.102903 0.114279
0.098723 0.105705 0.115142
0.121513 0.111257 0.112176
0.148071 0.117358 0.108443
0.174630 0.123460 0.104711
0.201188 0.129562 0.100979
0.227746 0.135664 0.097246
0.268879 0.141335 0.091222
0.317299 0.146792 0.084051
0.365719 0.152249 0.076881
0.414139 0.157706 0.069710
0.462560 0.163162 0.062540
0.503681 0.166991 0.058554
0.537502 0.169191 0.057752
0.571324 0.171391 0.056950
0.605145 0.173591 0.056148
0.638967 0.175791 0.055346
0.666528 0.178020 0.056155
0.681569 0.180307 0.060186
0.696610 0.182594 0.064217
0.711651 0.184881 0.068249
0.726692 0.187168 0.072280
0.739966 0.190135 0.076700
0.744407 0.196502 0.083065
0.748849 0.202869 0.089431
0.753290 0.209236 0.095796
0.757731 0.215603 0.102162
0.762173 0.221970 0.108527
0.082099 0.096420 0.115601
0.086139 0.099487 0.116574
0.090179 0.102555 0.117547
0.094220 0.105623 0.118519
0.098260 0.108690 0.119492
0.102300 0.111758 0.120465
0.123771 0.119161 0.118119
0.148729 0.127430 0.115109
0.173686 0.135700 0.112100
0.198643 0.143970 0.109090
0.223600 0.152240 0.106080
0.264517 0.158951 0.099717
0.313413 0.164884 0.091678
0.362309 0.170816 0.083638
0.411204 0.176749 0.075599
0.460100 0.182681 0.067559
0.502008 0.186651 0.062933
0.536927 0.188659 0.061719
0.571847 0.190667 0.060505
0.606766 0.192675 0.059292
0.641686 0.194683 0.058078
0.670247 0.196556 0.058701
0.686093 0.198156 0.062998
0.701939 0.199757 0.067294
0.717785 0.201358 0.071591
0.733630 0.202959 0.075887
0.747597 0.205310 0.080647
0.752166 0.211412 0.087726
0.756736 0.217514 0.094805
0.761305 0.223615 0.101884
0.765874 0.229717 0.108963
0.770444 0.235819 0.116042
0.085218 0.101146 0.120375
0.089350 0.104479 0.121457
0.093482 0.107812 0.122540
0.097614 0.111145 0.123622
0.101745 0.114478 0.124705
0.105877 0.117811 0.125788
0.126029 0.127064 0.124062
0.149386 0.137502 0.121775
0.172742 0.147940 0.119488
0.196098 0.158378 0.117201
0.219455 0.168816 0.114914
0.260155 0.176567 0.108213
0.309526 0.182975 0.099304
0.358898 0.189384 0.090396
0.408270 0.195792 0.081487
0.457641 0.202200 0.072578
0.500336 0.206312 0.067311
0.536353 0.208128 0.065686
0.572370 0.209944 0.064061
0.608387 0.211759 0.062435
0.644404 0.213575 0.060810
0.673966 0.215091 0.061247
0.690617 0.216006 0.065809
0.707267 0.216920 0.070371
0.723918 0.217835 0.074933
0.740569 0.218750 0.079494
0.755228 0.220485 0.084595
0.759925 0.226322 0.092387
0.764623 0.232158 0.100180
0.769320 0.237994 0.107972
0.774018 0.243831 0.115765
0.778715 0.249667 0.123557
0.088337 0.105873 0.125149
0.092561 0.109471 0.126341
0.096784 0.113069 0.127533
0.101007 0.116667 0.128726
0.105231 0.120265 0.129918
0.109454 0.123864 0.131110
0.128287 0.134968 0.130005
0.150043 0.147574 0.128441
0.171798 0.160180 0.126877
0.193554 0.172786 0.125312
0.215309 0.185392 0.123748
0.255793 0.194183 0.116708
0.305640 0.201067 0.106930
0.355487 0.207951 0.097153
0.405335 0.214835 0.087375
0.455182 0.221719 0.077597
0.498663 0.225972 0.071690
0.535778 0.227596 0.069653
0.572893 0.229220 0.067616
0.610008 0.230844 0.065579
0.647123 0.232467 0.063542
0.677684 0.233626 0.063793
0.695140 0.233855 0.068621
0.712596 0.234084 0.073448
0.730052 0.234312 0.078275
0.747508 0.234541 0.083102
0.762859 0.235660 0.088542
0.767684 0.241231 0.097048
0.772510 0.246802 0.105554
0.777335 0.252373 0.114060
0.782161 0.257945 0.122566
0.786986 0.263516 0.131073
0.092528 0.112490 0.133168
0.096617 0.116170 0.134574
0.100707 0.119851 0.135979
0.104796 0.123531 0.137385
0.108885 0.127212 0.138791
0.112974 0.130892 0.140197
0.130903 0.142989 0.139694
0.151601 0.156769 0.138810
0.172298 0.170549 0.137925
0.192995 0.184329 0.137041
0.213692 0.198109 0.136157
0.253152 0.207921 0.129541
0.301993 0.215751 0.120059
0.350834 0.223580 0.110577
0.399676 0.231409 0.101095
0.448517 0.239238 0.091613
0.492367 0.243963 0.085319
0.531226 0.245584 0.082211
0.570085 0.247204 0.079104
0.608944 0.248825 0.075997
0.647803 0.250446 0.072890
0.679780 0.251455 0.072469
0.697992 0.251242 0.077421
0.716204 0.251028 0.082373
0.734416 0.250815 0.087325
0.752628 0.250601 0.092277
0.768725 0.251412 0.098005
0.774246 0.257346 0.107608
0.779767 0.263280 0.117212
0.785288 0.269214 0.126816
0.790808 0.275148 0.136420
0.796329 0.281082 0.146024
0.097255 0.120052 0.142810
0.101097 0.123723 0.144481
0.104939 0.127395 0.146152
0.108781 0.131066 0.147823
0.112623 0.134738 0.149494
0.116465 0.138409 0.151165
0.133698 0.151068 0.151255
0.153609 0.165525 0.151030
0.173519 0.179982 0.150804
0.193430 0.194439 0.150579
0.213340 0.208896 0.150353
0.251373 0.219721 0.144542
0.298467 0.228730 0.135938
0.345561 0.237739 0.127335
0.392654 0.246748 0.118731
0.439748 0.255758 0.110127
0.483758 0.261118 0.103572
0.524685 0.262831 0.099065
0.565611 0.264543 0.094558
0.606538 0.266255 0.090051
0.647465 0.267967 0.085544
0.681064 0.268931 0.084209
0.700007 0.268397 0.089216
0.718951 0.267864 0.094223
0.737895 0.267330 0.099230
0.756839 0.266796 0.104237
0.773709 0.267453 0.110225
0.780209 0.274064 0.121118
0.786708 0.280675 0.132012
0.793208 0.287286 0.142906
0.799708 0.293897 0.153800
0.806207 0.300508 0.164693
0.101981 0.127614 0.152452
0.105576 0.131277 0.154388
0.109171 0.134939 0.156324
0.112767 0.138601 0.158261
0.116362 0.142263 0.160197
0.119957 0.145926 0.162133
0.136493 0.159147 0.162817
0.155617 0.174281 0.163250
0.174740 0.189415 0.163683
0.193864 0.204549 0.164116
0.212988 0.219683 0.164549
0.249594 0.231520 0.159543
0.294940 0.241709 0.151818
0.340287 0.251899 0.144092
0.385633 0.262088 0.136367
0.430980 0.272277 0.128641
0.475150 0.278274 0.121825
0.518144 0.280078 0.115919
0.561138 0.281881 0.110012
0.604132 0.283685 0.104106
0.647126 0.285489 0.098199
0.682347 0.286406 0.095949
0.702023 0.285553 0.101010
0.721699 0.284699 0.106072
0.741375 0.283845 0.111134
0.761050 0.282991 0.116196
0.778693 0.283494 0.122445
0.786172 0.290782 0.134629
0.793650 0.298070 0.146812
0.801129 0.305358 0.158996
0.808607 0.312646 0.171179
0.816086 0.319934 0.183363
0.106708 0.135177 0.162094
0.110056 0.138830 0.164295
0.113404 0.142483 0.166497
0.116752 0.146136 0.168699
0.120100 0.149789 0.170900
0.123448 0.153442 0.173102
0.139287 0.167227 0.174379
0.157625 0.183037 0.175470
0.175962 0.198848 0.176562
0.194299 0.214659 0.177654
0.212636 0.230470 0.178745
0.247814 0.243319 0.174544
0.291414 0.254689 0.167697
0.335013 0.266058 0.160850
0.378612 0.277428 0.154002
0.422212 0.288797 0.147155
0.466542 0.295429 0.140078
0.511603 0.297325 0.132772
0.556665 0.299220 0.125466
0.601726 0.301115 0.118160
0.646788 0.303010 0.110854
0.683631 0.303882 0.107688
0.704039 0.302708 0.112805
0.724446 0.301534 0.117922
0.744854 0.300360 0.123039
0.765262 0.299186 0.128156
0.783677 0.299535 0.134665
0.792135 0.307500 0.148139
0.800592 0.315465 0.161612
0.809049 0.323430 0.175085
0.817507 0.331395 0.188559
0.825964 0.339360 0.202032
0.111434 0.142739 0.171736
0.114535 0.146383 0.174203
0.117636 0.150027 0.176670
0.120738 0.153671 0.179137
0.123839 0.157315 0.181603
0.126940 0.160959 0.184070
0.142082 0.175306 0.185940
0.159633 0.191793 0.187690
0.177183 0.208281 0.189441
0.194733 0.224769 0.191191
0.212284 0.241257 0.192941
0.246035 0.255119 0.189545
0.287887 0.267668 0.183576
0.329739 0.280218 0.177607
0.371591 0.292767 0.171638
0.413443 0.305317 0.165669
0.457934 0.312585 0.158332
0.505063 0.314572 0.149626
0.552191 0.316558 0.140920
0.599320 0.318545 0.132214
0.646449 0.320531 0.123508
0.684915 0.321358 0.119428
0.706054 0.319864 0.124600
0.727194 0.318370 0.129772
0.748333 0.316875 0.134943
0.769473 0.315381 0.140115
0.788662 0.315576 0.146885
0.798098 0.324218 0.161649
0.807534 0.332860 0.176412
0.816970 0.341502 0.191175
0.826406 0.350144 0.205939
0.835842 0.358785 0.220702
0.116279 0.152239 0.182819
0.119284 0.155865 0.185478
0.122289 0.159490 0.188137
0.125294 0.163116 0.190796
0.128299 0.166742 0.193455
0.131304 0.170367 0.196114
0.145737 0.184685 0.199026
0.162455 0.201140 0.201989
0.179173 0.217596 0.204951
0.195891 0.234052 0.207914
0.212608 0.250508 0.210876
0.245061 0.265060 0.209073
0.285381 0.278662 0.204888
0.325700 0.292263 0.200703
0.366020 0.305865 0.196518
0.406340 0.319467 0.192332
0.450929 0.327558 0.185647
0.499786 0.330139 0.176461
0.548644 0.332720 0.167275
0.597502 0.335302 0.158089
0.646360 0.337883 0.148902
0.686300 0.339135 0.144205
0.708405 0.337727 0.148485
0.730509 0.336320 0.152764
0.752614 0.334913 0.157044
0.774718 0.333506 0.161324
0.794838 0.333855 0.167456
0.805033 0.342986 0.182851
0.815229 0.352117 0.198245
0.825424 0.361248 0.213640
0.835620 0.370380 0.229034
0.845815 0.379511 0.244429
0.121241 0.163677 0.195344
0.124301 0.167275 0.198122
0.127361 0.170874 0.200900
0.130421 0.174472 0.203678
0.133481 0.178070 0.206456
0.136541 0.181668 0.209234
0.150251 0.195363 0.213637
0.166091 0.211078 0.218365
0.181931 0.226793 0.223093
0.197770 0.242508 0.227821
0.213610 0.258222 0.232549
0.244892 0.273144 0.233128
0.283894 0.287670 0.231632
0.322897 0.302195 0.230136
0.361899 0.316721 0.228641
0.400901 0.331246 0.227145
0.445527 0.340348 0.222024
0.495775 0.344027 0.213277
0.546023 0.347706 0.204530
0.596272 0.351385 0.195783
0.646520 0.355064 0.187036
0.687787 0.357213 0.182018
0.711090 0.356299 0.184459
0.734392 0.355386 0.186900
0.757695 0.354473 0.189341
0.780998 0.353560 0.191782
0.802207 0.354371 0.196377
0.812942 0.363804 0.211744
0.823677 0.373237 0.227112
0.834412 0.382670 0.242479
0.845147 0.392103 0.257846
0.855882 0.401536 0.273213
0.126204 0.175115 0.207870
0.129319 0.178686 0.210766
0.132434 0.182257 0.213663
0.135549 0.185827 0.216560
0.138664 0.189398 0.219457
0.141779 0.192969 0.222354
0.154766 0.206042 0.228248
0.169727 0.221016 0.234741
0.184689 0.235990 0.241235
0.199650 0.250963 0.247729
0.214612 0.265937 0.254222
0.244722 0.281228 0.257182
0.282408 0.296677 0.258376
0.320093 0.312127 0.259570
0.357778 0.327576 0.260764
0.395463 0.343026 0.261958
0.440125 0.353139 0.258401
0.491764 0.357915 0.250093
0.543402 0.362692 0.241785
0.595041 0.367469 0.233477
0.646680 0.372246 0.225169
0.689273 0.375291 0.219831
0.713774 0.374871 0.220434
0.738276 0.374452 0.221036
0.762777 0.374033 0.221638
0.787278 0.373613 0.222240
0.809575 0.374887 0.225299
0.820850 0.384621 0.240638
0.832125 0.394356 0.255978
0.843400 0.404091 0.271318
0.854675 0.413826 0.286657
0.865950 0.423561 0.301997
0.131167 0.186553 0.220395
0.134337 0.190097 0.223410
0.137507 0.193640 0.226426
0.140676 0.197183 0.229442
0.143846 0.200727 0.232458
0.147016 0.204270 0.235474
0.159280 0.216721 0.242859
0.173364 0.230954 0.251118
0.187447 0.245186 0.259377
0.201530 0.259419 0.267636
0.215614 0.273652 0.275895
0.244553 0.289312 0.281237
0.280921 0.305685 0.285120
0.317289 0.322058 0.289004
0.353657 0.338432 0.292887
0.390024 0.354805 0.296770
0.434723 0.365929 0.294778
0.487752 0.371804 0.286909
0.540782 0.377678 0.279040
0.593811 0.383553 0.271171
0.646840 0.389427 0.263302
0.690760 0.393368 0.257644
0.716459 0.393443 0.256408
0.742159 0.393518 0.255171
0.767859 0.393593 0.253935
0.793559 0.393667 0.252698
0.816944 0.395402 0.254220
0.828759 0.405439 0.269532
0.840573 0.415476 0.284844
0.852388 0.425513 0.300157
0.864203 0.435550 0.315469
0.876017 0.445587 0.330781
0.136130 0.197991 0.232920
0.139354 0.201507 0.236054
0.142579 0.205023 0.239189
0.145804 0.208539 0.242324
0.149028 0.212055 0.245459
0.152253 0.215571 0.248593
0.163795 0.227400 0.257470
0.177000 0.240891 0.267494
0.190205 0.254383 0.277519
0.203410 0.267875 0.287544
0.216615 0.281367 0.297568
0.244384 0.297395 0.305292
0.279434 0.314693 0.311865
0.314485 0.331990 0.318437
0.349535 0.349287 0.325010
0.384586 0.366585 0.331583
0.429321 0.378720 0.331155
0.483741 0.385692 0.323725
0.538161 0.392664 0.316295
0.592580 0.399636 0.308866
0.647000 0.406609 0.301436
0.692246 0.411446 0.295458
0.719144 0.412015 0.292382
0.746042 0.412584 0.289307
0.772941 0.413153 0.286232
0.799839 0.413721 0.283157
0.824313 0.415918 0.283141
0.836667 0.426257 0.298426
0.849021 0.436596 0.313711
0.861376 0.446934 0.328996
0.873730 0.457273 0.344280
0.886085 0.467612 0.359565
0.141754 0.210154 0.245524
0.145064 0.213697 0.248841
0.148374 0.217241 0.252159
0.151684 0.220784 0.255477
0.154994 0.224327 0.258794
0.158305 0.227871 0.262112
0.169599 0.239364 0.272157
0.182490 0.252447 0.283548
0.195381 0.265530 0.294939
0.208272 0.278613 0.306330
0.221163 0.291696 0.317720
0.248058 0.307957 0.327318
0.281956 0.325806 0.336019
0.315854 0.343655 0.344721
0.349752 0.361505 0.353422
0.383650 0.379354 0.362123
0.427923 0.392477 0.363564
0.482571 0.400873 0.357744
0.537220 0.409269 0.351925
0.591868 0.417666 0.346105
0.646517 0.426062 0.340285
0.692468 0.431984 0.334807
0.721025 0.432958 0.330012
0.749582 0.433933 0.325217
0.778139 0.434907 0.320422
0.806696 0.435881 0.315627
0.832607 0.438420 0.314080
0.845288 0.448783 0.328773
0.857968 0.459147 0.343466
0.870649 0.469510 0.358159
0.883329 0.479873 0.372853
0.896010 0.490236 0.387546
0.148702 0.223766 0.258285
0.152159 0.227447 0.261914
0.155615 0.231127 0.265542
0.159071 0.234808 0.269171
0.162528 0.238488 0.272800
0.165984 0.242169 0.276429
0.177981 0.253898 0.286998
0.191687 0.267238 0.298956
0.205392 0.280577 0.310914
0.219097 0.293916 0.322872
0.232802 0.307255 0.334830
0.259420 0.323473 0.345288
0.292495 0.341130 0.354995
0.325569 0.358788 0.364703
0.358644 0.376445 0.374410
0.391718 0.394102 0.384118
0.434532 0.408167 0.388038
0.487086 0.418640 0.386170
0.539640 0.429113 0.384302
0.592193 0.439586 0.382435
0.644747 0.450059 0.380567
0.690161 0.457441 0.377229
0.721298 0.458644 0.370952
0.752435 0.459847 0.364675
0.783571 0.461050 0.358398
0.814708 0.462253 0.352121
0.842752 0.464894 0.349053
0.855332 0.474727 0.362026
0.867912 0.484560 0.374999
0.880492 0.494392 0.387973
0.893072 0.504225 0.400946
0.905652 0.514057 0.413919
0.155650 0.237378 0.271047
0.159253 0.241196 0.274986
0.162856 0.245014 0.278926
0.166458 0.248832 0.282866
0.170061 0.252649 0.286805
0.173664 0.256467 0.290745
0.186364 0.268433 0.301839
0.200883 0.282028 0.314364
0.215403 0.295624 0.326890
0.229922 0.309219 0.339415
0.244441 0.322815 0.351940
0.270782 0.338990 0.363257
0.303033 0.356455 0.373971
0.335284 0.373920 0.384685
0.367536 0.391385 0.395399
0.399787 0.408850 0.406113
0.441142 0.423857 0.412512
0.491601 0.436407 0.414596
0.542059 0.448956 0.416680
0.592518 0.461506 0.418764
0.642977 0.474055 0.420849
0.687855 0.482899 0.419652
0.721571 0.484330 0.411893
0.755287 0.485762 0.404134
0.789004 0.487194 0.396375
0.822720 0.488625 0.388616
0.852897 0.491369 0.384025
0.865377 0.500671 0.395279
0.877856 0.509973 0.406532
0.890335 0.519275 0.417786
0.902815 0.528577 0.429040
0.915294 0.537879 0.440293
0.162598 0.250991 0.283808
0.166347 0.254946 0.288059
0.170096 0.258901 0.292309
0.173845 0.262856 0.296560
0.177595 0.266810 0.300811
0.181344 0.270765 0.305062
0.194747 0.282968 0.316680
0.210080 0.296819 0.329773
0.225414 0.310671 0.342865
0.240747 0.324522 0.355957
0.256081 0.338374 0.369050
0.282144 0.354506 0.381227
0.313572 0.371779 0.392947
0.345000 0.389052 0.404667
0.376427 0.406325 0.416387
0.407855 0.423598 0.428107
0.447751 0.439547 0.436986
0.496115 0.454174 0.443022
0.544479 0.468800 0.449058
0.592843 0.483426 0.455094
0.641207 0.498052 0.461130
0.685548 0.508356 0.462074
0.721844 0.510016 0.452833
0.758140 0.511677 0.443592
0.794436 0.513337 0.434351
0.830732 0.514997 0.425110
0.863042 0.517843 0.418998
0.875421 0.526614 0.428532
0.887800 0.535386 0.438066
0.900179 0.544157 0.447599
0.912557 0.552929 0.457133
0.924936 0.561700 0.466667
0.169546 0.264603 0.296569
0.173441 0.268695 0.301131
0.177337 0.272787 0.305693
0.181232 0.276879 0.310255
0.185128 0.280972 0.314817
0.189023 0.285064 0.319378
0.203129 0.297502 0.331522
0.219277 0.311610 0.345181
0.235425 0.325718 0.358840
0.251572 0.339825 0.372500
0.267720 0.353933 0.386159
0.293506 0.370023 0.399197
0.324110 0.387104 0.411923
0.354715 0.404184 0.424649
0.385319 0.421265 0.437376
0.415924 0.438346 0.450102
0.454361 0.455238 0.461459
0.500630 0.471940 0.471448
0.546899 0.488643 0.481436
0.593167 0.505346 0.491424
0.639436 0.522049 0.501412
0.683241 0.533813 0.504496
0.722117 0.535702 0.493773
0.760993 0.537591 0.483050
0.799869 0.539481 0.472327
0.838744 0.541370 0.461604
0.873187 0.544317 0.453971
0.885466 0.552558 0.461785
0.897744 0.560799 0.469599
0.910022 0.569040 0.477412
0.922300 0.577280 0.485226
0.934578 0.585521 0.493040
0.176998 0.277640 0.309780
0.181092 0.281883 0.314602
0.185185 0.286126 0.319425
0.189279 0.290369 0.324247
0.193373 0.294612 0.329070
0.197467 0.298856 0.333892
0.212289 0.311553 0.346474
0.229257 0.325941 0.360608
0.246225 0.340330 0.374741
0.263193 0.354718 0.388875
0.280161 0.369106 0.403009
0.305734 0.385210 0.416782
0.335610 0.402172 0.430376
0.365485 0.419134 0.443970
0.395361 0.436096 0.457564
0.425237 0.453058 0.471158
0.462308 0.470770 0.484613
0.506575 0.489232 0.497930
0.550843 0.507694 0.511246
0.595110 0.526156 0.524562
0.639377 0.544618 0.537879
0.682494 0.557717 0.542932
0.723312 0.560087 0.531459
0.764131 0.562458 0.519986
0.804949 0.564829 0.508513
0.845767 0.567200 0.497040
0.881850 0.570458 0.488499
0.894253 0.578151 0.494617
0.906656 0.585845 0.500736
0.919059 0.593538 0.506854
0.931462 0.601232 0.512972
0.943865 0.608925 0.519091
0.186971 0.287802 0.325235
0.191522 0.292264 0.330067
0.196073 0.296727 0.334899
0.200624 0.301190 0.339730
0.205175 0.305653 0.344562
0.209726 0.310115 0.349394
0.225334 0.323185 0.361985
0.243153 0.337975 0.376127
0.260971 0.352766 0.390270
0.278790 0.367557 0.404413
0.296609 0.382348 0.418556
0.322295 0.398751 0.432448
0.351914 0.415959 0.446216
0.381534 0.433168 0.459984
0.411154 0.450377 0.473752
0.440773 0.467586 0.487519
0.476948 0.485508 0.501166
0.519678 0.504144 0.514693
0.562409 0.522780 0.528220
0.605139 0.541416 0.541747
0.647869 0.560052 0.555274
0.689547 0.573849 0.561437
