filter/Red and Blue 3/lut/Spotlight 04_S.cube
# LUT by SparkleStock. Enhanced with VOXCOLOR algorithms.
LUT_3D_SIZE 8
DOMAIN_MIN 0.000000 0.000000 0.000000
DOMAIN_MAX 0.903226 0.903226 0.903226
0.066422 0.070330 0.093773
0.087975 0.072787 0.094718
0.170192 0.073638 0.085620
0.309370 0.078239 0.070653
0.485974 0.089677 0.055623
0.611131 0.105747 0.057135
0.675001 0.127016 0.065580
0.713915 0.156800 0.080019
0.071716 0.080161 0.100201
0.088292 0.087888 0.102463
0.174967 0.094837 0.089913
0.321025 0.105634 0.070201
0.502056 0.121627 0.051677
0.628823 0.133160 0.051872
0.694669 0.148428 0.062902
0.729766 0.171681 0.079677
0.082099 0.096420 0.115601
0.098260 0.108690 0.119492
0.173686 0.135700 0.112100
0.313413 0.164884 0.091678
0.502008 0.186651 0.062933
0.641686 0.194683 0.058078
0.717785 0.201358 0.071591
0.756736 0.217514 0.094805
0.097255 0.120052 0.142810
0.112623 0.134738 0.149494
0.173519 0.179982 0.150804
0.298467 0.228730 0.135938
0.483758 0.261118 0.103572
0.647465 0.267967 0.085544
0.737895 0.267330 0.099230
0.786708 0.280675 0.132012
0.116279 0.152239 0.182819
0.128299 0.166742 0.193455
0.179173 0.217596 0.204951
0.285381 0.278662 0.204888
0.450929 0.327558 0.185647
0.646360 0.337883 0.148902
0.752614 0.334913 0.157044
0.815229 0.352117 0.198245
0.136130 0.197991 0.232920
0.149028 0.212055 0.245459
0.190205 0.254383 0.277519
0.279434 0.314693 0.311865
0.429321 0.378720 0.331155
0.647000 0.406609 0.301436
0.772941 0.413153 0.286232
0.849021 0.436596 0.313711
0.162598 0.250991 0.283808
0.177595 0.266810 0.300811
0.225414 0.310671 0.342865
0.313572 0.371779 0.392947
0.447751 0.439547 0.436986
0.641207 0.498052 0.461130
0.794436 0.513337 0.434351
0.887800 0.535386 0.438066
0.196944 0.297964 0.340691
0.216978 0.316693 0.360054
0.275718 0.365203 0.405799
0.368219 0.429747 0.462056
0.491588 0.500247 0.517720
0.656361 0.575486 0.572669
0.811590 0.607578 0.562977
0.914167 0.632265 0.559048
0.067746 0.078270 0.111544
0.089884 0.082923 0.108977
0.177144 0.079542 0.100202
0.322592 0.078361 0.089455
0.503532 0.085920 0.080481
0.625469 0.100673 0.078188
0.688070 0.129894 0.079167
0.725710 0.166631 0.087630
0.074210 0.087077 0.113728
0.094658 0.101758 0.123243
0.185569 0.112445 0.124670
0.332712 0.123636 0.119868
0.510898 0.137153 0.111677
0.639658 0.145896 0.108180
0.711525 0.160655 0.104682
0.745994 0.185606 0.105816
0.088770 0.106354 0.130482
0.107996 0.129617 0.143400
0.190888 0.167270 0.152774
0.331391 0.201720 0.151464
0.510311 0.221350 0.137992
0.650451 0.226723 0.129800
0.734524 0.229446 0.126710
0.776307 0.241481 0.130906
0.106598 0.133512 0.160008
0.124332 0.161134 0.172896
0.195566 0.222968 0.187153
0.323199 0.282437 0.189674
0.496804 0.314950 0.174666
0.655392 0.319981 0.157483
0.752749 0.314099 0.155406
0.807331 0.317729 0.168613
0.124890 0.167217 0.200402
0.140763 0.193269 0.213658
0.201757 0.264823 0.231306
0.312610 0.342801 0.241429
0.470787 0.397218 0.235548
0.653692 0.407354 0.209110
0.764823 0.398419 0.203833
0.834033 0.402316 0.225428
0.147083 0.211799 0.250502
0.163041 0.230272 0.265548
0.212261 0.289692 0.297066
0.306409 0.367264 0.327942
0.451729 0.441018 0.344671
0.649177 0.475404 0.335118
0.778804 0.478420 0.310972
0.863987 0.494562 0.320218
0.175405 0.264115 0.302366
0.194651 0.282116 0.320441
0.247475 0.333469 0.361895
0.338025 0.403635 0.409568
0.468885 0.479093 0.450564
0.647718 0.541809 0.478198
0.796692 0.562219 0.445284
0.894378 0.584145 0.436059
0.215788 0.314308 0.359865
0.237116 0.331946 0.376145
0.299133 0.382734 0.422278
0.393291 0.451172 0.479568
0.513761 0.525324 0.534535
0.667642 0.600266 0.584370
0.814449 0.637076 0.571253
0.915985 0.663460 0.560162
0.070007 0.090630 0.156769
0.087650 0.097271 0.154524
0.173405 0.100465 0.143666
0.325442 0.101849 0.131386
0.521021 0.104441 0.122182
0.646684 0.119328 0.113699
0.710903 0.155189 0.105002
0.749959 0.200101 0.108736
0.077331 0.101211 0.160617
0.096892 0.117503 0.172712
0.186948 0.134984 0.183798
0.336519 0.148794 0.189590
0.521390 0.156780 0.187314
0.654593 0.164745 0.176375
0.732546 0.185001 0.158184
0.771764 0.218322 0.145697
0.096712 0.127776 0.175602
0.116668 0.154960 0.194886
0.199777 0.197583 0.220480
0.338095 0.233697 0.237606
0.512913 0.250296 0.237444
0.657044 0.256383 0.224723
0.751192 0.263395 0.207757
0.802798 0.281525 0.196109
0.119457 0.163374 0.204404
0.138808 0.196342 0.224333
0.212165 0.262574 0.256060
0.335841 0.324493 0.279444
0.498232 0.357587 0.281894
0.656428 0.365422 0.267202
0.765820 0.363867 0.253791
0.834604 0.370260 0.251315
0.141048 0.203614 0.247282
0.159634 0.233552 0.263272
0.225729 0.311647 0.294527
0.335234 0.395525 0.321784
0.481814 0.453620 0.331217
0.654209 0.468891 0.316672
0.776229 0.465829 0.302129
0.861456 0.468977 0.307743
0.170248 0.252311 0.298211
0.190614 0.272589 0.313470
0.248985 0.339148 0.350060
0.345337 0.423610 0.387058
0.478312 0.502019 0.409792
0.648795 0.549350 0.414766
0.784390 0.557919 0.386699
0.883324 0.568872 0.380001
0.209928 0.305776 0.351189
0.235186 0.325936 0.368309
0.295667 0.381578 0.410639
0.387815 0.455771 0.459386
0.508589 0.534379 0.500110
0.661532 0.605266 0.523520
0.799594 0.636580 0.492726
0.901599 0.657437 0.472919
0.266596 0.360499 0.407620
0.292241 0.379892 0.422940
0.357052 0.431484 0.467871
0.448915 0.499908 0.523504
0.559396 0.573662 0.575136
0.693164 0.649708 0.613363
0.821521 0.695562 0.600751
0.917926 0.723473 0.582633
0.073678 0.102052 0.224404
0.086198 0.110535 0.225039
0.154225 0.126380 0.217785
0.304947 0.139512 0.197667
0.527618 0.145836 0.165963
0.667491 0.160784 0.147380
0.736904 0.198922 0.133961
0.779596 0.249514 0.142063
0.081490 0.114341 0.230765
0.097778 0.130454 0.242509
0.174452 0.156310 0.261422
0.321401 0.178437 0.271022
0.523752 0.189312 0.261591
0.668899 0.197272 0.239118
0.752722 0.223823 0.209418
0.799004 0.266570 0.193222
0.103122 0.148989 0.245990
0.121268 0.174221 0.265446
0.196360 0.219983 0.302122
0.329751 0.261165 0.331923
0.508532 0.282169 0.338597
0.663497 0.289676 0.320224
0.766532 0.302886 0.291567
0.829526 0.330050 0.273275
0.130627 0.194707 0.272609
0.149683 0.225318 0.293703
0.220691 0.290839 0.337913
0.338538 0.354576 0.378302
0.493238 0.392069 0.395993
0.656524 0.404194 0.385539
0.776855 0.408687 0.364429
0.860409 0.421659 0.353800
0.159767 0.243866 0.311653
0.179992 0.272976 0.328278
0.249449 0.349553 0.370614
0.355160 0.432393 0.413458
0.487738 0.491510 0.438465
0.651784 0.514725 0.437364
0.783270 0.519496 0.421113
0.884030 0.525887 0.416685
0.198567 0.298858 0.361802
0.223338 0.320952 0.377016
0.292226 0.389057 0.417926
0.389640 0.473100 0.462130
0.505685 0.549988 0.493515
0.650594 0.606263 0.506588
0.788409 0.621887 0.482547
0.898107 0.630123 0.468071
0.252664 0.358952 0.414813
0.284032 0.381368 0.430948
0.354884 0.439062 0.472713
0.448066 0.512991 0.521556
0.552720 0.588946 0.562215
0.678195 0.662359 0.579661
0.802441 0.701881 0.556907
0.906498 0.721303 0.533956
0.325902 0.419062 0.468868
0.357333 0.440764 0.483895
0.427201 0.492550 0.525495
0.515714 0.558580 0.576731
0.610436 0.627768 0.623315
0.720980 0.700895 0.650154
0.828712 0.753101 0.641041
0.918664 0.781756 0.621130
0.079657 0.109189 0.308323
0.089323 0.119429 0.313220
0.124053 0.149095 0.318549
0.255756 0.181551 0.290511
0.499801 0.205705 0.219404
0.681059 0.222793 0.175554
0.762309 0.258147 0.164450
0.810305 0.309459 0.188786
0.087432 0.121496 0.315068
0.099875 0.137949 0.325083
0.149696 0.171996 0.350206
0.280389 0.208814 0.358039
0.497542 0.237082 0.330633
0.678196 0.249335 0.286944
0.770315 0.279480 0.251275
0.823623 0.327701 0.245526
0.107485 0.162384 0.334837
0.121667 0.181913 0.347436
0.180953 0.230778 0.386090
0.302934 0.283244 0.419669
0.486584 0.320488 0.426452
0.669513 0.334271 0.400546
0.780587 0.351071 0.362928
0.852564 0.383452 0.349733
0.137747 0.217131 0.359418
0.154308 0.239417 0.372948
0.219988 0.303188 0.417602
0.330741 0.372221 0.465203
0.480329 0.420751 0.494325
0.658285 0.441584 0.490819
0.786311 0.448508 0.465191
0.879732 0.464352 0.454691
0.176639 0.275168 0.385864
0.197464 0.300958 0.399652
0.268822 0.372224 0.443103
0.370277 0.451366 0.493288
0.490297 0.511484 0.532141
0.649231 0.544753 0.545380
0.785210 0.552773 0.535704
0.894539 0.559820 0.528061
0.225447 0.335740 0.430762
0.253283 0.360747 0.446056
0.332676 0.428870 0.486435
0.431934 0.509428 0.533177
0.532643 0.580271 0.571250
0.656859 0.635254 0.587501
0.790054 0.654338 0.576167
0.903234 0.662152 0.564482
0.291747 0.408107 0.481510
0.327217 0.432633 0.497209
0.409948 0.492002 0.535593
0.505333 0.563741 0.581195
0.593126 0.632235 0.620376
0.694496 0.697376 0.635410
0.804874 0.737362 0.624572
0.907497 0.755410 0.607822
0.375170 0.474417 0.532225
0.411592 0.497408 0.546418
0.489834 0.550123 0.582825
0.577465 0.613554 0.627508
0.655554 0.675136 0.668168
0.743594 0.738721 0.689192
0.833836 0.790118 0.685973
0.917728 0.818244 0.671830
0.091756 0.113348 0.397369
0.100105 0.125344 0.406657
0.125120 0.161121 0.421976
0.192604 0.209592 0.423980
0.337540 0.260605 0.388056
0.675704 0.300965 0.241456
0.791888 0.335563 0.224448
0.845982 0.382265 0.263994
0.098215 0.125802 0.405139
0.106960 0.142198 0.413653
0.137864 0.179981 0.434204
0.211779 0.229264 0.450313
0.357657 0.281585 0.439435
0.675159 0.328782 0.331750
0.794903 0.360022 0.297014
0.853969 0.402660 0.311839
0.117676 0.169427 0.427281
0.128270 0.186044 0.433769
0.168690 0.232782 0.458840
0.248759 0.292174 0.487637
0.387091 0.352042 0.502979
0.665059 0.412762 0.462587
0.798375 0.429485 0.424699
0.875389 0.452748 0.421424
0.147279 0.228956 0.452898
0.161621 0.245987 0.458694
0.211798 0.301644 0.486662
0.298152 0.373106 0.524747
0.428079 0.443584 0.560771
0.653095 0.508134 0.572685
0.797506 0.513940 0.547082
0.894902 0.519648 0.536609
0.185934 0.292445 0.475758
0.206013 0.312768 0.483441
0.265828 0.374031 0.513098
0.359610 0.454393 0.556071
0.483664 0.533964 0.602030
0.647107 0.586020 0.627063
0.790987 0.593760 0.624633
0.902880 0.594890 0.617992
0.241035 0.353602 0.503238
0.268012 0.378581 0.512768
0.348913 0.450650 0.548682
0.455711 0.536044 0.593359
0.565794 0.609243 0.633028
0.662677 0.656497 0.658240
0.789306 0.675792 0.662745
0.903019 0.683581 0.657048
0.312410 0.431434 0.546814
0.344074 0.455989 0.558032
0.433314 0.523385 0.593397
0.541449 0.601233 0.636029
0.639022 0.667121 0.672984
0.709829 0.719736 0.696412
0.807563 0.755702 0.699918
0.906537 0.772575 0.691403
0.399869 0.506484 0.593437
0.433515 0.529711 0.605052
0.519241 0.588531 0.637650
0.617632 0.655487 0.676706
0.700946 0.712680 0.711440
0.764783 0.765433 0.737308
0.840313 0.809732 0.743273
0.917336 0.835414 0.737078
0.107322 0.124125 0.476490
0.114842 0.135194 0.486632
0.137369 0.170942 0.507885
0.183415 0.220700 0.523363
0.274936 0.279558 0.516630
0.514839 0.364415 0.455850
0.750686 0.408197 0.361503
0.879087 0.452357 0.349113
0.114171 0.135505 0.484186
0.122540 0.151050 0.492855
0.147529 0.188585 0.514521
0.197439 0.239877 0.534740
0.291849 0.301418 0.538978
0.520590 0.388636 0.497982
0.754624 0.432548 0.406074
0.885041 0.475176 0.385533
0.133798 0.177279 0.506480
0.144348 0.193214 0.513040
0.177761 0.237750 0.534311
0.235894 0.297554 0.559232
0.331216 0.365418 0.577321
0.536866 0.455515 0.571162
0.764961 0.499454 0.505732
0.899247 0.529967 0.482593
0.164480 0.235511 0.532026
0.178472 0.252225 0.537804
0.221606 0.303927 0.558877
0.290086 0.373490 0.588373
0.388160 0.449326 0.619553
0.562629 0.535224 0.641694
0.773889 0.576464 0.611637
0.909713 0.593216 0.592532
0.205367 0.300077 0.554212
0.223713 0.320295 0.561192
0.275951 0.376843 0.583464
0.355632 0.453516 0.617307
0.459208 0.535923 0.657282
0.597886 0.607828 0.688490
0.777918 0.643184 0.689268
0.909549 0.651537 0.679554
0.260908 0.370357 0.579887
0.283016 0.392833 0.586410
0.351386 0.457400 0.614467
0.445036 0.538575 0.652170
0.547335 0.616317 0.689917
0.649086 0.677112 0.720361
0.787264 0.710570 0.730057
0.904918 0.721493 0.724664
0.324386 0.445827 0.613709
0.354421 0.470642 0.623630
0.435748 0.538019 0.654379
0.539073 0.618163 0.691938
0.640921 0.689017 0.725463
0.723848 0.741468 0.748048
0.812681 0.776570 0.760456
0.904636 0.792658 0.757503
0.406908 0.521291 0.652266
0.439182 0.545710 0.663530
0.521630 0.608892 0.693677
0.621909 0.681442 0.728491
0.715191 0.742545 0.757559
0.787203 0.788134 0.776853
0.848548 0.825511 0.791777
0.915450 0.848440 0.793196
0.128906 0.145851 0.543180
0.135298 0.155060 0.552517
0.158295 0.187751 0.575864
0.197031 0.234562 0.598773
0.259805 0.293172 0.611580
0.403611 0.390775 0.614476
0.652863 0.466952 0.536195
0.842653 0.519445 0.480513
0.134188 0.153931 0.548919
0.143308 0.168499 0.558535
0.167833 0.203272 0.581574
0.208369 0.252161 0.605640
0.273304 0.314191 0.622051
0.414301 0.411420 0.628999
0.659362 0.487562 0.557976
0.848640 0.540211 0.504730
0.154528 0.190394 0.571894
0.166675 0.206902 0.580721
0.198542 0.248827 0.602203
0.246928 0.306082 0.627473
0.316180 0.373901 0.649768
0.449163 0.467985 0.665158
0.678652 0.544391 0.619278
0.861084 0.590703 0.572355
0.187087 0.244593 0.599242
0.202442 0.262532 0.607499
0.242985 0.311918 0.628035
0.301763 0.378442 0.655264
0.378100 0.452852 0.684205
0.500261 0.541390 0.709077
0.703241 0.613056 0.691746
0.872778 0.649720 0.654159
0.230016 0.308944 0.623190
0.248446 0.329350 0.631640
0.296497 0.383596 0.653041
0.365714 0.456538 0.683223
0.451110 0.536339 0.717914
0.561882 0.617485 0.750372
0.729176 0.677299 0.753808
0.879862 0.704206 0.727073
0.286569 0.385061 0.650024
0.306557 0.406397 0.657577
0.364327 0.464734 0.681466
0.443815 0.540670 0.714370
0.533657 0.619156 0.750256
0.635619 0.692328 0.784574
0.764200 0.740731 0.793109
0.888095 0.763373 0.773984
0.347645 0.460990 0.678372
0.374357 0.485189 0.688243
0.443364 0.547909 0.715874
0.533919 0.625656 0.750714
0.629669 0.699950 0.783936
0.721286 0.758273 0.806870
0.805927 0.796928 0.818382
0.897338 0.818447 0.807524
0.424157 0.536571 0.712095
0.451878 0.560210 0.722230
0.524525 0.622239 0.751225
0.617279 0.696110 0.784872
0.710459 0.761483 0.812142
0.790864 0.806222 0.825274
0.850940 0.840502 0.837585
0.914030 0.864133 0.835780
