filter/Red and Blue 3/lut/Spotlight 03.cube
# LUT by SparkleStock. Enhanced with VOXCOLOR algorithms.
LUT_3D_SIZE 32
0.078144 0.062515 0.113309
0.085234 0.062657 0.114396
0.092323 0.062799 0.115483
0.099413 0.062941 0.116570
0.106503 0.063082 0.117657
0.113593 0.063224 0.118744
0.137225 0.064981 0.119989
0.164166 0.067061 0.121265
0.191106 0.069140 0.122541
0.218047 0.071220 0.123817
0.244988 0.073299 0.125094
0.279018 0.077648 0.127756
0.316594 0.083130 0.131112
0.354169 0.088613 0.134468
0.391744 0.094096 0.137823
0.429320 0.099579 0.141179
0.463185 0.105983 0.145528
0.493340 0.113309 0.150868
0.523494 0.120635 0.156209
0.553649 0.127961 0.161550
0.583804 0.135287 0.166891
0.609154 0.142629 0.172563
0.624893 0.150002 0.178896
0.640632 0.157375 0.185230
0.656371 0.164749 0.191563
0.672110 0.172122 0.197897
0.686707 0.179834 0.204317
0.695593 0.189239 0.211170
0.704478 0.198645 0.218024
0.713364 0.208051 0.224877
0.722250 0.217456 0.231730
0.731136 0.226862 0.238584
0.078995 0.064122 0.115814
0.085490 0.064676 0.117230
0.091985 0.065229 0.118647
0.098480 0.065783 0.120063
0.104975 0.066336 0.121480
0.111470 0.066890 0.122896
0.135179 0.068768 0.124226
0.162330 0.070912 0.125539
0.189481 0.073056 0.126851
0.216632 0.075199 0.128164
0.243784 0.077343 0.129477
0.278244 0.081749 0.132133
0.316359 0.087287 0.135462
0.354474 0.092824 0.138790
0.392589 0.098362 0.142118
0.430704 0.103899 0.145447
0.465017 0.110368 0.149772
0.495529 0.117767 0.155095
0.526041 0.125166 0.160417
0.556552 0.132565 0.165740
0.587064 0.139965 0.171063
0.612694 0.147431 0.176744
0.628561 0.155033 0.183141
0.644428 0.162635 0.189539
0.660295 0.170237 0.195936
0.676163 0.177839 0.202333
0.690865 0.185775 0.208842
0.699741 0.195382 0.215906
0.708618 0.204989 0.222970
0.717494 0.214596 0.230033
0.726371 0.224203 0.237097
0.735248 0.233810 0.244161
0.079846 0.065729 0.118319
0.085746 0.066694 0.120065
0.091646 0.067659 0.121810
0.097547 0.068625 0.123556
0.103447 0.069590 0.125302
0.109348 0.070555 0.127048
0.133133 0.072555 0.128463
0.160494 0.074763 0.129812
0.187856 0.076971 0.131162
0.215217 0.079179 0.132511
0.242579 0.081386 0.133860
0.277469 0.085850 0.136511
0.316124 0.091443 0.139812
0.354779 0.097035 0.143113
0.393434 0.102628 0.146413
0.432089 0.108220 0.149714
0.466850 0.114753 0.154017
0.497718 0.122225 0.159321
0.528587 0.129698 0.164626
0.559455 0.137170 0.169930
0.590323 0.144642 0.175234
0.616234 0.152234 0.180924
0.632229 0.160065 0.187386
0.648225 0.167895 0.193847
0.664220 0.175726 0.200309
0.680215 0.183557 0.206770
0.695022 0.191717 0.213367
0.703890 0.201525 0.220641
0.712757 0.211333 0.227916
0.721625 0.221141 0.235190
0.730492 0.230950 0.242464
0.739360 0.240758 0.249738
0.080696 0.067336 0.120824
0.086002 0.068713 0.122899
0.091308 0.070090 0.124974
0.096614 0.071467 0.127049
0.101920 0.072843 0.129124
0.107226 0.074220 0.131199
0.131086 0.076343 0.132700
0.158658 0.078614 0.134086
0.186231 0.080886 0.135472
0.213803 0.083158 0.136858
0.241375 0.085430 0.138244
0.276695 0.089952 0.140888
0.315889 0.095599 0.144161
0.355084 0.101247 0.147435
0.394278 0.106894 0.150708
0.433473 0.112541 0.153982
0.468683 0.119138 0.158262
0.499908 0.126683 0.163548
0.531133 0.134229 0.168834
0.562358 0.141774 0.174120
0.593583 0.149320 0.179406
0.619774 0.157037 0.185105
0.635898 0.165096 0.191630
0.652021 0.173156 0.198156
0.668144 0.181215 0.204681
0.684268 0.189274 0.211207
0.699180 0.197659 0.217892
0.708038 0.207668 0.225377
0.716897 0.217677 0.232862
0.725755 0.227687 0.240346
0.734613 0.237696 0.247831
0.743472 0.247706 0.255315
0.081547 0.068943 0.123329
0.086258 0.070732 0.125733
0.090970 0.072520 0.128138
0.095681 0.074309 0.130542
0.100392 0.076097 0.132947
0.105103 0.077885 0.135351
0.129040 0.080130 0.136937
0.156823 0.082466 0.138360
0.184605 0.084802 0.139782
0.212388 0.087137 0.141205
0.240170 0.089473 0.142627
0.275920 0.094053 0.145265
0.315655 0.099755 0.148511
0.355389 0.105458 0.151757
0.395123 0.111160 0.155003
0.434857 0.116862 0.158249
0.470515 0.123523 0.162506
0.502097 0.131141 0.167774
0.533679 0.138760 0.173042
0.565261 0.146379 0.178309
0.596843 0.153998 0.183577
0.623315 0.161839 0.189285
0.639566 0.170128 0.195875
0.655817 0.178416 0.202465
0.672069 0.186704 0.209054
0.688320 0.194992 0.215644
0.703338 0.203600 0.222418
0.712187 0.213811 0.230113
0.721036 0.224022 0.237808
0.729885 0.234232 0.245503
0.738734 0.244443 0.253198
0.747584 0.254654 0.260893
0.082398 0.070550 0.125834
0.086514 0.072750 0.128568
0.090631 0.074950 0.131301
0.094748 0.077151 0.134035
0.098864 0.079351 0.136769
0.102981 0.081551 0.139503
0.126994 0.083917 0.141174
0.154987 0.086317 0.142633
0.182980 0.088717 0.144092
0.210973 0.091117 0.145551
0.238966 0.093516 0.147011
0.275146 0.098155 0.149643
0.315420 0.103912 0.152861
0.355694 0.109669 0.156080
0.395968 0.115426 0.159298
0.436242 0.121183 0.162517
0.472348 0.127908 0.166751
0.504287 0.135599 0.172000
0.536225 0.143291 0.177250
0.568164 0.150983 0.182499
0.600103 0.158675 0.187749
0.626855 0.166642 0.193466
0.643234 0.175159 0.200120
0.659614 0.183676 0.206773
0.675993 0.192192 0.213427
0.692373 0.200709 0.220081
0.707496 0.209542 0.226943
0.716336 0.219954 0.234848
0.725176 0.230366 0.242754
0.734016 0.240778 0.250659
0.742856 0.251190 0.258564
0.751696 0.261601 0.266470
0.084982 0.075505 0.132041
0.089129 0.078125 0.135089
0.093276 0.080744 0.138137
0.097423 0.083363 0.141185
0.101570 0.085983 0.144233
0.105717 0.088602 0.147280
0.128475 0.091702 0.149759
0.154956 0.094897 0.152124
0.181436 0.098093 0.154489
0.207916 0.101289 0.156853
0.234397 0.104484 0.159218
0.270773 0.109419 0.161996
0.312098 0.115224 0.164982
0.353422 0.121028 0.167967
0.394747 0.126832 0.170952
0.436071 0.132637 0.173938
0.473228 0.139463 0.177993
0.506217 0.147312 0.183117
0.539206 0.155161 0.188241
0.572195 0.163010 0.193366
0.605184 0.170859 0.198490
0.632799 0.179058 0.204179
0.649665 0.187956 0.210995
0.666531 0.196854 0.217812
0.683397 0.205752 0.224629
0.700262 0.214650 0.231446
0.715825 0.223912 0.238539
0.724869 0.234998 0.247013
0.733913 0.246084 0.255487
0.742958 0.257170 0.263961
0.752002 0.268256 0.272435
0.761046 0.279341 0.280909
0.087912 0.081130 0.138989
0.092215 0.084170 0.142348
0.096517 0.087210 0.145707
0.100820 0.090250 0.149066
0.105122 0.093290 0.152425
0.109425 0.096331 0.155783
0.130662 0.100285 0.159213
0.155285 0.104423 0.162658
0.179908 0.108561 0.166102
0.204532 0.112699 0.169546
0.229155 0.116837 0.172990
0.265681 0.122117 0.175946
0.308158 0.127967 0.178656
0.350635 0.133817 0.181367
0.393112 0.139667 0.184078
0.435589 0.145517 0.186789
0.473917 0.152454 0.190633
0.508095 0.160476 0.195612
0.542274 0.168499 0.200590
0.576452 0.176522 0.205568
0.610630 0.184545 0.210546
0.639224 0.192996 0.216198
0.656648 0.202306 0.223197
0.674072 0.211616 0.230197
0.691496 0.220925 0.237197
0.708919 0.230235 0.244196
0.724988 0.239969 0.251549
0.734279 0.251823 0.260663
0.743570 0.263677 0.269777
0.752862 0.275531 0.278892
0.762153 0.287386 0.288006
0.771444 0.299240 0.297121
0.090842 0.086754 0.145937
0.095301 0.090215 0.149607
0.099759 0.093676 0.153277
0.104217 0.097137 0.156947
0.108675 0.100598 0.160617
0.113133 0.104059 0.164287
0.132848 0.108869 0.168668
0.155614 0.113950 0.173192
0.178381 0.119030 0.177715
0.201147 0.124110 0.182239
0.223913 0.129190 0.186763
0.260588 0.134814 0.189895
0.304218 0.140710 0.192331
0.347848 0.146606 0.194768
0.391478 0.152502 0.197204
0.435107 0.158398 0.199640
0.474606 0.165444 0.203274
0.509974 0.173640 0.208106
0.545341 0.181837 0.212938
0.580709 0.190034 0.217769
0.616077 0.198230 0.222601
0.645649 0.206935 0.228216
0.663631 0.216656 0.235399
0.681613 0.226377 0.242582
0.699595 0.236099 0.249765
0.717576 0.245820 0.256947
0.734151 0.256025 0.264559
0.743689 0.268647 0.274313
0.753228 0.281270 0.284068
0.762766 0.293893 0.293823
0.772304 0.306516 0.303578
0.781843 0.319138 0.313333
0.093773 0.092379 0.152885
0.098387 0.096260 0.156866
0.103000 0.100142 0.160847
0.107614 0.104024 0.164828
0.112227 0.107906 0.168809
0.116841 0.111788 0.172790
0.135034 0.117453 0.178122
0.155944 0.123476 0.183725
0.176853 0.129498 0.189329
0.197762 0.135520 0.194932
0.218671 0.141543 0.200535
0.255496 0.147511 0.203844
0.300278 0.153453 0.206006
0.345061 0.159395 0.208168
0.389843 0.165336 0.210330
0.434626 0.171278 0.212492
0.475295 0.178434 0.215915
0.511852 0.186804 0.220601
0.548409 0.195175 0.225286
0.584966 0.203545 0.229971
0.621523 0.211915 0.234657
0.652074 0.220873 0.240235
0.670614 0.231006 0.247601
0.689154 0.241139 0.254967
0.707694 0.251272 0.262332
0.726233 0.261405 0.269698
0.743314 0.272081 0.277569
0.753100 0.285472 0.287964
0.762885 0.298863 0.298359
0.772670 0.312254 0.308754
0.782455 0.325645 0.319149
0.792241 0.339037 0.329544
0.096703 0.098003 0.159833
0.101472 0.102306 0.164125
0.106242 0.106608 0.168417
0.111011 0.110911 0.172709
0.115780 0.115213 0.177001
0.120549 0.119516 0.181293
0.137221 0.126037 0.187577
0.156273 0.133002 0.194259
0.175325 0.139966 0.200942
0.194377 0.146931 0.207625
0.213429 0.153896 0.214307
0.250404 0.160209 0.217793
0.296339 0.166196 0.219681
0.342274 0.172184 0.221568
0.388209 0.178171 0.223456
0.434144 0.184158 0.225343
0.475984 0.191424 0.228556
0.513730 0.199968 0.233095
0.551477 0.208512 0.237634
0.589223 0.217057 0.242173
0.626969 0.225601 0.246712
0.658499 0.234812 0.252254
0.677597 0.245356 0.259803
0.696695 0.255901 0.267351
0.715793 0.266446 0.274900
0.734891 0.276990 0.282449
0.752478 0.288137 0.290578
0.762510 0.302297 0.301614
0.772542 0.316456 0.312649
0.782574 0.330616 0.323685
0.792607 0.344775 0.334721
0.802639 0.358935 0.345756
0.100831 0.106999 0.170499
0.105847 0.111716 0.175090
0.110863 0.116434 0.179681
0.115879 0.121151 0.184271
0.120896 0.125868 0.188862
0.125912 0.130586 0.193453
0.142353 0.138266 0.200783
0.161079 0.146539 0.208661
0.179805 0.154812 0.216539
0.198530 0.163084 0.224417
0.217256 0.171357 0.232295
0.253630 0.178344 0.236427
0.298827 0.184688 0.238687
0.344024 0.191032 0.240946
0.389221 0.197377 0.243206
0.434418 0.203721 0.245465
0.476539 0.211093 0.248560
0.515584 0.219494 0.252489
0.554630 0.227895 0.256418
0.593675 0.236296 0.260347
0.632720 0.244697 0.264276
0.665322 0.253850 0.269354
0.685039 0.264507 0.276732
0.704756 0.275165 0.284110
0.724473 0.285822 0.291488
0.744190 0.296479 0.298866
0.762326 0.307799 0.306920
0.772556 0.322428 0.318358
0.782787 0.337057 0.329796
0.793017 0.351686 0.341234
0.803248 0.366315 0.352672
0.813478 0.380945 0.364110
0.105558 0.117681 0.183024
0.110866 0.122810 0.187908
0.116175 0.127939 0.192791
0.121484 0.133068 0.197675
0.126793 0.138197 0.202558
0.132102 0.143326 0.207442
0.148958 0.152317 0.215865
0.168123 0.162081 0.224996
0.187288 0.171845 0.234127
0.206453 0.181609 0.243259
0.225618 0.191373 0.252390
0.261015 0.199199 0.257403
0.304529 0.206055 0.260358
0.348043 0.212911 0.263313
0.391557 0.219768 0.266268
0.435071 0.226624 0.269223
0.477027 0.234102 0.272244
0.517426 0.242201 0.275331
0.557825 0.250300 0.278419
0.598224 0.258399 0.281506
0.638623 0.266498 0.284593
0.672345 0.275438 0.288995
0.692711 0.286058 0.296025
0.713078 0.296679 0.303056
0.733444 0.307300 0.310086
0.753811 0.317921 0.317116
0.772517 0.329263 0.324928
0.782921 0.344212 0.336650
0.793325 0.359162 0.348371
0.803730 0.374111 0.360093
0.814134 0.389060 0.371815
0.824538 0.404010 0.383536
0.110284 0.128363 0.195549
0.115886 0.133903 0.200725
0.121487 0.139444 0.205902
0.127089 0.144985 0.211078
0.132690 0.150525 0.216254
0.138292 0.156066 0.221430
0.155562 0.166368 0.230947
0.175167 0.177624 0.241331
0.194771 0.188879 0.251716
0.214375 0.200134 0.262100
0.233979 0.211389 0.272485
0.268401 0.220053 0.278380
0.310231 0.227422 0.282030
0.352062 0.234790 0.285680
0.393893 0.242159 0.289330
0.435723 0.249528 0.292980
0.477515 0.257111 0.295928
0.519268 0.264908 0.298174
0.561021 0.272705 0.300419
0.602774 0.280502 0.302665
0.644527 0.288299 0.304911
0.679367 0.297025 0.308636
0.700383 0.307609 0.315318
0.721399 0.318194 0.322001
0.742415 0.328778 0.328684
0.763431 0.339362 0.335366
0.782708 0.350727 0.342936
0.793286 0.365997 0.354941
0.803864 0.381266 0.366946
0.814442 0.396536 0.378952
0.825020 0.411805 0.390957
0.835598 0.427075 0.402962
0.115010 0.139044 0.208074
0.120905 0.144997 0.213543
0.126799 0.150949 0.219012
0.132693 0.156901 0.224481
0.138588 0.162854 0.229950
0.144482 0.168806 0.235419
0.162167 0.180420 0.246029
0.182210 0.193166 0.257667
0.202254 0.205912 0.269304
0.222297 0.218658 0.280942
0.242340 0.231405 0.292580
0.275786 0.240907 0.299356
0.315934 0.248788 0.303701
0.356081 0.256669 0.308047
0.396228 0.264550 0.312392
0.436376 0.272431 0.316737
0.478003 0.280119 0.319612
0.521110 0.287615 0.321016
0.564217 0.295110 0.322420
0.607323 0.302605 0.323825
0.650430 0.310100 0.325229
0.686390 0.318613 0.328277
0.708055 0.329161 0.334612
0.729721 0.339708 0.340946
0.751386 0.350256 0.347281
0.773052 0.360803 0.353616
0.792898 0.372191 0.360944
0.803650 0.387781 0.373233
0.814402 0.403371 0.385521
0.825154 0.418960 0.397810
0.835906 0.434550 0.410099
0.846658 0.450140 0.422388
0.119737 0.149726 0.220599
0.125924 0.156090 0.226361
0.132111 0.162454 0.232123
0.138298 0.168818 0.237885
0.144485 0.175182 0.243646
0.150672 0.181546 0.249408
0.168772 0.194471 0.261111
0.189254 0.208708 0.274002
0.209737 0.222946 0.286893
0.230219 0.237183 0.299784
0.250701 0.251420 0.312675
0.283172 0.261762 0.320332
0.321636 0.270155 0.325373
0.360100 0.278548 0.330413
0.398564 0.286941 0.335454
0.437028 0.295335 0.340494
0.478491 0.303128 0.343296
0.522952 0.310321 0.343859
0.567412 0.317515 0.344421
0.611873 0.324708 0.344984
0.656334 0.331901 0.345546
0.693413 0.340201 0.347917
0.715728 0.350712 0.353905
0.738043 0.361223 0.359892
0.760357 0.371734 0.365879
0.782672 0.382245 0.371867
0.803089 0.393656 0.378952
0.814015 0.409565 0.391524
0.824941 0.425475 0.404096
0.835866 0.441385 0.416669
0.846792 0.457295 0.429241
0.857718 0.473205 0.441813
0.126425 0.163338 0.235181
0.132992 0.170096 0.241208
0.139558 0.176853 0.247235
0.146125 0.183610 0.253262
0.152692 0.190368 0.259289
0.159258 0.197125 0.265316
0.177894 0.211133 0.277878
0.198944 0.226592 0.291748
0.219993 0.242050 0.305618
0.241043 0.257509 0.319488
0.262092 0.272968 0.333358
0.294053 0.284469 0.342137
0.331470 0.293992 0.348372
0.368887 0.303515 0.354606
0.406303 0.313038 0.360840
0.443720 0.322561 0.367075
0.484753 0.330686 0.370146
0.529401 0.337413 0.370055
0.574049 0.344140 0.369963
0.618697 0.350867 0.369872
0.663346 0.357594 0.369780
0.700722 0.365428 0.371459
0.723554 0.375477 0.376678
0.746385 0.385526 0.381897
0.769217 0.395575 0.387116
0.792049 0.405624 0.392335
0.812901 0.416625 0.398760
0.823854 0.432384 0.411218
0.834808 0.448143 0.423676
0.845761 0.463901 0.436134
0.856714 0.479660 0.448592
0.867667 0.495419 0.461050
0.135074 0.179881 0.251818
0.142108 0.187013 0.258083
0.149141 0.194146 0.264347
0.156174 0.201278 0.270612
0.163207 0.208411 0.276877
0.170241 0.215543 0.283142
0.189533 0.230407 0.296331
0.211278 0.246817 0.310906
0.233023 0.263227 0.325480
0.254768 0.279636 0.340054
0.276512 0.296046 0.354628
0.308431 0.309030 0.364771
0.345436 0.320300 0.372698
0.382441 0.331571 0.380624
0.419446 0.342841 0.388551
0.456451 0.354111 0.396478
0.496788 0.362794 0.400162
0.540458 0.368890 0.399604
0.584127 0.374985 0.399046
0.627797 0.381081 0.398488
0.671466 0.387177 0.397930
0.708318 0.394294 0.398901
0.731534 0.403456 0.402931
0.754750 0.412618 0.406961
0.777966 0.421779 0.410990
0.801182 0.430941 0.415020
0.822334 0.441099 0.420369
0.833169 0.456235 0.432315
0.844003 0.471372 0.444260
0.854837 0.486509 0.456206
0.865671 0.501646 0.468152
0.876506 0.516783 0.480098
0.143724 0.196424 0.268455
0.151223 0.203931 0.274958
0.158723 0.211439 0.281460
0.166223 0.218946 0.287963
0.173723 0.226453 0.294466
0.181223 0.233961 0.300968
0.201173 0.249680 0.314784
0.223613 0.267041 0.330063
0.246053 0.284403 0.345342
0.268493 0.301764 0.360620
0.290933 0.319125 0.375899
0.322808 0.333591 0.387405
0.359402 0.346608 0.397024
0.395995 0.359626 0.406643
0.432589 0.372643 0.416262
0.469182 0.385661 0.425881
0.508824 0.394902 0.430178
0.551515 0.400366 0.429154
0.594205 0.405831 0.428129
0.636896 0.411295 0.427104
0.679586 0.416760 0.426080
0.715914 0.423161 0.426344
0.739514 0.431435 0.429184
0.763114 0.439709 0.432025
0.786714 0.447984 0.434865
0.810315 0.456258 0.437705
0.831767 0.465572 0.441978
0.842483 0.480087 0.453411
0.853198 0.494602 0.464845
0.863913 0.509117 0.476278
0.874629 0.523632 0.487712
0.885344 0.538146 0.499145
0.152373 0.212966 0.285092
0.160339 0.220849 0.291833
0.168306 0.228731 0.298573
0.176272 0.236614 0.305314
0.184239 0.244496 0.312054
0.192205 0.252379 0.318795
0.212812 0.268953 0.333237
0.235947 0.287266 0.349220
0.259082 0.305579 0.365203
0.282218 0.323891 0.381186
0.305353 0.342204 0.397169
0.337186 0.358152 0.410038
0.373368 0.372916 0.421350
0.409549 0.387681 0.432661
0.445731 0.402446 0.443973
0.481913 0.417211 0.455284
0.520860 0.427010 0.460194
0.562572 0.431843 0.458703
0.604283 0.436676 0.457212
0.645995 0.441509 0.455721
0.687707 0.446343 0.454230
0.723509 0.452027 0.453786
0.747494 0.459414 0.455437
0.771478 0.466801 0.457088
0.795463 0.474188 0.458740
0.819447 0.481575 0.460391
0.841200 0.490046 0.463587
0.851797 0.503939 0.474508
0.862393 0.517832 0.485429
0.872990 0.531725 0.496351
0.883586 0.545617 0.507272
0.894183 0.559510 0.518193
0.161022 0.229509 0.301729
0.169455 0.237766 0.308707
0.177888 0.246024 0.315686
0.186321 0.254282 0.322664
0.194754 0.262539 0.329643
0.203187 0.270797 0.336621
0.224451 0.288226 0.351690
0.248282 0.307491 0.368378
0.272112 0.326755 0.385065
0.295943 0.346019 0.401753
0.319773 0.365283 0.418440
0.351563 0.382712 0.432672
0.387334 0.399224 0.445676
0.423104 0.415737 0.458679
0.458874 0.432249 0.471683
0.494644 0.448761 0.484687
0.532896 0.459118 0.490210
0.573628 0.463320 0.488253
0.614361 0.467522 0.486295
0.655094 0.471724 0.484337
0.695827 0.475926 0.482380
0.731105 0.480894 0.481228
0.755474 0.487393 0.481690
0.779843 0.493893 0.482152
0.804211 0.500392 0.482614
0.828580 0.506892 0.483076
0.850634 0.514520 0.485196
0.861111 0.527791 0.495605
0.871589 0.541062 0.506014
0.882066 0.554332 0.516423
0.892544 0.567603 0.526832
0.903021 0.580874 0.537241
0.171956 0.247469 0.318965
0.180831 0.256053 0.326172
0.189706 0.264637 0.333379
0.198582 0.273221 0.340586
0.207457 0.281805 0.347793
0.216332 0.290389 0.355000
0.238218 0.308485 0.370524
0.262708 0.328484 0.387712
0.287197 0.348483 0.404900
0.311686 0.368482 0.422087
0.336175 0.388481 0.439275
0.367841 0.406965 0.454452
0.403096 0.424690 0.468623
0.438351 0.442416 0.482795
0.473606 0.460142 0.496967
0.508860 0.477868 0.511139
0.546237 0.488813 0.517360
0.585735 0.492979 0.515631
0.625233 0.497144 0.513902
0.664731 0.501309 0.512173
0.704229 0.505475 0.510444
0.738762 0.510079 0.509025
0.763365 0.515560 0.508224
0.787969 0.521041 0.507424
0.812572 0.526522 0.506623
0.837176 0.532003 0.505823
0.859394 0.538649 0.506775
0.869689 0.551118 0.516488
0.879983 0.563586 0.526202
0.890278 0.576055 0.535916
0.900572 0.588524 0.545629
0.910867 0.600993 0.555343
0.187459 0.268266 0.337398
0.196728 0.277078 0.344816
0.205996 0.285891 0.352233
0.215264 0.294703 0.359651
0.224533 0.303516 0.367068
0.233801 0.312329 0.374486
0.256242 0.330715 0.390121
0.281316 0.351016 0.407400
0.306391 0.371317 0.424679
0.331465 0.391617 0.441958
0.356540 0.411918 0.459237
0.387920 0.430600 0.474524
0.422452 0.448472 0.488814
0.456984 0.466344 0.503105
0.491516 0.484216 0.517396
0.526048 0.502088 0.531686
0.562189 0.513683 0.538777
0.599940 0.519001 0.538667
0.637691 0.524320 0.538557
0.675441 0.529638 0.538448
0.713192 0.534956 0.538338
0.746539 0.539901 0.537528
0.771078 0.544102 0.535319
0.795618 0.548302 0.533110
0.820157 0.552502 0.530900
0.844697 0.556703 0.528691
0.866810 0.562088 0.528292
0.876794 0.573395 0.536945
0.886777 0.584702 0.545597
0.896761 0.596008 0.554250
0.906744 0.607315 0.562902
0.916728 0.618622 0.571555
0.202962 0.289062 0.355831
0.212624 0.298103 0.363459
0.222285 0.307145 0.371087
0.231947 0.316186 0.378715
0.241609 0.325227 0.386343
0.251271 0.334268 0.393971
0.274265 0.352944 0.409717
0.299925 0.373547 0.427088
0.325585 0.394150 0.444458
0.351245 0.414753 0.461829
0.376905 0.435355 0.479199
0.407998 0.454235 0.494596
0.441807 0.472254 0.509006
0.475617 0.490272 0.523415
0.509426 0.508291 0.537825
0.543236 0.526309 0.552234
0.578142 0.538554 0.560194
0.614145 0.545024 0.561703
0.650149 0.551495 0.563213
0.686152 0.557966 0.564722
0.722156 0.564436 0.566232
0.754316 0.569723 0.566032
0.778792 0.572643 0.562414
0.803267 0.575563 0.558796
0.827743 0.578483 0.555178
0.852218 0.581402 0.551560
0.874226 0.585526 0.549810
0.883899 0.595671 0.557401
0.893571 0.605817 0.564992
0.903244 0.615962 0.572584
0.912916 0.626107 0.580175
0.922589 0.636252 0.587766
0.218465 0.309859 0.374264
0.228520 0.319129 0.382103
0.238575 0.328399 0.389941
0.248630 0.337668 0.397779
0.258685 0.346938 0.405618
0.268740 0.356208 0.413456
0.292288 0.375174 0.429314
0.318533 0.396079 0.446776
0.344779 0.416983 0.464238
0.371024 0.437888 0.481700
0.397270 0.458793 0.499162
0.428076 0.477871 0.514668
0.461163 0.496035 0.529197
0.494250 0.514200 0.543725
0.527336 0.532365 0.558254
0.560423 0.550530 0.572782
0.594094 0.563424 0.581611
0.628351 0.571047 0.584739
0.662607 0.578671 0.587868
0.696863 0.586294 0.590997
0.731119 0.593917 0.594125
0.762094 0.599546 0.594535
0.786505 0.601185 0.589509
0.810916 0.602824 0.584482
0.835328 0.604463 0.579455
0.859739 0.606102 0.574428
0.881642 0.608965 0.571327
0.891004 0.617948 0.577858
0.900365 0.626932 0.584388
0.909726 0.635915 0.590918
0.919088 0.644898 0.597448
0.928449 0.653882 0.603978
0.233967 0.330655 0.392698
0.244416 0.340154 0.400746
0.254865 0.349652 0.408795
0.265313 0.359151 0.416844
0.275762 0.368650 0.424892
0.286210 0.378148 0.432941
0.310311 0.397403 0.448910
0.337142 0.418610 0.466464
0.363973 0.439817 0.484017
0.390804 0.461023 0.501571
0.417635 0.482230 0.519124
0.448154 0.501506 0.534740
0.480518 0.519817 0.549388
0.512883 0.538128 0.564035
0.545247 0.556440 0.578683
0.577611 0.574751 0.593330
0.610047 0.588294 0.603028
0.642556 0.597070 0.607776
0.675065 0.605846 0.612523
0.707574 0.614622 0.617271
0.740083 0.623398 0.622019
0.769871 0.629368 0.623039
0.794218 0.629727 0.616603
0.818566 0.630085 0.610168
0.842913 0.630443 0.603732
0.867260 0.630802 0.597297
0.889058 0.632404 0.592845
0.898109 0.640225 0.598314
0.907159 0.648047 0.603783
0.916209 0.655868 0.609252
0.925260 0.663690 0.614721
0.934310 0.671511 0.620190
0.250652 0.351767 0.411296
0.261501 0.361476 0.419542
0.272351 0.371185 0.427787
0.283200 0.380894 0.436032
0.294050 0.390603 0.444278
0.304899 0.400312 0.452523
0.329417 0.419728 0.468492
0.356669 0.441085 0.486006
0.383921 0.462443 0.503520
0.411173 0.483800 0.521034
0.438425 0.505158 0.538547
0.468539 0.524474 0.554144
0.500084 0.542770 0.568783
0.531630 0.561066 0.583421
0.563175 0.579362 0.598059
0.594720 0.597658 0.612697
0.625870 0.611648 0.623069
0.656626 0.621331 0.629174
0.687382 0.631014 0.635278
0.718137 0.640697 0.641383
0.748893 0.650380 0.647488
0.777426 0.656645 0.649105
0.801514 0.656073 0.641745
0.825602 0.655502 0.634385
0.849690 0.654930 0.627026
0.873778 0.654358 0.619666
0.895334 0.655008 0.614265
0.904227 0.661763 0.618655
0.913121 0.668519 0.623044
0.922014 0.675275 0.627434
0.930907 0.682031 0.631823
0.939801 0.688786 0.636213
0.273244 0.374454 0.430722
0.284533 0.384281 0.439095
0.295822 0.394109 0.447469
0.307110 0.403937 0.455842
0.318399 0.413765 0.464216
0.329687 0.423593 0.472589
0.353943 0.442526 0.488000
0.380793 0.463280 0.504819
0.407642 0.484034 0.521637
0.434491 0.504787 0.538456
0.461341 0.525541 0.555275
0.490454 0.544107 0.570207
0.520701 0.561580 0.584195
0.550947 0.579053 0.598184
0.581193 0.596525 0.612173
0.611440 0.613998 0.626162
0.641049 0.627416 0.636231
0.670020 0.636779 0.642382
0.698992 0.646142 0.648532
0.727963 0.655505 0.654683
0.756935 0.664868 0.660833
0.783867 0.671193 0.662981
