filter/Red and Blue 3/lut/Spotlight 05_S.cube
# LUT by SparkleStock. Enhanced with VOXCOLOR algorithms.
LUT_3D_SIZE 5
DOMAIN_MIN 0.000000 0.000000 0.000000
DOMAIN_MAX 0.903226 0.903226 0.903226
0.070330 0.093773 0.125031
0.125952 0.109843 0.143212
0.265383 0.153232 0.179511
0.437678 0.239765 0.251904
0.590665 0.344377 0.350412
0.085368 0.121478 0.156359
0.149277 0.157996 0.168784
0.323048 0.209526 0.175394
0.528182 0.284929 0.238705
0.670779 0.394655 0.376687
0.133010 0.190248 0.238899
0.203274 0.250508 0.270734
0.370743 0.335205 0.283848
0.604149 0.406777 0.326184
0.764772 0.499602 0.467459
0.231045 0.305817 0.359030
0.309140 0.373774 0.415837
0.467729 0.482959 0.492586
0.666530 0.540705 0.508985
0.827793 0.601425 0.581727
0.364938 0.436606 0.489929
0.446079 0.505273 0.550814
0.586986 0.601256 0.636478
0.735858 0.662221 0.683964
0.871870 0.693426 0.687221
0.071874 0.121336 0.183056
0.146545 0.144724 0.201353
0.322291 0.179915 0.234218
0.517133 0.264844 0.300017
0.663312 0.394527 0.402233
0.112407 0.167899 0.223114
0.185269 0.207740 0.245379
0.367331 0.243398 0.260641
0.580637 0.292176 0.295098
0.727479 0.401925 0.399428
0.190991 0.257211 0.312453
0.255468 0.318994 0.333716
0.408438 0.395713 0.338492
0.627978 0.432742 0.344910
0.801314 0.499672 0.430867
0.302510 0.375608 0.430864
0.371406 0.437653 0.469627
0.499921 0.540192 0.506271
0.670130 0.596476 0.491017
0.847375 0.630259 0.504181
0.440782 0.503843 0.554140
0.502425 0.551159 0.593908
0.621133 0.637978 0.662057
0.745877 0.701887 0.685138
0.878160 0.735677 0.657000
0.084635 0.184324 0.310544
0.164020 0.234018 0.348040
0.383372 0.292415 0.365803
0.615757 0.369052 0.411090
0.758454 0.489097 0.498343
0.148972 0.250181 0.365062
0.224866 0.293765 0.399217
0.412744 0.331742 0.424864
0.636929 0.367881 0.441911
0.794203 0.469312 0.506719
0.278425 0.370290 0.457460
0.342359 0.418066 0.480392
0.463194 0.469591 0.496388
0.654720 0.480017 0.487225
0.839940 0.518984 0.515158
0.413659 0.493239 0.560866
0.478102 0.539530 0.585918
0.566439 0.610955 0.608744
0.682940 0.654567 0.574433
0.867758 0.662277 0.546927
0.549465 0.601341 0.653561
0.600887 0.634997 0.677380
0.678233 0.695380 0.719233
0.764195 0.754220 0.721443
0.887042 0.792726 0.674570
0.125432 0.280326 0.483162
0.203996 0.341390 0.533805
0.390484 0.444311 0.588173
0.692093 0.499234 0.531310
0.827675 0.578146 0.585514
0.200019 0.346138 0.536477
0.275035 0.400845 0.575133
0.437878 0.480912 0.626244
0.691631 0.514153 0.590998
0.842601 0.572282 0.615099
0.341093 0.469663 0.623499
0.407420 0.513396 0.646825
0.525146 0.576861 0.678504
0.692056 0.589623 0.669877
0.863642 0.590159 0.658688
0.483341 0.580658 0.689940
0.545658 0.617118 0.702576
0.640635 0.674394 0.721879
0.707938 0.698942 0.719166
0.874446 0.690839 0.691410
0.606885 0.664453 0.743696
0.655102 0.693205 0.755677
0.728851 0.742765 0.779857
0.786872 0.790237 0.795302
0.891256 0.825186 0.766035
0.209547 0.389846 0.650408
0.278381 0.442770 0.692288
0.422063 0.534226 0.747807
0.618378 0.605336 0.747451
0.838556 0.642220 0.672907
0.274746 0.441968 0.689264
0.342115 0.490536 0.721223
0.473419 0.571975 0.768753
0.644107 0.634508 0.771528
0.849375 0.665238 0.702362
0.400508 0.540192 0.752747
0.461625 0.578742 0.772860
0.568103 0.644279 0.802720
0.690690 0.693219 0.811106
0.861454 0.706037 0.760185
0.527180 0.628537 0.797526
0.577836 0.659717 0.808591
0.662532 0.714512 0.826751
0.741659 0.760692 0.837495
0.872375 0.772750 0.812963
0.631296 0.695879 0.824106
0.669622 0.722286 0.831846
0.738315 0.770346 0.845144
0.811100 0.817848 0.855584
0.896284 0.854422 0.854430
