filter/Red and Blue 3/lut/Spotlight 04_S.cube
# LUT by SparkleStock. Enhanced with VOXCOLOR algorithms.
LUT_3D_SIZE 5
DOMAIN_MIN 0.000000 0.000000 0.000000
DOMAIN_MAX 0.903226 0.903226 0.903226
0.066422 0.070330 0.093773
0.143393 0.073591 0.088928
0.401347 0.083627 0.061956
0.636291 0.110284 0.058206
0.713915 0.156800 0.080019
0.078979 0.091693 0.110828
0.148071 0.117358 0.108443
0.414139 0.157706 0.069710
0.666528 0.178020 0.056155
0.748849 0.202869 0.089431
0.106708 0.135177 0.162094
0.157625 0.183037 0.175470
0.378612 0.277428 0.154002
0.683631 0.303882 0.107688
0.800592 0.315465 0.161612
0.141754 0.210154 0.245524
0.182490 0.252447 0.283548
0.349752 0.361505 0.353422
0.692468 0.431984 0.334807
0.857968 0.459147 0.343466
0.196944 0.297964 0.340691
0.257048 0.350010 0.391647
0.426946 0.464659 0.489939
0.696600 0.589981 0.579942
0.914167 0.632265 0.559048
0.069345 0.087085 0.142637
0.146789 0.094169 0.133108
0.426001 0.094776 0.114143
0.665626 0.117860 0.101724
0.742615 0.189300 0.102071
0.088940 0.113674 0.155941
0.167312 0.162564 0.187474
0.429313 0.209698 0.202586
0.684499 0.224038 0.186853
0.786715 0.250047 0.165131
0.125583 0.172620 0.210912
0.190870 0.255235 0.246206
0.409381 0.377757 0.275305
0.692388 0.406904 0.252571
0.840570 0.402868 0.252085
0.170831 0.251802 0.296047
0.228054 0.313009 0.337028
0.402596 0.458744 0.399563
0.689315 0.556025 0.415870
0.883857 0.572109 0.381297
0.250604 0.345879 0.392739
0.318872 0.399812 0.439033
0.486858 0.521951 0.536950
0.719679 0.650467 0.609290
0.917428 0.705503 0.574817
0.076230 0.105833 0.265997
0.120499 0.131239 0.268535
0.408734 0.168834 0.210603
0.705842 0.196470 0.153753
0.794595 0.278568 0.163390
0.098368 0.143987 0.284596
0.159257 0.194298 0.324155
0.413869 0.262912 0.364417
0.703938 0.284563 0.330366
0.832096 0.336437 0.284514
0.150712 0.233291 0.330424
0.217032 0.309195 0.377380
0.416375 0.433271 0.454527
0.691211 0.479515 0.464711
0.880436 0.492192 0.441586
0.225495 0.334050 0.408513
0.305493 0.402243 0.452025
0.475267 0.542696 0.529784
0.690287 0.652518 0.562368
0.903402 0.671780 0.528313
0.352291 0.448403 0.500700
0.438280 0.506703 0.542125
0.589513 0.619341 0.625505
0.757180 0.736094 0.671860
0.918157 0.801380 0.645441
0.095128 0.115050 0.418638
0.119109 0.152210 0.440969
0.228352 0.243360 0.449054
0.724935 0.329822 0.247204
0.854644 0.400195 0.283788
0.114622 0.157065 0.441936
0.146976 0.203581 0.463172
0.279595 0.305008 0.505847
0.713313 0.415030 0.432968
0.875010 0.455477 0.404445
0.168618 0.263754 0.485786
0.220410 0.319616 0.508513
0.379446 0.454701 0.578266
0.685431 0.568652 0.622475
0.902282 0.569539 0.599141
0.260909 0.375123 0.529630
0.346064 0.450783 0.562392
0.537997 0.597714 0.637934
0.694471 0.687529 0.687945
0.903236 0.711960 0.686988
0.404278 0.512774 0.608502
0.496761 0.577498 0.641412
0.668351 0.693301 0.706428
0.786548 0.783526 0.753195
0.917089 0.839292 0.752477
0.128906 0.145851 0.543180
0.150836 0.177161 0.568585
0.222630 0.261082 0.605884
0.450107 0.413033 0.607083
0.842653 0.519445 0.480513
0.147893 0.178356 0.564376
0.179467 0.222051 0.588686
0.263635 0.319853 0.631323
0.481743 0.472051 0.650415
0.857308 0.575020 0.550981
0.207578 0.275928 0.611010
0.254890 0.330759 0.633802
0.370819 0.455330 0.685306
0.566184 0.598831 0.734009
0.876238 0.676629 0.692473
0.301159 0.404071 0.656884
0.363255 0.466502 0.681263
0.509483 0.601250 0.740743
0.682026 0.725294 0.797912
0.890254 0.777756 0.784375
0.424157 0.536571 0.712095
0.501738 0.602780 0.742035
0.664781 0.730270 0.799517
0.808932 0.816361 0.828475
0.914030 0.864133 0.835780
