filter/Red and Blue 3/lut/Spotlight 05.cube
# LUT by SparkleStock. Enhanced with VOXCOLOR algorithms.
LUT_3D_SIZE 8
DOMAIN_MIN 0.000000 0.000000 0.000000
DOMAIN_MAX 0.903226 0.903226 0.903226
0.070330 0.093773 0.125031
0.089992 0.100768 0.133727
0.141258 0.115263 0.148584
0.216803 0.140565 0.170468
0.309276 0.178944 0.200670
0.409855 0.233203 0.245098
0.504447 0.289511 0.297404
0.589956 0.345512 0.350979
0.076001 0.105495 0.136941
0.092297 0.116734 0.151639
0.146521 0.133607 0.169387
0.228664 0.160825 0.192880
0.329096 0.201490 0.224637
0.436994 0.257653 0.270237
0.535001 0.315863 0.322616
0.620053 0.371785 0.374696
0.089574 0.128197 0.165190
0.108828 0.144615 0.184541
0.160878 0.170234 0.211248
0.246034 0.203867 0.240724
0.359660 0.245641 0.271768
0.480475 0.302980 0.316362
0.585854 0.363146 0.368451
0.672281 0.420430 0.421227
0.114829 0.164717 0.210091
0.139157 0.186270 0.232626
0.191788 0.223046 0.270267
0.276764 0.264319 0.307717
0.393436 0.305281 0.337580
0.529229 0.361425 0.377160
0.642299 0.421188 0.426463
0.729362 0.478057 0.478773
0.154957 0.216613 0.270731
0.183456 0.242466 0.295132
0.243136 0.289541 0.342221
0.326312 0.338051 0.388154
0.430317 0.377760 0.419124
0.575679 0.427464 0.448221
0.693499 0.482387 0.490196
0.778879 0.534777 0.537911
0.216590 0.285053 0.344275
0.247723 0.313539 0.370286
0.312008 0.366982 0.421577
0.398892 0.426079 0.477658
0.500812 0.475485 0.521197
0.620266 0.502355 0.531998
0.735111 0.544691 0.557873
0.817185 0.587414 0.592305
0.291142 0.359636 0.420970
0.323690 0.389538 0.448347
0.389804 0.444931 0.499189
0.475152 0.506239 0.555651
0.569253 0.557932 0.602505
0.671582 0.587218 0.621721
0.774547 0.611315 0.628324
0.849199 0.638883 0.643431
0.366639 0.433912 0.494608
0.401706 0.465540 0.522906
0.467410 0.518344 0.569671
0.547338 0.574731 0.620483
0.629867 0.621739 0.663716
0.714846 0.653415 0.688763
0.802630 0.672361 0.691515
0.871646 0.692348 0.695816
0.070519 0.105116 0.148285
0.095596 0.116649 0.155079
0.152797 0.133400 0.169484
0.234672 0.160568 0.192002
0.333457 0.201381 0.223430
0.438427 0.256665 0.268444
0.534971 0.314973 0.320970
0.621468 0.372376 0.375007
0.083802 0.121522 0.161513
0.106306 0.140245 0.179973
0.163485 0.162000 0.201491
0.247662 0.191499 0.226790
0.350596 0.231850 0.257138
0.460164 0.284504 0.298111
0.558065 0.339522 0.346158
0.642117 0.393914 0.396369
0.105297 0.150567 0.192945
0.129385 0.173000 0.215464
0.183962 0.205293 0.248905
0.268909 0.241396 0.281724
0.380053 0.279094 0.308826
0.499980 0.330399 0.346067
0.603288 0.384920 0.391561
0.686980 0.438720 0.439949
0.137748 0.192588 0.240273
0.164833 0.216964 0.263795
0.219165 0.259316 0.307125
0.302652 0.303452 0.348720
0.414077 0.341112 0.376839
0.545309 0.388483 0.407557
0.654774 0.441106 0.448619
0.738260 0.493219 0.494158
0.183401 0.247412 0.300969
0.212958 0.273226 0.325520
0.271635 0.321421 0.372807
0.352060 0.372974 0.421922
0.451423 0.415735 0.458246
0.587748 0.454358 0.478849
0.701088 0.500730 0.510969
0.783195 0.547522 0.550101
0.247229 0.315704 0.372902
0.278514 0.342680 0.397931
0.340167 0.394244 0.447002
0.421996 0.452145 0.501667
0.516979 0.501500 0.545971
0.628869 0.528168 0.559949
0.739101 0.562821 0.577725
0.818554 0.599366 0.603654
0.321903 0.388922 0.447377
0.352847 0.415462 0.471600
0.415456 0.467339 0.519576
0.495725 0.526115 0.573736
0.583558 0.576946 0.619386
0.679041 0.606803 0.640704
0.776741 0.627910 0.644977
0.848901 0.651442 0.655549
0.400596 0.464918 0.521686
0.427467 0.487268 0.541442
0.488974 0.535549 0.585084
0.565583 0.590312 0.634768
0.643565 0.637024 0.676726
0.722939 0.668516 0.701782
0.805737 0.686482 0.704838
0.872159 0.704075 0.707309
0.072583 0.128378 0.198322
0.098929 0.145381 0.208812
0.167610 0.170096 0.220066
0.264360 0.203174 0.238743
0.376248 0.245486 0.269284
0.489860 0.301588 0.313225
0.588804 0.360998 0.365002
0.673171 0.419272 0.419461
0.091610 0.150297 0.216185
0.117702 0.172942 0.234697
0.184111 0.204088 0.256046
0.279101 0.239671 0.279692
0.391387 0.278353 0.306439
0.507360 0.329540 0.343854
0.606418 0.383850 0.389532
0.687757 0.437662 0.438583
0.128929 0.190774 0.251107
0.157380 0.215941 0.273209
0.216638 0.255666 0.307297
0.304585 0.296730 0.340748
0.416149 0.332641 0.366985
0.536195 0.378107 0.397320
0.638384 0.427149 0.435434
0.718831 0.476364 0.478203
0.177778 0.243410 0.300837
0.208453 0.269175 0.323700
0.263513 0.315121 0.366250
0.343714 0.362550 0.409321
0.447896 0.400396 0.440467
0.571954 0.438065 0.462500
0.677574 0.480952 0.492029
0.757344 0.525055 0.527742
0.234166 0.303753 0.362637
0.265322 0.329149 0.384822
0.322835 0.376511 0.428149
0.397873 0.429227 0.477033
0.487127 0.474411 0.517714
0.610518 0.503049 0.531816
0.717452 0.538176 0.551817
0.795561 0.575889 0.579217
0.304130 0.373766 0.432650
0.335465 0.398288 0.453937
0.393342 0.445232 0.496788
0.466857 0.499038 0.546209
0.549135 0.546721 0.588936
0.646596 0.574764 0.607443
0.749259 0.598921 0.615419
0.825332 0.625783 0.629759
0.380878 0.445496 0.502520
0.410744 0.468173 0.522127
0.466385 0.512492 0.562089
0.536209 0.564074 0.608876
0.611981 0.611008 0.650781
0.694393 0.641557 0.673772
0.782609 0.659483 0.676673
0.851240 0.677318 0.680835
0.460784 0.517527 0.570432
0.484652 0.535044 0.585444
0.535508 0.573964 0.620287
0.599834 0.620411 0.662115
0.667718 0.663336 0.700287
0.737411 0.694223 0.724440
0.811777 0.712631 0.729588
0.874285 0.727883 0.730021
0.078963 0.162771 0.268762
0.105663 0.184531 0.284948
0.181256 0.220966 0.301052
0.293080 0.262025 0.315142
0.426136 0.303182 0.330167
0.550017 0.358917 0.371132
0.650155 0.416996 0.420136
0.729691 0.473601 0.473190
0.102541 0.188959 0.291223
0.131365 0.214000 0.309605
0.203875 0.255997 0.334379
0.310556 0.299535 0.355230
0.439239 0.337041 0.369449
0.563348 0.385652 0.401490
0.663268 0.438152 0.443570
0.740428 0.489984 0.490252
0.154966 0.240642 0.331297
0.186043 0.266701 0.351329
0.249826 0.312892 0.384512
0.343251 0.360100 0.415576
0.460040 0.397304 0.436297
0.581881 0.435750 0.458451
0.682945 0.478954 0.488869
0.759258 0.522912 0.525461
0.221319 0.304446 0.383113
0.253749 0.329930 0.403026
0.311551 0.377337 0.440597
0.390850 0.427552 0.480301
0.488482 0.467462 0.510595
0.606143 0.496191 0.525355
0.707797 0.529596 0.544049
0.783607 0.565242 0.569707
0.291479 0.371101 0.442142
0.323802 0.394995 0.459882
0.382211 0.440077 0.496238
0.451647 0.491116 0.539517
0.526425 0.535272 0.578093
0.635778 0.558361 0.591048
0.735805 0.583255 0.600685
0.810569 0.611347 0.616170
0.368224 0.441833 0.507666
0.399528 0.463485 0.523980
0.454994 0.505100 0.558275
0.520186 0.553002 0.599010
0.587056 0.596215 0.636214
0.667853 0.625546 0.658154
0.761685 0.640877 0.658897
0.834388 0.658505 0.662816
0.447282 0.510359 0.569917
0.476232 0.529481 0.584604
0.525958 0.566097 0.615002
0.584803 0.609200 0.651903
0.645427 0.649819 0.687107
0.712975 0.680056 0.710092
0.790187 0.695945 0.713117
0.855246 0.708701 0.711701
0.525940 0.574504 0.627166
0.548874 0.589622 0.638834
0.590255 0.619849 0.664209
0.641180 0.657030 0.696251
0.695461 0.694119 0.728308
0.754162 0.723383 0.750456
0.818952 0.742956 0.758311
0.877394 0.756674 0.757313
0.092079 0.207696 0.354713
0.120279 0.232329 0.375747
0.193251 0.281148 0.408000
0.312498 0.330924 0.421586
0.468290 0.369871 0.408442
0.607065 0.421253 0.436398
0.707063 0.474473 0.478721
0.779725 0.525783 0.527192
0.119407 0.235531 0.379296
0.150922 0.262538 0.399169
0.221489 0.313675 0.433645
0.333569 0.365482 0.453926
0.479796 0.404724 0.449100
0.615823 0.446828 0.466561
0.715992 0.493993 0.500824
0.787840 0.540887 0.542427
0.180677 0.294122 0.425574
0.212021 0.320157 0.443349
0.278305 0.370329 0.476724
0.376895 0.423548 0.503872
0.501145 0.465462 0.513227
0.629390 0.495769 0.522008
0.729257 0.532179 0.543653
0.800564 0.570130 0.573405
0.259457 0.365758 0.478628
0.290447 0.389390 0.493674
0.353342 0.436161 0.524361
0.435228 0.487979 0.556048
0.528478 0.530688 0.578080
0.643909 0.553556 0.585855
0.741988 0.579168 0.595851
0.813641 0.607274 0.612532
0.342879 0.437460 0.529463
0.374945 0.458633 0.541701
0.436206 0.500507 0.569417
0.501991 0.547322 0.601793
0.562441 0.586850 0.630033
0.659028 0.610482 0.646115
0.752858 0.628145 0.648888
0.825448 0.647798 0.654159
0.424162 0.505924 0.585913
0.455053 0.524740 0.597206
0.510616 0.561840 0.622078
0.570521 0.603536 0.651694
0.623881 0.640049 0.679280
0.688427 0.669002 0.700976
0.773428 0.680088 0.699605
0.843486 0.691626 0.696967
0.504342 0.568705 0.637244
0.532086 0.585056 0.647463
0.579612 0.616460 0.669222
0.631107 0.652634 0.695854
0.677720 0.686056 0.721851
0.731103 0.714228 0.742224
0.797847 0.729920 0.746920
0.860091 0.739761 0.742509
0.579237 0.622951 0.681906
0.601125 0.636570 0.690079
0.638891 0.662236 0.708468
0.681300 0.693262 0.732064
0.722089 0.724240 0.756337
0.770102 0.750970 0.775524
0.825916 0.771710 0.785603
0.880991 0.785070 0.784262
0.117602 0.265359 0.457371
0.147559 0.290431 0.480308
0.218347 0.342488 0.518508
0.323969 0.402144 0.549401
0.461868 0.453771 0.554370
0.649091 0.483636 0.511045
0.753260 0.527538 0.535268
0.818622 0.570937 0.574609
0.147272 0.292022 0.480491
0.178957 0.318562 0.500000
0.247279 0.370747 0.537033
0.347528 0.430045 0.569542
0.477945 0.481102 0.578678
0.654487 0.508262 0.539249
0.758639 0.546260 0.556110
0.824669 0.585092 0.588385
0.212438 0.350169 0.525306
0.242687 0.374589 0.541253
0.307498 0.423888 0.573119
0.397731 0.480651 0.604290
0.509717 0.530245 0.619354
0.664285 0.556917 0.592700
0.766367 0.584029 0.597949
0.833174 0.612875 0.616741
0.294414 0.421536 0.576652
0.322940 0.442873 0.589209
0.383734 0.487230 0.614750
0.462018 0.539068 0.642520
0.551191 0.585397 0.661710
0.675418 0.612741 0.651378
0.772894 0.629409 0.647496
0.840815 0.647670 0.652655
0.378788 0.492122 0.623535
0.407044 0.511086 0.633072
0.464016 0.549576 0.653181
0.531264 0.594577 0.676491
0.599188 0.635554 0.696063
0.687006 0.663337 0.700781
0.776739 0.673983 0.694872
0.845999 0.684753 0.690899
0.458461 0.554731 0.662713
0.486674 0.571225 0.669606
0.541891 0.605390 0.685733
0.604724 0.644820 0.705470
0.661080 0.679876 0.723993
0.706433 0.704028 0.735911
0.783049 0.715199 0.736226
0.852366 0.724114 0.730209
0.537031 0.610316 0.699944
0.562097 0.624325 0.705952
0.609144 0.653070 0.719984
0.662260 0.686949 0.737798
0.709660 0.718467 0.755751
0.746267 0.742612 0.770011
0.804133 0.759006 0.776406
0.865141 0.768333 0.771355
0.606669 0.656066 0.731854
0.627433 0.668571 0.737057
0.665029 0.692525 0.749496
0.707909 0.721471 0.765818
0.747897 0.750403 0.783288
0.783752 0.776501 0.799950
0.832118 0.797069 0.810048
0.884891 0.810593 0.809205
0.157619 0.328536 0.561290
0.187137 0.352217 0.582471
0.253114 0.401450 0.619588
0.345814 0.459673 0.654393
0.460422 0.513229 0.670766
0.613638 0.549144 0.645078
0.760787 0.577649 0.612149
0.848148 0.607401 0.612533
0.186948 0.352565 0.580873
0.217362 0.377280 0.598815
0.281033 0.425524 0.633161
0.369642 0.482281 0.667034
0.478992 0.534818 0.684984
0.623322 0.569312 0.662285
0.766219 0.594566 0.627776
0.852973 0.621614 0.625350
0.250304 0.405433 0.619299
0.278907 0.427754 0.633667
0.339243 0.472478 0.661885
0.420096 0.525452 0.691444
0.515723 0.574786 0.710146
0.641773 0.608189 0.695610
0.774246 0.629011 0.662090
0.858554 0.649712 0.653496
0.329438 0.470413 0.663195
0.355813 0.489577 0.674235
0.411921 0.529202 0.695601
0.483429 0.576665 0.719343
0.562625 0.621526 0.737233
0.664691 0.653917 0.732536
0.781890 0.671060 0.703891
0.862505 0.684953 0.689586
0.410311 0.534470 0.702574
0.435473 0.551393 0.710807
0.486916 0.585451 0.726495
0.549503 0.626566 0.744536
0.614078 0.666416 0.759925
0.689414 0.697385 0.763775
0.787602 0.713013 0.744383
0.863677 0.722182 0.727761
0.486056 0.589761 0.732774
0.510231 0.604478 0.738080
0.558574 0.634970 0.749864
0.615966 0.671446 0.764063
0.671003 0.706143 0.777156
0.718378 0.733405 0.784977
0.794031 0.750505 0.777756
0.864420 0.759370 0.764548
0.555820 0.637296 0.757999
0.578154 0.650359 0.762215
0.621138 0.677437 0.771827
0.672084 0.709954 0.783681
0.721101 0.741256 0.795203
0.761896 0.767303 0.804213
0.812124 0.786607 0.806335
0.871504 0.797286 0.798986
0.618173 0.677585 0.779332
0.637644 0.689577 0.783076
0.673763 0.713049 0.791558
0.716948 0.741558 0.802324
0.759896 0.770218 0.813502
0.799115 0.796895 0.824301
0.839206 0.819683 0.832863
0.889003 0.835402 0.832823
0.209547 0.389846 0.650408
0.237235 0.411691 0.668862
0.296419 0.456246 0.702130
0.376488 0.508844 0.735418
0.470730 0.558138 0.756592
0.586610 0.597132 0.752530
0.730468 0.622278 0.707836
0.838556 0.642467 0.672907
0.236253 0.411106 0.666514
0.264588 0.433032 0.682164
0.322098 0.475734 0.712343
0.399201 0.526324 0.743816
0.489630 0.574505 0.765206
0.599075 0.612367 0.761947
0.737210 0.635942 0.718319
0.844413 0.655909 0.684210
0.293060 0.456933 0.698380
0.321119 0.477012 0.711402
0.376534 0.515917 0.735630
0.448253 0.562374 0.762015
0.529112 0.607221 0.781961
0.624563 0.642722 0.780906
0.749006 0.664777 0.742460
0.850846 0.681978 0.708181
0.365502 0.513244 0.734859
0.392225 0.530818 0.745268
0.444374 0.565101 0.763345
0.509089 0.606495 0.783660
0.578097 0.647131 0.800561
0.656605 0.680189 0.802568
0.762849 0.701335 0.772530
0.856679 0.715336 0.739128
0.442063 0.568978 0.767490
0.466410 0.584305 0.775212
0.513749 0.614151 0.788654
0.570684 0.650596 0.803664
0.628415 0.687149 0.816484
0.690480 0.718368 0.821695
0.776825 0.739604 0.802246
0.861415 0.751658 0.772383
0.515717 0.617053 0.791561
0.537041 0.630639 0.796663
0.578550 0.657558 0.806481
0.628392 0.690419 0.817944
0.677971 0.723405 0.828440
0.725489 0.752863 0.835086
0.792062 0.775379 0.826496
0.866692 0.788232 0.804561
0.579648 0.658482 0.809097
0.598387 0.670820 0.812928
0.634560 0.695563 0.820611
0.678757 0.725866 0.829673
0.723862 0.756444 0.838148
0.767028 0.784502 0.844554
0.813950 0.807555 0.844644
0.876147 0.823046 0.832747
0.634896 0.695042 0.823868
0.650613 0.706080 0.827041
0.681170 0.728324 0.833595
0.719714 0.755898 0.841351
0.761048 0.784354 0.848712
0.803506 0.811968 0.855144
0.843728 0.837202 0.860866
0.894644 0.857360 0.858581
